MHC-RobotSimulators-Research/Data_Analysis_MotionReplication/test_trials/test_trial_3_rs.csv
time,jpos0,jpos1,jpos2,jpos3,jpos4,jpos5,jpos6,jpos7,jpos8,jpos9,jpos10,jpos11,jpos12,jpos13,jpos14,jpos15,runlevel,sublevel,last_seq,type0,type1,pos0,pos1,pos2,pos3,pos4,pos5,ori0,ori1,ori2,ori3,ori4,ori5,ori6,ori7,ori8,ori9,ori10,ori11,ori12,ori13,ori14,ori15,ori16,ori17,ori_d0,ori_d1,ori_d2,ori_d3,ori_d4,ori_d5,ori_d6,ori_d7,ori_d8,ori_d9,ori_d10,ori_d11,ori_d12,ori_d13,ori_d14,ori_d15,ori_d16,ori_d17,pos_d0,pos_d1,pos_d2,pos_d3,pos_d4,pos_d5,encVals0,encVals1,encVals2,encVals3,encVals4,encVals5,encVals6,encVals7,encVals8,encVals9,encVals10,encVals11,encVals12,encVals13,encVals14,encVals15,dac_vals0,dac_vals1,dac_vals2,dac_vals3,dac_vals4,dac_vals5,dac_vals6,dac_vals7,dac_vals8,dac_vals9,dac_vals10,dac_vals11,dac_vals12,dac_vals13,dac_vals14,dac_vals15,Tau0,Tau1,Tau2,Tau3,Tau4,Tau5,Tau6,Tau7,Tau8,Tau9,Tau10,Tau11,Tau12,Tau13,Tau14,Tau15,mpos0,mpos1,mpos2,mpos3,mpos4,mpos5,mpos6,mpos7,mpos8,mpos9,mpos10,mpos11,mpos12,mpos13,mpos14,mpos15,mvel0,mvel1,mvel2,mvel3,mvel4,mvel5,mvel6,mvel7,mvel8,mvel9,mvel10,mvel11,mvel12,mvel13,mvel14,mvel15,jvel0,jvel1,jvel2,jvel3,jvel4,jvel5,jvel6,jvel7,jvel8,jvel9,jvel10,jvel11,jvel12,jvel13,jvel14,jvel15,jpos_d0,jpos_d1,jpos_d2,jpos_d3,jpos_d4,jpos_d5,jpos_d6,jpos_d7,jpos_d8,jpos_d9,jpos_d10,jpos_d11,jpos_d12,jpos_d13,jpos_d14,jpos_d15,grasp_d0,grasp_d1,grasp_d2,grasp_d3,grasp_d4,grasp_d5,grasp_d6,grasp_d7,grasp_d8,grasp_d9,grasp_d10,grasp_d11,grasp_d12,grasp_d13,grasp_d14,grasp_d15,encoffsets0,encoffsets1,encoffsets2,encoffsets3,encoffsets4,encoffsets5,encoffsets6,encoffsets7,encoffsets8,encoffsets9,encoffsets10,encoffsets11,encoffsets12,encoffsets13,encoffsets14,encoffsets15,jac_vel0,jac_vel1,jac_vel2,jac_vel3,jac_vel4,jac_vel5,jac_vel6,jac_vel7,jac_vel8,jac_vel9,jac_vel10,jac_vel11,jac_f0,jac_f1,jac_f2,jac_f3,jac_f4,jac_f5,jac_f6,jac_f7,jac_f8,jac_f9,jac_f10,jac_f11
1696194551.4055934,1.051232099533081,1.8423254489898682,-0.023799721151590347,0.0,0.7853981852531433,-2.4313821347094595e-16,0.4187019169330597,0.4187019169330597,1.0496320724487305,1.9252281188964844,-0.037812333554029465,0.0,0.7853981852531433,4.444370439298526e-15,-0.4187019169330597,-0.4187019169330597,,,,,,,,,,,,,,,,,,,,,,,,,,,,,,,,,,,,,,,,,,,,,,,,,,,,,,,,,,,,,,,,,,,,,,,,,,,,,,,,,,,,,,,,,,,,,,,,,,,,,,,,,,,,,,,,,,,,,,,,,,,,,,,,,,,,,,0.0,0.0,0.0,0.0,0.0,0.0,0.0,0.0,0.0,0.0,0.0,0.0,0.0,0.0,0.0,0.0,,,,,,,,,,,,,,,,,,,,,,,,,,,,,,,,,,,,,,,,,,,,,,,,,,,,,,,,,,,,,,,,,,,,,,,,
1696194551.5116258,1.051928162574768,1.841377854347229,-0.023805953562259674,0.0,0.7854558825492859,4.472123691812158e-06,0.4260794520378113,0.4264473021030426,1.0502846240997314,1.9258455038070679,-0.03808099776506424,0.0,0.7853482961654663,-0.0001370404352201149,-0.4261942505836487,-0.42610177397727966,,,,,,,,,,,,,,,,,,,,,,,,,,,,,,,,,,,,,,,,,,,,,,,,,,,,,,,,,,,,,,,,,,,,,,,,,,,,,,,,,,,,,,,,,,,,,,,,,,,,,,,,,,,,,,,,,,,,,,,,,,,,,,,,,,,,,,-0.012621947564184666,0.02167592942714691,0.0012943446636199951,0.0,0.028262661769986153,-0.02473899908363819,0.1685514599084854,0.10694670677185059,-0.016059594228863716,-0.015597095713019371,0.008643023669719696,0.0,-0.05061560496687889,-0.07368672639131546,-0.14401927590370178,-0.07313714176416397,,,,,,,,,,,,,,,,,,,,,,,,,,,,,,,,,,,,,,,,,,,,,,,,,,,,,,,,,,,,,,,,,,,,,,,,
1696194551.9420002,1.053895354270935,1.8422189950942993,-0.024395743384957314,0.0,0.785415768623352,-2.1393028873717412e-05,0.5676392912864685,0.5683109164237976,1.0522867441177368,1.92434561252594,-0.038274381309747696,0.0,0.7854410409927368,9.648594277678058e-05,-0.5637299418449402,-0.5642372965812683,,,,,,,,,,,,,,,,,,,,,,,,,,,,,,,,,,,,,,,,,,,,,,,,,,,,,,,,,,,,,,,,,,,,,,,,,,,,,,,,,,,,,,,,,,,,,,,,,,,,,,,,,,,,,,,,,,,,,,,,,,,,,,,,,,,,,,0.0006550443940795958,0.010701588355004787,-0.0018729340517893434,0.0,0.004413955379277468,0.007274133153259754,0.44765233993530273,0.48201021552085876,0.0026473815087229013,0.0013096198672428727,-0.0013318863930180669,0.0,-0.016812128946185112,0.010565678589046001,-0.40174293518066406,-0.3976508378982544,,,,,,,,,,,,,,,,,,,,,,,,,,,,,,,,,,,,,,,,,,,,,,,,,,,,,,,,,,,,,,,,,,,,,,,,
1696194552.3471453,1.0522834062576294,1.8410375118255615,-0.02382619120180607,0.0,0.7853835821151733,4.0294486097991467e-05,0.49973613023757935,0.49872735142707825,1.0508880615234375,1.925621747970581,-0.03818122670054436,0.0,0.7853657007217407,-7.033268775558099e-05,-0.5147676467895508,-0.5143716335296631,,,,,,,,,,,,,,,,,,,,,,,,,,,,,,,,,,,,,,,,,,,,,,,,,,,,,,,,,,,,,,,,,,,,,,,,,,,,,,,,,,,,,,,,,,,,,,,,,,,,,,,,,,,,,,,,,,,,,,,,,,,,,,,,,,,,,,-0.010192422196269035,-0.01460480596870184,0.005357617978006601,0.0,-0.004325191956013441,-0.0049722688272595406,-0.6017459630966187,-0.704403817653656,-0.0011945078149437904,6.883110472699627e-05,0.0003726408176589757,0.0,0.019177744165062904,-0.0068296343088150024,0.3536001443862915,0.3542061448097229,,,,,,,,,,,,,,,,,,,,,,,,,,,,,,,,,,,,,,,,,,,,,,,,,,,,,,,,,,,,,,,,,,,,,,,,
1696194552.5531096,1.0533546209335327,1.8409792184829712,-0.024070221930742264,0.0,0.785380482673645,6.575072620762512e-05,0.4474494457244873,0.4472229778766632,1.0520957708358765,1.9253816604614258,-0.038426805287599564,0.0,0.7852303981781006,-0.0002624733606353402,-0.44136837124824524,-0.4399917721748352,,,,,,,,,,,,,,,,,,,,,,,,,,,,,,,,,,,,,,,,,,,,,,,,,,,,,,,,,,,,,,,,,,,,,,,,,,,,,,,,,,,,,,,,,,,,,,,,,,,,,,,,,,,,,,,,,,,,,,,,,,,,,,,,,,,,,,-0.0005884256097488105,-0.00011154466483276337,0.0016717861872166395,0.0,-0.013189921155571938,0.03592276945710182,-0.2595824897289276,-0.21307073533535004,0.03458271920681,-0.025307118892669678,-0.0038253790698945522,0.0,-0.0013337358832359314,-0.0074478876776993275,0.7429141402244568,0.8484942317008972,,,,,,,,,,,,,,,,,,,,,,,,,,,,,,,,,,,,,,,,,,,,,,,,,,,,,,,,,,,,,,,,,,,,,,,,
1696194552.960643,1.0521719455718994,1.8418713808059692,-0.023935673758387566,0.0,0.7853564023971558,1.1091029591625556e-05,0.540033221244812,0.5406906008720398,1.050824761390686,1.925229787826538,-0.0380917564034462,0.0,0.7855480313301086,0.0001867706305347383,-0.5267320871353149,-0.5278350710868835,,,,,,,,,,,,,,,,,,,,,,,,,,,,,,,,,,,,,,,,,,,,,,,,,,,,,,,,,,,,,,,,,,,,,,,,,,,,,,,,,,,,,,,,,,,,,,,,,,,,,,,,,,,,,,,,,,,,,,,,,,,,,,,,,,,,,,-0.016515007242560387,0.005429628770798445,0.004316944628953934,0.0,-0.009993057698011398,0.001127091352827847,0.464081346988678,0.5205031633377075,-0.013298633508384228,0.0036647291854023933,0.002571484073996544,0.0,-0.0003552580892574042,0.011428304947912693,-0.761831521987915,-0.8464011549949646,,,,,,,,,,,,,,,,,,,,,,,,,,,,,,,,,,,,,,,,,,,,,,,,,,,,,,,,,,,,,,,,,,,,,,,,
1696194553.0694895,1.0529977083206177,1.8415344953536987,-0.024071309715509415,0.0,0.7854323983192444,0.00010983613174175844,0.5554922223091125,0.5559144020080566,1.051355242729187,1.9252487421035767,-0.03822387382388115,0.0,0.7853658199310303,-8.129917114274576e-05,-0.5557916760444641,-0.5555977821350098,,,,,,,,,,,,,,,,,,,,,,,,,,,,,,,,,,,,,,,,,,,,,,,,,,,,,,,,,,,,,,,,,,,,,,,,,,,,,,,,,,,,,,,,,,,,,,,,,,,,,,,,,,,,,,,,,,,,,,,,,,,,,,,,,,,,,,-0.018316900357604027,0.01901363767683506,0.006638760678470135,0.0,0.007370574399828911,0.03817901387810707,0.07555720955133438,0.05549866333603859,-0.024664299562573433,-0.010886900126934052,0.008670969866216183,0.0,-0.028447048738598824,-0.026782788336277008,-0.07235158979892731,-0.09516977518796921,,,,,,,,,,,,,,,,,,,,,,,,,,,,,,,,,,,,,,,,,,,,,,,,,,,,,,,,,,,,,,,,,,,,,,,,
1696194553.4638803,1.052363395690918,1.8418164253234863,-0.023971762508153915,0.0,0.7854027152061462,-1.948045246535912e-05,0.4597301483154297,0.45864033699035645,1.0506519079208374,1.9252656698226929,-0.038059208542108536,0.0,0.7853760123252869,-2.975692586915102e-05,-0.4533860385417938,-0.45304688811302185,,,,,,,,,,,,,,,,,,,,,,,,,,,,,,,,,,,,,,,,,,,,,,,,,,,,,,,,,,,,,,,,,,,,,,,,,,,,,,,,,,,,,,,,,,,,,,,,,,,,,,,,,,,,,,,,,,,,,,,,,,,,,,,,,,,,,,-0.015314068645238876,0.00737820053473115,0.0029028072021901608,0.0,-0.005060547962784767,-0.006602540146559477,-0.6000611782073975,-0.7087194323539734,0.0016259520780295134,0.00263874395750463,-0.0012468353379517794,0.0,0.03056207299232483,0.018179893493652344,0.35345643758773804,0.3187097907066345,,,,,,,,,,,,,,,,,,,,,,,,,,,,,,,,,,,,,,,,,,,,,,,,,,,,,,,,,,,,,,,,,,,,,,,,
1696194553.5847127,1.0525339841842651,1.8418536186218262,-0.02403206005692482,0.0,0.7854601144790649,0.00011527836613822728,0.4361836612224579,0.4370318651199341,1.0508761405944824,1.9251208305358887,-0.03808087483048439,0.0,0.7853721976280212,2.3235179469338618e-05,-0.4358282685279846,-0.43562552332878113,,,,,,,,,,,,,,,,,,,,,,,,,,,,,,,,,,,,,,,,,,,,,,,,,,,,,,,,,,,,,,,,,,,,,,,,,,,,,,,,,,,,,,,,,,,,,,,,,,,,,,,,,,,,,,,,,,,,,,,,,,,,,,,,,,,,,,0.04051730036735535,-0.0008853414328768849,-0.004787655081599951,0.0,0.00779082952067256,0.03189348056912422,-0.007168280892074108,0.06341120600700378,-0.010588415898382664,0.0006831894279457629,0.004208898171782494,0.0,-0.004907873924821615,0.030340399593114853,0.18608008325099945,0.09528719633817673,,,,,,,,,,,,,,,,,,,,,,,,,,,,,,,,,,,,,,,,,,,,,,,,,,,,,,,,,,,,,,,,,,,,,,,,
1696194553.9633722,1.0525351762771606,1.8414722681045532,-0.02395354025065899,0.0,0.7853507995605469,2.778747511911206e-05,0.5235548615455627,0.5242030024528503,1.0508979558944702,1.925521731376648,-0.03816548362374306,0.0,0.7854397892951965,6.636356556555256e-05,-0.5256094336509705,-0.5261565446853638,,,,,,,,,,,,,,,,,,,,,,,,,,,,,,,,,,,,,,,,,,,,,,,,,,,,,,,,,,,,,,,,,,,,,,,,,,,,,,,,,,,,,,,,,,,,,,,,,,,,,,,,,,,,,,,,,,,,,,,,,,,,,,,,,,,,,,-0.017428627237677574,0.0011806902475655079,0.005541961174458265,0.0,-0.010643908753991127,0.003932112827897072,0.44668832421302795,0.5041595101356506,0.0009895331459119916,0.0020442409440875053,-0.0010088089620694518,0.0,-0.021666156128048897,-0.01587953232228756,-0.3835565745830536,-0.37065234780311584,,,,,,,,,,,,,,,,,,,,,,,,,,,,,,,,,,,,,,,,,,,,,,,,,,,,,,,,,,,,,,,,,,,,,,,,
1696194554.1330547,1.0531765222549438,1.8421553373336792,-0.0242364052683115,0.0,0.7854780554771423,-1.2145092114224099e-05,0.5703633427619934,0.5715885162353516,1.051589012145996,1.9245624542236328,-0.038154348731040955,0.0,0.7854694128036499,-5.9909478295594454e-05,-0.5708336234092712,-0.5708605647087097,,,,,,,,,,,,,,,,,,,,,,,,,,,,,,,,,,,,,,,,,,,,,,,,,,,,,,,,,,,,,,,,,,,,,,,,,,,,,,,,,,,,,,,,,,,,,,,,,,,,,,,,,,,,,,,,,,,,,,,,,,,,,,,,,,,,,,0.04190070182085037,0.023208238184452057,-0.012437975034117699,0.0,0.008418794721364975,0.04199718311429024,0.46196985244750977,0.5790507793426514,0.042762093245983124,-0.042667414993047714,-0.0026686368510127068,0.0,-0.0019937697798013687,0.009598752483725548,-0.530396580696106,-0.5265148282051086,,,,,,,,,,,,,,,,,,,,,,,,,,,,,,,,,,,,,,,,,,,,,,,,,,,,,,,,,,,,,,,,,,,,,,,,
1696194554.4641573,1.0532245635986328,1.8407008647918701,-0.023993058130145073,0.0,0.785352349281311,-8.049263669818174e-06,0.510496199131012,0.5095171332359314,1.051558256149292,1.9259657859802246,-0.038403939455747604,0.0,0.785323441028595,-9.005346510093659e-05,-0.5103762149810791,-0.5097765922546387,,,,,,,,,,,,,,,,,,,,,,,,,,,,,,,,,,,,,,,,,,,,,,,,,,,,,,,,,,,,,,,,,,,,,,,,,,,,,,,,,,,,,,,,,,,,,,,,,,,,,,,,,,,,,,,,,,,,,,,,,,,,,,,,,,,,,,-0.005162427667528391,-0.007423759903758764,0.0014200143050402403,0.0,-0.011160372756421566,-0.02164934203028679,-0.5279553532600403,-0.5713855624198914,-0.005082886200398207,0.009880432859063148,-0.0004911491414532065,0.0,0.010638397186994553,-0.013436968438327312,0.5445836782455444,0.573663055896759,,,,,,,,,,,,,,,,,,,,,,,,,,,,,,,,,,,,,,,,,,,,,,,,,,,,,,,,,,,,,,,,,,,,,,,,
1696194554.6979,1.0527384281158447,1.8424030542373657,-0.024157026782631874,0.0,0.7853770852088928,3.066811041207984e-05,0.42811334133148193,0.42778530716896057,1.0511350631713867,1.9245247840881348,-0.03803234547376633,0.0,0.7852675318717957,-0.00014864203694742173,-0.42953959107398987,-0.4292246103286743,,,,,,,,,,,,,,,,,,,,,,,,,,,,,,,,,,,,,,,,,,,,,,,,,,,,,,,,,,,,,,,,,,,,,,,,,,,,,,,,,,,,,,,,,,,,,,,,,,,,,,,,,,,,,,,,,,,,,,,,,,,,,,,,,,,,,,0.0012666478287428617,-0.0018125592032447457,0.0008366008405573666,0.0,-0.016268886625766754,0.0259577464312315,-0.2748534679412842,-0.23089954257011414,-0.0024497273843735456,-0.024784740060567856,0.005935527849942446,0.0,-0.01609579287469387,-0.019565528258681297,0.24246731400489807,0.22397483885288239,,,,,,,,,,,,,,,,,,,,,,,,,,,,,,,,,,,,,,,,,,,,,,,,,,,,,,,,,,,,,,,,,,,,,,,,
1696194555.0096269,1.0536621809005737,1.8422174453735352,-0.024341542273759842,0.0,0.7854337692260742,4.427945168572478e-05,0.4201090633869171,0.4210546910762787,1.0520557165145874,1.9243282079696655,-0.03821821138262749,0.0,0.7854688167572021,3.492382893455215e-05,-0.42046481370925903,-0.42088860273361206,,,,,,,,,,,,,,,,,,,,,,,,,,,,,,,,,,,,,,,,,,,,,,,,,,,,,,,,,,,,,,,,,,,,,,,,,,,,,,,,,,,,,,,,,,,,,,,,,,,,,,,,,,,,,,,,,,,,,,,,,,,,,,,,,,,,,,0.006703310180455446,-0.008347912691533566,-2.9077138606226072e-05,0.0,0.023793742060661316,-0.012669474817812443,0.46615999937057495,0.48584869503974915,0.005032528191804886,0.0055459304712712765,-0.0018276040209457278,0.0,-0.02788752317428589,-0.033553365617990494,-0.45382067561149597,-0.4462372958660126,,,,,,,,,,,,,,,,,,,,,,,,,,,,,,,,,,,,,,,,,,,,,,,,,,,,,,,,,,,,,,,,,,,,,,,,
1696194555.3263385,1.0525444746017456,1.8412361145019531,-0.023921197280287743,0.0,0.7853729724884033,2.0200835933792405e-05,0.5347877740859985,0.5352296233177185,1.0508955717086792,1.9257466793060303,-0.03820651024580002,0.0,0.7854396104812622,6.149239197839051e-05,-0.5361682176589966,-0.5365016460418701,,,,,,,,,,,,,,,,,,,,,,,,,,,,,,,,,,,,,,,,,,,,,,,,,,,,,,,,,,,,,,,,,,,,,,,,,,,,,,,,,,,,,,,,,,,,,,,,,,,,,,,,,,,,,,,,,,,,,,,,,,,,,,,,,,,,,,-0.014030618593096733,0.005593914072960615,0.0035240298602730036,0.0,-0.010383560322225094,0.0061590108089149,0.3012051284313202,0.2740095555782318,-0.00036324746906757355,0.002967522479593754,-0.0006027163472026587,0.0,-0.009582296013832092,-0.0011174569372087717,-0.25730231404304504,-0.24815256893634796,,,,,,,,,,,,,,,,,,,,,,,,,,,,,,,,,,,,,,,,,,,,,,,,,,,,,,,,,,,,,,,,,,,,,,,,
1696194555.4471595,1.0523016452789307,1.8418201208114624,-0.02396073192358017,0.0,0.785400390625,0.00010241098061669618,0.5677511096000671,0.5681110620498657,1.05142343044281,1.9242045879364014,-0.038045916706323624,0.0,0.7854360938072205,1.579043237143196e-05,-0.5785562992095947,-0.578630805015564,,,,,,,,,,,,,,,,,,,,,,,,,,,,,,,,,,,,,,,,,,,,,,,,,,,,,,,,,,,,,,,,,,,,,,,,,,,,,,,,,,,,,,,,,,,,,,,,,,,,,,,,,,,,,,,,,,,,,,,,,,,,,,,,,,,,,,-0.003854222595691681,-0.0033697313629090786,0.0042951335199177265,0.0,-0.007793170399963856,0.0573936365544796,0.1387602686882019,0.15879499912261963,0.015506478026509285,-0.02362053096294403,0.00040139988414011896,0.0,0.0008442297694273293,0.03647519275546074,-0.33888429403305054,-0.3542209267616272,,,,,,,,,,,,,,,,,,,,,,,,,,,,,,,,,,,,,,,,,,,,,,,,,,,,,,,,,,,,,,,,,,,,,,,,
1696194555.7624245,1.054181694984436,1.8411349058151245,-0.024281442165374756,0.0,0.7853763103485107,8.87527858139947e-05,0.5486149191856384,0.5478437542915344,1.0525950193405151,1.925522804260254,-0.03856903687119484,0.0,0.7852904200553894,-0.00011520906264195219,-0.5390780568122864,-0.5381876230239868,,,,,,,,,,,,,,,,,,,,,,,,,,,,,,,,,,,,,,,,,,,,,,,,,,,,,,,,,,,,,,,,,,,,,,,,,,,,,,,,,,,,,,,,,,,,,,,,,,,,,,,,,,,,,,,,,,,,,,,,,,,,,,,,,,,,,,0.00583335105329752,-0.03295065835118294,0.004323428496718407,0.0,-0.003220092039555311,0.0006809454062022269,-0.5397323369979858,-0.6270499229431152,0.0021388849709182978,0.026118388399481773,-0.005314307752996683,0.0,-0.0033382768742740154,-0.02608444169163704,0.7163833975791931,0.7990963459014893,,,,,,,,,,,,,,,,,,,,,,,,,,,,,,,,,,,,,,,,,,,,,,,,,,,,,,,,,,,,,,,,,,,,,,,,
1696194556.012051,1.0524709224700928,1.8412401676177979,-0.02390247769653797,0.0,0.7854067087173462,-4.595116843120195e-05,0.4552355110645294,0.45404526591300964,1.0508209466934204,1.9257643222808838,-0.03818855807185173,0.0,0.7852234244346619,-0.00011012577306246385,-0.4549068510532379,-0.4543226659297943,,,,,,,,,,,,,,,,,,,,,,,,,,,,,,,,,,,,,,,,,,,,,,,,,,,,,,,,,,,,,,,,,,,,,,,,,,,,,,,,,,,,,,,,,,,,,,,,,,,,,,,,,,,,,,,,,,,,,,,,,,,,,,,,,,,,,,-0.022562401369214058,0.017114851623773575,0.00313978036865592,0.0,-0.0058436463586986065,-0.009461184963583946,-0.6215112209320068,-0.7380795478820801,-0.022326311096549034,-0.00592974666506052,0.007006358355283737,0.0,-0.00908532366156578,0.000562775123398751,0.6614549160003662,0.7059912085533142,,,,,,,,,,,,,,,,,,,,,,,,,,,,,,,,,,,,,,,,,,,,,,,,,,,,,,,,,,,,,,,,,,,,,,,,
1696194556.1570916,1.0522880554199219,1.8422774076461792,-0.024058682844042778,0.0,0.7854881882667542,-0.00028588855639100075,0.4193984866142273,0.4191083312034607,1.0509859323501587,1.924446702003479,-0.03798912838101387,0.0,0.7853071689605713,-0.00022622576216235757,-0.4166725277900696,-0.41599175333976746,,,,,,,,,,,,,,,,,,,,,,,,,,,,,,,,,,,,,,,,,,,,,,,,,,,,,,,,,,,,,,,,,,,,,,,,,,,,,,,,,,,,,,,,,,,,,,,,,,,,,,,,,,,,,,,,,,,,,,,,,,,,,,,,,,,,,,0.038595713675022125,0.041486114263534546,-0.02296728454530239,0.0,0.017177533358335495,-0.07613257318735123,-0.10052437335252762,-0.15157881379127502,0.041783954948186874,-0.055115874856710434,-0.0005039451643824577,0.0,-0.005837962031364441,-0.01582302339375019,0.17234943807125092,0.2514458894729614,,,,,,,,,,,,,,,,,,,,,,,,,,,,,,,,,,,,,,,,,,,,,,,,,,,,,,,,,,,,,,,,,,,,,,,,
1696194556.40066,1.0542477369308472,1.841558575630188,-0.024368152022361755,0.0,0.7853919267654419,8.603582682553679e-05,0.4410015046596527,0.4422650933265686,1.0526624917984009,1.9247781038284302,-0.03844702988862991,0.0,0.7855113744735718,0.00012952960969414562,-0.4433933198451996,-0.4436279833316803,,,,,,,,,,,,,,,,,,,,,,,,,,,,,,,,,,,,,,,,,,,,,,,,,,,,,,,,,,,,,,,,,,,,,,,,,,,,,,,,,,,,,,,,,,,,,,,,,,,,,,,,,,,,,,,,,,,,,,,,,,,,,,,,,,,,,,0.008676067925989628,-0.028457188978791237,0.0023743666242808104,0.0,0.01682073436677456,-0.009292513132095337,0.6665390133857727,0.7542158961296082,0.009066644124686718,0.020411863923072815,-0.006837434601038694,0.0,0.01735544390976429,0.023074081167578697,-0.16944116353988647,-0.16047179698944092,,,,,,,,,,,,,,,,,,,,,,,,,,,,,,,,,,,,,,,,,,,,,,,,,,,,,,,,,,,,,,,,,,,,,,,,
1696194556.640907,1.0528675317764282,1.8403918743133545,-0.02386067807674408,0.0,0.7854138016700745,-2.6710971724241972e-05,0.5310786962509155,0.5318619608879089,1.0513818264007568,1.9263525009155273,-0.038434918969869614,0.0,0.7854403853416443,6.160500925034285e-05,-0.5254805088043213,-0.5258107781410217,,,,,,,,,,,,,,,,,,,,,,,,,,,,,,,,,,,,,,,,,,,,,,,,,,,,,,,,,,,,,,,,,,,,,,,,,,,,,,,,,,,,,,,,,,,,,,,,,,,,,,,,,,,,,,,,,,,,,,,,,,,,,,,,,,,,,,-0.010551908053457737,-0.0020472093019634485,0.0016098370542749763,0.0,0.013352888636291027,-0.012745851650834084,0.6048374772071838,0.6180797219276428,0.000401425757445395,0.004367192275822163,-0.001028604805469513,0.0,-0.009429406374692917,-0.00266892253421247,-0.2455737143754959,-0.23652827739715576,,,,,,,,,,,,,,,,,,,,,,,,,,,,,,,,,,,,,,,,,,,,,,,,,,,,,,,,,,,,,,,,,,,,,,,,
1696194556.7631135,1.0522395372390747,1.841861605644226,-0.02395331673324108,0.0,0.7853944301605225,9.500712621957064e-05,0.5772101879119873,0.5775666832923889,1.0506232976913452,1.9252463579177856,-0.03805038705468178,0.0,0.7854468822479248,0.00010690528142731637,-0.5773545503616333,-0.5775973796844482,,,,,,,,,,,,,,,,,,,,,,,,,,,,,,,,,,,,,,,,,,,,,,,,,,,,,,,,,,,,,,,,,,,,,,,,,,,,,,,,,,,,,,,,,,,,,,,,,,,,,,,,,,,,,,,,,,,,,,,,,,,,,,,,,,,,,,0.00036583057953976095,-0.007203513290733099,0.0038018994964659214,0.0,-0.01003341469913721,0.05757182836532593,0.16019968688488007,0.19121494889259338,-0.00021985212515573949,0.004274615552276373,-0.0016200708923861384,0.0,0.0061593311838805676,0.044418927282094955,-0.21938243508338928,-0.24432414770126343,,,,,,,,,,,,,,,,,,,,,,,,,,,,,,,,,,,,,,,,,,,,,,,,,,,,,,,,,,,,,,,,,,,,,,,,
1696194556.9309864,1.0536264181137085,1.8425493240356445,-0.024396497756242752,0.0,0.7854176163673401,6.007032061461359e-05,0.5838534832000732,0.5836203098297119,1.0518312454223633,1.9239072799682617,-0.03808189928531647,0.0,0.7854012250900269,9.651515028963331e-06,-0.585247278213501,-0.5850878953933716,,,,,,,,,,,,,,,,,,,,,,,,,,,,,,,,,,,,,,,,,,,,,,,,,,,,,,,,,,,,,,,,,,,,,,,,,,,,,,,,,,,,,,,,,,,,,,,,,,,,,,,,,,,,,,,,,,,,,,,,,,,,,,,,,,,,,,0.04199478030204773,-0.04030520096421242,-0.005614171735942364,0.0,0.005853398237377405,0.017600247636437416,-0.27312591671943665,-0.3045089840888977,0.0013792148092761636,-0.006431954447180033,0.002104825107380748,0.0,0.012030059471726418,0.03370142728090286,0.0565437488257885,-0.055638689547777176,,,,,,,,,,,,,,,,,,,,,,,,,,,,,,,,,,,,,,,,,,,,,,,,,,,,,,,,,,,,,,,,,,,,,,,,
1696194557.1768014,1.0541776418685913,1.8399906158447266,-0.024090630933642387,0.0,0.785370945930481,6.454664980992675e-05,0.5129201412200928,0.5119417309761047,1.0524803400039673,1.9262421131134033,-0.03867410123348236,0.0,0.7853266000747681,-8.137215627357364e-05,-0.5121747255325317,-0.5116522312164307,,,,,,,,,,,,,,,,,,,,,,,,,,,,,,,,,,,,,,,,,,,,,,,,,,,,,,,,,,,,,,,,,,,,,,,,,,,,,,,,,,,,,,,,,,,,,,,,,,,,,,,,,,,,,,,,,,,,,,,,,,,,,,,,,,,,,,-0.012138874270021915,-0.023766061291098595,0.007629578001797199,0.0,-0.005031081382185221,-0.007455982267856598,-0.5794270634651184,-0.6847959160804749,-0.006247696932405233,0.013791224919259548,-0.0007843312923796475,0.0,0.009491910226643085,-0.017630651593208313,0.5242076516151428,0.5413773655891418,,,,,,,,,,,,,,,,,,,,,,,,,,,,,,,,,,,,,,,,,,,,,,,,,,,,,,,,,,,,,,,,,,,,,,,,
1696194557.4124217,1.0523602962493896,1.8404667377471924,-0.023758333176374435,0.0,0.7853843569755554,4.0902214095694944e-06,0.4417164921760559,0.44163209199905396,1.0506269931793213,1.926485538482666,-0.03827822580933571,0.0,0.7853056192398071,-5.4166590416571125e-05,-0.44053900241851807,-0.4401603043079376,,,,,,,,,,,,,,,,,,,,,,,,,,,,,,,,,,,,,,,,,,,,,,,,,,,,,,,,,,,,,,,,,,,,,,,,,,,,,,,,,,,,,,,,,,,,,,,,,,,,,,,,,,,,,,,,,,,,,,,,,,,,,,,,,,,,,,-0.003362185088917613,0.003250876208767295,0.00058972422266379,0.0,-0.012323016300797462,-0.001958343666046858,-0.10420691221952438,-0.08794257789850235,-0.012300871312618256,-0.009113050997257233,0.005124986171722412,0.0,0.012774844653904438,0.021626880392432213,0.4421866536140442,0.44845423102378845,,,,,,,,,,,,,,,,,,,,,,,,,,,,,,,,,,,,,,,,,,,,,,,,,,,,,,,,,,,,,,,,,,,,,,,,
1696194557.5563111,1.0520014762878418,1.8423254489898682,-0.024017207324504852,0.0,0.7855125069618225,-0.0002904610300902277,0.4102412164211273,0.41009530425071716,1.050212025642395,1.9252076148986816,-0.03794639930129051,0.0,0.785374104976654,2.2299082047538832e-05,-0.4099727272987366,-0.4098200798034668,,,,,,,,,,,,,,,,,,,,,,,,,,,,,,,,,,,,,,,,,,,,,,,,,,,,,,,,,,,,,,,,,,,,,,,,,,,,,,,,,,,,,,,,,,,,,,,,,,,,,,,,,,,,,,,,,,,,,,,,,,,,,,,,,,,,,,0.04893359914422035,0.06984525173902512,-0.031034057959914207,0.0,0.018471037968993187,-0.028110988438129425,-0.09593357890844345,-0.060521502047777176,-0.0049340189434587955,-0.0020773999858647585,0.0007997082429938018,0.0,0.007676583249121904,0.0369822196662426,0.12407250702381134,0.111762635409832,,,,,,,,,,,,,,,,,,,,,,,,,,,,,,,,,,,,,,,,,,,,,,,,,,,,,,,,,,,,,,,,,,,,,,,,
1696194557.7461824,1.0539164543151855,1.8428329229354858,-0.02449946105480194,0.0,0.7854666709899902,-8.878538210410625e-06,0.4169439673423767,0.4174778461456299,1.0523127317428589,1.9236340522766113,-0.038147736340761185,0.0,0.7853586077690125,-7.757011917419732e-05,-0.4169049561023712,-0.41702771186828613,,,,,,,,,,,,,,,,,,,,,,,,,,,,,,,,,,,,,,,,,,,,,,,,,,,,,,,,,,,,,,,,,,,,,,,,,,,,,,,,,,,,,,,,,,,,,,,,,,,,,,,,,,,,,,,,,,,,,,,,,,,,,,,,,,,,,,-0.005068107973784208,0.017362993210554123,-0.0007204040884971619,0.0,0.025882825255393982,-0.023282011970877647,0.26002272963523865,0.18471106886863708,-0.006692515220493078,-0.013778844848275185,0.005199286621063948,0.0,-0.05092862248420715,-0.054926373064517975,-0.23119418323040009,-0.17745965719223022,,,,,,,,,,,,,,,,,,,,,,,,,,,,,,,,,,,,,,,,,,,,,,,,,,,,,,,,,,,,,,,,,,,,,,,,
1696194558.0032227,1.0545212030410767,1.8397756814956665,-0.024131648242473602,0.0,0.7853347659111023,9.760812827153131e-05,0.4889531433582306,0.49032798409461975,1.0528327226638794,1.9262679815292358,-0.038762688636779785,0.0,0.7855744361877441,0.00023011541634332389,-0.48850277066230774,-0.4897029399871826,,,,,,,,,,,,,,,,,,,,,,,,,,,,,,,,,,,,,,,,,,,,,,,,,,,,,,,,,,,,,,,,,,,,,,,,,,,,,,,,,,,,,,,,,,,,,,,,,,,,,,,,,,,,,,,,,,,,,,,,,,,,,,,,,,,,,,-0.022610604763031006,-0.033049795776605606,0.010910186916589737,0.0,0.00263680936768651,-0.00986404623836279,0.9160408973693848,1.0262969732284546,-0.015943219885230064,0.028312411159276962,-0.0013959503266960382,0.0,-0.0028300294652581215,-0.0005817585624754429,-0.7631659507751465,-0.8490471839904785,,,,,,,,,,,,,,,,,,,,,,,,,,,,,,,,,,,,,,,,,,,,,,,,,,,,,,,,,,,,,,,,,,,,,,,,
1696194558.1967447,1.0528184175491333,1.8396549224853516,-0.023733099922537804,0.0,0.7853789925575256,6.500660219899146e-06,0.5485547780990601,0.5486297011375427,1.0510560274124146,1.9271093606948853,-0.03849943354725838,0.0,0.7854554653167725,9.933090768754482e-05,-0.5499997735023499,-0.5502868890762329,,,,,,,,,,,,,,,,,,,,,,,,,,,,,,,,,,,,,,,,,,,,,,,,,,,,,,,,,,,,,,,,,,,,,,,,,,,,,,,,,,,,,,,,,,,,,,,,,,,,,,,,,,,,,,,,,,,,,,,,,,,,,,,,,,,,,,-0.003732582088559866,0.00028493336867541075,0.0008552666404284537,0.0,-0.0017175273969769478,-0.0027133601251989603,0.12194634228944778,0.12802176177501678,0.002395364921540022,0.006997108459472656,-0.0023400066420435905,0.0,0.0006625233218073845,0.02565419115126133,-0.21469585597515106,-0.2325371950864792,,,,,,,,,,,,,,,,,,,,,,,,,,,,,,,,,,,,,,,,,,,,,,,,,,,,,,,,,,,,,,,,,,,,,,,,
1696194558.336394,1.0516293048858643,1.8417067527770996,-0.0237741619348526,0.0,0.785399317741394,0.00029761699261143804,0.5886629223823547,0.5894471406936646,1.0500061511993408,1.9255727529525757,-0.037965238094329834,0.0,0.7853931784629822,-7.540519436588511e-05,-0.5888949632644653,-0.5888756513595581,,,,,,,,,,,,,,,,,,,,,,,,,,,,,,,,,,,,,,,,,,,,,,,,,,,,,,,,,,,,,,,,,,,,,,,,,,,,,,,,,,,,,,,,,,,,,,,,,,,,,,,,,,,,,,,,,,,,,,,,,,,,,,,,,,,,,,0.0025217016227543354,-0.03218962997198105,0.016138913109898567,0.0,-0.03336838632822037,0.16719362139701843,0.04673685133457184,0.1490730345249176,0.020317163318395615,-0.058939218521118164,0.005785068031400442,0.0,0.008508207276463509,0.03131203353404999,-0.28254178166389465,-0.2882992625236511,,,,,,,,,,,,,,,,,,,,,,,,,,,,,,,,,,,,,,,,,,,,,,,,,,,,,,,,,,,,,,,,,,,,,,,,
1696194558.4900744,1.0539488792419434,1.8431315422058105,-0.024579808115959167,0.0,0.7854369878768921,-5.511646694600358e-09,0.58830726146698,0.5877887010574341,1.0521044731140137,1.9232709407806396,-0.03803613781929016,0.0,0.7853643894195557,5.209018127061427e-06,-0.5902958512306213,-0.590174674987793,,,,,,,,,,,,,,,,,,,,,,,,,,,,,,,,,,,,,,,,,,,,,,,,,,,,,,,,,,,,,,,,,,,,,,,,,,,,,,,,,,,,,,,,,,,,,,,,,,,,,,,,,,,,,,,,,,,,,,,,,,,,,,,,,,,,,,0.09096571803092957,-0.05701906234025955,-0.01773015782237053,0.0,0.010403038002550602,-0.00792765524238348,-0.49199819564819336,-0.5573381185531616,0.036729130893945694,0.005429585464298725,-0.011496765539050102,0.0,-0.0030233487486839294,0.011875875294208527,0.08801935613155365,0.000764593540225178,,,,,,,,,,,,,,,,,,,,,,,,,,,,,,,,,,,,,,,,,,,,,,,,,,,,,,,,,,,,,,,,,,,,,,,,
1696194558.7201395,1.0552537441253662,1.8411258459091187,-0.024524347856640816,0.0,0.7853784561157227,0.0001700123684713617,0.5475999116897583,0.5471062660217285,1.0535892248153687,1.924704909324646,-0.03865537792444229,0.0,0.7853240966796875,4.6138582547428086e-05,-0.5479140281677246,-0.5475496649742126,,,,,,,,,,,,,,,,,,,,,,,,,,,,,,,,,,,,,,,,,,,,,,,,,,,,,,,,,,,,,,,,,,,,,,,,,,,,,,,,,,,,,,,,,,,,,,,,,,,,,,,,,,,,,,,,,,,,,,,,,,,,,,,,,,,,,,0.009358733892440796,-0.052926063537597656,0.00837224442511797,0.0,0.000693180481903255,0.03254923224449158,-0.4539417326450348,-0.48563456535339355,0.00572600495070219,0.04760226234793663,-0.011009476147592068,0.0,-0.01202974934130907,0.016206169500947,0.4312753975391388,0.44040635228157043,,,,,,,,,,,,,,,,,,,,,,,,,,,,,,,,,,,,,,,,,,,,,,,,,,,,,,,,,,,,,,,,,,,,,,,,
1696194558.9391804,1.0540696382522583,1.8390432596206665,-0.02392374351620674,0.0,0.7853716611862183,-3.602740980568342e-05,0.47842738032341003,0.4780239164829254,1.0523347854614258,1.927202820777893,-0.03882015123963356,0.0,0.7853826284408569,-1.4988117072789464e-05,-0.47844386100769043,-0.4782800078392029,,,,,,,,,,,,,,,,,,,,,,,,,,,,,,,,,,,,,,,,,,,,,,,,,,,,,,,,,,,,,,,,,,,,,,,,,,,,,,,,,,,,,,,,,,,,,,,,,,,,,,,,,,,,,,,,,,,,,,,,,,,,,,,,,,,,,,0.00021341002138797194,-0.0052712117321789265,-0.0007845243671908975,0.0,-0.006664955522865057,-0.024323944002389908,-0.21884651482105255,-0.20580695569515228,0.001227515167556703,0.006572759244590998,-0.0015584120992571115,0.0,0.01619054563343525,0.004462624434381723,0.2380603402853012,0.21912269294261932,,,,,,,,,,,,,,,,,,,,,,,,,,,,,,,,,,,,,,,,,,,,,,,,,,,,,,,,,,,,,,,,,,,,,,,,
1696194559.114318,1.0517109632492065,1.8406072854995728,-0.023633534088730812,0.0,0.7855266332626343,-0.0002317034377483651,0.4224573075771332,0.42139455676078796,1.0500319004058838,1.926680564880371,-0.03816959261894226,0.0,0.785108208656311,-0.0003576800518203527,-0.4221421182155609,-0.42154014110565186,,,,,,,,,,,,,,,,,,,,,,,,,,,,,,,,,,,,,,,,,,,,,,,,,,,,,,,,,,,,,,,,,,,,,,,,,,,,,,,,,,,,,,,,,,,,,,,,,,,,,,,,,,,,,,,,,,,,,,,,,,,,,,,,,,,,,,-0.0462321899831295,0.08992619067430496,-0.004253728780895472,0.0,0.033994413912296295,-0.05407683923840523,-0.4068072736263275,-0.48514455556869507,-0.04463551938533783,-0.06658898293972015,0.02576007880270481,0.0,-0.054861053824424744,-0.08069881051778793,0.4598866403102875,0.5446438193321228,,,,,,,,,,,,,,,,,,,,,,,,,,,,,,,,,,,,,,,,,,,,,,,,,,,,,,,,,,,,,,,,,,,,,,,,
1696194559.2374084,1.0513460636138916,1.8419204950332642,-0.02375282160937786,0.0,0.7854004502296448,0.00015111429092939943,0.4048403203487396,0.4048995077610016,1.0497263669967651,1.9255540370941162,-0.037897203117609024,0.0,0.7853787541389465,7.295468094525859e-05,-0.40506112575531006,-0.4048917293548584,,,,,,,,,,,,,,,,,,,,,,,,,,,,,,,,,,,,,,,,,,,,,,,,,,,,,,,,,,,,,,,,,,,,,,,,,,,,,,,,,,,,,,,,,,,,,,,,,,,,,,,,,,,,,,,,,,,,,,,,,,,,,,,,,,,,,,-0.004477223847061396,-0.006747055798768997,0.008614999242126942,0.0,-0.01689547672867775,0.08625303953886032,-0.19690971076488495,-0.14363421499729156,-0.008744871243834496,0.007359310053288937,0.0002528484328649938,0.0,0.013308131136000156,0.06810925155878067,0.13659919798374176,0.08395420014858246,,,,,,,,,,,,,,,,,,,,,,,,,,,,,,,,,,,,,,,,,,,,,,,,,,,,,,,,,,,,,,,,,,,,,,,,
1696194559.344709,1.0538731813430786,1.8432159423828125,-0.02456876076757908,0.0,0.7853912115097046,7.464872760465369e-05,0.412986159324646,0.41422605514526367,1.0524859428405762,1.9231939315795898,-0.03811192885041237,0.0,0.7855120301246643,8.3834383985959e-05,-0.41500604152679443,-0.4151190519332886,,,,,,,,,,,,,,,,,,,,,,,,,,,,,,,,,,,,,,,,,,,,,,,,,,,,,,,,,,,,,,,,,,,,,,,,,,,,,,,,,,,,,,,,,,,,,,,,,,,,,,,,,,,,,,,,,,,,,,,,,,,,,,,,,,,,,,0.055344559252262115,-0.028666779398918152,-0.00938939955085516,0.0,0.000385590159567073,0.01807946339249611,0.43007612228393555,0.6037108898162842,0.040074411779642105,0.005326349753886461,-0.011983814649283886,0.0,0.0281288530677557,0.02339836023747921,-0.12238885462284088,-0.14525939524173737,,,,,,,,,,,,,,,,,,,,,,,,,,,,,,,,,,,,,,,,,,,,,,,,,,,,,,,,,,,,,,,,,,,,,,,,
1696194559.5050986,1.0554049015045166,1.8411731719970703,-0.024566955864429474,0.0,0.7852972149848938,0.00018805815489031374,0.45074373483657837,0.4515746533870697,1.0537538528442383,1.9245408773422241,-0.03865842893719673,0.0,0.7854025959968567,-5.8345314755570143e-05,-0.4526787996292114,-0.452964186668396,,,,,,,,,,,,,,,,,,,,,,,,,,,,,,,,,,,,,,,,,,,,,,,,,,,,,,,,,,,,,,,,,,,,,,,,,,,,,,,,,,,,,,,,,,,,,,,,,,,,,,,,,,,,,,,,,,,,,,,,,,,,,,,,,,,,,,0.011604923754930496,-0.0591304786503315,0.009162812493741512,0.0,-0.02091536670923233,0.03584091737866402,0.36341384053230286,0.4563409984111786,0.00029301195172593,-0.011653551831841469,0.0034519939217716455,0.0,-0.043612994253635406,-0.06537122279405594,-0.33101215958595276,-0.2697717845439911,,,,,,,,,,,,,,,,,,,,,,,,,,,,,,,,,,,,,,,,,,,,,,,,,,,,,,,,,,,,,,,,,,,,,,,,
1696194559.6602414,1.0547088384628296,1.838990330696106,-0.02405298873782158,0.0,0.7853397130966187,0.0001133767727878876,0.5032535195350647,0.5036675333976746,1.0533528327941895,1.9265457391738892,-0.038939207792282104,0.0,0.7854357361793518,3.422208101255819e-05,-0.4939647316932678,-0.49425363540649414,,,,,,,,,,,,,,,,,,,,,,,,,,,,,,,,,,,,,,,,,,,,,,,,,,,,,,,,,,,,,,,,,,,,,,,,,,,,,,,,,,,,,,,,,,,,,,,,,,,,,,,,,,,,,,,,,,,,,,,,,,,,,,,,,,,,,,-0.015915587544441223,-0.015244875103235245,0.009566000662744045,0.0,-0.014870448037981987,0.026272492483258247,0.21423423290252686,0.19891513884067535,0.0033897452522069216,0.005420226138085127,-0.0016667167656123638,0.0,-0.014412334188818932,-0.020368054509162903,-0.22178100049495697,-0.20343725383281708,,,,,,,,,,,,,,,,,,,,,,,,,,,,,,,,,,,,,,,,,,,,,,,,,,,,,,,,,,,,,,,,,,,,,,,,
1696194559.807005,1.0525418519973755,1.8388761281967163,-0.023541048169136047,0.0,0.7853963375091553,-2.0594472516677342e-05,0.5538977980613708,0.5542079210281372,1.0502742528915405,1.9278637170791626,-0.0384521521627903,0.0,0.7854535579681396,2.494834734534379e-05,-0.5630854368209839,-0.5634045004844666,,,,,,,,,,,,,,,,,,,,,,,,,,,,,,,,,,,,,,,,,,,,,,,,,,,,,,,,,,,,,,,,,,,,,,,,,,,,,,,,,,,,,,,,,,,,,,,,,,,,,,,,,,,,,,,,,,,,,,,,,,,,,,,,,,,,,,-0.033203624188899994,0.030523374676704407,0.004321899265050888,0.0,-0.003867680672556162,-0.006721504032611847,0.2820045053958893,0.25120118260383606,-0.03172612190246582,-0.015727002173662186,0.012213272973895073,0.0,0.005367977544665337,-0.0003672154853120446,-0.2699015736579895,-0.25219348073005676,,,,,,,,,,,,,,,,,,,,,,,,,,,,,,,,,,,,,,,,,,,,,,,,,,,,,,,,,,,,,,,,,,,,,,,,
1696194559.9442868,1.0508053302764893,1.8407113552093506,-0.02345016598701477,0.0,0.7854595184326172,-0.00018528656801208854,0.5876123905181885,0.5876988768577576,1.0490117073059082,1.9258382320404053,-0.03777970001101494,0.0,0.785388171672821,-1.886411882878747e-05,-0.5939180254936218,-0.5942531228065491,,,,,,,,,,,,,,,,,,,,,,,,,,,,,,,,,,,,,,,,,,,,,,,,,,,,,,,,,,,,,,,,,,,,,,,,,,,,,,,,,,,,,,,,,,,,,,,,,,,,,,,,,,,,,,,,,,,,,,,,,,,,,,,,,,,,,,-0.013582268729805946,0.05103939399123192,-0.0078020766377449036,0.0,0.010651547461748123,-0.055595699697732925,0.25046709179878235,0.19355502724647522,-0.0021176710724830627,-0.0586104616522789,0.010641874745488167,0.0,0.008800935931503773,0.03911731764674187,-0.33491402864456177,-0.391855388879776,,,,,,,,,,,,,,,,,,,,,,,,,,,,,,,,,,,,,,,,,,,,,,,,,,,,,,,,,,,,,,,,,,,,,,,,
1696194560.0669587,1.0513032674789429,1.8441215753555298,-0.024107009172439575,0.0,0.7854012846946716,7.377602014457807e-05,0.6022768020629883,0.6024090051651001,1.0493159294128418,1.9240180253982544,-0.03751188889145851,0.0,0.7853931784629822,2.5810861188801937e-05,-0.6029722690582275,-0.6027347445487976,,,,,,,,,,,,,,,,,,,,,,,,,,,,,,,,,,,,,,,,,,,,,,,,,,,,,,,,,,,,,,,,,,,,,,,,,,,,,,,,,,,,,,,,,,,,,,,,,,,,,,,,,,,,,,,,,,,,,,,,,,,,,,,,,,,,,,-0.003621837357059121,0.007367616519331932,0.002580866916105151,0.0,-0.010433877818286419,0.04900743439793587,-0.030310699716210365,0.007970533333718777,-0.011273250915110111,-0.0017939796671271324,0.0043168081901967525,0.0,0.01312224194407463,0.0478387214243412,0.06894424557685852,-0.007138201966881752,,,,,,,,,,,,,,,,,,,,,,,,,,,,,,,,,,,,,,,,,,,,,,,,,,,,,,,,,,,,,,,,,,,,,,,,
1696194560.2312045,1.053502082824707,1.8444215059280396,-0.02467440254986286,0.0,0.7854097485542297,9.349980246042833e-05,0.5902596712112427,0.5900238752365112,1.0526471138000488,1.9224237203598022,-0.03801214322447777,0.0,0.7853615283966064,3.159287371090613e-05,-0.5825808048248291,-0.5820531249046326,,,,,,,,,,,,,,,,,,,,,,,,,,,,,,,,,,,,,,,,,,,,,,,,,,,,,,,,,,,,,,,,,,,,,,,,,,,,,,,,,,,,,,,,,,,,,,,,,,,,,,,,,,,,,,,,,,,,,,,,,,,,,,,,,,,,,,0.05588913336396217,-0.056732527911663055,-0.006677961442619562,0.0,0.004759049043059349,0.026576824486255646,-0.3407156467437744,-0.3588885962963104,0.061768464744091034,0.033485617488622665,-0.023531952872872353,0.0,-0.0006476948619820178,0.03066435270011425,0.34559568762779236,0.3140885829925537,,,,,,,,,,,,,,,,,,,,,,,,,,,,,,,,,,,,,,,,,,,,,,,,,,,,,,,,,,,,,,,,,,,,,,,,
1696194560.3952897,1.0556560754776,1.8409618139266968,-0.024597913026809692,0.0,0.7853538990020752,1.0369635674578603e-05,0.5374103784561157,0.5366255640983582,1.0538296699523926,1.9236764907836914,-0.03851718828082085,0.0,0.7853641510009766,-9.194690210279077e-05,-0.5520369410514832,-0.5517800450325012,,,,,,,,,,,,,,,,,,,,,,,,,,,,,,,,,,,,,,,,,,,,,,,,,,,,,,,,,,,,,,,,,,,,,,,,,,,,,,,,,,,,,,,,,,,,,,,,,,,,,,,,,,,,,,,,,,,,,,,,,,,,,,,,,,,,,,0.0014915138017386198,-0.018905742093920708,0.0013540014624595642,0.0,0.0013602792751044035,-0.05065728351473808,-0.4686797857284546,-0.5164203643798828,0.0017652878304943442,-0.0036334542091935873,0.0010998289799317718,0.0,-0.0014902849216014147,-0.03398671746253967,0.17985279858112335,0.20211750268936157,,,,,,,,,,,,,,,,,,,,,,,,,,,,,,,,,,,,,,,,,,,,,,,,,,,,,,,,,,,,,,,,,,,,,,,,
1696194560.5795615,1.054620623588562,1.8381999731063843,-0.023894380778074265,0.0,0.7853719592094421,0.000174036220414564,0.48419493436813354,0.48348498344421387,1.0532928705215454,1.9272212982177734,-0.0390518493950367,0.0,0.7853794097900391,-3.340158218634315e-05,-0.4929264485836029,-0.49277830123901367,,,,,,,,,,,,,,,,,,,,,,,,,,,,,,,,,,,,,,,,,,,,,,,,,,,,,,,,,,,,,,,,,,,,,,,,,,,,,,,,,,,,,,,,,,,,,,,,,,,,,,,,,,,,,,,,,,,,,,,,,,,,,,,,,,,,,,-0.033200908452272415,-0.031079476699233055,0.017809191718697548,0.0,-0.00024795564240776,0.029015224426984787,-0.486276239156723,-0.5410125255584717,0.0016791558591648936,0.006232733838260174,-0.0014419187791645527,0.0,0.008626537397503853,-0.012210259214043617,0.2161066234111786,0.21260720491409302,,,,,,,,,,,,,,,,,,,,,,,,,,,,,,,,,,,,,,,,,,,,,,,,,,,,,,,,,,,,,,,,,,,,,,,,
1696194560.74703,1.0527989864349365,1.8379313945770264,-0.02345794439315796,0.0,0.785335123538971,-4.750645894091576e-05,0.44777947664260864,0.44697973132133484,1.050974726676941,1.9287123680114746,-0.03877333924174309,0.0,0.7851896286010742,-0.00011579154670471326,-0.44920846819877625,-0.44889628887176514,,,,,,,,,,,,,,,,,,,,,,,,,,,,,,,,,,,,,,,,,,,,,,,,,,,,,,,,,,,,,,,,,,,,,,,,,,,,,,,,,,,,,,,,,,,,,,,,,,,,,,,,,,,,,,,,,,,,,,,,,,,,,,,,,,,,,,0.007042123470455408,-0.021624267101287842,-0.002570229582488537,0.0,-0.020608097314834595,-0.003910384606570005,-0.3544174134731293,-0.3198525011539459,-0.06630856543779373,-0.01448185183107853,0.02102521061897278,0.0,-0.03303975984454155,-0.011659819632768631,0.4951496422290802,0.5253093838691711,,,,,,,,,,,,,,,,,,,,,,,,,,,,,,,,,,,,,,,,,,,,,,,,,,,,,,,,,,,,,,,,,,,,,,,,
1696194560.8869784,1.050614833831787,1.8400261402130127,-0.023290932178497314,0.0,0.7853819727897644,-2.062962084892206e-05,0.416089802980423,0.4154496192932129,1.049040675163269,1.9277889728546143,-0.038153596222400665,0.0,0.78523850440979,-5.931443956797011e-05,-0.4180395305156708,-0.41771185398101807,,,,,,,,,,,,,,,,,,,,,,,,,,,,,,,,,,,,,,,,,,,,,,,,,,,,,,,,,,,,,,,,,,,,,,,,,,,,,,,,,,,,,,,,,,,,,,,,,,,,,,,,,,,,,,,,,,,,,,,,,,,,,,,,,,,,,,-0.00876530073583126,0.01862887106835842,-2.5596841624064837e-06,0.0,-0.03198987990617752,0.05738193169236183,-0.3582038879394531,-0.321859210729599,-0.01416387315839529,-0.034533753991127014,0.0074363225139677525,0.0,0.023536525666713715,0.06130310893058777,0.5243377089500427,0.47570332884788513,,,,,,,,,,,,,,,,,,,,,,,,,,,,,,,,,,,,,,,,,,,,,,,,,,,,,,,,,,,,,,,,,,,,,,,,
1696194561.0054202,1.050366997718811,1.8438886404037476,-0.023876545950770378,0.0,0.7854824662208557,-0.00017226893396582454,0.3971962630748749,0.3972126245498657,1.0486799478530884,1.9245996475219727,-0.037474941462278366,0.0,0.7853275537490845,-0.0001575546048115939,-0.3982899487018585,-0.39784568548202515,,,,,,,,,,,,,,,,,,,,,,,,,,,,,,,,,,,,,,,,,,,,,,,,,,,,,,,,,,,,,,,,,,,,,,,,,,,,,,,,,,,,,,,,,,,,,,,,,,,,,,,,,,,,,,,,,,,,,,,,,,,,,,,,,,,,,,0.02350783906877041,0.059637539088726044,-0.016150373965501785,0.0,0.0046528978273272514,0.006679865997284651,-0.06700927019119263,-0.017905913293361664,0.025106877088546753,-0.06185954436659813,0.005078895483165979,0.0,0.00464785797521472,0.0233681108802557,0.03384317830204964,0.045318856835365295,,,,,,,,,,,,,,,,,,,,,,,,,,,,,,,,,,,,,,,,,,,,,,,,,,,,,,,,,,,,,,,,,,,,,,,,
1696194561.128718,1.0512486696243286,1.8449571132659912,-0.024226874113082886,0.0,0.7854185700416565,-5.294305447023362e-05,0.3971172571182251,0.39725276827812195,1.049744725227356,1.922684669494629,-0.037363842129707336,0.0,0.7853898406028748,1.755797529767733e-05,-0.3970993757247925,-0.397085964679718,,,,,,,,,,,,,,,,,,,,,,,,,,,,,,,,,,,,,,,,,,,,,,,,,,,,,,,,,,,,,,,,,,,,,,,,,,,,,,,,,,,,,,,,,,,,,,,,,,,,,,,,,,,,,,,,,,,,,,,,,,,,,,,,,,,,,,0.0008593845413997769,0.012848706915974617,-0.000380046374630183,0.0,-0.005690055433660746,-0.023324275389313698,0.05568802356719971,-0.06976495683193207,-0.0011467935983091593,-0.007707532029598951,0.002723923185840249,0.0,-0.0047150575555861,0.0161075908690691,0.028184451162815094,-0.008181185461580753,,,,,,,,,,,,,,,,,,,,,,,,,,,,,,,,,,,,,,,,,,,,,,,,,,,,,,,,,,,,,,,,,,,,,,,,
1696194561.2268708,1.0538926124572754,1.844275712966919,-0.024730367586016655,0.0,0.7854815125465393,-3.039930743398145e-05,0.4176221787929535,0.41814953088760376,1.053015112876892,1.9226452112197876,-0.03813833370804787,0.0,0.785671591758728,0.000244558701524511,-0.424557626247406,-0.4249676465988159,,,,,,,,,,,,,,,,,,,,,,,,,,,,,,,,,,,,,,,,,,,,,,,,,,,,,,,,,,,,,,,,,,,,,,,,,,,,,,,,,,,,,,,,,,,,,,,,,,,,,,,,,,,,,,,,,,,,,,,,,,,,,,,,,,,,,,-0.0036105515900999308,0.023966776207089424,-0.0017098546959459782,0.0,0.033413756638765335,-0.034074489027261734,0.26071473956108093,0.10895222425460815,0.05444120243191719,0.0357380285859108,-0.01979096233844757,0.0,0.043548356741666794,0.05690516531467438,-0.5310925841331482,-0.5771118998527527,,,,,,,,,,,,,,,,,,,,,,,,,,,,,,,,,,,,,,,,,,,,,,,,,,,,,,,,,,,,,,,,,,,,,,,,
1696194561.4415221,1.0564216375350952,1.840649127960205,-0.024721341207623482,0.0,0.7853167057037354,0.00017228542128577828,0.46331363916397095,0.4638534486293793,1.0546245574951172,1.924052119255066,-0.0387762114405632,0.0,0.7853843569755554,-0.00010830082464963198,-0.45663192868232727,-0.4568514823913574,,,,,,,,,,,,,,,,,,,,,,,,,,,,,,,,,,,,,,,,,,,,,,,,,,,,,,,,,,,,,,,,,,,,,,,,,,,,,,,,,,,,,,,,,,,,,,,,,,,,,,,,,,,,,,,,,,,,,,,,,,,,,,,,,,,,,,0.011585897766053677,-0.04789489135146141,0.0075120520778000355,0.0,-0.022218581289052963,0.046248920261859894,0.18607878684997559,0.18911217153072357,-0.001460404833778739,-0.012647800147533417,0.0042302580550313,0.0,-0.0549030639231205,-0.09505739063024521,-0.29487621784210205,-0.2085709273815155,,,,,,,,,,,,,,,,,,,,,,,,,,,,,,,,,,,,,,,,,,,,,,,,,,,,,,,,,,,,,,,,,,,,,,,,
1696194561.632955,1.0559463500976562,1.8377405405044556,-0.02412961795926094,0.0,0.7852509021759033,0.0003233910247217864,0.5047058463096619,0.5054854154586792,1.0542068481445312,1.9275341033935547,-0.03932740166783333,0.0,0.7857775092124939,0.0006196227623149753,-0.5011488795280457,-0.5028525590896606,,,,,,,,,,,,,,,,,,,,,,,,,,,,,,,,,,,,,,,,,,,,,,,,,,,,,,,,,,,,,,,,,,,,,,,,,,,,,,,,,,,,,,,,,,,,,,,,,,,,,,,,,,,,,,,,,,,,,,,,,,,,,,,,,,,,,,-0.03571255877614021,-0.045252833515405655,0.0213696900755167,0.0,-0.042939022183418274,0.10213754326105118,0.33501502871513367,0.3961249887943268,-0.07896627485752106,0.10590889304876328,-0.0008373665623366833,0.0,0.07027937471866608,0.12227872759103775,-0.8310920000076294,-1.1215373277664185,,,,,,,,,,,,,,,,,,,,,,,,,,,,,,,,,,,,,,,,,,,,,,,,,,,,,,,,,,,,,,,,,,,,,,,,
1696194561.7668846,1.0533065795898438,1.8366528749465942,-0.023356838151812553,0.0,0.7853604555130005,0.00011332955182297155,0.5485219359397888,0.5489148497581482,1.051650881767273,1.9296830892562866,-0.03911752626299858,0.0,0.785520076751709,0.0002041462721535936,-0.5450900197029114,-0.545823872089386,,,,,,,,,,,,,,,,,,,,,,,,,,,,,,,,,,,,,,,,,,,,,,,,,,,,,,,,,,,,,,,,,,,,,,,,,,,,,,,,,,,,,,,,,,,,,,,,,,,,,,,,,,,,,,,,,,,,,,,,,,,,,,,,,,,,,,-0.04076841473579407,0.0052266428247094154,0.011852189898490906,0.0,-0.008775407448410988,0.03822622448205948,0.2585155665874481,0.28241148591041565,-0.06895259022712708,0.01675741747021675,0.015869613736867905,0.0,0.01617671363055706,0.04274124279618263,-0.38422203063964844,-0.46689391136169434,,,,,,,,,,,,,,,,,,,,,,,,,,,,,,,,,,,,,,,,,,,,,,,,,,,,,,,,,,,,,,,,,,,,,,,,
1696194561.9009883,1.0509886741638184,1.8379528522491455,-0.023042671382427216,0.0,0.7854284644126892,-7.914925663499162e-05,0.5777382254600525,0.5778731107711792,1.0493745803833008,1.9295542240142822,-0.03855801373720169,0.0,0.7853913307189941,-3.440700675128028e-05,-0.5752089023590088,-0.5758615136146545,,,,,,,,,,,,,,,,,,,,,,,,,,,,,,,,,,,,,,,,,,,,,,,,,,,,,,,,,,,,,,,,,,,,,,,,,,,,,,,,,,,,,,,,,,,,,,,,,,,,,,,,,,,,,,,,,,,,,,,,,,,,,,,,,,,,,,-0.03619258105754852,0.044344186782836914,0.001509465160779655,0.0,0.007946173660457134,-0.025336459279060364,0.24426528811454773,0.21818102896213531,-0.04964067414402962,-0.04339156299829483,0.021330520510673523,0.0,-0.008733958005905151,-0.030774595215916634,-0.39853236079216003,-0.3610169589519501,,,,,,,,,,,,,,,,,,,,,,,,,,,,,,,,,,,,,,,,,,,,,,,,,,,,,,,,,,,,,,,,,,,,,,,,
1696194562.0769925,1.0493015050888062,1.8401497602462769,-0.023009376600384712,0.0,0.7854191064834595,-5.591702120000264e-06,0.6002791523933411,0.6004189252853394,1.047407627105713,1.9270753860473633,-0.037639908492565155,0.0,0.785454511642456,0.00018498723511584103,-0.6050053238868713,-0.6052943468093872,,,,,,,,,,,,,,,,,,,,,,,,,,,,,,,,,,,,,,,,,,,,,,,,,,,,,,,,,,,,,,,,,,,,,,,,,,,,,,,,,,,,,,,,,,,,,,,,,,,,,,,,,,,,,,,,,,,,,,,,,,,,,,,,,,,,,,-0.005840193945914507,-0.0008970804046839476,0.0021091573871672153,0.0,-0.001318243215791881,0.0018802317790687084,0.11291103810071945,0.10173296928405762,0.001623806543648243,0.013275465928018093,-0.004079013131558895,0.0,0.03198198229074478,0.08919516205787659,-0.13016124069690704,-0.19076114892959595,,,,,,,,,,,,,,,,,,,,,,,,,,,,,,,,,,,,,,,,,,,,,,,,,,,,,,,,,,,,,,,,,,,,,,,,
1696194562.2046168,1.0491631031036377,1.8434293270111084,-0.02353689819574356,0.0,0.785499632358551,-0.00025374640244990587,0.6104141473770142,0.6103150844573975,1.0483278036117554,1.9236418008804321,-0.03721577674150467,0.0,0.7853236198425293,-0.00022792640083935112,-0.6096557378768921,-0.6091024279594421,,,,,,,,,,,,,,,,,,,,,,,,,,,,,,,,,,,,,,,,,,,,,,,,,,,,,,,,,,,,,,,,,,,,,,,,,,,,,,,,,,,,,,,,,,,,,,,,,,,,,,,,,,,,,,,,,,,,,,,,,,,,,,,,,,,,,,0.0324493907392025,0.054061371833086014,-0.022885363548994064,0.0,0.015934158116579056,-0.04294153302907944,0.06451176851987839,0.030997222289443016,0.04006856307387352,-0.06618518382310867,0.0021359629463404417,0.0,-0.00307842786423862,-0.01756906323134899,0.03502458333969116,0.11496875435113907,,,,,,,,,,,,,,,,,,,,,,,,,,,,,,,,,,,,,,,,,,,,,,,,,,,,,,,,,,,,,,,,,,,,,,,,
1696194562.3601735,1.0520704984664917,1.8457717895507812,-0.024561019614338875,0.0,0.7854238152503967,8.153586531989276e-05,0.6003818511962891,0.6003611087799072,1.050603985786438,1.9215359687805176,-0.03736165910959244,0.0,0.785341203212738,-0.00017659594595897943,-0.6007032990455627,-0.5999014377593994,,,,,,,,,,,,,,,,,,,,,,,,,,,,,,,,,,,,,,,,,,,,,,,,,,,,,,,,,,,,,,,,,,,,,,,,,,,,,,,,,,,,,,,,,,,,,,,,,,,,,,,,,,,,,,,,,,,,,,,,,,,,,,,,,,,,,,0.022957539185881615,0.006692297291010618,-0.0037855252157896757,0.0,-0.004400127567350864,0.04163007065653801,-0.2962433695793152,-0.26811474561691284,0.02046196535229683,-0.018621908500790596,-0.0013933653244748712,0.0,-0.0036056763492524624,-0.0177372545003891,0.24976006150245667,0.2992209196090698,,,,,,,,,,,,,,,,,,,,,,,,,,,,,,,,,,,,,,,,,,,,,,,,,,,,,,,,,,,,,,,,,,,,,,,,
1696194562.5483243,1.055131435394287,1.844585657119751,-0.02506962977349758,0.0,0.7853879928588867,7.492818986065686e-05,0.5762292742729187,0.5758904814720154,1.053233027458191,1.921189546585083,-0.03791506215929985,0.0,0.7853586077690125,-0.00012005557073280215,-0.5802525281906128,-0.5799472332000732,,,,,,,,,,,,,,,,,,,,,,,,,,,,,,,,,,,,,,,,,,,,,,,,,,,,,,,,,,,,,,,,,,,,,,,,,,,,,,,,,,,,,,,,,,,,,,,,,,,,,,,,,,,,,,,,,,,,,,,,,,,,,,,,,,,,,,0.018806153908371925,-0.011483156122267246,-0.0015352683840319514,0.0,0.002443670993670821,-0.013547047041356564,-0.4086242914199829,-0.433337539434433,-0.0023024489637464285,-0.009877032600343227,0.0032302727922797203,0.0,-0.008089940994977951,-0.040211185812950134,0.12626691162586212,0.15035946667194366,,,,,,,,,,,,,,,,,,,,,,,,,,,,,,,,,,,,,,,,,,,,,,,,,,,,,,,,,,,,,,,,,,,,,,,,
1696194562.6785302,1.0563336610794067,1.8431848287582397,-0.02512497641146183,0.0,0.7853666543960571,-0.00014745637599844486,0.5596198439598083,0.5588365793228149,1.0552231073379517,1.9235750436782837,-0.03883078694343567,0.0,0.7853984236717224,-2.369457251916174e-05,-0.5451083779335022,-0.544761598110199,,,,,,,,,,,,,,,,,,,,,,,,,,,,,,,,,,,,,,,,,,,,,,,,,,,,,,,,,,,,,,,,,,,,,,,,,,,,,,,,,,,,,,,,,,,,,,,,,,,,,,,,,,,,,,,,,,,,,,,,,,,,,,,,,,,,,,-0.008173074573278427,0.036571331322193146,-0.008099163882434368,0.0,0.010439100675284863,-0.1102181077003479,-0.32069098949432373,-0.375924289226532,0.007073612418025732,-0.003407837823033333,-0.00033265669480897486,0.0,0.01140555739402771,0.02574598230421543,0.18082118034362793,0.09668958932161331,,,,,,,,,,,,,,,,,,,,,,,,,,,,,,,,,,,,,,,,,,,,,,,,,,,,,,,,,,,,,,,,,,,,,,,,
1696194562.8164866,1.0570855140686035,1.8385626077651978,-0.024530859664082527,0.0,0.7852988243103027,0.00011674646520987153,0.515274167060852,0.5139892101287842,1.0551947355270386,1.927018404006958,-0.03946813941001892,0.0,0.7853648662567139,-0.0001561073149787262,-0.5072862505912781,-0.5069790482521057,,,,,,,,,,,,,,,,,,,,,,,,,,,,,,,,,,,,,,,,,,,,,,,,,,,,,,,,,,,,,,,,,,,,,,,,,,,,,,,,,,,,,,,,,,,,,,,,,,,,,,,,,,,,,,,,,,,,,,,,,,,,,,,,,,,,,,-0.02010735124349594,-0.055787552148103714,0.012682709842920303,0.0,-0.006718246731907129,-0.0425606369972229,-0.65452641248703,-0.7886687517166138,0.002164434874430299,-0.0005930268089286983,0.0006589908734895289,0.0,0.0002154506801161915,-0.07394114881753922,0.28065553307533264,0.2930048108100891,,,,,,,,,,,,,,,,,,,,,,,,,,,,,,,,,,,,,,,,,,,,,,,,,,,,,,,,,,,,,,,,,,,,,,,,
1696194562.9581501,1.0554988384246826,1.8356642723083496,-0.02370598167181015,0.0,0.7853267192840576,-7.05233687767759e-05,0.47351589798927307,0.47241711616516113,1.054007887840271,1.9294487237930298,-0.03964150324463844,0.0,0.7853384017944336,3.21801271638833e-05,-0.4789101183414459,-0.47877752780914307,,,,,,,,,,,,,,,,,,,,,,,,,,,,,,,,,,,,,,,,,,,,,,,,,,,,,,,,,,,,,,,,,,,,,,,,,,,,,,,,,,,,,,,,,,,,,,,,,,,,,,,,,,,,,,,,,,,,,,,,,,,,,,,,,,,,,,-0.020462509244680405,-0.016199713572859764,0.004242032766342163,0.0,-0.008588651195168495,-0.0644611269235611,-0.4056893289089203,-0.46752989292144775,-0.03258908912539482,0.026445308700203896,0.0035597379319369793,0.0,-0.00832278747111559,0.020749971270561218,0.22973515093326569,0.2120669037103653,,,,,,,,,,,,,,,,,,,,,,,,,,,,,,,,,,,,,,,,,,,,,,,,,,,,,,,,,,,,,,,,,,,,,,,,
1696194563.1158423,1.0530426502227783,1.8349500894546509,-0.023015866056084633,0.0,0.7854247689247131,-1.2428933587216306e-05,0.44184890389442444,0.4410676062107086,1.0511291027069092,1.931549310684204,-0.03934549167752266,0.0,0.7852374315261841,-6.000470239087008e-05,-0.4415239691734314,-0.44138696789741516,,,,,,,,,,,,,,,,,,,,,,,,,,,,,,,,,,,,,,,,,,,,,,,,,,,,,,,,,,,,,,,,,,,,,,,,,,,,,,,,,,,,,,,,,,,,,,,,,,,,,,,,,,,,,,,,,,,,,,,,,,,,,,,,,,,,,,-0.064974345266819,0.03919488936662674,0.013243557885289192,0.0,0.007590816356241703,-0.01079261489212513,-0.3171413540840149,-0.4008149206638336,-0.06813742965459824,-0.00796050950884819,0.020098436623811722,0.0,-0.026642704382538795,-0.002826871583238244,0.36491522192955017,0.3725426495075226,,,,,,,,,,,,,,,,,,,,,,,,,,,,,,,,,,,,,,,,,,,,,,,,,,,,,,,,,,,,,,,,,,,,,,,,
1696194563.2644277,1.0501720905303955,1.8362455368041992,-0.022586174309253693,0.0,0.7853417992591858,4.4198335672263056e-05,0.4129590690135956,0.41258305311203003,1.0479704141616821,1.9311028718948364,-0.03851731866598129,0.0,0.785259485244751,-9.210916323354468e-05,-0.4105058014392853,-0.41035544872283936,,,,,,,,,,,,,,,,,,,,,,,,,,,,,,,,,,,,,,,,,,,,,,,,,,,,,,,,,,,,,,,,,,,,,,,,,,,,,,,,,,,,,,,,,,,,,,,,,,,,,,,,,,,,,,,,,,,,,,,,,,,,,,,,,,,,,,0.005541846621781588,-0.02494017593562603,0.0023607532493770123,0.0,-0.030633291229605675,0.048119574785232544,-0.22073161602020264,-0.1530134528875351,-0.03924782574176788,-0.046671655029058456,0.01951565593481064,0.0,0.0011029072338715196,0.023178599774837494,0.30940502882003784,0.30599597096443176,,,,,,,,,,,,,,,,,,,,,,,,,,,,,,,,,,,,,,,,,,,,,,,,,,,,,,,,,,,,,,,,,,,,,,,,
1696194563.3747573,1.0479736328125,1.8406842947006226,-0.02281259000301361,0.0,0.785521924495697,-0.00034701780532486737,0.3926701843738556,0.3922003209590912,1.0463166236877441,1.9281405210494995,-0.037577252835035324,0.0,0.7852231860160828,-0.0003461182932369411,-0.3924174904823303,-0.39207810163497925,,,,,,,,,,,,,,,,,,,,,,,,,,,,,,,,,,,,,,,,,,,,,,,,,,,,,,,,,,,,,,,,,,,,,,,,,,,,,,,,,,,,,,,,,,,,,,,,,,,,,,,,,,,,,,,,,,,,,,,,,,,,,,,,,,,,,,-0.01899666339159012,0.09927257895469666,-0.01567782834172249,0.0,0.02442201040685177,-0.08243685960769653,-0.04063630849123001,-0.10985594242811203,-0.01428826991468668,-0.08633990585803986,0.02154565043747425,0.0,-0.033012472093105316,-0.08664528280496597,0.10133722424507141,0.17819276452064514,,,,,,,,,,,,,,,,,,,,,,,,,,,,,,,,,,,,,,,,,,,,,,,,,,,,,,,,,,,,,,,,,,,,,,,,
1696194563.5928285,1.0476356744766235,1.8442081212997437,-0.023314911872148514,0.0,0.785489022731781,-0.00028338871197775006,0.38310134410858154,0.38306689262390137,1.0460704565048218,1.9250986576080322,-0.036956168711185455,0.0,0.7853199243545532,-0.00027668874827213585,-0.383122056722641,-0.38282936811447144,,,,,,,,,,,,,,,,,,,,,,,,,,,,,,,,,,,,,,,,,,,,,,,,,,,,,,,,,,,,,,,,,,,,,,,,,,,,,,,,,,,,,,,,,,,,,,,,,,,,,,,,,,,,,,,,,,,,,,,,,,,,,,,,,,,,,,0.02435334585607052,0.06687776744365692,-0.022686073556542397,0.0,0.013242829591035843,-0.05070064216852188,0.07056573778390884,0.056767452508211136,0.031062157824635506,-0.0744950920343399,0.007160994689911604,0.0,-0.015337283723056316,-0.06995520740747452,-0.040993835777044296,0.011625828221440315,,,,,,,,,,,,,,,,,,,,,,,,,,,,,,,,,,,,,,,,,,,,,,,,,,,,,,,,,,,,,,,,,,,,,,,,
1696194563.7492917,1.0492256879806519,1.8466262817382812,-0.024036820977926254,0.0,0.7854395508766174,8.961536514107138e-05,0.3865513503551483,0.38692355155944824,1.047790288925171,1.9218940734863281,-0.03676418960094452,0.0,0.7853716611862183,6.831488008174347e-06,-0.38673722743988037,-0.3866507112979889,,,,,,,,,,,,,,,,,,,,,,,,,,,,,,,,,,,,,,,,,,,,,,,,,,,,,,,,,,,,,,,,,,,,,,,,,,,,,,,,,,,,,,,,,,,,,,,,,,,,,,,,,,,,,,,,,,,,,,,,,,,,,,,,,,,,,,-0.003691710764542222,0.010223927907645702,0.0037358137778937817,0.0,-0.0021115057170391083,0.052478108555078506,0.04797200858592987,0.0020985391456633806,-0.007734791375696659,-0.007390337064862251,0.0034604219254106283,0.0,-0.014965386129915714,0.021078264340758324,-0.03831055760383606,-0.06622342020273209,,,,,,,,,,,,,,,,,,,,,,,,,,,,,,,,,,,,,,,,,,,,,,,,,,,,,,,,,,,,,,,,,,,,,,,,
1696194563.9550347,1.0524423122406006,1.8473871946334839,-0.024910209700465202,0.0,0.7854129076004028,4.7367619117721915e-05,0.4013863801956177,0.40196847915649414,1.0514122247695923,1.9198139905929565,-0.037238895893096924,0.0,0.7855425477027893,4.8781974328448996e-05,-0.4034363925457001,-0.4034598469734192,,,,,,,,,,,,,,,,,,,,,,,,,,,,,,,,,,,,,,,,,,,,,,,,,,,,,,,,,,,,,,,,,,,,,,,,,,,,,,,,,,,,,,,,,,,,,,,,,,,,,,,,,,,,,,,,,,,,,,,,,,,,,,,,,,,,,,0.029229693114757538,-0.008178898133337498,-0.005022514145821333,0.0,0.0056801727041602135,0.01800921931862831,0.16484934091567993,0.23083627223968506,0.07030977308750153,0.007248133886605501,-0.020345326513051987,0.0,0.02817840315401554,0.009158420376479626,-0.2707515060901642,-0.2839593291282654,,,,,,,,,,,,,,,,,,,,,,,,,,,,,,,,,,,,,,,,,,,,,,,,,,,,,,,,,,,,,,,,,,,,,,,,
1696194564.06102,1.0549120903015137,1.8462430238723755,-0.02528694085776806,0.0,0.785436749458313,-1.902682924992405e-05,0.41925081610679626,0.41951969265937805,1.053454875946045,1.9199670553207397,-0.037747278809547424,0.0,0.7855368256568909,0.00017279516032431275,-0.41869622468948364,-0.41887733340263367,,,,,,,,,,,,,,,,,,,,,,,,,,,,,,,,,,,,,,,,,,,,,,,,,,,,,,,,,,,,,,,,,,,,,,,,,,,,,,,,,,,,,,,,,,,,,,,,,,,,,,,,,,,,,,,,,,,,,,,,,,,,,,,,,,,,,,0.002618408063426614,0.010411138646304607,-0.001955891726538539,0.0,0.019793542101979256,-0.020050108432769775,0.13727086782455444,0.09918215125799179,0.03679656982421875,0.027653377503156662,-0.01573631726205349,0.0,0.028234198689460754,0.04906362667679787,-0.1485239714384079,-0.19300290942192078,,,,,,,,,,,,,,,,,,,,,,,,,,,,,,,,,,,,,,,,,,,,,,,,,,,,,,,,,,,,,,,,,,,,,,,,
1696194564.1737528,1.057776689529419,1.8417526483535767,-0.02521759644150734,0.0,0.7853116989135742,0.00019422807963564992,0.45672211050987244,0.45727381110191345,1.056044578552246,1.9228785037994385,-0.03890886902809143,0.0,0.785603404045105,0.00022642149997409433,-0.45444920659065247,-0.4550571143627167,,,,,,,,,,,,,,,,,,,,,,,,,,,,,,,,,,,,,,,,,,,,,,,,,,,,,,,,,,,,,,,,,,,,,,,,,,,,,,,,,,,,,,,,,,,,,,,,,,,,,,,,,,,,,,,,,,,,,,,,,,,,,,,,,,,,,,0.02101130783557892,-0.0597529299557209,0.007039330899715424,0.0,-0.02206917479634285,0.049825482070446014,0.16160865128040314,0.17202375829219818,0.015196871012449265,0.07139967381954193,-0.017892468720674515,0.0,0.004882547073066235,-0.008007965050637722,-0.4767579436302185,-0.5373268127441406,,,,,,,,,,,,,,,,,,,,,,,,,,,,,,,,,,,,,,,,,,,,,,,,,,,,,,,,,,,,,,,,,,,,,,,,
1696194564.3024633,1.0582871437072754,1.8391278982162476,-0.024904422461986542,0.0,0.7853313684463501,0.00014402288070414215,0.47845643758773804,0.47937512397766113,1.0565394163131714,1.9253699779510498,-0.03948548808693886,0.0,0.7855896353721619,0.0002551602083258331,-0.478527307510376,-0.47956883907318115,,,,,,,,,,,,,,,,,,,,,,,,,,,,,,,,,,,,,,,,,,,,,,,,,,,,,,,,,,,,,,,,,,,,,,,,,,,,,,,,,,,,,,,,,,,,,,,,,,,,,,,,,,,,,,,,,,,,,,,,,,,,,,,,,,,,,,-0.013130264356732368,-0.060384441167116165,0.011782902292907238,0.0,0.018053891137242317,-0.038438621908426285,0.6295608878135681,0.6594928503036499,-0.016260161995887756,0.0660192221403122,-0.00819665938615799,0.0,-0.011472848244011402,-0.02699822001159191,-0.5873299837112427,-0.649804949760437,,,,,,,,,,,,,,,,,,,,,,,,,,,,,,,,,,,,,,,,,,,,,,,,,,,,,,,,,,,,,,,,,,,,,,,,
1696194564.518042,1.057262659072876,1.8346786499023438,-0.02397111803293228,0.0,0.7854233980178833,-0.0001330103405052796,0.5230626463890076,0.5232337117195129,1.0553585290908813,1.9300544261932373,-0.040078628808259964,0.0,0.7854217290878296,1.1130063285236247e-05,-0.5228413343429565,-0.5233755111694336,,,,,,,,,,,,,,,,,,,,,,,,,,,,,,,,,,,,,,,,,,,,,,,,,,,,,,,,,,,,,,,,,,,,,,,,,,,,,,,,,,,,,,,,,,,,,,,,,,,,,,,,,,,,,,,,,,,,,,,,,,,,,,,,,,,,,,0.0021883798763155937,-0.004195754881948233,-0.0056976922787725925,0.0,0.027756918221712112,-0.07898271083831787,0.3565725088119507,0.2894822359085083,0.0066026546992361546,0.003698035841807723,-0.002245935844257474,0.0,-0.02765766717493534,-0.058974817395210266,-0.2903159558773041,-0.23638680577278137,,,,,,,,,,,,,,,,,,,,,,,,,,,,,,,,,,,,,,,,,,,,,,,,,,,,,,,,,,,,,,,,,,,,,,,,
1696194564.6451771,1.0542116165161133,1.833243489265442,-0.023032937198877335,0.0,0.7853878736495972,-4.919569619232789e-05,0.5562992095947266,0.5563607811927795,1.0522570610046387,1.9326882362365723,-0.03983635827898979,0.0,0.7854422330856323,8.737567259231582e-05,-0.5561876893043518,-0.5565301179885864,,,,,,,,,,,,,,,,,,,,,,,,,,,,,,,,,,,,,,,,,,,,,,,,,,,,,,,,,,,,,,,,,,,,,,,,,,,,,,,,,,,,,,,,,,,,,,,,,,,,,,,,,,,,,,,,,,,,,,,,,,,,,,,,,,,,,,-0.001509673660621047,-0.009701710194349289,-0.0005017490475438535,0.0,0.004511944483965635,-0.030037278309464455,0.19101229310035706,0.16287149488925934,0.0004596453800331801,0.01249209139496088,-0.0026837089098989964,0.0,0.0003373552463017404,0.006389941088855267,-0.15668918192386627,-0.16330471634864807,,,,,,,,,,,,,,,,,,,,,,,,,,,,,,,,,,,,,,,,,,,,,,,,,,,,,,,,,,,,,,,,,,,,,,,,
1696194564.7647529,1.051957368850708,1.8337044715881348,-0.022593103349208832,0.0,0.7853844165802002,-2.14222636714112e-05,0.5743637084960938,0.5744441151618958,1.0500296354293823,1.9331773519515991,-0.0394054539501667,0.0,0.7854564189910889,0.00017135372036136687,-0.5742235779762268,-0.5748608708381653,,,,,,,,,,,,,,,,,,,,,,,,,,,,,,,,,,,,,,,,,,,,,,,,,,,,,,,,,,,,,,,,,,,,,,,,,,,,,,,,,,,,,,,,,,,,,,,,,,,,,,,,,,,,,,,,,,,,,,,,,,,,,,,,,,,,,,0.003414958016946912,-0.022801494225859642,-0.000755930959712714,0.0,-0.002663218416273594,0.0094266626983881,0.2173345983028412,0.22770923376083374,0.007206757552921772,0.020512674003839493,-0.007958215661346912,0.0,0.011050444096326828,0.031063010916113853,-0.22986623644828796,-0.2676810622215271,,,,,,,,,,,,,,,,,,,,,,,,,,,,,,,,,,,,,,,,,,,,,,,,,,,,,,,,,,,,,,,,,,,,,,,,
1696194564.89116,1.0483468770980835,1.8368598222732544,-0.022271066904067993,0.0,0.7854452133178711,-0.00018426541646476835,0.5981746315956116,0.5980920195579529,1.0465294122695923,1.9316333532333374,-0.03828183934092522,0.0,0.7853758335113525,-1.7699313730190624e-06,-0.5979254841804504,-0.5983545184135437,,,,,,,,,,,,,,,,,,,,,,,,,,,,,,,,,,,,,,,,,,,,,,,,,,,,,,,,,,,,,,,,,,,,,,,,,,,,,,,,,,,,,,,,,,,,,,,,,,,,,,,,,,,,,,,,,,,,,,,,,,,,,,,,,,,,,,-0.04224109649658203,0.07149688154459,-0.0013666407903656363,0.0,0.0013011216651648283,-0.014653467573225498,0.23600079119205475,0.22762912511825562,-0.03873632848262787,-0.052566174417734146,0.020411036908626556,0.0,0.008872409351170063,0.030326543375849724,-0.20850807428359985,-0.26362448930740356,,,,,,,,,,,,,,,,,,,,,,,,,,,,,,,,,,,,,,,,,,,,,,,,,,,,,,,,,,,,,,,,,,,,,,,,
1696194565.001186,1.0470337867736816,1.8395668268203735,-0.022417472675442696,0.0,0.7855185866355896,-0.00028939940966665745,0.6083316206932068,0.6082488298416138,1.0453275442123413,1.9295822381973267,-0.03762242570519447,0.0,0.7852792739868164,-0.00022156129125505686,-0.6081265807151794,-0.6081677675247192,,,,,,,,,,,,,,,,,,,,,,,,,,,,,,,,,,,,,,,,,,,,,,,,,,,,,,,,,,,,,,,,,,,,,,,,,,,,,,,,,,,,,,,,,,,,,,,,,,,,,,,,,,,,,,,,,,,,,,,,,,,,,,,,,,,,,,-0.015917954966425896,0.08404862135648727,-0.011141117662191391,0.0,0.018619263544678688,-0.055319905281066895,0.16822440922260284,0.13495104014873505,-0.014173244126141071,-0.07194869965314865,0.017294572666287422,0.0,-0.02355625107884407,-0.059240374714136124,-0.11839471012353897,-0.08768913149833679,,,,,,,,,,,,,,,,,,,,,,,,,,,,,,,,,,,,,,,,,,,,,,,,,,,,,,,,,,,,,,,,,,,,,,,,
1696194565.107857,1.0466243028640747,1.843123197555542,-0.022880885750055313,0.0,0.7853960990905762,0.00013161184324417263,0.6145339012145996,0.6147176623344421,1.0450540781021118,1.9263255596160889,-0.036954768002033234,0.0,0.7854097485542297,0.00011247210932197049,-0.6147937774658203,-0.6148205995559692,,,,,,,,,,,,,,,,,,,,,,,,,,,,,,,,,,,,,,,,,,,,,,,,,,,,,,,,,,,,,,,,,,,,,,,,,,,,,,,,,,,,,,,,,,,,,,,,,,,,,,,,,,,,,,,,,,,,,,,,,,,,,,,,,,,,,,-0.0012393775396049023,-0.004732643719762564,0.007324011996388435,0.0,-0.02313120663166046,0.0882946252822876,-0.08718803524971008,-0.018103554844856262,-0.004774929489940405,0.003965913318097591,-0.0006533876876346767,0.0,0.022532720118761063,0.07894127070903778,-0.014658723026514053,-0.07727593928575516,,,,,,,,,,,,,,,,,,,,,,,,,,,,,,,,,,,,,,,,,,,,,,,,,,,,,,,,,,,,,,,,,,,,,,,,
1696194565.2866256,1.0474141836166382,1.8471858501434326,-0.023714033886790276,0.0,0.7854011058807373,0.00013572280295193195,0.6162097454071045,0.6163821816444397,1.0459976196289062,1.9220877885818481,-0.036383822560310364,0.0,0.7853887677192688,2.8753091100952588e-05,-0.6165022253990173,-0.6162583231925964,,,,,,,,,,,,,,,,,,,,,,,,,,,,,,,,,,,,,,,,,,,,,,,,,,,,,,,,,,,,,,,,,,,,,,,,,,,,,,,,,,,,,,,,,,,,,,,,,,,,,,,,,,,,,,,,,,,,,,,,,,,,,,,,,,,,,,-0.0022244760766625404,0.0034381479490548372,0.007266365922987461,0.0,-0.018579740077257156,0.07399950921535492,-0.15421900153160095,-0.09835440665483475,-0.007237043231725693,-0.003302097087725997,0.0026611466892063618,0.0,0.01374064665287733,0.05469106137752533,0.07205544412136078,0.03427032381296158,,,,,,,,,,,,,,,,,,,,,,,,,,,,,,,,,,,,,,,,,,,,,,,,,,,,,,,,,,,,,,,,,,,,,,,,
1696194565.4119463,1.0505540370941162,1.8492772579193115,-0.024802692234516144,0.0,0.7854599356651306,-0.0001623478892724961,0.6065917015075684,0.6065143346786499,1.0492435693740845,1.9187824726104736,-0.03653591126203537,0.0,0.7853575944900513,-0.00013014783326070756,-0.606585681438446,-0.6061009764671326,,,,,,,,,,,,,,,,,,,,,,,,,,,,,,,,,,,,,,,,,,,,,,,,,,,,,,,,,,,,,,,,,,,,,,,,,,,,,,,,,,,,,,,,,,,,,,,,,,,,,,,,,,,,,,,,,,,,,,,,,,,,,,,,,,,,,,0.06604814529418945,-0.0009086618665605783,-0.02172321453690529,0.0,0.010422981344163418,-0.04198380559682846,-0.07121161371469498,-0.10343579947948456,0.07172999531030655,-0.02575271762907505,-0.013808156363666058,0.0,-0.003118452150374651,-0.018947426229715347,0.11585076153278351,0.1222584918141365,,,,,,,,,,,,,,,,,,,,,,,,,,,,,,,,,,,,,,,,,,,,,,,,,,,,,,,,,,,,,,,,,,,,,,,,
1696194565.5567627,1.0535798072814941,1.8492566347122192,-0.02547057718038559,0.0,0.7854022979736328,-5.4674332204740494e-05,0.5920580625534058,0.5920170545578003,1.0522860288619995,1.9175118207931519,-0.03701004013419151,0.0,0.7853778600692749,-7.825752254575491e-05,-0.5918276309967041,-0.5914312601089478,,,,,,,,,,,,,,,,,,,,,,,,,,,,,,,,,,,,,,,,,,,,,,,,,,,,,,,,,,,,,,,,,,,,,,,,,,,,,,,,,,,,,,,,,,,,,,,,,,,,,,,,,,,,,,,,,,,,,,,,,,,,,,,,,,,,,,0.013987583108246326,-0.002908316906541586,-0.003952871076762676,0.0,0.00014978519175201654,-0.01307716965675354,0.01026869472116232,0.0069948588497936726,0.0022586563136428595,-0.012341232970356941,0.0037665788549929857,0.0,0.0005515559460036457,-0.0027050087228417397,0.12483170628547668,0.1489948034286499,,,,,,,,,,,,,,,,,,,,,,,,,,,,,,,,,,,,,,,,,,,,,,,,,,,,,,,,,,,,,,,,,,,,,,,,
1696194565.679354,1.0560822486877441,1.847960114479065,-0.025837864726781845,0.0,0.7854067087173462,-2.4764418412814848e-05,0.5768483281135559,0.5767093300819397,1.0553895235061646,1.918170690536499,-0.037868693470954895,0.0,0.7853492498397827,-0.00019176537171006203,-0.5712819695472717,-0.570658266544342,,,,,,,,,,,,,,,,,,,,,,,,,,,,,,,,,,,,,,,,,,,,,,,,,,,,,,,,,,,,,,,,,,,,,,,,,,,,,,,,,,,,,,,,,,,,,,,,,,,,,,,,,,,,,,,,,,,,,,,,,,,,,,,,,,,,,,-0.0030593383125960827,0.023455096408724785,-0.0017250252421945333,0.0,0.007862133905291557,-0.0389280803501606,-0.16661818325519562,-0.1934318244457245,-0.004721153061836958,-0.019237902015447617,0.007646641694009304,0.0,-0.013088385574519634,-0.05336004123091698,0.21597321331501007,0.27194744348526,,,,,,,,,,,,,,,,,,,,,,,,,,,,,,,,,,,,,,,,,,,,,,,,,,,,,,,,,,,,,,,,,,,,,,,,
1696194565.7940516,1.0589592456817627,1.8440672159194946,-0.025871101766824722,0.0,0.7853397130966187,0.0002142023731721565,0.5506120920181274,0.5503753423690796,1.0575535297393799,1.920464277267456,-0.03882073238492012,0.0,0.7854329347610474,0.00014285773795563728,-0.5487501621246338,-0.5486118197441101,,,,,,,,,,,,,,,,,,,,,,,,,,,,,,,,,,,,,,,,,,,,,,,,,,,,,,,,,,,,,,,,,,,,,,,,,,,,,,,,,,,,,,,,,,,,,,,,,,,,,,,,,,,,,,,,,,,,,,,,,,,,,,,,,,,,,,0.02842704951763153,-0.0787883773446083,0.006180570460855961,0.0,-0.0017639651196077466,0.008490105159580708,-0.3773311972618103,-0.4160420000553131,0.024239851161837578,0.0450601689517498,-0.016098331660032272,0.0,0.012731165625154972,0.05702221393585205,0.176851287484169,0.0927467867732048,,,,,,,,,,,,,,,,,,,,,,,,,,,,,,,,,,,,,,,,,,,,,,,,,,,,,,,,,,,,,,,,,,,,,,,,
1696194565.9366586,1.0603785514831543,1.8396841287612915,-0.025476165115833282,0.0,0.7853004932403564,0.0003636891779024154,0.5219507813453674,0.5217530131340027,1.0586533546447754,1.9239953756332397,-0.03974306583404541,0.0,0.7854199409484863,0.00021395506337285042,-0.5219061970710754,-0.5218333601951599,,,,,,,,,,,,,,,,,,,,,,,,,,,,,,,,,,,,,,,,,,,,,,,,,,,,,,,,,,,,,,,,,,,,,,,,,,,,,,,,,,,,,,,,,,,,,,,,,,,,,,,,,,,,,,,,,,,,,,,,,,,,,,,,,,,,,,0.007677439600229263,-0.0964217334985733,0.018741892650723457,0.0,-0.014607656747102737,0.0866365060210228,-0.39584898948669434,-0.34394127130508423,-0.0008156825788319111,0.08907667547464371,-0.017889153212308884,0.0,0.003349898848682642,0.04522760584950447,0.32014912366867065,0.28506508469581604,,,,,,,,,,,,,,,,,,,,,,,,,,,,,,,,,,,,,,,,,,,,,,,,,,,,,,,,,,,,,,,,,,,,,,,,
1696194566.073115,1.0599924325942993,1.8355886936187744,-0.024729041382670403,0.0,0.785301923751831,0.00011462126713013276,0.4936179518699646,0.492672860622406,1.0580967664718628,1.928074836730957,-0.04036556929349899,0.0,0.7853725552558899,7.265059684868902e-05,-0.49317505955696106,-0.4930516481399536,,,,,,,,,,,,,,,,,,,,,,,,,,,,,,,,,,,,,,,,,,,,,,,,,,,,,,,,,,,,,,,,,,,,,,,,,,,,,,,,,,,,,,,,,,,,,,,,,,,,,,,,,,,,,,,,,,,,,,,,,,,,,,,,,,,,,,-0.02599097043275833,-0.05528709292411804,0.013963734731078148,0.0,-0.0031275637447834015,-0.04308712109923363,-0.42108020186424255,-0.5276933908462524,-0.028783826157450676,0.06656329333782196,-0.005121993366628885,0.0,-0.00430598808452487,-0.02916283905506134,0.4819130599498749,0.5051722526550293,,,,,,,,,,,,,,,,,,,,,,,,,,,,,,,,,,,,,,,,,,,,,,,,,,,,,,,,,,,,,,,,,,,,,,,,
1696194566.1949751,1.0591758489608765,1.8336076736450195,-0.024239104241132736,0.0,0.785372793674469,-6.408799526980147e-05,0.47714513540267944,0.4768576920032501,1.0572174787521362,1.9302985668182373,-0.040571704506874084,0.0,0.785402238368988,-8.360816536878701e-06,-0.47686222195625305,-0.47683408856391907,,,,,,,,,,,,,,,,,,,,,,,,,,,,,,,,,,,,,,,,,,,,,,,,,,,,,,,,,,,,,,,,,,,,,,,,,,,,,,,,,,,,,,,,,,,,,,,,,,,,,,,,,,,,,,,,,,,,,,,,,,,,,,,,,,,,,,0.0010047516552731395,-0.009993617422878742,-0.0014889572048559785,0.0,0.002315476769581437,-0.051262449473142624,-0.08971331268548965,-0.10364283621311188,0.0023658627178519964,0.011646414175629616,-0.0023300768807530403,0.0,0.006944512017071247,-0.01541773322969675,0.13228590786457062,0.13146109879016876,,,,,,,,,,,,,,,,,,,,,,,,,,,,,,,,,,,,,,,,,,,,,,,,,,,,,,,,,,,,,,,,,,,,,,,,
1696194566.3394918,1.055053949356079,1.831346869468689,-0.022914355620741844,0.0,0.7853957414627075,9.945670899469405e-05,0.4409627616405487,0.4406294822692871,1.053009033203125,1.934140682220459,-0.04029016196727753,0.0,0.7853281497955322,-1.2040608453389723e-05,-0.4408859610557556,-0.4408313035964966,,,,,,,,,,,,,,,,,,,,,,,,,,,,,,,,,,,,,,,,,,,,,,,,,,,,,,,,,,,,,,,,,,,,,,,,,,,,,,,,,,,,,,,,,,,,,,,,,,,,,,,,,,,,,,,,,,,,,,,,,,,,,,,,,,,,,,-0.040712449699640274,0.005760012194514275,0.01242902223020792,0.0,0.007939370349049568,0.027660008519887924,-0.20447516441345215,-0.14913436770439148,-0.04363061860203743,0.00966138020157814,0.009617234580218792,0.0,-0.0147653017193079,-0.0030649860855191946,0.15437787771224976,0.18137475848197937,,,,,,,,,,,,,,,,,,,,,,,,,,,,,,,,,,,,,,,,,,,,,,,,,,,,,,,,,,,,,,,,,,,,,,,,
1696194566.4670815,1.0525805950164795,1.8316550254821777,-0.02239038236439228,0.0,0.7854153513908386,-2.5467581508564763e-05,0.42566537857055664,0.42503535747528076,1.0505452156066895,1.9348746538162231,-0.03983813896775246,0.0,0.785271406173706,-4.656169767258689e-05,-0.42536935210227966,-0.42537352442741394,,,,,,,,,,,,,,,,,,,,,,,,,,,,,,,,,,,,,,,,,,,,,,,,,,,,,,,,,,,,,,,,,,,,,,,,,,,,,,,,,,,,,,,,,,,,,,,,,,,,,,,,,,,,,,,,,,,,,,,,,,,,,,,,,,,,,,-0.0686330497264862,0.044909920543432236,0.01295178197324276,0.0,0.003588663414120674,-0.011197992600500584,-0.19725531339645386,-0.26528361439704895,-0.07145427912473679,-0.012867850251495838,0.0218247901648283,0.0,-0.019370604306459427,-0.002955708419904113,0.24022817611694336,0.242088183760643,,,,,,,,,,,,,,,,,,,,,,,,,,,,,,,,,,,,,,,,,,,,,,,,,,,,,,,,,,,,,,,,,,,,,,,,
1696194566.6119285,1.0493961572647095,1.83307683467865,-0.021911997348070145,0.0,0.7854086756706238,1.6288517144857906e-05,0.40755921602249146,0.40732651948928833,1.0474457740783691,1.934817910194397,-0.0391104482114315,0.0,0.7853648662567139,-3.1412680982612073e-05,-0.40750569105148315,-0.40754956007003784,,,,,,,,,,,,,,,,,,,,,,,,,,,,,,,,,,,,,,,,,,,,,,,,,,,,,,,,,,,,,,,,,,,,,,,,,,,,,,,,,,,,,,,,,,,,,,,,,,,,,,,,,,,,,,,,,,,,,,,,,,,,,,,,,,,,,,-0.009102055802941322,-0.004649549722671509,0.0018370706820860505,0.0,0.006929401773959398,0.018600646406412125,-0.11559434235095978,-0.030497802421450615,-0.008941663429141045,0.0070284283719956875,-0.0004831507976632565,0.0,-0.0009542461484670639,-0.02236865647137165,0.06308073550462723,0.09178000688552856,,,,,,,,,,,,,,,,,,,,,,,,,,,,,,,,,,,,,,,,,,,,,,,,,,,,,,,,,,,,,,,,,,,,,,,,
1696194566.7516482,1.0465372800827026,1.8363782167434692,-0.0217874888330698,0.0,0.7853910326957703,3.8024489185772836e-05,0.39375895261764526,0.39352908730506897,1.0447114706039429,1.9328311681747437,-0.03809947147965431,0.0,0.785398542881012,8.40304492157884e-05,-0.3936741352081299,-0.39383867383003235,,,,,,,,,,,,,,,,,,,,,,,,,,,,,,,,,,,,,,,,,,,,,,,,,,,,,,,,,,,,,,,,,,,,,,,,,,,,,,,,,,,,,,,,,,,,,,,,,,,,,,,,,,,,,,,,,,,,,,,,,,,,,,,,,,,,,,-0.0008218606235459447,-0.017202600836753845,0.003950842656195164,0.0,-0.011737643741071224,0.0463627353310585,-0.15135306119918823,-0.0867498517036438,-0.001991523429751396,0.017096713185310364,-0.005339215975254774,0.0,0.023405499756336212,0.036470621824264526,0.10378469526767731,0.054920610040426254,,,,,,,,,,,,,,,,,,,,,,,,,,,,,,,,,,,,,,,,,,,,,,,,,,,,,,,,,,,,,,,,,,,,,,,,
1696194566.9042873,1.0443356037139893,1.8419865369796753,-0.022200725972652435,0.0,0.7854678630828857,-0.00017897409270517528,0.3827018141746521,0.38244110345840454,1.0427367687225342,1.92835533618927,-0.03679349273443222,0.0,0.7853059768676758,-0.0001001787168206647,-0.3826082944869995,-0.38244161009788513,,,,,,,,,,,,,,,,,,,,,,,,,,,,,,,,,,,,,,,,,,,,,,,,,,,,,,,,,,,,,,,,,,,,,,,,,,,,,,,,,,,,,,,,,,,,,,,,,,,,,,,,,,,,,,,,,,,,,,,,,,,,,,,,,,,,,,-0.006141364108771086,0.06975769996643066,-0.009142248891294003,0.0,-0.010402267798781395,0.03141798451542854,-0.09747183322906494,-0.08098006993532181,-0.0022018500603735447,-0.06629803776741028,0.012672673910856247,0.0,0.01334603875875473,0.04408929497003555,0.07203082740306854,0.054226551204919815,,,,,,,,,,,,,,,,,,,,,,,,,,,,,,,,,,,,,,,,,,,,,,,,,,,,,,,,,,,,,,,,,,,,,,,,
1696194567.0408237,1.0441147089004517,1.8449357748031616,-0.02262885309755802,0.0,0.7854699492454529,-0.00023694209812674671,0.3800542950630188,0.3799087107181549,1.0426201820373535,1.925626516342163,-0.036257777363061905,0.0,0.7853262424468994,-0.00019403731857892126,-0.3799094557762146,-0.3797549903392792,,,,,,,,,,,,,,,,,,,,,,,,,,,,,,,,,,,,,,,,,,,,,,,,,,,,,,,,,,,,,,,,,,,,,,,,,,,,,,,,,,,,,,,,,,,,,,,,,,,,,,,,,,,,,,,,,,,,,,,,,,,,,,,,,,,,,,0.0026259305886924267,0.05332133173942566,-0.013398010283708572,0.0,0.011021302081644535,-0.062375593930482864,0.05835455283522606,-0.00038237066473811865,0.0061250366270542145,-0.05029186233878136,0.008942498825490475,0.0,-0.013318413868546486,-0.0546831451356411,-0.0006387103348970413,0.03413277491927147,,,,,,,,,,,,,,,,,,,,,,,,,,,,,,,,,,,,,,,,,,,,,,,,,,,,,,,,,,,,,,,,,,,,,,,,
1696194567.1873739,1.04488205909729,1.8484880924224854,-0.023386510089039803,0.0,0.7854848504066467,-0.00014360857312567532,0.3801203668117523,0.3804083466529846,1.0435346364974976,1.9218772649765015,-0.03577825427055359,0.0,0.785353422164917,-0.00019030660041607916,-0.38028761744499207,-0.37990325689315796,,,,,,,,,,,,,,,,,,,,,,,,,,,,,,,,,,,,,,,,,,,,,,,,,,,,,,,,,,,,,,,,,,,,,,,,,,,,,,,,,,,,,,,,,,,,,,,,,,,,,,,,,,,,,,,,,,,,,,,,,,,,,,,,,,,,,,0.034776847809553146,0.05044867843389511,-0.01801784336566925,0.0,0.0050427657552063465,0.014498078264296055,0.04731350764632225,0.10795492678880692,0.03985191881656647,-0.06802617013454437,0.0025234997738152742,0.0,-0.00224213651381433,-0.010437780991196632,-0.10235687345266342,-0.05166707932949066,,,,,,,,,,,,,,,,,,,,,,,,,,,,,,,,,,,,,,,,,,,,,,,,,,,,,,,,,,,,,,,,,,,,,,,,
1696194567.3163376,1.047487735748291,1.8515067100524902,-0.024453314021229744,0.0,0.7854561805725098,6.869306525913998e-05,0.38665086030960083,0.3872438073158264,1.0458083152770996,1.9182593822479248,-0.03563420847058296,0.0,0.7853816151618958,1.8994253423443297e-06,-0.3857961595058441,-0.3856097459793091,,,,,,,,,,,,,,,,,,,,,,,,,,,,,,,,,,,,,,,,,,,,,,,,,,,,,,,,,,,,,,,,,,,,,,,,,,,,,,,,,,,,,,,,,,,,,,,,,,,,,,,,,,,,,,,,,,,,,,,,,,,,,,,,,,,,,,0.023771123960614204,0.01730182021856308,-0.005153273697942495,0.0,-0.00052235386101529,0.06574780493974686,0.05936023220419884,0.11314667016267776,-0.005483165383338928,-0.010286792181432247,0.004219997674226761,0.0,-0.004959580954164267,0.03340466320514679,-0.047626007348299026,-0.06487125158309937,,,,,,,,,,,,,,,,,,,,,,,,,,,,,,,,,,,,,,,,,,,,,,,,,,,,,,,,,,,,,,,,,,,,,,,,
1696194567.4909594,1.0514501333236694,1.8527553081512451,-0.02556931972503662,0.0,0.7854459881782532,5.86962814850267e-05,0.39927223324775696,0.40027618408203125,1.049621343612671,1.9152158498764038,-0.03596146032214165,0.0,0.7854059934616089,2.2532063667313196e-05,-0.39759644865989685,-0.39755916595458984,,,,,,,,,,,,,,,,,,,,,,,,,,,,,,,,,,,,,,,,,,,,,,,,,,,,,,,,,,,,,,,,,,,,,,,,,,,,,,,,,,,,,,,,,,,,,,,,,,,,,,,,,,,,,,,,,,,,,,,,,,,,,,,,,,,,,,0.057435765862464905,-0.003752338234335184,-0.010754118673503399,0.0,0.0060952454805374146,0.02484515681862831,0.1894189566373825,0.2914702296257019,0.0064029754139482975,-0.006673598662018776,0.0007345556514337659,0.0,-0.0012512569082900882,0.019352110102772713,-0.017868634313344955,-0.07447274774312973,,,,,,,,,,,,,,,,,,,,,,,,,,,,,,,,,,,,,,,,,,,,,,,,,,,,,,,,,,,,,,,,,,,,,,,,
1696194567.6122565,1.0534889698028564,1.8525464534759521,-0.025988981127738953,0.0,0.7854292988777161,2.499997935956344e-05,0.4077146351337433,0.40796807408332825,1.0529099702835083,1.9144705533981323,-0.036611247807741165,0.0,0.7854819893836975,-5.691022670362145e-05,-0.4104771912097931,-0.4102136194705963,,,,,,,,,,,,,,,,,,,,,,,,,,,,,,,,,,,,,,,,,,,,,,,,,,,,,,,,,,,,,,,,,,,,,,,,,,,,,,,,,,,,,,,,,,,,,,,,,,,,,,,,,,,,,,,,,,,,,,,,,,,,,,,,,,,,,,0.0033915117383003235,0.009660276584327221,-0.0006717656506225467,0.0,0.0099186385050416,0.009228542447090149,0.06155812367796898,0.04863348230719566,0.052770696580410004,0.0015743138501420617,-0.013120867311954498,0.0,-0.013611811213195324,-0.029274122789502144,-0.3074038028717041,-0.26668375730514526,,,,,,,,,,,,,,,,,,,,,,,,,,,,,,,,,,,,,,,,,,,,,,,,,,,,,,,,,,,,,,,,,,,,,,,,
1696194567.7164183,1.0565547943115234,1.8509589433670044,-0.026440851390361786,0.0,0.7854315042495728,-2.934899612228037e-06,0.422059029340744,0.4223182499408722,1.0552852153778076,1.9146476984024048,-0.03720027208328247,0.0,0.7853778004646301,-9.135386790148914e-05,-0.422150582075119,-0.4220409095287323,,,,,,,,,,,,,,,,,,,,,,,,,,,,,,,,,,,,,,,,,,,,,,,,,,,,,,,,,,,,,,,,,,,,,,,,,,,,,,,,,,,,,,,,,,,,,,,,,,,,,,,,,,,,,,,,,,,,,,,,,,,,,,,,,,,,,,0.005041087977588177,0.007872471585869789,-0.0017525911098346114,0.0,0.016826462000608444,-0.013483570888638496,0.09944839775562286,0.07222109287977219,0.003177541308104992,-0.009989521466195583,0.001994494814425707,0.0,-0.027637029066681862,-0.047355081886053085,-0.09610094875097275,-0.05457616224884987,,,,,,,,,,,,,,,,,,,,,,,,,,,,,,,,,,,,,,,,,,,,,,,,,,,,,,,,,,,,,,,,,,,,,,,,
1696194567.835986,1.060497760772705,1.8463771343231201,-0.026613714173436165,0.0,0.7853327989578247,0.00021268779528327286,0.44750189781188965,0.44835805892944336,1.0587279796600342,1.9169255495071411,-0.038439709693193436,0.0,0.785407304763794,-7.103669486241415e-05,-0.4456731677055359,-0.44559046626091003,,,,,,,,,,,,,,,,,,,,,,,,,,,,,,,,,,,,,,,,,,,,,,,,,,,,,,,,,,,,,,,,,,,,,,,,,,,,,,,,,,,,,,,,,,,,,,,,,,,,,,,,,,,,,,,,,,,,,,,,,,,,,,,,,,,,,,0.03801025450229645,-0.07745510339736938,0.003365231677889824,0.0,0.0004950615693815053,0.012849404476583004,0.27521225810050964,0.3576450049877167,0.002158724470064044,-0.015651684254407883,0.005194280296564102,0.0,-0.03026215173304081,-0.04064561054110527,-0.17537154257297516,-0.11524542421102524,,,,,,,,,,,,,,,,,,,,,,,,,,,,,,,,,,,,,,,,,,,,,,,,,,,,,,,,,,,,,,,,,,,,,,,,
1696194567.9721422,1.062360167503357,1.842379093170166,-0.02640087902545929,0.0,0.7854214310646057,-4.459607589524239e-05,0.46918773651123047,0.46936750411987305,1.0607433319091797,1.92050302028656,-0.03959830105304718,0.0,0.7855386137962341,0.0002326717512914911,-0.4686019718647003,-0.4688548147678375,,,,,,,,,,,,,,,,,,,,,,,,,,,,,,,,,,,,,,,,,,,,,,,,,,,,,,,,,,,,,,,,,,,,,,,,,,,,,,,,,,,,,,,,,,,,,,,,,,,,,,,,,,,,,,,,,,,,,,,,,,,,,,,,,,,,,,0.0026172054931521416,-0.0006426337640732527,-0.0019454321591183543,0.0,0.022269271314144135,-0.049132611602544785,0.15720678865909576,0.1072143018245697,0.016265425831079483,0.05024060979485512,-0.014945846982300282,0.0,0.02618837170302868,0.059780098497867584,-0.1339527815580368,-0.1744319349527359,,,,,,,,,,,,,,,,,,,,,,,,,,,,,,,,,,,,,,,,,,,,,,,,,,,,,,,,,,,,,,,,,,,,,,,,
1696194568.0809357,1.0628972053527832,1.838491678237915,-0.025877362117171288,0.0,0.7852727770805359,0.00032939124503172934,0.48692992329597473,0.4875234365463257,1.0611220598220825,1.9235483407974243,-0.04025323688983917,0.0,0.7854709625244141,4.157797229709104e-05,-0.4854161739349365,-0.48583346605300903,,,,,,,,,,,,,,,,,,,,,,,,,,,,,,,,,,,,,,,,,,,,,,,,,,,,,,,,,,,,,,,,,,,,,,,,,,,,,,,,,,,,,,,,,,,,,,,,,,,,,,,,,,,,,,,,,,,,,,,,,,,,,,,,,,,,,,0.0014310427941381931,-0.09481765329837799,0.020002277567982674,0.0,-0.018040644004940987,0.05852334573864937,0.1646171659231186,0.24357029795646667,-0.004885138478130102,0.03435889631509781,-0.0044440641067922115,0.0,-0.03089546039700508,-0.07215594500303268,-0.2774152159690857,-0.25115618109703064,,,,,,,,,,,,,,,,,,,,,,,,,,,,,,,,,,,,,,,,,,,,,,,,,,,,,,,,,,,,,,,,,,,,,,,,
1696194568.1831489,1.0625784397125244,1.835572361946106,-0.0253605954349041,0.0,0.7854069471359253,-0.00012181727652205154,0.5038360357284546,0.5039398670196533,1.0606982707977295,1.926965594291687,-0.04078841581940651,0.0,0.7854236960411072,-4.7054982132976875e-05,-0.5036222338676453,-0.5039312839508057,,,,,,,,,,,,,,,,,,,,,,,,,,,,,,,,,,,,,,,,,,,,,,,,,,,,,,,,,,,,,,,,,,,,,,,,,,,,,,,,,,,,,,,,,,,,,,,,,,,,,,,,,,,,,,,,,,,,,,,,,,,,,,,,,,,,,,-0.0007610272732563317,-0.00022798310965299606,-0.0064998711459338665,0.0,0.02683226577937603,-0.0865279957652092,0.3068847358226776,0.23207996785640717,0.003236735239624977,0.0021421723067760468,-0.00046346295857802033,0.0,-0.029079101979732513,-0.07859182357788086,-0.21894431114196777,-0.1579798460006714,,,,,,,,,,,,,,,,,,,,,,,,,,,,,,,,,,,,,,,,,,,,,,,,,,,,,,,,,,,,,,,,,,,,,,,,
1696194568.3516042,1.0606498718261719,1.830781102180481,-0.02413581870496273,0.0,0.7853947877883911,-7.346565689658746e-05,0.5325149297714233,0.532534122467041,1.0587090253829956,1.9320869445800781,-0.041269175708293915,0.0,0.7855161428451538,0.00027606787625700235,-0.5301209688186646,-0.5309484601020813,,,,,,,,,,,,,,,,,,,,,,,,,,,,,,,,,,,,,,,,,,,,,,,,,,,,,,,,,,,,,,,,,,,,,,,,,,,,,,,,,,,,,,,,,,,,,,,,,,,,,,,,,,,,,,,,,,,,,,,,,,,,,,,,,,,,,,-0.0016625432763248682,-0.007710662670433521,-0.0013520081993192434,0.0,0.013633784838020802,-0.056273721158504486,0.16753941774368286,0.12250974029302597,-0.04625947028398514,0.06364401429891586,6.52855887892656e-05,0.0,0.007159343920648098,0.02219643071293831,-0.24634818732738495,-0.3464658558368683,,,,,,,,,,,,,,,,,,,,,,,,,,,,,,,,,,,,,,,,,,,,,,,,,,,,,,,,,,,,,,,,,,,,,,,,
1696194568.4999504,1.057828426361084,1.8285541534423828,-0.02309829369187355,0.0,0.7853215336799622,0.00016371822857763618,0.5523086190223694,0.5524530410766602,1.0564509630203247,1.935071349143982,-0.04129242151975632,0.0,0.7854305505752563,4.592420737026259e-05,-0.5487333536148071,-0.5489861965179443,,,,,,,,,,,,,,,,,,,,,,,,,,,,,,,,,,,,,,,,,,,,,,,,,,,,,,,,,,,,,,,,,,,,,,,,,,,,,,,,,,,,,,,,,,,,,,,,,,,,,,,,,,,,,,,,,,,,,,,,,,,,,,,,,,,,,,-0.05944845452904701,-0.015708519145846367,0.023042352870106697,0.0,-0.012409468181431293,0.024464601650834084,0.1420438438653946,0.16022726893424988,-0.00024397419474553317,0.012285948731005192,-0.002398392651230097,0.0,-0.0036206303630024195,-0.011636228300631046,-0.09988066554069519,-0.10619566589593887,,,,,,,,,,,,,,,,,,,,,,,,,,,,,,,,,,,,,,,,,,,,,,,,,,,,,,,,,,,,,,,,,,,,,,,,
1696194568.60575,1.0548880100250244,1.8279519081115723,-0.02236040122807026,0.0,0.7853850722312927,-8.69300274644047e-05,0.5686842799186707,0.568601131439209,1.0536296367645264,1.9370607137680054,-0.04099731147289276,0.0,0.7854438424110413,0.00010089955321745947,-0.5642442107200623,-0.5648021697998047,,,,,,,,,,,,,,,,,,,,,,,,,,,,,,,,,,,,,,,,,,,,,,,,,,,,,,,,,,,,,,,,,,,,,,,,,,,,,,,,,,,,,,,,,,,,,,,,,,,,,,,,,,,,,,,,,,,,,,,,,,,,,,,,,,,,,,-0.0010488833067938685,-0.015069068409502506,-0.0035728171933442354,0.0,0.006706762593239546,-0.03255687281489372,0.21305139362812042,0.1918036937713623,0.005317545495927334,0.01641661860048771,-0.005985585507005453,0.0,0.0026538404636085033,-0.007978514768183231,-0.17700190842151642,-0.18403641879558563,,,,,,,,,,,,,,,,,,,,,,,,,,,,,,,,,,,,,,,,,,,,,,,,,,,,,,,,,,,,,,,,,,,,,,,,
1696194568.7813861,1.0506733655929565,1.828626275062561,-0.0214933380484581,0.0,0.7854119539260864,2.777416921162512e-05,0.5867555141448975,0.5867388844490051,1.048539638519287,1.9385144710540771,-0.04006681591272354,0.0,0.7853628396987915,-5.9041678468929604e-05,-0.5866877436637878,-0.5868977904319763,,,,,,,,,,,,,,,,,,,,,,,,,,,,,,,,,,,,,,,,,,,,,,,,,,,,,,,,,,,,,,,,,,,,,,,,,,,,,,,,,,,,,,,,,,,,,,,,,,,,,,,,,,,,,,,,,,,,,,,,,,,,,,,,,,,,,,-0.04538410156965256,0.027600152418017387,0.00774807995185256,0.0,0.007406813558191061,0.016161467880010605,0.0741838738322258,0.08638039976358414,-0.047449108213186264,-0.009425541386008263,0.013040541671216488,0.0,-0.01780945435166359,-0.04295148700475693,-0.09384486824274063,-0.03615766763687134,,,,,,,,,,,,,,,,,,,,,,,,,,,,,,,,,,,,,,,,,,,,,,,,,,,,,,,,,,,,,,,,,,,,,,,,
1696194568.8975503,1.0481936931610107,1.8300902843475342,-0.021170977503061295,0.0,0.7853706479072571,-2.3507600417360663e-06,0.5963334441184998,0.5962862968444824,1.0461125373840332,1.938051700592041,-0.03940267488360405,0.0,0.785317063331604,-0.0001301883312407881,-0.5956339240074158,-0.5958733558654785,,,,,,,,,,,,,,,,,,,,,,,,,,,,,,,,,,,,,,,,,,,,,,,,,,,,,,,,,,,,,,,,,,,,,,,,,,,,,,,,,,,,,,,,,,,,,,,,,,,,,,,,,,,,,,,,,,,,,,,,,,,,,,,,,,,,,,0.002699229633435607,-0.019915200769901276,0.0005784964305348694,0.0,-0.014958605170249939,0.02397262305021286,0.08568575978279114,0.11163768917322159,-0.06853394210338593,-0.04476260766386986,0.027018854394555092,0.0,-0.01999841071665287,-0.04862387478351593,-0.10118154436349869,-0.04978631064295769,,,,,,,,,,,,,,,,,,,,,,,,,,,,,,,,,,,,,,,,,,,,,,,,,,,,,,,,,,,,,,,,,,,,,,,,
1696194569.0422251,1.0446587800979614,1.8337141275405884,-0.02094755508005619,0.0,0.7854472398757935,-0.00018715686746872962,0.6082704067230225,0.6080271601676941,1.0431092977523804,1.936586618423462,-0.03843904286623001,0.0,0.785409152507782,0.00012193375005153939,-0.6071746349334717,-0.6075837016105652,,,,,,,,,,,,,,,,,,,,,,,,,,,,,,,,,,,,,,,,,,,,,,,,,,,,,,,,,,,,,,,,,,,,,,,,,,,,,,,,,,,,,,,,,,,,,,,,,,,,,,,,,,,,,,,,,,,,,,,,,,,,,,,,,,,,,,-0.04213076829910278,0.07356678694486618,-0.0017899272497743368,0.0,-0.0003671710437629372,-0.013426585122942924,0.12854574620723724,0.10468453913927078,0.0005274151335470378,0.016835138201713562,-0.00598946725949645,0.0,0.012286660261452198,0.029325995594263077,-0.10091706365346909,-0.12153453379869461,,,,,,,,,,,,,,,,,,,,,,,,,,,,,,,,,,,,,,,,,,,,,,,,,,,,,,,,,,,,,,,,,,,,,,,,
1696194569.1992652,1.0425009727478027,1.8371577262878418,-0.021013574674725533,0.0,0.7853875756263733,4.573345722747035e-05,0.6155377626419067,0.6155549883842468,1.0403800010681152,1.9328677654266357,-0.037106335163116455,0.0,0.7854287028312683,0.00017283830675296485,-0.6168960928916931,-0.617186963558197,,,,,,,,,,,,,,,,,,,,,,,,,,,,,,,,,,,,,,,,,,,,,,,,,,,,,,,,,,,,,,,,,,,,,,,,,,,,,,,,,,,,,,,,,,,,,,,,,,,,,,,,,,,,,,,,,,,,,,,,,,,,,,,,,,,,,,-0.0018615922890603542,-0.003199501894414425,0.002110171364620328,0.0,-0.015159830451011658,0.041486360132694244,-0.005972355138510466,0.02651047147810459,0.003780149854719639,0.013398711569607258,-0.005749945528805256,0.0,0.027645595371723175,0.08111215382814407,-0.05795864015817642,-0.13033324480056763,,,,,,,,,,,,,,,,,,,,,,,,,,,,,,,,,,,,,,,,,,,,,,,,,,,,,,,,,,,,,,,,,,,,,,,,
1696194569.3993056,1.0408447980880737,1.8418302536010742,-0.0213856790214777,0.0,0.7853850722312927,0.00011372297740308568,0.621108889579773,0.6212082505226135,1.0391520261764526,1.9289659261703491,-0.03609202057123184,0.0,0.785435676574707,0.0001685715833446011,-0.621800422668457,-0.6219426393508911,,,,,,,,,,,,,,,,,,,,,,,,,,,,,,,,,,,,,,,,,,,,,,,,,,,,,,,,,,,,,,,,,,,,,,,,,,,,,,,,,,,,,,,,,,,,,,,,,,,,,,,,,,,,,,,,,,,,,,,,,,,,,,,,,,,,,,0.004879092797636986,-0.01679648645222187,0.005598978139460087,0.0,-0.02373720146715641,0.08210292458534241,-0.07963426411151886,-0.011170350946485996,0.004778783302754164,0.009538961574435234,-0.004602807108312845,0.0,0.03522718325257301,0.09679985046386719,-0.022584732621908188,-0.09237971901893616,,,,,,,,,,,,,,,,,,,,,,,,,,,,,,,,,,,,,,,,,,,,,,,,,,,,,,,,,,,,,,,,,,,,,,,,
1696194569.524545,1.0407671928405762,1.8474054336547852,-0.022275513038039207,0.0,0.7854374647140503,-8.70157964527607e-06,0.6226316690444946,0.6226920485496521,1.0390962362289429,1.9260914325714111,-0.035543955862522125,0.0,0.7854092121124268,0.00012008111661998555,-0.6228607892990112,-0.6228744387626648,,,,,,,,,,,,,,,,,,,,,,,,,,,,,,,,,,,,,,,,,,,,,,,,,,,,,,,,,,,,,,,,,,,,,,,,,,,,,,,,,,,,,,,,,,,,,,,,,,,,,,,,,,,,,,,,,,,,,,,,,,,,,,,,,,,,,,0.00945117324590683,0.02965744398534298,-0.004199047572910786,0.0,-0.017010925337672234,0.06718295812606812,-0.08654370903968811,-0.03704602271318436,-0.0002713052090257406,0.006207868456840515,-0.0023707090876996517,0.0,0.023982800543308258,0.08185654878616333,0.013237780891358852,-0.05385082587599754,,,,,,,,,,,,,,,,,,,,,,,,,,,,,,,,,,,,,,,,,,,,,,,,,,,,,,,,,,,,,,,,,,,,,,,,
1696194569.6637466,1.041342854499817,1.8499723672866821,-0.022837268188595772,0.0,0.7854925990104675,-0.00016511419380549341,0.6222140789031982,0.622197687625885,1.040136456489563,1.9216467142105103,-0.034953635185956955,0.0,0.785331130027771,-0.00016875281289685518,-0.6218723654747009,-0.6216888427734375,,,,,,,,,,,,,,,,,,,,,,,,,,,,,,,,,,,,,,,,,,,,,,,,,,,,,,,,,,,,,,,,,,,,,,,,,,,,,,,,,,,,,,,,,,,,,,,,,,,,,,,,,,,,,,,,,,,,,,,,,,,,,,,,,,,,,,0.02909131534397602,0.06005851551890373,-0.018726810812950134,0.0,0.0017288284143432975,0.013928460888564587,-0.04932168871164322,-0.03181888908147812,0.019052470102906227,-0.0465162992477417,0.004733572714030743,0.0,-0.0100618377327919,-0.04634161293506622,0.007756351958960295,0.022530192509293556,,,,,,,,,,,,,,,,,,,,,,,,,,,,,,,,,,,,,,,,,,,,,,,,,,,,,,,,,,,,,,,,,,,,,,,,
1696194569.8058627,1.043327808380127,1.8535188436508179,-0.023842524737119675,0.0,0.7854442000389099,3.9603666664334014e-05,0.6179913282394409,0.6181676387786865,1.0421582460403442,1.9176279306411743,-0.03468071669340134,0.0,0.7853628993034363,-8.921631524572149e-05,-0.6182498931884766,-0.6177414059638977,,,,,,,,,,,,,,,,,,,,,,,,,,,,,,,,,,,,,,,,,,,,,,,,,,,,,,,,,,,,,,,,,,,,,,,,,,,,,,,,,,,,,,,,,,,,,,,,,,,,,,,,,,,,,,,,,,,,,,,,,,,,,,,,,,,,,,0.02182738669216633,0.021483277902007103,-0.004996924661099911,0.0,-0.010150190442800522,0.06100017577409744,-0.15103314816951752,-0.10498864948749542,0.02052214741706848,-0.031124379485845566,0.0007898869225755334,0.0,0.008366231806576252,0.030741218477487564,0.08829879760742188,0.09093604981899261,,,,,,,,,,,,,,,,,,,,,,,,,,,,,,,,,,,,,,,,,,,,,,,,,,,,,,,,,,,,,,,,,,,,,,,,
1696194569.9517856,1.047379493713379,1.8563708066940308,-0.02521481364965439,0.0,0.7854187488555908,8.632061508251354e-05,0.6083470582962036,0.608505129814148,1.0451834201812744,1.9140836000442505,-0.03472921624779701,0.0,0.7853618860244751,-0.00012106006761314347,-0.6115872859954834,-0.6109587550163269,,,,,,,,,,,,,,,,,,,,,,,,,,,,,,,,,,,,,,,,,,,,,,,,,,,,,,,,,,,,,,,,,,,,,,,,,,,,,,,,,,,,,,,,,,,,,,,,,,,,,,,,,,,,,,,,,,,,,,,,,,,,,,,,,,,,,,0.0024561327882111073,0.009658240713179111,0.002320072613656521,0.0,-0.010831199586391449,0.050127919763326645,-0.11447042971849442,-0.10121171176433563,0.023972494527697563,-0.025922806933522224,-0.0007345590856857598,0.0,0.0011745162773877382,0.011767528019845486,0.12174410372972488,0.1420259177684784,,,,,,,,,,,,,,,,,,,,,,,,,,,,,,,,,,,,,,,,,,,,,,,,,,,,,,,,,,,,,,,,,,,,,,,,
1696194570.0602458,1.0496447086334229,1.856615662574768,-0.025801338255405426,0.0,0.7854404449462891,-7.283533341251314e-05,0.6029965877532959,0.6030771732330322,1.048614740371704,1.912010669708252,-0.03515396639704704,0.0,0.7853860259056091,-0.00011408402497181669,-0.6031412482261658,-0.6026729941368103,,,,,,,,,,,,,,,,,,,,,,,,,,,,,,,,,,,,,,,,,,,,,,,,,,,,,,,,,,,,,,,,,,,,,,,,,,,,,,,,,,,,,,,,,,,,,,,,,,,,,,,,,,,,,,,,,,,,,,,,,,,,,,,,,,,,,,0.07041611522436142,-0.01488776970654726,-0.018834015354514122,0.0,0.004958207719027996,-0.009143397212028503,-0.08882433921098709,-0.07877979427576065,0.07542385905981064,-0.018083356320858,-0.016091233119368553,0.0,0.0016196086071431637,-0.0208766870200634,0.061340197920799255,0.1272973269224167,,,,,,,,,,,,,,,,,,,,,,,,,,,,,,,,,,,,,,,,,,,,,,,,,,,,,,,,,,,,,,,,,,,,,,,,
1696194570.1767375,1.0541658401489258,1.8558307886123657,-0.0267095398157835,0.0,0.7854097485542297,-2.091013993776869e-05,0.5893428921699524,0.5894370079040527,1.0511811971664429,1.9110586643218994,-0.03557451441884041,0.0,0.7853637933731079,-8.799257921054959e-05,-0.5951046347618103,-0.59481281042099,,,,,,,,,,,,,,,,,,,,,,,,,,,,,,,,,,,,,,,,,,,,,,,,,,,,,,,,,,,,,,,,,,,,,,,,,,,,,,,,,,,,,,,,,,,,,,,,,,,,,,,,,,,,,,,,,,,,,,,,,,,,,,,,,,,,,,0.07607591152191162,-0.04119420424103737,-0.015916941687464714,0.0,0.00026102078845724463,-0.009606147184967995,-0.1034892275929451,-0.10789705812931061,0.004709787201136351,-0.013077645562589169,0.0022476869635283947,0.0,-0.008740588091313839,-0.019145511090755463,0.06748577952384949,0.09344100952148438,,,,,,,,,,,,,,,,,,,,,,,,,,,,,,,,,,,,,,,,,,,,,,,,,,,,,,,,,,,,,,,,,,,,,,,,
1696194570.280141,1.057060956954956,1.8543988466262817,-0.027133073657751083,0.0,0.7854123711585999,8.982911822386086e-05,0.5785196423530579,0.578656792640686,1.0560038089752197,1.9110405445098877,-0.036710768938064575,0.0,0.7854066491127014,3.1892548122414155e-06,-0.5782568454742432,-0.577970027923584,,,,,,,,,,,,,,,,,,,,,,,,,,,,,,,,,,,,,,,,,,,,,,,,,,,,,,,,,,,,,,,,,,,,,,,,,,,,,,,,,,,,,,,,,,,,,,,,,,,,,,,,,,,,,,,,,,,,,,,,,,,,,,,,,,,,,,0.028508460149168968,-0.011235094629228115,-0.0032686602789908648,0.0,0.007044138852506876,-0.0012391706695780158,-0.1995381861925125,-0.19946739077568054,0.012956418097019196,-0.005717149935662746,-0.0005322443903423846,0.0,0.007276458200067282,0.03268013149499893,0.10969506204128265,0.016831276938319206,,,,,,,,,,,,,,,,,,,,,,,,,,,,,,,,,,,,,,,,,,,,,,,,,,,,,,,,,,,,,,,,,,,,,,,,
1696194570.3975422,1.0594961643218994,1.8526750802993774,-0.027413416653871536,0.0,0.7854216694831848,-6.797222795285052e-06,0.5685996413230896,0.5685931444168091,1.0584138631820679,1.9118480682373047,-0.0374416708946228,0.0,0.7853730320930481,-0.0001461609499529004,-0.5684175491333008,-0.5677448511123657,,,,,,,,,,,,,,,,,,,,,,,,,,,,,,,,,,,,,,,,,,,,,,,,,,,,,,,,,,,,,,,,,,,,,,,,,,,,,,,,,,,,,,,,,,,,,,,,,,,,,,,,,,,,,,,,,,,,,,,,,,,,,,,,,,,,,,0.0005711846170015633,0.01771174557507038,-0.0016907572280615568,0.0,0.015647951513528824,-0.037799667567014694,-0.10954131931066513,-0.13689933717250824,0.020143331959843636,0.007835987955331802,-0.0054585752077400684,0.0,-0.020410951226949692,-0.05435885861515999,0.20912893116474152,0.27276259660720825,,,,,,,,,,,,,,,,,,,,,,,,,,,,,,,,,,,,,,,,,,,,,,,,,,,,,,,,,,,,,,,,,,,,,,,,
1696194570.5287106,1.0631242990493774,1.8482059240341187,-0.02753511443734169,0.0,0.7853454351425171,0.0002128846535924822,0.5501353740692139,0.5501958727836609,1.0620105266571045,1.9148354530334473,-0.03886490315198898,0.0,0.7854899168014526,0.00021657475735992193,-0.5487542748451233,-0.548591673374176,,,,,,,,,,,,,,,,,,,,,,,,,,,,,,,,,,,,,,,,,,,,,,,,,,,,,,,,,,,,,,,,,,,,,,,,,,,,,,,,,,,,,,,,,,,,,,,,,,,,,,,,,,,,,,,,,,,,,,,,,,,,,,,,,,,,,,0.03905991092324257,-0.07789638638496399,0.0031234361231327057,0.0,-0.0008093109354376793,0.013136222027242184,-0.2379414290189743,-0.23868152499198914,0.04765875265002251,0.07348142564296722,-0.02800213359296322,0.0,0.02239304780960083,0.06728290766477585,0.17379328608512878,0.10781839489936829,,,,,,,,,,,,,,,,,,,,,,,,,,,,,,,,,,,,,,,,,,,,,,,,,,,,,,,,,,,,,,,,,,,,,,,,
1696194570.6772568,1.065078616142273,1.8448456525802612,-0.027446486055850983,0.0,0.7853716611862183,5.7830467994790524e-05,0.5365580916404724,0.5363866090774536,1.0637391805648804,1.9173675775527954,-0.03974732756614685,0.0,0.7854880690574646,0.00024064270837698132,-0.5353302955627441,-0.5352175831794739,,,,,,,,,,,,,,,,,,,,,,,,,,,,,,,,,,,,,,,,,,,,,,,,,,,,,,,,,,,,,,,,,,,,,,,,,,,,,,,,,,,,,,,,,,,,,,,,,,,,,,,,,,,,,,,,,,,,,,,,,,,,,,,,,,,,,,0.007955359295010567,-0.026346759870648384,0.0011474192142486572,0.0,0.014677593484520912,-0.04981587082147598,-0.16146031022071838,-0.2044428586959839,0.027593379840254784,0.07934185117483139,-0.022686244919896126,0.0,0.023360300809144974,0.06895587593317032,0.18682743608951569,0.16942311823368073,,,,,,,,,,,,,,,,,,,,,,,,,,,,,,,,,,,,,,,,,,,,,,,,,,,,,,,,,,,,,,,,,,,,,,,,
1696194570.8277912,1.0667093992233276,1.8391214609146118,-0.026905640959739685,0.0,0.7854017615318298,-5.0621463742572814e-05,0.5156596302986145,0.5155394077301025,1.0648683309555054,1.920789361000061,-0.040650464594364166,0.0,0.7854197025299072,-1.5838189710848383e-06,-0.5194444060325623,-0.5192658305168152,,,,,,,,,,,,,,,,,,,,,,,,,,,,,,,,,,,,,,,,,,,,,,,,,,,,,,,,,,,,,,,,,,,,,,,,,,,,,,,,,,,,,,,,,,,,,,,,,,,,,,,,,,,,,,,,,,,,,,,,,,,,,,,,,,,,,,-0.0001674277154961601,-0.0012027041520923376,-0.0017872805474326015,0.0,0.014086117967963219,-0.04997539892792702,-0.03670075535774231,-0.06839392334222794,0.005494371987879276,0.0003720175300259143,-0.0009105076896958053,0.0,0.0061873686499893665,0.012758689932525158,0.07345613837242126,0.052395157516002655,,,,,,,,,,,,,,,,,,,,,,,,,,,,,,,,,,,,,,,,,,,,,,,,,,,,,,,,,,,,,,,,,,,,,,,,
1696194570.9223611,1.0667588710784912,1.8353266716003418,-0.02629404515028,0.0,0.785302996635437,0.00016474454605486244,0.50226891040802,0.5017936825752258,1.0649248361587524,1.925031304359436,-0.04146372154355049,0.0,0.7854440808296204,0.0001707552873995155,-0.5034879446029663,-0.5035268664360046,,,,,,,,,,,,,,,,,,,,,,,,,,,,,,,,,,,,,,,,,,,,,,,,,,,,,,,,,,,,,,,,,,,,,,,,,,,,,,,,,,,,,,,,,,,,,,,,,,,,,,,,,,,,,,,,,,,,,,,,,,,,,,,,,,,,,,-0.012315921485424042,-0.06647586822509766,0.011413289234042168,0.0,0.0009753023041412234,-0.03216273710131645,-0.23320168256759644,-0.31352952122688293,-0.0039633275009691715,0.055482130497694016,-0.01039896346628666,0.0,0.009009040892124176,0.04876469448208809,0.11608759313821793,0.06313338130712509,,,,,,,,,,,,,,,,,,,,,,,,,,,,,,,,,,,,,,,,,,,,,,,,,,,,,,,,,,,,,,,,,,,,,,,,
1696194571.0485394,1.0663260221481323,1.8322492837905884,-0.02568763680756092,0.0,0.7852967381477356,0.00034355343086645007,0.49030953645706177,0.49009376764297485,1.063861608505249,1.9297586679458618,-0.042088717222213745,0.0,0.7853978872299194,1.0932484656223096e-05,-0.4854969084262848,-0.4855244755744934,,,,,,,,,,,,,,,,,,,,,,,,,,,,,,,,,,,,,,,,,,,,,,,,,,,,,,,,,,,,,,,,,,,,,,,,,,,,,,,,,,,,,,,,,,,,,,,,,,,,,,,,,,,,,,,,,,,,,,,,,,,,,,,,,,,,,,-0.0236380472779274,-0.0773170068860054,0.02227775566279888,0.0,-0.017136937007308006,0.08103674650192261,-0.2597830891609192,-0.26282253861427307,-0.0147739602252841,0.03946762904524803,-0.0031604552641510963,0.0,-0.010286891832947731,-0.05307651311159134,0.2110816091299057,0.23356476426124573,,,,,,,,,,,,,,,,,,,,,,,,,,,,,,,,,,,,,,,,,,,,,,,,,,,,,,,,,,,,,,,,,,,,,,,,
1696194571.2265034,1.0643707513809204,1.8273283243179321,-0.024474002420902252,0.0,0.7853670120239258,-7.636436930624768e-05,0.46882766485214233,0.4683597981929779,1.0627102851867676,1.9330939054489136,-0.042439401149749756,0.0,0.785412073135376,0.00012884294847026467,-0.4727259874343872,-0.47277840971946716,,,,,,,,,,,,,,,,,,,,,,,,,,,,,,,,,,,,,,,,,,,,,,,,,,,,,,,,,,,,,,,,,,,,,,,,,,,,,,,,,,,,,,,,,,,,,,,,,,,,,,,,,,,,,,,,,,,,,,,,,,,,,,,,,,,,,,-0.004143607337027788,-0.0025570797733962536,-0.005591872613877058,0.0,0.010371677577495575,-0.04500062018632889,-0.07299333810806274,-0.0688140019774437,-0.02466430701315403,0.04106036201119423,-0.002103757346048951,0.0,0.002359377220273018,0.0375809408724308,0.10400785505771637,0.09060491621494293,,,,,,,,,,,,,,,,,,,,,,,,,,,,,,,,,,,,,,,,,,,,,,,,,,,,,,,,,,,,,,,,,,,,,,,,
