MHC-RobotSimulators-Research/Data_Analysis_MotionReplication/test_trials/test_trial_4_rs.csv
time,jpos0,jpos1,jpos2,jpos3,jpos4,jpos5,jpos6,jpos7,jpos8,jpos9,jpos10,jpos11,jpos12,jpos13,jpos14,jpos15,runlevel,sublevel,last_seq,type0,type1,pos0,pos1,pos2,pos3,pos4,pos5,ori0,ori1,ori2,ori3,ori4,ori5,ori6,ori7,ori8,ori9,ori10,ori11,ori12,ori13,ori14,ori15,ori16,ori17,ori_d0,ori_d1,ori_d2,ori_d3,ori_d4,ori_d5,ori_d6,ori_d7,ori_d8,ori_d9,ori_d10,ori_d11,ori_d12,ori_d13,ori_d14,ori_d15,ori_d16,ori_d17,pos_d0,pos_d1,pos_d2,pos_d3,pos_d4,pos_d5,encVals0,encVals1,encVals2,encVals3,encVals4,encVals5,encVals6,encVals7,encVals8,encVals9,encVals10,encVals11,encVals12,encVals13,encVals14,encVals15,dac_vals0,dac_vals1,dac_vals2,dac_vals3,dac_vals4,dac_vals5,dac_vals6,dac_vals7,dac_vals8,dac_vals9,dac_vals10,dac_vals11,dac_vals12,dac_vals13,dac_vals14,dac_vals15,Tau0,Tau1,Tau2,Tau3,Tau4,Tau5,Tau6,Tau7,Tau8,Tau9,Tau10,Tau11,Tau12,Tau13,Tau14,Tau15,mpos0,mpos1,mpos2,mpos3,mpos4,mpos5,mpos6,mpos7,mpos8,mpos9,mpos10,mpos11,mpos12,mpos13,mpos14,mpos15,mvel0,mvel1,mvel2,mvel3,mvel4,mvel5,mvel6,mvel7,mvel8,mvel9,mvel10,mvel11,mvel12,mvel13,mvel14,mvel15,jvel0,jvel1,jvel2,jvel3,jvel4,jvel5,jvel6,jvel7,jvel8,jvel9,jvel10,jvel11,jvel12,jvel13,jvel14,jvel15,jpos_d0,jpos_d1,jpos_d2,jpos_d3,jpos_d4,jpos_d5,jpos_d6,jpos_d7,jpos_d8,jpos_d9,jpos_d10,jpos_d11,jpos_d12,jpos_d13,jpos_d14,jpos_d15,grasp_d0,grasp_d1,grasp_d2,grasp_d3,grasp_d4,grasp_d5,grasp_d6,grasp_d7,grasp_d8,grasp_d9,grasp_d10,grasp_d11,grasp_d12,grasp_d13,grasp_d14,grasp_d15,encoffsets0,encoffsets1,encoffsets2,encoffsets3,encoffsets4,encoffsets5,encoffsets6,encoffsets7,encoffsets8,encoffsets9,encoffsets10,encoffsets11,encoffsets12,encoffsets13,encoffsets14,encoffsets15,jac_vel0,jac_vel1,jac_vel2,jac_vel3,jac_vel4,jac_vel5,jac_vel6,jac_vel7,jac_vel8,jac_vel9,jac_vel10,jac_vel11,jac_f0,jac_f1,jac_f2,jac_f3,jac_f4,jac_f5,jac_f6,jac_f7,jac_f8,jac_f9,jac_f10,jac_f11
1696194696.5148873,1.0472183227539062,1.8848118782043457,-0.029981624335050583,0.0,2.353580951690674,-1.6148846193245582e-15,0.5234329700469971,0.5234329700469971,1.0472127199172974,1.8850852251052856,-0.030027730390429497,0.0,2.353580951690674,-1.6310064091678862e-15,0.5220221281051636,0.5220221281051636,,,,,,,,,,,,,,,,,,,,,,,,,,,,,,,,,,,,,,,,,,,,,,,,,,,,,,,,,,,,,,,,,,,,,,,,,,,,,,,,,,,,,,,,,,,,,,,,,,,,,,,,,,,,,,,,,,,,,,,,,,,,,,,,,,,,,,0.0,0.0,0.0,0.0,0.0,0.0,-2.220446049250313e-14,0.0,0.0,0.0,0.0,0.0,0.0,0.0,0.0,0.0,,,,,,,,,,,,,,,,,,,,,,,,,,,,,,,,,,,,,,,,,,,,,,,,,,,,,,,,,,,,,,,,,,,,,,,,
1696194699.823476,1.0501958131790161,1.8815093040466309,-0.03009440377354622,0.0,0.8527686595916748,-3.4178960049757734e-05,0.449695885181427,0.44978511333465576,1.0500876903533936,1.8871543407440186,-0.03104916773736477,0.0,0.8527231812477112,3.732970799319446e-05,-0.4051301181316376,-0.4053129255771637,,,,,,,,,,,,,,,,,,,,,,,,,,,,,,,,,,,,,,,,,,,,,,,,,,,,,,,,,,,,,,,,,,,,,,,,,,,,,,,,,,,,,,,,,,,,,,,,,,,,,,,,,,,,,,,,,,,,,,,,,,,,,,,,,,,,,,0.0002445050631649792,-0.00014448375441133976,-4.731423359771725e-07,0.0,-0.04775862395763397,-0.007865846157073975,-0.014428190886974335,-0.021520515903830528,0.00018059769354294986,0.00017159826529677957,-2.372575727349613e-05,0.0,-0.03332122415304184,-0.014185503125190735,-0.2607388496398926,-0.1851581633090973,,,,,,,,,,,,,,,,,,,,,,,,,,,,,,,,,,,,,,,,,,,,,,,,,,,,,,,,,,,,,,,,,,,,,,,,
1696194700.229796,1.0502537488937378,1.8843244314193726,-0.030597232282161713,0.0,0.7938456535339355,-5.5859873100416735e-06,0.558967649936676,0.5598700046539307,1.0502618551254272,1.8839104175567627,-0.030523886904120445,0.0,0.7925184965133667,2.462963675498031e-05,-0.5687505602836609,-0.5690937042236328,,,,,,,,,,,,,,,,,,,,,,,,,,,,,,,,,,,,,,,,,,,,,,,,,,,,,,,,,,,,,,,,,,,,,,,,,,,,,,,,,,,,,,,,,,,,,,,,,,,,,,,,,,,,,,,,,,,,,,,,,,,,,,,,,,,,,,0.0008739987970329821,0.008188659325242043,-0.001182727632112801,0.0,-0.033056437969207764,0.018667355179786682,0.5503389239311218,0.5749473571777344,-0.0007416282896883786,-0.01496849860996008,0.003195816185325384,0.0,-0.028749749064445496,-0.013295311480760574,-0.34346768260002136,-0.2994157671928406,,,,,,,,,,,,,,,,,,,,,,,,,,,,,,,,,,,,,,,,,,,,,,,,,,,,,,,,,,,,,,,,,,,,,,,,
1696194700.6435401,1.0485975742340088,1.8838021755218506,-0.030118202790617943,0.0,0.7863556146621704,6.296724313870072e-05,0.5075307488441467,0.5070929527282715,1.0485525131225586,1.8855338096618652,-0.030412303283810616,0.0,0.7862989902496338,-3.883420868078247e-05,-0.5057692527770996,-0.5055648684501648,,,,,,,,,,,,,,,,,,,,,,,,,,,,,,,,,,,,,,,,,,,,,,,,,,,,,,,,,,,,,,,,,,,,,,,,,,,,,,,,,,,,,,,,,,,,,,,,,,,,,,,,,,,,,,,,,,,,,,,,,,,,,,,,,,,,,,-0.006742145866155624,-0.010045346803963184,0.004570362623780966,0.0,0.0033928686752915382,0.01813007891178131,-0.30722519755363464,-0.25257301330566406,-0.0020731226541101933,0.00234378594905138,0.00016921613132581115,0.0,0.005497537553310394,-0.002979664131999016,0.22075043618679047,0.2100011557340622,,,,,,,,,,,,,,,,,,,,,,,,,,,,,,,,,,,,,,,,,,,,,,,,,,,,,,,,,,,,,,,,,,,,,,,,
1696194700.8246536,1.0498411655426025,1.8836804628372192,-0.030394557863473892,0.0,0.7857650518417358,6.88257860019803e-05,0.4442611336708069,0.4436710774898529,1.0495518445968628,1.8852843046188354,-0.03060557320713997,0.0,0.7856357097625732,-0.0002183726173825562,-0.45126980543136597,-0.45052263140678406,,,,,,,,,,,,,,,,,,,,,,,,,,,,,,,,,,,,,,,,,,,,,,,,,,,,,,,,,,,,,,,,,,,,,,,,,,,,,,,,,,,,,,,,,,,,,,,,,,,,,,,,,,,,,,,,,,,,,,,,,,,,,,,,,,,,,,0.015442333184182644,0.003966473042964935,-0.0021289449650794268,0.0,-0.01900719478726387,0.04580679535865784,-0.5906720757484436,-0.566648542881012,0.043251655995845795,-0.02659052237868309,-0.006713144015520811,0.0,-0.026565968990325928,-0.03915116563439369,0.4386393427848816,0.5250208377838135,,,,,,,,,,,,,,,,,,,,,,,,,,,,,,,,,,,,,,,,,,,,,,,,,,,,,,,,,,,,,,,,,,,,,,,,
1696194701.2623124,1.0485539436340332,1.8844455480575562,-0.03022385947406292,0.0,0.7854540348052979,-1.5313631593016908e-05,0.5328677892684937,0.5331552028656006,1.0487366914749146,1.884864330291748,-0.03033924475312233,0.0,0.7854869961738586,6.962246698094532e-05,-0.5236079096794128,-0.5241504311561584,,,,,,,,,,,,,,,,,,,,,,,,,,,,,,,,,,,,,,,,,,,,,,,,,,,,,,,,,,,,,,,,,,,,,,,,,,,,,,,,,,,,,,,,,,,,,,,,,,,,,,,,,,,,,,,,,,,,,,,,,,,,,,,,,,,,,,-0.0015526138013228774,-0.000121716657304205,-0.00017780621419660747,0.0,0.007854030467569828,-0.0063423169776797295,0.2516622245311737,0.22304019331932068,0.0006648538983426988,0.0015257247723639011,-0.000996517832390964,0.0,-0.02123233675956726,-0.011874810792505741,-0.38349196314811707,-0.37127721309661865,,,,,,,,,,,,,,,,,,,,,,,,,,,,,,,,,,,,,,,,,,,,,,,,,,,,,,,,,,,,,,,,,,,,,,,,
1696194701.4654045,1.0490436553955078,1.8841248750686646,-0.030302926898002625,0.0,0.7854295372962952,-3.7521579088206636e-06,0.5683133006095886,0.5685966610908508,1.0483893156051636,1.8850085735321045,-0.03028743714094162,0.0,0.785461962223053,4.880455890088342e-05,-0.5668202638626099,-0.5668437480926514,,,,,,,,,,,,,,,,,,,,,,,,,,,,,,,,,,,,,,,,,,,,,,,,,,,,,,,,,,,,,,,,,,,,,,,,,,,,,,,,,,,,,,,,,,,,,,,,,,,,,,,,,,,,,,,,,,,,,,,,,,,,,,,,,,,,,,0.05959229916334152,-0.03216889128088951,-0.013540402054786682,0.0,0.003972174599766731,0.004228211939334869,0.06611599773168564,0.09049615263938904,0.03375113010406494,0.004696301184594631,-0.010062305256724358,0.0,0.007192373275756836,0.014848658815026283,-0.06734820455312729,-0.11402152478694916,,,,,,,,,,,,,,,,,,,,,,,,,,,,,,,,,,,,,,,,,,,,,,,,,,,,,,,,,,,,,,,,,,,,,,,,
1696194701.8678756,1.0484260320663452,1.8844691514968872,-0.030197983607649803,0.0,0.7854102849960327,1.4266112884797622e-05,0.45361727476119995,0.4535200297832489,1.0486031770706177,1.884920597076416,-0.030316460877656937,0.0,0.7852933406829834,-8.073061326285824e-05,-0.4638468623161316,-0.46352529525756836,,,,,,,,,,,,,,,,,,,,,,,,,,,,,,,,,,,,,,,,,,,,,,,,,,,,,,,,,,,,,,,,,,,,,,,,,,,,,,,,,,,,,,,,,,,,,,,,,,,,,,,,,,,,,,,,,,,,,,,,,,,,,,,,,,,,,,-0.0036494277883321047,0.002109431428834796,0.0009361911215819418,0.0,0.008696175180375576,0.004585100803524256,-0.11199409514665604,0.016307972371578217,-0.011393880471587181,-0.001585444901138544,0.003397522494196892,0.0,-0.013145304284989834,-0.005344113800674677,0.30666425824165344,0.2884862422943115,,,,,,,,,,,,,,,,,,,,,,,,,,,,,,,,,,,,,,,,,,,,,,,,,,,,,,,,,,,,,,,,,,,,,,,,
1696194701.9739773,1.049233317375183,1.8843799829483032,-0.030359530821442604,0.0,0.7854353785514832,0.00015652326692361385,0.4391494691371918,0.43943703174591064,1.0492197275161743,1.8846579790115356,-0.030411647632718086,0.0,0.7853347063064575,-8.322590292664245e-05,-0.439454585313797,-0.4390048682689667,,,,,,,,,,,,,,,,,,,,,,,,,,,,,,,,,,,,,,,,,,,,,,,,,,,,,,,,,,,,,,,,,,,,,,,,,,,,,,,,,,,,,,,,,,,,,,,,,,,,,,,,,,,,,,,,,,,,,,,,,,,,,,,,,,,,,,-0.015412284061312675,0.015200896188616753,0.009764495305716991,0.0,0.003178889863193035,0.04995344579219818,-0.1466948240995407,-0.1337430328130722,-0.02249095030128956,-0.00827367976307869,0.010077870450913906,0.0,-0.025283394381403923,-0.0014917530352249742,0.10408483445644379,0.12283883988857269,,,,,,,,,,,,,,,,,,,,,,,,,,,,,,,,,,,,,,,,,,,,,,,,,,,,,,,,,,,,,,,,,,,,,,,,
1696194702.4287157,1.0487940311431885,1.8840868473052979,-0.03020993433892727,0.0,0.7853502035140991,2.5836237909970805e-05,0.5214511752128601,0.5220950245857239,1.0485278367996216,1.8852680921554565,-0.030361052602529526,0.0,0.7854397296905518,6.793763895984739e-05,-0.5342828035354614,-0.5348392724990845,,,,,,,,,,,,,,,,,,,,,,,,,,,,,,,,,,,,,,,,,,,,,,,,,,,,,,,,,,,,,,,,,,,,,,,,,,,,,,,,,,,,,,,,,,,,,,,,,,,,,,,,,,,,,,,,,,,,,,,,,,,,,,,,,,,,,,-0.01762312278151512,0.0014141497667878866,0.005532119423151016,0.0,-0.010663030669093132,0.003546938532963395,0.4444325864315033,0.5018047094345093,0.00046634560567326844,0.0018179777543991804,-0.0009794210782274604,0.0,-0.021956773474812508,-0.015384750440716743,-0.39236557483673096,-0.3772832751274109,,,,,,,,,,,,,,,,,,,,,,,,,,,,,,,,,,,,,,,,,,,,,,,,,,,,,,,,,,,,,,,,,,,,,,,,
1696194702.5569274,1.049299716949463,1.8846871852874756,-0.03043617494404316,0.0,0.7854053378105164,9.699619840830564e-05,0.5692601799964905,0.569636881351471,1.0493075847625732,1.8843237161636353,-0.030377797782421112,0.0,0.7854258418083191,4.0975497540785e-05,-0.5694376826286316,-0.5695508122444153,,,,,,,,,,,,,,,,,,,,,,,,,,,,,,,,,,,,,,,,,,,,,,,,,,,,,,,,,,,,,,,,,,,,,,,,,,,,,,,,,,,,,,,,,,,,,,,,,,,,,,,,,,,,,,,,,,,,,,,,,,,,,,,,,,,,,,-0.0018605715595185757,-0.0008827741839922965,0.003912939690053463,0.0,-0.004026457667350769,0.05117705464363098,0.13478510081768036,0.15892603993415833,-0.0035061603412032127,-0.0008335792808793485,0.0011917686788365245,0.0,-0.004218175075948238,0.01585828885436058,-0.19000723958015442,-0.18737457692623138,,,,,,,,,,,,,,,,,,,,,,,,,,,,,,,,,,,,,,,,,,,,,,,,,,,,,,,,,,,,,,,,,,,,,,,,
1696194702.8901167,1.049503207206726,1.883526086807251,-0.03027949668467045,0.0,0.7854002118110657,7.369945524260402e-05,0.5186011791229248,0.5182230472564697,1.0494402647018433,1.8854702711105347,-0.030607271939516068,0.0,0.7852773666381836,-2.1686077161575668e-05,-0.5175541043281555,-0.5171417593955994,,,,,,,,,,,,,,,,,,,,,,,,,,,,,,,,,,,,,,,,,,,,,,,,,,,,,,,,,,,,,,,,,,,,,,,,,,,,,,,,,,,,,,,,,,,,,,,,,,,,,,,,,,,,,,,,,,,,,,,,,,,,,,,,,,,,,,-0.004765361547470093,-0.012946019880473614,0.004791304003447294,0.0,0.007890871725976467,0.021030891686677933,-0.28128671646118164,-0.22549663484096527,-0.010900283232331276,0.024991173297166824,-0.0019631190225481987,0.0,-0.017889661714434624,0.010466395877301693,0.4574975073337555,0.45537152886390686,,,,,,,,,,,,,,,,,,,,,,,,,,,,,,,,,,,,,,,,,,,,,,,,,,,,,,,,,,,,,,,,,,,,,,,,
1696194703.1051202,1.0490145683288574,1.8847898244857788,-0.030389614403247833,0.0,0.7853769659996033,3.6920708225807175e-05,0.4407937824726105,0.4404267966747284,1.0490061044692993,1.8840603828430176,-0.030260199680924416,0.0,0.7853630185127258,-3.992535130237229e-05,-0.43277934193611145,-0.43265408277511597,,,,,,,,,,,,,,,,,,,,,,,,,,,,,,,,,,,,,,,,,,,,,,,,,,,,,,,,,,,,,,,,,,,,,,,,,,,,,,,,,,,,,,,,,,,,,,,,,,,,,,,,,,,,,,,,,,,,,,,,,,,,,,,,,,,,,,0.0005352207226678729,-0.002616403391584754,0.001142960973083973,0.0,-0.015595106407999992,0.027854841202497482,-0.3011130392551422,-0.2568112909793854,-0.0010831806575879455,-0.005570541135966778,0.0015584760112687945,0.0,0.004582169931381941,0.0036736330948770046,0.12953780591487885,0.09238849580287933,,,,,,,,,,,,,,,,,,,,,,,,,,,,,,,,,,,,,,,,,,,,,,,,,,,,,,,,,,,,,,,,,,,,,,,,
1696194703.3368485,1.0503019094467163,1.884073257446289,-0.03056509420275688,0.0,0.7854328751564026,4.674374940805137e-05,0.4374796748161316,0.4384407699108124,1.0501335859298706,1.884331464767456,-0.03056943789124489,0.0,0.7853946685791016,-3.4315606171730906e-05,-0.4332540035247803,-0.4332959055900574,,,,,,,,,,,,,,,,,,,,,,,,,,,,,,,,,,,,,,,,,,,,,,,,,,,,,,,,,,,,,,,,,,,,,,,,,,,,,,,,,,,,,,,,,,,,,,,,,,,,,,,,,,,,,,,,,,,,,,,,,,,,,,,,,,,,,,0.007528661284595728,-0.009508498013019562,8.196139242500067e-05,0.0,0.023269373923540115,-0.014701046980917454,0.47170862555503845,0.49147748947143555,-0.0014391712611541152,-0.003063836134970188,0.0016787821659818292,0.0,-0.02202189899981022,-0.029733601957559586,-0.11543317139148712,-0.08680034428834915,,,,,,,,,,,,,,,,,,,,,,,,,,,,,,,,,,,,,,,,,,,,,,,,,,,,,,,,,,,,,,,,,,,,,,,,
1696194703.6589003,1.0485970973968506,1.8838646411895752,-0.030132906511425972,0.0,0.785408616065979,-1.6299505659844726e-05,0.5421746373176575,0.5424683690071106,1.0488191843032837,1.8854268789291382,-0.03045658767223358,0.0,0.785445511341095,8.452026668237522e-05,-0.5324993133544922,-0.5330897569656372,,,,,,,,,,,,,,,,,,,,,,,,,,,,,,,,,,,,,,,,,,,,,,,,,,,,,,,,,,,,,,,,,,,,,,,,,,,,,,,,,,,,,,,,,,,,,,,,,,,,,,,,,,,,,,,,,,,,,,,,,,,,,,,,,,,,,,-0.0013771619414910674,-0.0014535660156980157,-0.00014019988884683698,0.0,0.007380602415651083,-0.006766659673303366,0.26666459441185,0.23844866454601288,0.001829643500968814,0.0036526231560856104,-0.00192798743955791,0.0,-0.019084613770246506,-0.008781368844211102,-0.40247654914855957,-0.3954807221889496,,,,,,,,,,,,,,,,,,,,,,,,,,,,,,,,,,,,,,,,,,,,,,,,,,,,,,,,,,,,,,,,,,,,,,,,
1696194703.8109658,1.0488418340682983,1.8849058151245117,-0.030369112268090248,0.0,0.7854028344154358,0.00010664908040780574,0.5795889496803284,0.5799249410629272,1.0491663217544556,1.883875846862793,-0.030268914997577667,0.0,0.7854333519935608,1.5434470697073266e-05,-0.5830116868019104,-0.5830646753311157,,,,,,,,,,,,,,,,,,,,,,,,,,,,,,,,,,,,,,,,,,,,,,,,,,,,,,,,,,,,,,,,,,,,,,,,,,,,,,,,,,,,,,,,,,,,,,,,,,,,,,,,,,,,,,,,,,,,,,,,,,,,,,,,,,,,,,-0.001976222498342395,-0.002240594243630767,0.00370839168317616,0.0,-0.007529932074248791,0.06118375062942505,0.10624928027391434,0.12941762804985046,0.01620154082775116,-0.02340654656291008,0.00020928517915308475,0.0,0.001876508235000074,0.03513425961136818,-0.31446927785873413,-0.33208292722702026,,,,,,,,,,,,,,,,,,,,,,,,,,,,,,,,,,,,,,,,,,,,,,,,,,,,,,,,,,,,,,,,,,,,,,,,
1696194704.1215956,1.0502122640609741,1.8839364051818848,-0.030518757179379463,0.0,0.7853615283966064,4.465462552616373e-06,0.5528373122215271,0.552107572555542,1.0502279996871948,1.884785532951355,-0.03066982515156269,0.0,0.785375714302063,-5.768833580077626e-05,-0.549997866153717,-0.5497435331344604,,,,,,,,,,,,,,,,,,,,,,,,,,,,,,,,,,,,,,,,,,,,,,,,,,,,,,,,,,,,,,,,,,,,,,,,,,,,,,,,,,,,,,,,,,,,,,,,,,,,,,,,,,,,,,,,,,,,,,,,,,,,,,,,,,,,,,0.0014489688910543919,-0.009356964379549026,0.0006790741463191807,0.0,-0.006018815096467733,-0.028626373037695885,-0.4406966269016266,-0.4722582697868347,0.0002806084812618792,-0.001857807277701795,0.0008764590602368116,0.0,0.0052138143219053745,-0.012814870104193687,0.1821584552526474,0.19691823422908783,,,,,,,,,,,,,,,,,,,,,,,,,,,,,,,,,,,,,,,,,,,,,,,,,,,,,,,,,,,,,,,,,,,,,,,,
1696194704.3821719,1.0485448837280273,1.883919358253479,-0.03012085147202015,0.0,0.7854542136192322,-6.182944343890995e-05,0.45378467440605164,0.4524784982204437,1.0483876466751099,1.8854198455810547,-0.030349895358085632,0.0,0.7852115631103516,-0.00013427328667603433,-0.4483007788658142,-0.4478076100349426,,,,,,,,,,,,,,,,,,,,,,,,,,,,,,,,,,,,,,,,,,,,,,,,,,,,,,,,,,,,,,,,,,,,,,,,,,,,,,,,,,,,,,,,,,,,,,,,,,,,,,,,,,,,,,,,,,,,,,,,,,,,,,,,,,,,,,-0.035569097846746445,0.03106152079999447,0.00483297323808074,0.0,0.00782238133251667,-0.015801023691892624,-0.6748546361923218,-0.8901866674423218,-0.026756498962640762,-0.010402916930615902,0.009320559911429882,0.0,-0.02645694650709629,-0.015018312260508537,0.5300594568252563,0.575171709060669,,,,,,,,,,,,,,,,,,,,,,,,,,,,,,,,,,,,,,,,,,,,,,,,,,,,,,,,,,,,,,,,,,,,,,,,
1696194704.4737272,1.0489798784255981,1.8850106000900269,-0.030443280935287476,0.0,0.7854676842689514,-0.000103437589132227,0.427216112613678,0.42702725529670715,1.0490169525146484,1.88412344455719,-0.030279245227575302,0.0,0.7853002548217773,-0.00022434668790083379,-0.4272497296333313,-0.42652106285095215,,,,,,,,,,,,,,,,,,,,,,,,,,,,,,,,,,,,,,,,,,,,,,,,,,,,,,,,,,,,,,,,,,,,,,,,,,,,,,,,,,,,,,,,,,,,,,,,,,,,,,,,,,,,,,,,,,,,,,,,,,,,,,,,,,,,,,0.0369180366396904,0.03492819517850876,-0.016973746940493584,0.0,0.0030333048198372126,0.019088849425315857,-0.2768628001213074,-0.24024195969104767,0.04179665446281433,-0.05565127357840538,-0.0008544981246814132,0.0,-0.004125113133341074,-0.015649812296032906,0.2264229953289032,0.30873942375183105,,,,,,,,,,,,,,,,,,,,,,,,,,,,,,,,,,,,,,,,,,,,,,,,,,,,,,,,,,,,,,,,,,,,,,,,
1696194704.7182498,1.0506705045700073,1.8837398290634155,-0.030588367953896523,0.0,0.7853242754936218,0.00013973181194160134,0.4510839283466339,0.4518914520740509,1.0506471395492554,1.8846814632415771,-0.03075226955115795,0.0,0.7855141758918762,0.0001393977872794494,-0.4518059492111206,-0.45208796858787537,,,,,,,,,,,,,,,,,,,,,,,,,,,,,,,,,,,,,,,,,,,,,,,,,,,,,,,,,,,,,,,,,,,,,,,,,,,,,,,,,,,,,,,,,,,,,,,,,,,,,,,,,,,,,,,,,,,,,,,,,,,,,,,,,,,,,,0.013053756207227707,-0.04274321720004082,0.005260012112557888,0.0,-0.015419963747262955,0.028837308287620544,0.36653873324394226,0.46771225333213806,0.008265762589871883,0.02111804112792015,-0.00653923349454999,0.0,0.019017936661839485,0.028225764632225037,-0.1941906213760376,-0.19297319650650024,,,,,,,,,,,,,,,,,,,,,,,,,,,,,,,,,,,,,,,,,,,,,,,,,,,,,,,,,,,,,,,,,,,,,,,,
1696194705.0048327,1.0487992763519287,1.8829903602600098,-0.030019154772162437,0.0,0.7853718996047974,-1.2472410162445158e-05,0.5415555238723755,0.5423434972763062,1.0487266778945923,1.886265516281128,-0.030576324090361595,0.0,0.7855439186096191,0.0001838211464928463,-0.5416252017021179,-0.5425543785095215,,,,,,,,,,,,,,,,,,,,,,,,,,,,,,,,,,,,,,,,,,,,,,,,,,,,,,,,,,,,,,,,,,,,,,,,,,,,,,,,,,,,,,,,,,,,,,,,,,,,,,,,,,,,,,,,,,,,,,,,,,,,,,,,,,,,,,-0.02463991940021515,0.005156518891453743,0.005792243406176567,0.0,0.001229647547006607,-0.010424988344311714,0.6176902651786804,0.6833611130714417,-0.025614237412810326,0.007053804583847523,0.0052983444184064865,0.0,0.01086246408522129,0.02274836041033268,-0.6087498068809509,-0.709621012210846,,,,,,,,,,,,,,,,,,,,,,,,,,,,,,,,,,,,,,,,,,,,,,,,,,,,,,,,,,,,,,,,,,,,,,,,
1696194705.16674,1.0483530759811401,1.884453535079956,-0.030193574726581573,0.0,0.7854815125465393,-8.472526678815484e-05,0.5806504487991333,0.5815187692642212,1.0483603477478027,1.884952187538147,-0.03026687726378441,0.0,0.7854568362236023,1.3068677617411595e-05,-0.5808247327804565,-0.5811805725097656,,,,,,,,,,,,,,,,,,,,,,,,,,,,,,,,,,,,,,,,,,,,,,,,,,,,,,,,,,,,,,,,,,,,,,,,,,,,,,,,,,,,,,,,,,,,,,,,,,,,,,,,,,,,,,,,,,,,,,,,,,,,,,,,,,,,,,0.012638582848012447,0.052542414516210556,-0.011585837230086327,0.0,-0.0033956002444028854,0.06474597752094269,0.48264187574386597,0.5782839059829712,0.01764496974647045,-0.06384996324777603,0.006306814961135387,0.0,0.013766370713710785,0.04948598891496658,-0.556248664855957,-0.5932027101516724,,,,,,,,,,,,,,,,,,,,,,,,,,,,,,,,,,,,,,,,,,,,,,,,,,,,,,,,,,,,,,,,,,,,,,,,
1696194705.3284755,1.0501582622528076,1.884816288948059,-0.030668556690216064,0.0,0.7853893637657166,9.422887524124235e-05,0.5799861550331116,0.579365611076355,1.0501853227615356,1.8838268518447876,-0.03050019033253193,0.0,0.7853100895881653,-0.00018488249043002725,-0.5801421403884888,-0.579012393951416,,,,,,,,,,,,,,,,,,,,,,,,,,,,,,,,,,,,,,,,,,,,,,,,,,,,,,,,,,,,,,,,,,,,,,,,,,,,,,,,,,,,,,,,,,,,,,,,,,,,,,,,,,,,,,,,,,,,,,,,,,,,,,,,,,,,,,0.03246983885765076,-0.023478278890252113,-0.0032400069758296013,0.0,-0.005479027517139912,0.0053073386661708355,-0.5931302905082703,-0.6515182852745056,0.031001346185803413,0.009641136042773724,-0.008826001547276974,0.0,-0.006053632590919733,-0.033180076628923416,0.5841798782348633,0.6999295949935913,,,,,,,,,,,,,,,,,,,,,,,,,,,,,,,,,,,,,,,,,,,,,,,,,,,,,,,,,,,,,,,,,,,,,,,,
1696194705.631184,1.0503036975860596,1.882688283920288,-0.030322005972266197,0.0,0.7853473424911499,-1.688522934273351e-05,0.5151087641716003,0.5140904784202576,1.0501987934112549,1.8859971761703491,-0.030873723328113556,0.0,0.7852763533592224,-8.439939119853079e-05,-0.5138821601867676,-0.5131617784500122,,,,,,,,,,,,,,,,,,,,,,,,,,,,,,,,,,,,,,,,,,,,,,,,,,,,,,,,,,,,,,,,,,,,,,,,,,,,,,,,,,,,,,,,,,,,,,,,,,,,,,,,,,,,,,,,,,,,,,,,,,,,,,,,,,,,,,-0.0059702335856854916,-0.009288214147090912,0.0014886704739183187,0.0,-0.009442657232284546,-0.030505960807204247,-0.5221400856971741,-0.5683260560035706,-0.013708208687603474,0.027028106153011322,-0.0013163425028324127,0.0,-0.0007067399565130472,-0.016091808676719666,0.7492151856422424,0.8052217364311218,,,,,,,,,,,,,,,,,,,,,,,,,,,,,,,,,,,,,,,,,,,,,,,,,,,,,,,,,,,,,,,,,,,,,,,,
1696194705.8287337,1.0488090515136719,1.8828078508377075,-0.029998743906617165,0.0,0.7853692173957825,8.824745236779563e-06,0.4513004422187805,0.4509289264678955,1.048740267753601,1.8864367008209229,-0.030613522976636887,0.0,0.7853884696960449,2.1870884665986523e-05,-0.4511958658695221,-0.4510363042354584,,,,,,,,,,,,,,,,,,,,,,,,,,,,,,,,,,,,,,,,,,,,,,,,,,,,,,,,,,,,,,,,,,,,,,,,,,,,,,,,,,,,,,,,,,,,,,,,,,,,,,,,,,,,,,,,,,,,,,,,,,,,,,,,,,,,,,0.0005184494657441974,-0.00593632971867919,0.0005812684539705515,0.0,-0.01467857975512743,0.010371577925980091,-0.24792547523975372,-0.2120307832956314,0.001585894962772727,0.005480253603309393,-0.0020274363923817873,0.0,0.02462734654545784,0.03271249309182167,0.2389805167913437,0.2023121565580368,,,,,,,,,,,,,,,,,,,,,,,,,,,,,,,,,,,,,,,,,,,,,,,,,,,,,,,,,,,,,,,,,,,,,,,,
1696194706.0060208,1.0479909181594849,1.8848906755447388,-0.03016640432178974,0.0,0.7853956818580627,0.00018243982049170882,0.4063047170639038,0.4063930809497833,1.047996997833252,1.8846704959869385,-0.030135618522763252,0.0,0.7853841185569763,5.452505865832791e-05,-0.406491219997406,-0.4062751829624176,,,,,,,,,,,,,,,,,,,,,,,,,,,,,,,,,,,,,,,,,,,,,,,,,,,,,,,,,,,,,,,,,,,,,,,,,,,,,,,,,,,,,,,,,,,,,,,,,,,,,,,,,,,,,,,,,,,,,,,,,,,,,,,,,,,,,,-0.005192991346120834,-0.005857336334884167,0.007801475934684277,0.0,-0.020079469308257103,0.10245968401432037,-0.19669955968856812,-0.14397239685058594,-0.008108378387987614,0.007139972876757383,0.0008160253055393696,0.0,0.014152951538562775,0.0601426437497139,0.13854631781578064,0.0899418443441391,,,,,,,,,,,,,,,,,,,,,,,,,,,,,,,,,,,,,,,,,,,,,,,,,,,,,,,,,,,,,,,,,,,,,,,,
1696194706.190421,1.0503299236297607,1.8850138187408447,-0.030735304579138756,0.0,0.7854638695716858,-1.979278022190556e-05,0.4226333498954773,0.42312091588974,1.0503531694412231,1.883561372756958,-0.030486997216939926,0.0,0.7853680849075317,-5.207608774071559e-05,-0.42260414361953735,-0.42273375391960144,,,,,,,,,,,,,,,,,,,,,,,,,,,,,,,,,,,,,,,,,,,,,,,,,,,,,,,,,,,,,,,,,,,,,,,,,,,,,,,,,,,,,,,,,,,,,,,,,,,,,,,,,,,,,,,,,,,,,,,,,,,,,,,,,,,,,,-0.001855544513091445,0.013329983688890934,-0.0010746682528406382,0.0,0.025769924744963646,-0.02571946568787098,0.2542286515235901,0.12621697783470154,-0.0034709430765360594,-0.010984187014400959,0.0036177895963191986,0.0,-0.05103716626763344,-0.050487034022808075,-0.19891367852687836,-0.12713022530078888,,,,,,,,,,,,,,,,,,,,,,,,,,,,,,,,,,,,,,,,,,,,,,,,,,,,,,,,,,,,,,,,,,,,,,,,
1696194706.3876176,1.0504978895187378,1.8826464414596558,-0.03035149537026882,0.0,0.7853495478630066,7.337450369959697e-05,0.4824175238609314,0.4833189845085144,1.0504246950149536,1.88588547706604,-0.030907128006219864,0.0,0.7855783700942993,0.0002210324164479971,-0.4825015068054199,-0.4834091365337372,,,,,,,,,,,,,,,,,,,,,,,,,,,,,,,,,,,,,,,,,,,,,,,,,,,,,,,,,,,,,,,,,,,,,,,,,,,,,,,,,,,,,,,,,,,,,,,,,,,,,,,,,,,,,,,,,,,,,,,,,,,,,,,,,,,,,,-0.01395440474152565,-0.02476179040968418,0.008714157156646252,0.0,0.0021558564621955156,-0.008295796811580658,0.5972262620925903,0.6688759922981262,-0.016717975959181786,0.03315005078911781,-0.001539400196634233,0.0,0.010942717082798481,0.015553968027234077,-0.5942047834396362,-0.6910462379455566,,,,,,,,,,,,,,,,,,,,,,,,,,,,,,,,,,,,,,,,,,,,,,,,,,,,,,,,,,,,,,,,,,,,,,,,
1696194706.5679934,1.0486418008804321,1.8826522827148438,-0.029933590441942215,0.0,0.7853964567184448,5.179095751373097e-06,0.5508521199226379,0.5511345863342285,1.048560380935669,1.886629343032837,-0.03060152754187584,0.0,0.7854621410369873,1.0080382708110847e-05,-0.5495414137840271,-0.5498294830322266,,,,,,,,,,,,,,,,,,,,,,,,,,,,,,,,,,,,,,,,,,,,,,,,,,,,,,,,,,,,,,,,,,,,,,,,,,,,,,,,,,,,,,,,,,,,,,,,,,,,,,,,,,,,,,,,,,,,,,,,,,,,,,,,,,,,,,6.080409002606757e-05,-0.006869656033813953,0.0004621989210136235,0.0,0.0017304912908002734,0.007058057468384504,0.2622453570365906,0.2532776892185211,-0.023517446592450142,-0.013517007231712341,0.009298320859670639,0.0,0.0025596420746296644,-0.016685767099261284,-0.2826610207557678,-0.2061329185962677,,,,,,,,,,,,,,,,,,,,,,,,,,,,,,,,,,,,,,,,,,,,,,,,,,,,,,,,,,,,,,,,,,,,,,,,
1696194706.7170267,1.0478769540786743,1.8844304084777832,-0.030079297721385956,0.0,0.7854804992675781,-0.00010669525363482535,0.5830731987953186,0.58362877368927,1.047887921333313,1.8850383758544922,-0.030171586200594902,0.0,0.7853856682777405,-0.00011859739606734365,-0.5850300192832947,-0.5850990414619446,,,,,,,,,,,,,,,,,,,,,,,,,,,,,,,,,,,,,,,,,,,,,,,,,,,,,,,,,,,,,,,,,,,,,,,,,,,,,,,,,,,,,,,,,,,,,,,,,,,,,,,,,,,,,,,,,,,,,,,,,,,,,,,,,,,,,,0.017940500751137733,0.049631550908088684,-0.011896784417331219,0.0,-0.0025308639742434025,0.042758744210004807,0.2536006271839142,0.31779107451438904,0.009322955273091793,-0.04281841591000557,0.005851496942341328,0.0,-0.006717666517943144,-0.04683201387524605,-0.1933196485042572,-0.15081848204135895,,,,,,,,,,,,,,,,,,,,,,,,,,,,,,,,,,,,,,,,,,,,,,,,,,,,,,,,,,,,,,,,,,,,,,,,
1696194706.8735766,1.0497760772705078,1.885877013206482,-0.030753664672374725,0.0,0.7853906750679016,-3.598262628656812e-05,0.5872454643249512,0.5871641635894775,1.0499695539474487,1.8829944133758545,-0.0303081963211298,0.0,0.7853057980537415,-0.0002324637316633016,-0.5867451429367065,-0.5854373574256897,,,,,,,,,,,,,,,,,,,,,,,,,,,,,,,,,,,,,,,,,,,,,,,,,,,,,,,,,,,,,,,,,,,,,,,,,,,,,,,,,,,,,,,,,,,,,,,,,,,,,,,,,,,,,,,,,,,,,,,,,,,,,,,,,,,,,,0.0028008725494146347,0.007990481331944466,-0.00025853951228782535,0.0,-0.0014103013090789318,-0.021420806646347046,-0.04818671569228172,-0.0029510674066841602,0.04501665011048317,-0.0020622583106160164,-0.010172934271395206,0.0,-0.006590593606233597,-0.03514421731233597,0.5681895613670349,0.7016351819038391,,,,,,,,,,,,,,,,,,,,,,,,,,,,,,,,,,,,,,,,,,,,,,,,,,,,,,,,,,,,,,,,,,,,,,,,
1696194707.0574772,1.0512648820877075,1.883889079093933,-0.030756046995520592,0.0,0.7853555679321289,7.4639528975239955e-06,0.5493053793907166,0.5484778881072998,1.0512213706970215,1.8840107917785645,-0.030767040327191353,0.0,0.7853692770004272,-7.405348151223734e-05,-0.5540417432785034,-0.5538119077682495,,,,,,,,,,,,,,,,,,,,,,,,,,,,,,,,,,,,,,,,,,,,,,,,,,,,,,,,,,,,,,,,,,,,,,,,,,,,,,,,,,,,,,,,,,,,,,,,,,,,,,,,,,,,,,,,,,,,,,,,,,,,,,,,,,,,,,0.002167611615732312,-0.012704147957265377,0.0006518102018162608,0.0,-0.00519448472186923,-0.03681427985429764,-0.4786008596420288,-0.5290197730064392,0.002246398013085127,-0.0034226796124130487,0.0007540089427493513,0.0,0.0018989283125847578,-0.02383464016020298,0.16410532593727112,0.17948897182941437,,,,,,,,,,,,,,,,,,,,,,,,,,,,,,,,,,,,,,,,,,,,,,,,,,,,,,,,,,,,,,,,,,,,,,,,
1696194707.2619593,1.0500988960266113,1.8816255331039429,-0.0300929956138134,0.0,0.7853731513023376,-3.92546717193909e-05,0.4753880500793457,0.47498005628585815,1.04999577999115,1.887079119682312,-0.031016115099191666,0.0,0.7853813767433167,-1.593667002453003e-05,-0.4752912223339081,-0.47512874007225037,,,,,,,,,,,,,,,,,,,,,,,,,,,,,,,,,,,,,,,,,,,,,,,,,,,,,,,,,,,,,,,,,,,,,,,,,,,,,,,,,,,,,,,,,,,,,,,,,,,,,,,,,,,,,,,,,,,,,,,,,,,,,,,,,,,,,,1.92078118743666e-06,-0.004470605403184891,-0.000809239863883704,0.0,-0.005975810810923576,-0.02486255019903183,-0.21622630953788757,-0.20240457355976105,0.0008694302523508668,0.005949786864221096,-0.001478303805924952,0.0,0.015182219445705414,0.004584984853863716,0.2342439740896225,0.21451938152313232,,,,,,,,,,,,,,,,,,,,,,,,,,,,,,,,,,,,,,,,,,,,,,,,,,,,,,,,,,,,,,,,,,,,,,,,
1696194707.3992286,1.048012137413025,1.8832449913024902,-0.029889797791838646,0.0,0.7853637337684631,-6.40288126305677e-05,0.42510056495666504,0.42391207814216614,1.0479536056518555,1.8863255977630615,-0.03041069209575653,0.0,0.7853030562400818,-1.8138724044547416e-05,-0.42479583621025085,-0.4243505597114563,,,,,,,,,,,,,,,,,,,,,,,,,,,,,,,,,,,,,,,,,,,,,,,,,,,,,,,,,,,,,,,,,,,,,,,,,,,,,,,,,,,,,,,,,,,,,,,,,,,,,,,,,,,,,,,,,,,,,,,,,,,,,,,,,,,,,,-0.011782432906329632,0.01625756174325943,5.6038803450064734e-05,0.0,-0.031193891540169716,0.03736041858792305,-0.6018651127815247,-0.6063010692596436,-0.00913929007947445,-0.013154701329767704,0.003399497363716364,0.0,0.04000874608755112,0.06412728130817413,0.5733453631401062,0.5432470440864563,,,,,,,,,,,,,,,,,,,,,,,,,,,,,,,,,,,,,,,,,,,,,,,,,,,,,,,,,,,,,,,,,,,,,,,,
1696194707.5145023,1.0478178262710571,1.8847640752792358,-0.030109159648418427,0.0,0.785394012928009,8.741900091990829e-05,0.40877020359039307,0.4086354076862335,1.047816276550293,1.8848720788955688,-0.030129050835967064,0.0,0.7853742241859436,2.206880526500754e-05,-0.4088066816329956,-0.40865209698677063,,,,,,,,,,,,,,,,,,,,,,,,,,,,,,,,,,,,,,,,,,,,,,,,,,,,,,,,,,,,,,,,,,,,,,,,,,,,,,,,,,,,,,,,,,,,,,,,,,,,,,,,,,,,,,,,,,,,,,,,,,,,,,,,,,,,,,-0.005706717260181904,0.0019854989368468523,0.003258496755734086,0.0,-0.011813400313258171,0.0615185983479023,-0.18545524775981903,-0.15116606652736664,-0.006221048999577761,-0.0011410471051931381,0.0012698308564722538,0.0,0.009310966357588768,0.03707965835928917,0.14372119307518005,0.12477812170982361,,,,,,,,,,,,,,,,,,,,,,,,,,,,,,,,,,,,,,,,,,,,,,,,,,,,,,,,,,,,,,,,,,,,,,,,
1696194707.6750464,1.0488386154174805,1.8865811824798584,-0.03066037967801094,0.0,0.7854769229888916,5.182729728403501e-05,0.402086079120636,0.4026588201522827,1.048911452293396,1.882607102394104,-0.02998501993715763,0.0,0.7853467464447021,-7.486269896617159e-05,-0.4022737741470337,-0.40221986174583435,,,,,,,,,,,,,,,,,,,,,,,,,,,,,,,,,,,,,,,,,,,,,,,,,,,,,,,,,,,,,,,,,,,,,,,,,,,,,,,,,,,,,,,,,,,,,,,,,,,,,,,,,,,,,,,,,,,,,,,,,,,,,,,,,,,,,,-0.011642399244010448,0.025812607258558273,0.0020281614270061255,0.0,0.020020846277475357,0.010311328805983067,0.16313375532627106,0.11408335715532303,-0.014561720192432404,-0.02006119303405285,0.009237855672836304,0.0,-0.04368370771408081,-0.02686472423374653,-0.14232806861400604,-0.1033094972372055,,,,,,,,,,,,,,,,,,,,,,,,,,,,,,,,,,,,,,,,,,,,,,,,,,,,,,,,,,,,,,,,,,,,,,,,
1696194707.922579,1.0518430471420288,1.8843809366226196,-0.03096740134060383,0.0,0.7853013873100281,0.00020018582290504128,0.44464409351348877,0.44542285799980164,1.0518572330474854,1.8835554122924805,-0.03084089607000351,0.0,0.785612940788269,0.00026368239196017385,-0.44492673873901367,-0.44550785422325134,,,,,,,,,,,,,,,,,,,,,,,,,,,,,,,,,,,,,,,,,,,,,,,,,,,,,,,,,,,,,,,,,,,,,,,,,,,,,,,,,,,,,,,,,,,,,,,,,,,,,,,,,,,,,,,,,,,,,,,,,,,,,,,,,,,,,,0.008563272655010223,-0.05770397558808327,0.010399610735476017,0.0,-0.018473345786333084,0.039215151220560074,0.33633482456207275,0.43258926272392273,0.004811055026948452,0.0546673908829689,-0.011728299781680107,0.0,0.03594192489981651,0.046677593141794205,-0.3878348469734192,-0.47474604845046997,,,,,,,,,,,,,,,,,,,,,,,,,,,,,,,,,,,,,,,,,,,,,,,,,,,,,,,,,,,,,,,,,,,,,,,,
1696194708.180542,1.050946831703186,1.8813046216964722,-0.030229322612285614,0.0,0.7854004502296448,-3.437348277657293e-05,0.5132203102111816,0.5138931274414062,1.050364375114441,1.8875352144241333,-0.031177615746855736,0.0,0.785570502281189,0.0002529236953705549,-0.5227639079093933,-0.5238108038902283,,,,,,,,,,,,,,,,,,,,,,,,,,,,,,,,,,,,,,,,,,,,,,,,,,,,,,,,,,,,,,,,,,,,,,,,,,,,,,,,,,,,,,,,,,,,,,,,,,,,,,,,,,,,,,,,,,,,,,,,,,,,,,,,,,,,,,-0.014217432588338852,-0.010281343944370747,0.0028493183199316263,0.0,0.01901956833899021,-0.038923151791095734,0.5962833166122437,0.5873250365257263,-0.034785009920597076,0.03594256564974785,0.002539297565817833,0.0,0.011547690257430077,0.0234273262321949,-0.5844990015029907,-0.7024157047271729,,,,,,,,,,,,,,,,,,,,,,,,,,,,,,,,,,,,,,,,,,,,,,,,,,,,,,,,,,,,,,,,,,,,,,,,
1696194708.382949,1.0485759973526,1.881401777267456,-0.029698465019464493,0.0,0.7854059934616089,-6.623708759434521e-05,0.5623810887336731,0.5628618597984314,1.0481984615325928,1.8879022598266602,-0.03074786439538002,0.0,0.7854567170143127,0.00017525354633107781,-0.5672729015350342,-0.5680078268051147,,,,,,,,,,,,,,,,,,,,,,,,,,,,,,,,,,,,,,,,,,,,,,,,,,,,,,,,,,,,,,,,,,,,,,,,,,,,,,,,,,,,,,,,,,,,,,,,,,,,,,,,,,,,,,,,,,,,,,,,,,,,,,,,,,,,,,-0.016692936420440674,0.007521871477365494,0.001502985367551446,0.0,0.0014167721383273602,0.005092227831482887,0.5080940127372742,0.5163028240203857,0.00784316472709179,0.015742000192403793,-0.0075073824264109135,0.0,-0.0024317598436027765,0.028618091717362404,-0.36651232838630676,-0.3964816629886627,,,,,,,,,,,,,,,,,,,,,,,,,,,,,,,,,,,,,,,,,,,,,,,,,,,,,,,,,,,,,,,,,,,,,,,,
1696194708.5104635,1.0468597412109375,1.8841001987457275,-0.029774358496069908,0.0,0.7853893637657166,7.923851808300242e-05,0.5956659317016602,0.5958647131919861,1.046964406967163,1.8865768909454346,-0.030222350731492043,0.0,0.785327136516571,-0.000245991803240031,-0.5900272727012634,-0.5900880098342896,,,,,,,,,,,,,,,,,,,,,,,,,,,,,,,,,,,,,,,,,,,,,,,,,,,,,,,,,,,,,,,,,,,,,,,,,,,,,,,,,,,,,,,,,,,,,,,,,,,,,,,,,,,,,,,,,,,,,,,,,,,,,,,,,,,,,,-0.0021785779390484095,-0.00496335607022047,0.0030245014932006598,0.0,-0.013677285052835941,0.05788516253232956,0.08916318416595459,0.11932744830846786,-0.010808971710503101,-0.08260122686624527,0.019006790593266487,0.0,-0.02096986211836338,-0.07897482067346573,-0.24263568222522736,-0.17470243573188782,,,,,,,,,,,,,,,,,,,,,,,,,,,,,,,,,,,,,,,,,,,,,,,,,,,,,,,,,,,,,,,,,,,,,,,,
1696194708.6366065,1.0478934049606323,1.8868653774261475,-0.030502988025546074,0.0,0.7854321599006653,7.603275298606604e-05,0.6027916073799133,0.602885365486145,1.0479846000671387,1.8827173709869385,-0.029798023402690887,0.0,0.7853602170944214,-0.00011040605022571981,-0.602985143661499,-0.6024059653282166,,,,,,,,,,,,,,,,,,,,,,,,,,,,,,,,,,,,,,,,,,,,,,,,,,,,,,,,,,,,,,,,,,,,,,,,,,,,,,,,,,,,,,,,,,,,,,,,,,,,,,,,,,,,,,,,,,,,,,,,,,,,,,,,,,,,,,0.018457463011145592,0.015295067802071571,-0.003856934607028961,0.0,-0.012021969072520733,0.06832920014858246,-0.20234961807727814,-0.15464679896831512,0.017685415223240852,-0.026302004233002663,0.0004502162919379771,0.0,0.0086461016908288,0.01606823317706585,0.13165205717086792,0.15332752466201782,,,,,,,,,,,,,,,,,,,,,,,,,,,,,,,,,,,,,,,,,,,,,,,,,,,,,,,,,,,,,,,,,,,,,,,,
1696194708.7734203,1.0497015714645386,1.8866990804672241,-0.03090786002576351,0.0,0.785413920879364,0.00024991927784867585,0.5916498303413391,0.5910934805870056,1.0502924919128418,1.8821407556533813,-0.03023449331521988,0.0,0.7853772044181824,4.3568619730649516e-05,-0.5839417576789856,-0.5837145447731018,,,,,,,,,,,,,,,,,,,,,,,,,,,,,,,,,,,,,,,,,,,,,,,,,,,,,,,,,,,,,,,,,,,,,,,,,,,,,,,,,,,,,,,,,,,,,,,,,,,,,,,,,,,,,,,,,,,,,,,,,,,,,,,,,,,,,,0.10174354165792465,-0.10734255611896515,-0.009517474099993706,0.0,0.0014783188235014677,0.05565180629491806,-0.7652265429496765,-0.8759827017784119,0.03592821583151817,0.016616089269518852,-0.013443447649478912,0.0,0.002344455337151885,0.032933615148067474,0.17416486144065857,0.08350921422243118,,,,,,,,,,,,,,,,,,,,,,,,,,,,,,,,,,,,,,,,,,,,,,,,,,,,,,,,,,,,,,,,,,,,,,,,
1696194708.950061,1.0517843961715698,1.883325219154358,-0.030771512538194656,0.0,0.7853507995605469,0.00016688319738022983,0.5369399785995483,0.5361775755882263,1.0515772104263306,1.8836150169372559,-0.030788479372859,0.0,0.7853413224220276,8.803111268207431e-05,-0.5526737570762634,-0.5523373484611511,,,,,,,,,,,,,,,,,,,,,,,,,,,,,,,,,,,,,,,,,,,,,,,,,,,,,,,,,,,,,,,,,,,,,,,,,,,,,,,,,,,,,,,,,,,,,,,,,,,,,,,,,,,,,,,,,,,,,,,,,,,,,,,,,,,,,,0.007072446867823601,-0.05786701291799545,0.00946080032736063,0.0,-0.004238186404109001,-0.0007908541592769325,-0.5889817476272583,-0.6799801588058472,0.007237816695123911,0.06276611983776093,-0.01404891349375248,0.0,-0.008939430117607117,0.023510709404945374,0.4451664388179779,0.44878754019737244,,,,,,,,,,,,,,,,,,,,,,,,,,,,,,,,,,,,,,,,,,,,,,,,,,,,,,,,,,,,,,,,,,,,,,,,
1696194709.1056573,1.0506515502929688,1.8810157775878906,-0.03010222129523754,0.0,0.7853202223777771,3.056895002373494e-05,0.4869964122772217,0.4854825437068939,1.050421118736267,1.887612223625183,-0.03120841085910797,0.0,0.7853335738182068,2.2955962776904926e-05,-0.4836207926273346,-0.48344355821609497,,,,,,,,,,,,,,,,,,,,,,,,,,,,,,,,,,,,,,,,,,,,,,,,,,,,,,,,,,,,,,,,,,,,,,,,,,,,,,,,,,,,,,,,,,,,,,,,,,,,,,,,,,,,,,,,,,,,,,,,,,,,,,,,,,,,,,-0.030642643570899963,-0.025424009189009666,0.010831396095454693,0.0,-0.011665434576570988,-0.03341979905962944,-0.70695960521698,-0.840967059135437,-0.02200409583747387,0.02753351628780365,0.0007964070537127554,0.0,-0.006767146289348602,0.021168436855077744,0.2768474221229553,0.23786130547523499,,,,,,,,,,,,,,,,,,,,,,,,,,,,,,,,,,,,,,,,,,,,,,,,,,,,,,,,,,,,,,,,,,,,,,,,
1696194709.2157578,1.0492032766342163,1.8808339834213257,-0.02974126487970352,0.0,0.7854248881340027,2.8939894036739133e-05,0.4581245481967926,0.45755651593208313,1.0486345291137695,1.888290286064148,-0.030910760164260864,0.0,0.7853205800056458,8.825627446640283e-06,-0.45109742879867554,-0.45084309577941895,,,,,,,,,,,,,,,,,,,,,,,,,,,,,,,,,,,,,,,,,,,,,,,,,,,,,,,,,,,,,,,,,,,,,,,,,,,,,,,,,,,,,,,,,,,,,,,,,,,,,,,,,,,,,,,,,,,,,,,,,,,,,,,,,,,,,,-0.03710101544857025,0.021479345858097076,0.007611286826431751,0.0,0.014793694950640202,0.007988070137798786,-0.32200106978416443,-0.2627338171005249,-0.01905805803835392,0.007813801057636738,0.0022242332343012094,0.0,0.03261599689722061,0.034074537456035614,0.576193630695343,0.5563440322875977,,,,,,,,,,,,,,,,,,,,,,,,,,,,,,,,,,,,,,,,,,,,,,,,,,,,,,,,,,,,,,,,,,,,,,,,
1696194709.3830817,1.046184778213501,1.8834574222564697,-0.029516199603676796,0.0,0.7854976654052734,-0.00027805392164736986,0.4088969826698303,0.4081752300262451,1.046463966369629,1.8876947164535522,-0.030310915783047676,0.0,0.7854025363922119,7.781620661262423e-05,-0.4138829708099365,-0.4138401746749878,,,,,,,,,,,,,,,,,,,,,,,,,,,,,,,,,,,,,,,,,,,,,,,,,,,,,,,,,,,,,,,,,,,,,,,,,,,,,,,,,,,,,,,,,,,,,,,,,,,,,,,,,,,,,,,,,,,,,,,,,,,,,,,,,,,,,,-0.03110198862850666,0.0909220278263092,-0.010317699052393436,0.0,0.01706402376294136,-0.0558159165084362,-0.21173526346683502,-0.29821041226387024,-0.00032349370303563774,0.00908756535500288,-0.002891319338232279,0.0,0.026063164696097374,0.054853249341249466,0.17246286571025848,0.12716400623321533,,,,,,,,,,,,,,,,,,,,,,,,,,,,,,,,,,,,,,,,,,,,,,,,,,,,,,,,,,,,,,,,,,,,,,,,
1696194709.4915462,1.0461307764053345,1.8858296871185303,-0.029931338503956795,0.0,0.7854817509651184,-0.00016242230776697397,0.39612990617752075,0.39614781737327576,1.046546220779419,1.883630633354187,-0.029622217640280724,0.0,0.7852010726928711,-0.0006266237469390035,-0.3960617482662201,-0.39520230889320374,,,,,,,,,,,,,,,,,,,,,,,,,,,,,,,,,,,,,,,,,,,,,,,,,,,,,,,,,,,,,,,,,,,,,,,,,,,,,,,,,,,,,,,,,,,,,,,,,,,,,,,,,,,,,,,,,,,,,,,,,,,,,,,,,,,,,,0.022940512746572495,0.05725378543138504,-0.01758655533194542,0.0,0.003724839771166444,0.017375506460666656,-0.058796338737010956,-0.014758994802832603,0.08133497834205627,-0.18212361633777618,0.01311929989606142,0.0,-0.03637672960758209,-0.13695158064365387,-0.08093013614416122,0.07516644150018692,,,,,,,,,,,,,,,,,,,,,,,,,,,,,,,,,,,,,,,,,,,,,,,,,,,,,,,,,,,,,,,,,,,,,,,,
1696194709.6206262,1.0484116077423096,1.8874964714050293,-0.03074672445654869,0.0,0.7854258418083191,1.8638544133864343e-05,0.40068724751472473,0.4015365540981293,1.047502875328064,1.88225519657135,-0.029604941606521606,0.0,0.7853614091873169,-5.5176155001390725e-05,-0.3959861695766449,-0.3958682715892792,,,,,,,,,,,,,,,,,,,,,,,,,,,,,,,,,,,,,,,,,,,,,,,,,,,,,,,,,,,,,,,,,,,,,,,,,,,,,,,,,,,,,,,,,,,,,,,,,,,,,,,,,,,,,,,,,,,,,,,,,,,,,,,,,,,,,,0.05614142492413521,-0.007085481658577919,-0.01326005719602108,0.0,0.0041795698925852776,0.023008301854133606,0.22895869612693787,0.37141063809394836,-0.005517635960131884,-0.0130787193775177,0.004237718880176544,0.0,-0.016735725104808807,-0.011960858479142189,-0.015215554274618626,0.008505637757480145,,,,,,,,,,,,,,,,,,,,,,,,,,,,,,,,,,,,,,,,,,,,,,,,,,,,,,,,,,,,,,,,,,,,,,,,
1696194709.74876,1.050439476966858,1.886706829071045,-0.03106643073260784,0.0,0.7853727340698242,0.0001662706199567765,0.41751447319984436,0.41876301169395447,1.0505270957946777,1.8816877603530884,-0.0301999282091856,0.0,0.7853975296020508,-4.998931763111614e-05,-0.4192409813404083,-0.4192868769168854,,,,,,,,,,,,,,,,,,,,,,,,,,,,,,,,,,,,,,,,,,,,,,,,,,,,,,,,,,,,,,,,,,,,,,,,,,,,,,,,,,,,,,,,,,,,,,,,,,,,,,,,,,,,,,,,,,,,,,,,,,,,,,,,,,,,,,0.04607211798429489,-0.056175362318754196,-0.0018728073919191957,0.0,0.007764195557683706,0.018527058884501457,0.46483710408210754,0.6074314713478088,-0.0031359714921563864,-0.0207909494638443,0.007627653423696756,0.0,-0.03870513290166855,-0.03240411356091499,-0.2539777159690857,-0.19364404678344727,,,,,,,,,,,,,,,,,,,,,,,,,,,,,,,,,,,,,,,,,,,,,,,,,,,,,,,,,,,,,,,,,,,,,,,,
1696194709.9413166,1.0524775981903076,1.883978247642517,-0.031054623425006866,0.0,0.7854141592979431,2.4150094759534113e-05,0.4554957449436188,0.45639604330062866,1.0525420904159546,1.8839759826660156,-0.03106788359582424,0.0,0.7854018807411194,-8.129192428896204e-05,-0.4601772725582123,-0.4604426622390747,,,,,,,,,,,,,,,,,,,,,,,,,,,,,,,,,,,,,,,,,,,,,,,,,,,,,,,,,,,,,,,,,,,,,,,,,,,,,,,,,,,,,,,,,,,,,,,,,,,,,,,,,,,,,,,,,,,,,,,,,,,,,,,,,,,,,,0.00224557938054204,-0.019092127680778503,0.00121027952991426,0.0,0.029275543987751007,-0.05337820202112198,0.5558531284332275,0.544174075126648,8.141942998918239e-06,-0.01291769277304411,0.0040452564135193825,0.0,-0.04768775776028633,-0.08029445260763168,-0.33631426095962524,-0.26117703318595886,,,,,,,,,,,,,,,,,,,,,,,,,,,,,,,,,,,,,,,,,,,,,,,,,,,,,,,,,,,,,,,,,,,,,,,,
1696194710.0715368,1.0518980026245117,1.880516529083252,-0.03029821068048477,0.0,0.7853143215179443,0.00011526513117132708,0.5041671991348267,0.5049631595611572,1.051581621170044,1.8877497911453247,-0.031503017991781235,0.0,0.7854310274124146,1.0374437806603964e-05,-0.5103278160095215,-0.5108751654624939,,,,,,,,,,,,,,,,,,,,,,,,,,,,,,,,,,,,,,,,,,,,,,,,,,,,,,,,,,,,,,,,,,,,,,,,,,,,,,,,,,,,,,,,,,,,,,,,,,,,,,,,,,,,,,,,,,,,,,,,,,,,,,,,,,,,,,-0.03294263407588005,-0.03948367387056351,0.01684608869254589,0.0,-0.00032600818667560816,-0.01876019686460495,0.6052749156951904,0.6582868099212646,0.0050031812861561775,0.0027146348729729652,-0.0016847681254148483,0.0,-0.03733455762267113,-0.06394828110933304,-0.3651173710823059,-0.3042266070842743,,,,,,,,,,,,,,,,,,,,,,,,,,,,,,,,,,,,,,,,,,,,,,,,,,,,,,,,,,,,,,,,,,,,,,,,
1696194710.2300067,1.0499815940856934,1.87938392162323,-0.029677709564566612,0.0,0.7853903770446777,-0.0001197113815578632,0.5413117408752441,0.5417683124542236,1.0497863292694092,1.8893896341323853,-0.031371887773275375,0.0,0.7855122089385986,0.0002379602228756994,-0.5409666299819946,-0.5423335433006287,,,,,,,,,,,,,,,,,,,,,,,,,,,,,,,,,,,,,,,,,,,,,,,,,,,,,,,,,,,,,,,,,,,,,,,,,,,,,,,,,,,,,,,,,,,,,,,,,,,,,,,,,,,,,,,,,,,,,,,,,,,,,,,,,,,,,,-0.017979582771658897,-0.012133256532251835,5.5908032663865015e-05,0.0,0.017143240198493004,-0.04783698543906212,0.6997917294502258,0.6717085838317871,-0.013302460312843323,0.0203360877931118,-0.002463928423821926,0.0,-0.010598632507026196,0.002128258813172579,-0.6445544362068176,-0.7095465660095215,,,,,,,,,,,,,,,,,,,,,,,,,,,,,,,,,,,,,,,,,,,,,,,,,,,,,,,,,,,,,,,,,,,,,,,,
1696194710.3915231,1.046414852142334,1.88109290599823,-0.029150499030947685,0.0,0.7854464650154114,-0.00020392118312884122,0.5862523913383484,0.5863659381866455,1.0462510585784912,1.889172077178955,-0.030509136617183685,0.0,0.7853676080703735,-0.0001355493877781555,-0.5860020518302917,-0.5863564014434814,,,,,,,,,,,,,,,,,,,,,,,,,,,,,,,,,,,,,,,,,,,,,,,,,,,,,,,,,,,,,,,,,,,,,,,,,,,,,,,,,,,,,,,,,,,,,,,,,,,,,,,,,,,,,,,,,,,,,,,,,,,,,,,,,,,,,,-0.05445627123117447,0.08229353278875351,-0.0009190998389385641,0.0,0.00835924968123436,-0.04904872179031372,0.34793591499328613,0.31646326184272766,-0.05437997728586197,-0.057740435004234314,0.025813592597842216,0.0,-0.014218105003237724,-0.05575365945696831,-0.2960672080516815,-0.24242641031742096,,,,,,,,,,,,,,,,,,,,,,,,,,,,,,,,,,,,,,,,,,,,,,,,,,,,,,,,,,,,,,,,,,,,,,,,
1696194710.5190592,1.0455063581466675,1.88290274143219,-0.029267054051160812,0.0,0.7855117917060852,-0.0002934469666797668,0.5998009443283081,0.599833071231842,1.0454660654067993,1.8880810737609863,-0.030149083584547043,0.0,0.7854137420654297,8.228355000028387e-05,-0.5986770391464233,-0.5989118814468384,,,,,,,,,,,,,,,,,,,,,,,,,,,,,,,,,,,,,,,,,,,,,,,,,,,,,,,,,,,,,,,,,,,,,,,,,,,,,,,,,,,,,,,,,,,,,,,,,,,,,,,,,,,,,,,,,,,,,,,,,,,,,,,,,,,,,,-0.011560727842152119,0.07701487839221954,-0.011788859963417053,0.0,0.017605265602469444,-0.059208061546087265,0.22968031466007233,0.19988921284675598,-0.0018876786343753338,-0.022399859502911568,0.0029215675313025713,0.0,0.023849714547395706,0.06886506080627441,-0.17164954543113708,-0.22766324877738953,,,,,,,,,,,,,,,,,,,,,,,,,,,,,,,,,,,,,,,,,,,,,,,,,,,,,,,,,,,,,,,,,,,,,,,,
1696194710.665817,1.0454033613204956,1.8860043287277222,-0.029766594991087914,0.0,0.7853919267654419,0.00013951960136182606,0.6095205545425415,0.6097257137298584,1.0454738140106201,1.8846290111541748,-0.029553456231951714,0.0,0.7853063941001892,-0.0002428787702228874,-0.6098942756652832,-0.6095449924468994,,,,,,,,,,,,,,,,,,,,,,,,,,,,,,,,,,,,,,,,,,,,,,,,,,,,,,,,,,,,,,,,,,,,,,,,,,,,,,,,,,,,,,,,,,,,,,,,,,,,,,,,,,,,,,,,,,,,,,,,,,,,,,,,,,,,,,-0.005111484322696924,0.001230754191055894,0.00770197669044137,0.0,-0.022344231605529785,0.07976914942264557,-0.10468948632478714,-0.045943036675453186,0.04169662669301033,-0.06939935684204102,0.0015390405897051096,0.0,-0.01767950877547264,-0.055817861109972,-0.0309352595359087,0.04946048557758331,,,,,,,,,,,,,,,,,,,,,,,,,,,,,,,,,,,,,,,,,,,,,,,,,,,,,,,,,,,,,,,,,,,,,,,,
1696194710.818151,1.047160029411316,1.8881793022155762,-0.030561434105038643,0.0,0.7854235172271729,6.543804192915559e-05,0.606757402420044,0.6067564487457275,1.0483452081680298,1.8811553716659546,-0.02960892580449581,0.0,0.7853636145591736,-9.980126196751371e-05,-0.600888729095459,-0.6004091501235962,,,,,,,,,,,,,,,,,,,,,,,,,,,,,,,,,,,,,,,,,,,,,,,,,,,,,,,,,,,,,,,,,,,,,,,,,,,,,,,,,,,,,,,,,,,,,,,,,,,,,,,,,,,,,,,,,,,,,,,,,,,,,,,,,,,,,,0.02183285728096962,0.007979125715792179,-0.0023926228750497103,0.0,-0.005660371854901314,0.024886874482035637,-0.286745548248291,-0.26835939288139343,-0.009465647861361504,-0.013475136831402779,0.0063181412406265736,0.0,0.0026281813625246286,-0.001342487521469593,0.15899351239204407,0.15420614182949066,,,,,,,,,,,,,,,,,,,,,,,,,,,,,,,,,,,,,,,,,,,,,,,,,,,,,,,,,,,,,,,,,,,,,,,,
1696194711.005468,1.0505818128585815,1.8878016471862793,-0.031285565346479416,0.0,0.7853900790214539,6.879870488774031e-05,0.5847412347793579,0.5844268202781677,1.0503606796264648,1.8804110288619995,-0.02994602918624878,0.0,0.7853582501411438,-0.00011155110405525193,-0.5884783267974854,-0.588214635848999,,,,,,,,,,,,,,,,,,,,,,,,,,,,,,,,,,,,,,,,,,,,,,,,,,,,,,,,,,,,,,,,,,,,,,,,,,,,,,,,,,,,,,,,,,,,,,,,,,,,,,,,,,,,,,,,,,,,,,,,,,,,,,,,,,,,,,0.017862776294350624,-0.009301991201937199,-0.0015735083725303411,0.0,0.0016552937449887395,-0.016736218705773354,-0.38463059067726135,-0.4085000455379486,-0.002568949479609728,-0.011337311938405037,0.0037009562365710735,0.0,-0.008669426664710045,-0.03764630854129791,0.10409790277481079,0.12590521574020386,,,,,,,,,,,,,,,,,,,,,,,,,,,,,,,,,,,,,,,,,,,,,,,,,,,,,,,,,,,,,,,,,,,,,,,,
1696194711.1278727,1.0529263019561768,1.8843021392822266,-0.031210029497742653,0.0,0.7853389382362366,0.00022221817926038057,0.5489184260368347,0.5483492612838745,1.0530595779418945,1.883512020111084,-0.03112073242664337,0.0,0.7854006290435791,0.00019498515757732093,-0.5453192591667175,-0.5449970960617065,,,,,,,,,,,,,,,,,,,,,,,,,,,,,,,,,,,,,,,,,,,,,,,,,,,,,,,,,,,,,,,,,,,,,,,,,,,,,,,,,,,,,,,,,,,,,,,,,,,,,,,,,,,,,,,,,,,,,,,,,,,,,,,,,,,,,,0.018370453268289566,-0.07713738083839417,0.009888432919979095,0.0,-0.0026793654542416334,0.002802676521241665,-0.5439718961715698,-0.6152793765068054,0.021749835461378098,0.08444778621196747,-0.022348983213305473,0.0,0.007015913259238005,0.07010474801063538,0.42874905467033386,0.36799442768096924,,,,,,,,,,,,,,,,,,,,,,,,,,,,,,,,,,,,,,,,,,,,,,,,,,,,,,,,,,,,,,,,,,,,,,,,
1696194711.2331254,1.0529268980026245,1.8808374404907227,-0.030593356117606163,0.0,0.7853184938430786,0.0003749746538233012,0.511409342288971,0.5108476281166077,1.0530827045440674,1.8856570720672607,-0.03148921579122543,0.0,0.7853631377220154,-0.00014815932081546634,-0.5200605392456055,-0.5196574926376343,,,,,,,,,,,,,,,,,,,,,,,,,,,,,,,,,,,,,,,,,,,,,,,,,,,,,,,,,,,,,,,,,,,,,,,,,,,,,,,,,,,,,,,,,,,,,,,,,,,,,,,,,,,,,,,,,,,,,,,,,,,,,,,,,,,,,,-0.019635990262031555,-0.07664622366428375,0.02449548989534378,0.0,-0.007054577581584454,0.0923321321606636,-0.5592711567878723,-0.5179845094680786,0.006028824485838413,-0.005502787418663502,0.00016495144518557936,0.0,0.002622332191094756,-0.0621197409927845,0.32254132628440857,0.36959168314933777,,,,,,,,,,,,,,,,,,,,,,,,,,,,,,,,,,,,,,,,,,,,,,,,,,,,,,,,,,,,,,,,,,,,,,,,
1696194711.355026,1.0522165298461914,1.8793163299560547,-0.030184699222445488,0.0,0.7853309512138367,-4.1369148675585166e-05,0.48966744542121887,0.48844102025032043,1.0506881475448608,1.8898570537567139,-0.031660351902246475,0.0,0.7852891683578491,6.245291297091171e-05,-0.4710054099559784,-0.47090956568717957,,,,,,,,,,,,,,,,,,,,,,,,,,,,,,,,,,,,,,,,,,,,,,,,,,,,,,,,,,,,,,,,,,,,,,,,,,,,,,,,,,,,,,,,,,,,,,,,,,,,,,,,,,,,,,,,,,,,,,,,,,,,,,,,,,,,,,-0.02060985192656517,-0.017341606318950653,0.0025535866152495146,0.0,-0.006177360191941261,-0.03563910350203514,-0.45444759726524353,-0.5479314923286438,-0.05564792454242706,0.04889102280139923,0.005078130401670933,0.0,-0.009150578640401363,0.006376682315021753,0.6076210737228394,0.5973758101463318,,,,,,,,,,,,,,,,,,,,,,,,,,,,,,,,,,,,,,,,,,,,,,,,,,,,,,,,,,,,,,,,,,,,,,,,
1696194711.4501367,1.0497602224349976,1.8784222602844238,-0.029458271339535713,0.0,0.7853411436080933,-5.704442082787864e-05,0.45679470896720886,0.45565488934516907,1.0483111143112183,1.890663504600525,-0.03124796599149704,0.0,0.7852118611335754,-0.00011892085603903979,-0.44443291425704956,-0.4442066550254822,,,,,,,,,,,,,,,,,,,,,,,,,,,,,,,,,,,,,,,,,,,,,,,,,,,,,,,,,,,,,,,,,,,,,,,,,,,,,,,,,,,,,,,,,,,,,,,,,,,,,,,,,,,,,,,,,,,,,,,,,,,,,,,,,,,,,,-0.024255214259028435,-0.007118940353393555,0.004756295122206211,0.0,-0.019732240587472916,-0.010829773731529713,-0.44103819131851196,-0.49015066027641296,-0.07414599508047104,-0.0076103005558252335,0.02138306386768818,0.0,-0.034252919256687164,-0.0266486257314682,0.40725401043891907,0.445645809173584,,,,,,,,,,,,,,,,,,,,,,,,,,,,,,,,,,,,,,,,,,,,,,,,,,,,,,,,,,,,,,,,,,,,,,,,
1696194711.5976644,1.0455628633499146,1.8803924322128296,-0.02883949875831604,0.0,0.7854502201080322,-0.00011418481153668836,0.41153621673583984,0.411074161529541,1.0453722476959229,1.890223503112793,-0.030497660860419273,0.0,0.7852727770805359,-0.0001808646775316447,-0.4114088714122772,-0.4111972749233246,,,,,,,,,,,,,,,,,,,,,,,,,,,,,,,,,,,,,,,,,,,,,,,,,,,,,,,,,,,,,,,,,,,,,,,,,,,,,,,,,,,,,,,,,,,,,,,,,,,,,,,,,,,,,,,,,,,,,,,,,,,,,,,,,,,,,,-0.033371005207300186,0.04754535108804703,-0.0005352299194782972,0.0,0.015422999858856201,-0.030402809381484985,-0.15364593267440796,-0.15233922004699707,-0.03342729061841965,-0.03267540782690048,0.01567317545413971,0.0,-0.023386798799037933,-0.0496910884976387,0.16386592388153076,0.21768230199813843,,,,,,,,,,,,,,,,,,,,,,,,,,,,,,,,,,,,,,,,,,,,,,,,,,,,,,,,,,,,,,,,,,,,,,,,
1696194711.7327461,1.0442882776260376,1.8824518918991089,-0.02889988385140896,0.0,0.7853723168373108,0.0001259608252439648,0.3965768814086914,0.39645928144454956,1.0440210103988647,1.8879244327545166,-0.029788311570882797,0.0,0.7852892875671387,-0.00020864891121163964,-0.3943314552307129,-0.3941243588924408,,,,,,,,,,,,,,,,,,,,,,,,,,,,,,,,,,,,,,,,,,,,,,,,,,,,,,,,,,,,,,,,,,,,,,,,,,,,,,,,,,,,,,,,,,,,,,,,,,,,,,,,,,,,,,,,,,,,,,,,,,,,,,,,,,,,,,-0.00033590535167604685,-0.01841319352388382,0.0069874245673418045,0.0,-0.02552082948386669,0.0903024896979332,-0.2031327337026596,-0.13113188743591309,-0.010458311066031456,-0.04816838353872299,0.012443682178854942,0.0,-0.020479826256632805,-0.058362893760204315,0.08634091168642044,0.13469626009464264,,,,,,,,,,,,,,,,,,,,,,,,,,,,,,,,,,,,,,,,,,,,,,,,,,,,,,,,,,,,,,,,,,,,,,,,
1696194711.8493345,1.0442564487457275,1.886591911315918,-0.029623068869113922,0.0,0.785443902015686,4.083520980202593e-05,0.38708043098449707,0.38732582330703735,1.04425847530365,1.8847267627716064,-0.029293527826666832,0.0,0.7853394150733948,-0.00013969420979265124,-0.3876041769981384,-0.38721951842308044,,,,,,,,,,,,,,,,,,,,,,,,,,,,,,,,,,,,,,,,,,,,,,,,,,,,,,,,,,,,,,,,,,,,,,,,,,,,,,,,,,,,,,,,,,,,,,,,,,,,,,,,,,,,,,,,,,,,,,,,,,,,,,,,,,,,,,0.0110076405107975,0.024478530511260033,-0.0038376834709197283,0.0,-0.012474778108298779,0.08394360542297363,-0.06108911707997322,0.000391232140827924,0.028488438576459885,-0.06410641968250275,0.004169168416410685,0.0,0.004081014543771744,0.022898057475686073,-0.0390203483402729,-0.03082498535513878,,,,,,,,,,,,,,,,,,,,,,,,,,,,,,,,,,,,,,,,,,,,,,,,,,,,,,,,,,,,,,,,,,,,,,,,
1696194711.9668267,1.0456486940383911,1.8887102603912354,-0.030297355726361275,0.0,0.785432755947113,0.00011819254723377526,0.38912853598594666,0.38956940174102783,1.04653799533844,1.8811653852462769,-0.029202906414866447,0.0,0.7854316234588623,-0.00011811211879830807,-0.3917214572429657,-0.391544908285141,,,,,,,,,,,,,,,,,,,,,,,,,,,,,,,,,,,,,,,,,,,,,,,,,,,,,,,,,,,,,,,,,,,,,,,,,,,,,,,,,,,,,,,,,,,,,,,,,,,,,,,,,,,,,,,,,,,,,,,,,,,,,,,,,,,,,,-0.003767689224332571,0.011028115637600422,0.005979006178677082,0.0,-0.0037290044128894806,0.05853034183382988,0.010800374671816826,0.034833505749702454,0.06550735235214233,-0.04400766268372536,-0.009131505154073238,0.0,0.008757398463785648,-0.026551831513643265,-0.15102466940879822,-0.13777194917201996,,,,,,,,,,,,,,,,,,,,,,,,,,,,,,,,,,,,,,,,,,,,,,,,,,,,,,,,,,,,,,,,,,,,,,,,
1696194712.0910983,1.0484572649002075,1.889546275138855,-0.03109372965991497,0.0,0.785449206829071,5.158309795660898e-05,0.4015868902206421,0.4021414518356323,1.0486855506896973,1.8798471689224243,-0.029476173222064972,0.0,0.7855230569839478,3.838039992842823e-05,-0.4011382758617401,-0.4011536240577698,,,,,,,,,,,,,,,,,,,,,,,,,,,,,,,,,,,,,,,,,,,,,,,,,,,,,,,,,,,,,,,,,,,,,,,,,,,,,,,,,,,,,,,,,,,,,,,,,,,,,,,,,,,,,,,,,,,,,,,,,,,,,,,,,,,,,,-0.003594206878915429,0.02104879729449749,0.0020198493730276823,0.0,0.011647375300526619,0.008100454695522785,0.1441224068403244,0.12514130771160126,0.06915818154811859,0.004690962377935648,-0.020061330869793892,0.0,0.020872818306088448,0.002126743085682392,-0.2507183253765106,-0.25780823826789856,,,,,,,,,,,,,,,,,,,,,,,,,,,,,,,,,,,,,,,,,,,,,,,,,,,,,,,,,,,,,,,,,,,,,,,,
1696194712.1912196,1.05130136013031,1.8880590200424194,-0.031503889709711075,0.0,0.7853270173072815,0.0001895761670311913,0.42061707377433777,0.4214576184749603,1.0511540174484253,1.8798407316207886,-0.03003796935081482,0.0,0.7854548692703247,-3.7017201975686476e-05,-0.41891035437583923,-0.4190046787261963,,,,,,,,,,,,,,,,,,,,,,,,,,,,,,,,,,,,,,,,,,,,,,,,,,,,,,,,,,,,,,,,,,,,,,,,,,,,,,,,,,,,,,,,,,,,,,,,,,,,,,,,,,,,,,,,,,,,,,,,,,,,,,,,,,,,,,0.05480930209159851,-0.07654071599245071,-0.0006421307334676385,0.0,-0.013262146152555943,0.04171490669250488,0.25076305866241455,0.3510415256023407,0.017450055107474327,0.0046848393976688385,-0.0038291062228381634,0.0,-0.036637596786022186,-0.05671370029449463,-0.36553406715393066,-0.3319379389286041,,,,,,,,,,,,,,,,,,,,,,,,,,,,,,,,,,,,,,,,,,,,,,,,,,,,,,,,,,,,,,,,,,,,,,,,
1696194712.3499436,1.0542446374893188,1.8838053941726685,-0.03144017979502678,0.0,0.7854082584381104,4.9229045544052497e-05,0.4609884023666382,0.46182990074157715,1.0541349649429321,1.882583737373352,-0.031203528866171837,0.0,0.7853943109512329,-7.214464130811393e-05,-0.4570545554161072,-0.4571124315261841,,,,,,,,,,,,,,,,,,,,,,,,,,,,,,,,,,,,,,,,,,,,,,,,,,,,,,,,,,,,,,,,,,,,,,,,,,,,,,,,,,,,,,,,,,,,,,,,,,,,,,,,,,,,,,,,,,,,,,,,,,,,,,,,,,,,,,0.006289688870310783,-0.024779265746474266,0.0014603661838918924,0.0,0.030316315591335297,-0.05701193958520889,0.48013296723365784,0.464581698179245,0.0021120260935276747,-0.0029979052487760782,0.0012032733066007495,0.0,-0.031794995069503784,-0.06142658740282059,-0.15907599031925201,-0.1082831621170044,,,,,,,,,,,,,,,,,,,,,,,,,,,,,,,,,,,,,,,,,,,,,,,,,,,,,,,,,,,,,,,,,,,,,,,,
1696194712.4834886,1.0544451475143433,1.8803569078445435,-0.03089367039501667,0.0,0.7854390740394592,-0.00015530844393651932,0.4920373558998108,0.4922858476638794,1.054627776145935,1.884935736656189,-0.0317256934940815,0.0,0.7854074835777283,-7.504017412429675e-05,-0.4789849817752838,-0.47930067777633667,,,,,,,,,,,,,,,,,,,,,,,,,,,,,,,,,,,,,,,,,,,,,,,,,,,,,,,,,,,,,,,,,,,,,,,,,,,,,,,,,,,,,,,,,,,,,,,,,,,,,,,,,,,,,,,,,,,,,,,,,,,,,,,,,,,,,,0.0004264752788003534,0.007078085094690323,-0.006666487082839012,0.0,0.03880797699093819,-0.1062927320599556,0.3819560706615448,0.2778429388999939,0.005003690719604492,-0.008323033340275288,0.0012150199618190527,0.0,-0.043345481157302856,-0.08760161697864532,-0.29108017683029175,-0.21051959693431854,,,,,,,,,,,,,,,,,,,,,,,,,,,,,,,,,,,,,,,,,,,,,,,,,,,,,,,,,,,,,,,,,,,,,,,,
1696194712.6448407,1.052873969078064,1.8771551847457886,-0.02994690090417862,0.0,0.7852737307548523,0.0002652257098816335,0.5257704854011536,0.5262666940689087,1.0526043176651,1.890379548072815,-0.03220231458544731,0.0,0.7855770587921143,0.0002996358089148998,-0.5258093476295471,-0.5266375541687012,,,,,,,,,,,,,,,,,,,,,,,,,,,,,,,,,,,,,,,,,,,,,,,,,,,,,,,,,,,,,,,,,,,,,,,,,,,,,,,,,,,,,,,,,,,,,,,,,,,,,,,,,,,,,,,,,,,,,,,,,,,,,,,,,,,,,,-0.049976494163274765,-0.03850904107093811,0.021817756816744804,0.0,-0.0262430552393198,0.07302182167768478,0.3270999789237976,0.41367483139038086,-0.05472699552774429,0.060706377029418945,0.0021412698552012444,0.0,0.03165392577648163,0.05562606081366539,-0.35946041345596313,-0.48538926243782043,,,,,,,,,,,,,,,,,,,,,,,,,,,,,,,,,,,,,,,,,,,,,,,,,,,,,,,,,,,,,,,,,,,,,,,,
1696194712.8128788,1.050815224647522,1.8760277032852173,-0.02927517704665661,0.0,0.7853473424911499,-1.9783719835686497e-05,0.5508102774620056,0.5510022044181824,1.0504827499389648,1.8923916816711426,-0.03205326572060585,0.0,0.7854847311973572,0.00021414946240838617,-0.5505784153938293,-0.5515109300613403,,,,,,,,,,,,,,,,,,,,,,,,,,,,,,,,,,,,,,,,,,,,,,,,,,,,,,,,,,,,,,,,,,,,,,,,,,,,,,,,,,,,,,,,,,,,,,,,,,,,,,,,,,,,,,,,,,,,,,,,,,,,,,,,,,,,,,-0.05686406418681145,0.00806826539337635,0.01438141893595457,0.0,-0.004091707989573479,-0.026143381372094154,0.39466148614883423,0.3929140865802765,-0.0593571811914444,0.019717702642083168,0.011960399337112904,0.0,0.009612152352929115,0.035840362310409546,-0.3464663624763489,-0.4688277542591095,,,,,,,,,,,,,,,,,,,,,,,,,,,,,,,,,,,,,,,,,,,,,,,,,,,,,,,,,,,,,,,,,,,,,,,,
1696194712.9270763,1.047230839729309,1.8768826723098755,-0.028619512915611267,0.0,0.7853835821151733,-1.0000551810662728e-05,0.5796945691108704,0.5797393321990967,1.046929121017456,1.893036127090454,-0.031354594975709915,0.0,0.7854416966438293,0.00010648144962033257,-0.5795994997024536,-0.57993084192276,,,,,,,,,,,,,,,,,,,,,,,,,,,,,,,,,,,,,,,,,,,,,,,,,,,,,,,,,,,,,,,,,,,,,,,,,,,,,,,,,,,,,,,,,,,,,,,,,,,,,,,,,,,,,,,,,,,,,,,,,,,,,,,,,,,,,,-0.003775252029299736,-0.008647739887237549,0.0008215084671974182,0.0,-0.0030486409086734056,0.001093260943889618,0.14538753032684326,0.1434490978717804,-0.0019277381943538785,0.010615183971822262,-0.002732715103775263,0.0,0.00844988040626049,0.02845887467265129,-0.1387014091014862,-0.17045551538467407,,,,,,,,,,,,,,,,,,,,,,,,,,,,,,,,,,,,,,,,,,,,,,,,,,,,,,,,,,,,,,,,,,,,,,,,
1696194713.07235,1.0446664094924927,1.8789401054382324,-0.028386449441313744,0.0,0.7853759527206421,6.431000656448305e-05,0.5975645780563354,0.5976575016975403,1.0444276332855225,1.8920475244522095,-0.03060910664498806,0.0,0.7854574918746948,0.0002052867494057864,-0.5975743532180786,-0.5980184674263,,,,,,,,,,,,,,,,,,,,,,,,,,,,,,,,,,,,,,,,,,,,,,,,,,,,,,,,,,,,,,,,,,,,,,,,,,,,,,,,,,,,,,,,,,,,,,,,,,,,,,,,,,,,,,,,,,,,,,,,,,,,,,,,,,,,,,0.0023865806870162487,-0.02076176181435585,0.0031093901488929987,0.0,-0.018629202619194984,0.06133158877491951,0.08518589287996292,0.12651586532592773,0.004737375304102898,0.01756609044969082,-0.006584668532013893,0.0,0.02858388051390648,0.08018136024475098,-0.14910489320755005,-0.20518378913402557,,,,,,,,,,,,,,,,,,,,,,,,,,,,,,,,,,,,,,,,,,,,,,,,,,,,,,,,,,,,,,,,,,,,,,,,
1696194713.2330406,1.0426279306411743,1.882885456085205,-0.028610898181796074,0.0,0.7854775786399841,-0.0001614536449778825,0.6124908328056335,0.6124992370605469,1.0425231456756592,1.8889362812042236,-0.029627468436956406,0.0,0.785332977771759,-5.8339010138297454e-05,-0.6123897433280945,-0.6124715805053711,,,,,,,,,,,,,,,,,,,,,,,,,,,,,,,,,,,,,,,,,,,,,,,,,,,,,,,,,,,,,,,,,,,,,,,,,,,,,,,,,,,,,,,,,,,,,,,,,,,,,,,,,,,,,,,,,,,,,,,,,,,,,,,,,,,,,,-0.004758311901241541,0.06216643750667572,-0.008052615448832512,0.0,-0.003532207105308771,0.030250560492277145,0.07073639333248138,0.10725931078195572,-0.0022200297098606825,-0.06261784583330154,0.01030509639531374,0.0,0.005802869331091642,0.03694670647382736,-0.11692720651626587,-0.15760855376720428,,,,,,,,,,,,,,,,,,,,,,,,,,,,,,,,,,,,,,,,,,,,,,,,,,,,,,,,,,,,,,,,,,,,,,,,
1696194713.3264441,1.0425492525100708,1.8853906393051147,-0.02903587743639946,0.0,0.7855212092399597,-0.0003115591243840754,0.6162359118461609,0.616153359413147,1.0425357818603516,1.8864538669586182,-0.02919923886656761,0.0,0.7852794528007507,-0.00024661346105858684,-0.6160858869552612,-0.6157873868942261,,,,,,,,,,,,,,,,,,,,,,,,,,,,,,,,,,,,,,,,,,,,,,,,,,,,,,,,,,,,,,,,,,,,,,,,,,,,,,,,,,,,,,,,,,,,,,,,,,,,,,,,,,,,,,,,,,,,,,,,,,,,,,,,,,,,,,0.016442561522126198,0.07119454443454742,-0.01839076541364193,0.0,0.016568070277571678,-0.06661367416381836,0.07219447195529938,0.03294076770544052,0.018746133893728256,-0.07609193027019501,0.009318148717284203,0.0,-0.018961306661367416,-0.04843517020344734,-0.013246784918010235,0.008011707104742527,,,,,,,,,,,,,,,,,,,,,,,,,,,,,,,,,,,,,,,,,,,,,,,,,,,,,,,,,,,,,,,,,,,,,,,,
1696194713.4535816,1.0436482429504395,1.8886151313781738,-0.029835514724254608,0.0,0.7854465246200562,0.00012406622408889234,0.6152369379997253,0.6154685616493225,1.0437664985656738,1.8827130794525146,-0.028835924342274666,0.0,0.7853561043739319,-6.893785757711157e-05,-0.615615725517273,-0.615027129650116,,,,,,,,,,,,,,,,,,,,,,,,,,,,,,,,,,,,,,,,,,,,,,,,,,,,,,,,,,,,,,,,,,,,,,,,,,,,,,,,,,,,,,,,,,,,,,,,,,,,,,,,,,,,,,,,,,,,,,,,,,,,,,,,,,,,,,0.015548011288046837,0.021053800359368324,-8.673252887092531e-05,0.0,-0.021000873297452927,0.10492502152919769,-0.24057330191135406,-0.16145654022693634,0.012357838451862335,-0.030266255140304565,0.002559729153290391,0.0,0.017223959788680077,0.05443451553583145,0.12797503173351288,0.1087760329246521,,,,,,,,,,,,,,,,,,,,,,,,,,,,,,,,,,,,,,,,,,,,,,,,,,,,,,,,,,,,,,,,,,,,,,,,
1696194713.5796735,1.0468724966049194,1.890785574913025,-0.030990226194262505,0.0,0.7854898571968079,-0.00012653435987886041,0.6058558225631714,0.6058309078216553,1.047126293182373,1.8791489601135254,-0.029003502801060677,0.0,0.7853238582611084,-0.0002639635931700468,-0.6060702204704285,-0.6052508354187012,,,,,,,,,,,,,,,,,,,,,,,,,,,,,,,,,,,,,,,,,,,,,,,,,,,,,,,,,,,,,,,,,,,,,,,,,,,,,,,,,,,,,,,,,,,,,,,,,,,,,,,,,,,,,,,,,,,,,,,,,,,,,,,,,,,,,,0.09336429089307785,0.000421411037677899,-0.028605950996279716,0.0,0.013762909919023514,-0.012973107397556305,-0.2122720181941986,-0.21433764696121216,0.09965140372514725,-0.04570483788847923,-0.01894989050924778,0.0,-0.012045775540173054,-0.06220505014061928,0.1321394145488739,0.30964821577072144,,,,,,,,,,,,,,,,,,,,,,,,,,,,,,,,,,,,,,,,,,,,,,,,,,,,,,,,,,,,,,,,,,,,,,,,
1696194713.7300682,1.0493513345718384,1.8909239768981934,-0.031566791236400604,0.0,0.785409688949585,-1.3075741662760265e-05,0.5944854021072388,0.5944547057151794,1.049619197845459,1.8779717683792114,-0.0293700210750103,0.0,0.7854024171829224,3.7387482734629884e-05,-0.5945942401885986,-0.5942558646202087,,,,,,,,,,,,,,,,,,,,,,,,,,,,,,,,,,,,,,,,,,,,,,,,,,,,,,,,,,,,,,,,,,,,,,,,,,,,,,,,,,,,,,,,,,,,,,,,,,,,,,,,,,,,,,,,,,,,,,,,,,,,,,,,,,,,,,0.07176718860864639,-0.044079527258872986,-0.013537774793803692,0.0,0.0005105804302729666,-0.002349326154217124,-0.14703209698200226,-0.14691570401191711,0.07583045214414597,0.011803412809967995,-0.022569021210074425,0.0,0.010058271698653698,0.034119077026844025,0.1491623818874359,0.07576238363981247,,,,,,,,,,,,,,,,,,,,,,,,,,,,,,,,,,,,,,,,,,,,,,,,,,,,,,,,,,,,,,,,,,,,,,,,
1696194713.8806674,1.0523953437805176,1.889797568321228,-0.032059770077466965,0.0,0.7854092717170715,-3.7465175410034135e-05,0.575916051864624,0.5757819414138794,1.0526262521743774,1.8778271675109863,-0.030028393492102623,0.0,0.7853474617004395,-0.00018852217181120068,-0.5759706497192383,-0.5753636360168457,,,,,,,,,,,,,,,,,,,,,,,,,,,,,,,,,,,,,,,,,,,,,,,,,,,,,,,,,,,,,,,,,,,,,,,,,,,,,,,,,,,,,,,,,,,,,,,,,,,,,,,,,,,,,,,,,,,,,,,,,,,,,,,,,,,,,,-0.0008793618762865663,0.02409713715314865,-0.002704288810491562,0.0,0.007044835947453976,-0.044515080749988556,-0.16455188393592834,-0.19144262373447418,-0.0026315893046557903,-0.021875888109207153,0.007727045565843582,0.0,-0.013110244646668434,-0.0512571819126606,0.20844434201717377,0.26046234369277954,,,,,,,,,,,,,,,,,,,,,,,,,,,,,,,,,,,,,,,,,,,,,,,,,,,,,,,,,,,,,,,,,,,,,,,,
1696194714.0622578,1.0556901693344116,1.8858535289764404,-0.03213717043399811,0.0,0.7853336334228516,0.0001797456352505833,0.5462354421615601,0.5458239912986755,1.0557953119277954,1.8804115056991577,-0.031221801415085793,0.0,0.7853898406028748,-4.550683297566138e-05,-0.5463626980781555,-0.5456752777099609,,,,,,,,,,,,,,,,,,,,,,,,,,,,,,,,,,,,,,,,,,,,,,,,,,,,,,,,,,,,,,,,,,,,,,,,,,,,,,,,,,,,,,,,,,,,,,,,,,,,,,,,,,,,,,,,,,,,,,,,,,,,,,,,,,,,,,0.019873205572366714,-0.060424234718084335,0.0048254323191940784,0.0,-0.0006028409698046744,-0.021844489499926567,-0.4190727174282074,-0.48871496319770813,0.017178455367684364,0.05381757393479347,-0.012083463370800018,0.0,-0.007364386226981878,-0.04183132201433182,0.44689851999282837,0.549945056438446,,,,,,,,,,,,,,,,,,,,,,,,,,,,,,,,,,,,,,,,,,,,,,,,,,,,,,,,,,,,,,,,,,,,,,,,
1696194714.1720152,1.0565426349639893,1.8824100494384766,-0.031724415719509125,0.0,0.7853193283081055,0.0002195835259044543,0.5236217379570007,0.5231831073760986,1.0565063953399658,1.8835288286209106,-0.03192943334579468,0.0,0.7853972911834717,9.348262392450124e-05,-0.5236676931381226,-0.5234411358833313,,,,,,,,,,,,,,,,,,,,,,,,,,,,,,,,,,,,,,,,,,,,,,,,,,,,,,,,,,,,,,,,,,,,,,,,,,,,,,,,,,,,,,,,,,,,,,,,,,,,,,,,,,,,,,,,,,,,,,,,,,,,,,,,,,,,,,-5.980051355436444e-05,-0.07562451809644699,0.014129254035651684,0.0,-0.003926639910787344,-0.0034251385368406773,-0.3752445876598358,-0.4450919032096863,-0.0056296419352293015,0.07962872833013535,-0.012347285635769367,0.0,-0.0051942807622253895,-0.01147853396832943,0.40005388855934143,0.42962875962257385,,,,,,,,,,,,,,,,,,,,,,,,,,,,,,,,,,,,,,,,,,,,,,,,,,,,,,,,,,,,,,,,,,,,,,,,
1696194714.3257391,1.0563818216323853,1.8787152767181396,-0.031067214906215668,0.0,0.7853747606277466,-0.00014998167171142995,0.49688807129859924,0.4963138997554779,1.0562111139297485,1.8873190879821777,-0.03251495212316513,0.0,0.7853765487670898,-0.0001136239807237871,-0.4965962767601013,-0.49640047550201416,,,,,,,,,,,,,,,,,,,,,,,,,,,,,,,,,,,,,,,,,,,,,,,,,,,,,,,,,,,,,,,,,,,,,,,,,,,,,,,,,,,,,,,,,,,,,,,,,,,,,,,,,,,,,,,,,,,,,,,,,,,,,,,,,,,,,,0.0001501877122791484,0.004432840272784233,-0.00761190103366971,0.0,0.011043460108339787,-0.09108566492795944,-0.12178388983011246,-0.1723397970199585,0.004003514070063829,-0.002599009545519948,-9.031835361383855e-05,0.0,-0.0034403176978230476,-0.06246597319841385,0.19804777204990387,0.24471180140972137,,,,,,,,,,,,,,,,,,,,,,,,,,,,,,,,,,,,,,,,,,,,,,,,,,,,,,,,,,,,,,,,,,,,,,,,
1696194714.452831,1.054341435432434,1.875451683998108,-0.030024096369743347,0.0,0.785359799861908,-0.00014959118561819196,0.4676765501499176,0.4670774042606354,1.054028034210205,1.891461730003357,-0.032728444784879684,0.0,0.7853965759277344,-3.9888971514301375e-05,-0.46737468242645264,-0.46735766530036926,,,,,,,,,,,,,,,,,,,,,,,,,,,,,,,,,,,,,,,,,,,,,,,,,,,,,,,,,,,,,,,,,,,,,,,,,,,,,,,,,,,,,,,,,,,,,,,,,,,,,,,,,,,,,,,,,,,,,,,,,,,,,,,,,,,,,,0.0012551260879263282,-0.00612057326361537,-0.005547794513404369,0.0,0.005052395164966583,-0.08648286759853363,-0.12355861812829971,-0.1457637995481491,0.004925744142383337,0.008228176273405552,-0.0030758162029087543,0.0,0.008909202180802822,-0.03556796908378601,0.18412989377975464,0.19440525770187378,,,,,,,,,,,,,,,,,,,,,,,,,,,,,,,,,,,,,,,,,,,,,,,,,,,,,,,,,,,,,,,,,,,,,,,,
1696194714.571934,1.050861120223999,1.8743849992752075,-0.0290038101375103,0.0,0.7853887677192688,6.775955262128264e-05,0.4410659968852997,0.4404264986515045,1.0504637956619263,1.894006371498108,-0.0323365181684494,0.0,0.7852868437767029,2.8310767447692342e-05,-0.44085755944252014,-0.44092467427253723,,,,,,,,,,,,,,,,,,,,,,,,,,,,,,,,,,,,,,,,,,,,,,,,,,,,,,,,,,,,,,,,,,,,,,,,,,,,,,,,,,,,,,,,,,,,,,,,,,,,,,,,,,,,,,,,,,,,,,,,,,,,,,,,,,,,,,-0.06817185133695602,0.014265007339417934,0.01877211593091488,0.0,0.002881898544728756,0.004961246624588966,-0.2657512128353119,-0.33400481939315796,-0.07350672036409378,0.019031867384910583,0.015447285957634449,0.0,-0.022387109696865082,0.0075867981649935246,0.31004470586776733,0.28527092933654785,,,,,,,,,,,,,,,,,,,,,,,,,,,,,,,,,,,,,,,,,,,,,,,,,,,,,,,,,,,,,,,,,,,,,,,,
1696194714.6693532,1.0492677688598633,1.874678611755371,-0.028706731274724007,0.0,0.7853627800941467,-7.636851660208777e-05,0.4310258626937866,0.4301512837409973,1.0488759279251099,1.8943748474121094,-0.03203769773244858,0.0,0.7853496074676514,4.133779293624684e-05,-0.4307197034358978,-0.43084195256233215,,,,,,,,,,,,,,,,,,,,,,,,,,,,,,,,,,,,,,,,,,,,,,,,,,,,,,,,,,,,,,,,,,,,,,,,,,,,,,,,,,,,,,,,,,,,,,,,,,,,,,,,,,,,,,,,,,,,,,,,,,,,,,,,,,,,,,-0.028870586305856705,0.000667732791043818,0.003622862044721842,0.0,-0.00973555352538824,-0.008130360394716263,-0.2426656037569046,-0.2801879048347473,-0.033802580088377,0.0065352353267371655,0.006279799155890942,0.0,0.00667312927544117,0.020011434331536293,0.23512664437294006,0.1938970983028412,,,,,,,,,,,,,,,,,,,,,,,,,,,,,,,,,,,,,,,,,,,,,,,,,,,,,,,,,,,,,,,,,,,,,,,,
1696194714.8302674,1.0449848175048828,1.8769540786743164,-0.02811896800994873,0.0,0.7853777408599854,-7.692039071116596e-05,0.40735042095184326,0.40664947032928467,1.0446635484695435,1.8939030170440674,-0.030988266691565514,0.0,0.7853589057922363,5.7596935221226886e-05,-0.4070187211036682,-0.4071899652481079,,,,,,,,,,,,,,,,,,,,,,,,,,,,,,,,,,,,,,,,,,,,,,,,,,,,,,,,,,,,,,,,,,,,,,,,,,,,,,,,,,,,,,,,,,,,,,,,,,,,,,,,,,,,,,,,,,,,,,,,,,,,,,,,,,,,,,-0.024321839213371277,0.013708885759115219,0.002228747820481658,0.0,-0.01717495173215866,0.017752423882484436,-0.2154805064201355,-0.22885476052761078,-0.02187931165099144,-0.004702665377408266,0.0041774483397603035,0.0,0.02515001781284809,0.044306863099336624,0.21449168026447296,0.16585996747016907,,,,,,,,,,,,,,,,,,,,,,,,,,,,,,,,,,,,,,,,,,,,,,,,,,,,,,,,,,,,,,,,,,,,,,,,
1696194715.0170047,1.0418610572814941,1.8806146383285522,-0.02804476022720337,0.0,0.7854610681533813,-0.00017003256652969867,0.3910540044307709,0.390725314617157,1.0416533946990967,1.891545295715332,-0.029884012416005135,0.0,0.7852878570556641,-0.00019051916024181992,-0.3909000754356384,-0.3907594084739685,,,,,,,,,,,,,,,,,,,,,,,,,,,,,,,,,,,,,,,,,,,,,,,,,,,,,,,,,,,,,,,,,,,,,,,,,,,,,,,,,,,,,,,,,,,,,,,,,,,,,,,,,,,,,,,,,,,,,,,,,,,,,,,,,,,,,,-0.02775106579065323,0.057119276374578476,-0.004640102852135897,0.0,0.014595546759665012,-0.04255267232656479,-0.038946013897657394,-0.06053547188639641,-0.026749111711978912,-0.04418876767158508,0.01593973860144615,0.0,-0.022119158878922462,-0.05515355244278908,0.062280669808387756,0.12064996361732483,,,,,,,,,,,,,,,,,,,,,,,,,,,,,,,,,,,,,,,,,,,,,,,,,,,,,,,,,,,,,,,,,,,,,,,,
1696194715.1648238,1.0407705307006836,1.8837084770202637,-0.02832818031311035,0.0,0.7853878140449524,6.0974329244345427e-05,0.3843631446361542,0.38430365920066833,1.0406855344772339,1.8887401819229126,-0.029184116050601006,0.0,0.7854229807853699,0.0001445972447982058,-0.3842751085758209,-0.38435131311416626,,,,,,,,,,,,,,,,,,,,,,,,,,,,,,,,,,,,,,,,,,,,,,,,,,,,,,,,,,,,,,,,,,,,,,,,,,,,,,,,,,,,,,,,,,,,,,,,,,,,,,,,,,,,,,,,,,,,,,,,,,,,,,,,,,,,,,-0.0033524094615131617,0.0003725959686562419,0.0028711569029837847,0.0,-0.014817935414612293,0.05198110640048981,-0.09420035034418106,-0.05586138740181923,-0.0004635022778529674,0.009539807215332985,-0.0036633771378546953,0.0,0.034842126071453094,0.0901731327176094,0.0759493038058281,0.0010640488471835852,,,,,,,,,,,,,,,,,,,,,,,,,,,,,,,,,,,,,,,,,,,,,,,,,,,,,,,,,,,,,,,,,,,,,,,,
1696194715.3842778,1.0404099225997925,1.8875781297683716,-0.028948653489351273,0.0,0.7855334877967834,-0.00031998485792428255,0.3805910348892212,0.3805698752403259,1.0404794216156006,1.8851168155670166,-0.02850326895713806,0.0,0.7852843999862671,-0.00028190165176056325,-0.38059598207473755,-0.38009563088417053,,,,,,,,,,,,,,,,,,,,,,,,,,,,,,,,,,,,,,,,,,,,,,,,,,,,,,,,,,,,,,,,,,,,,,,,,,,,,,,,,,,,,,,,,,,,,,,,,,,,,,,,,,,,,,,,,,,,,,,,,,,,,,,,,,,,,,0.022506779059767723,0.10212966799736023,-0.02678089588880539,0.0,0.009358885698020458,-0.0070284279063344,0.018494633957743645,0.046213261783123016,0.03244301676750183,-0.12034804373979568,0.013312861323356628,0.0,-0.00104708771687001,-0.005976175889372826,-0.058724623173475266,0.016083983704447746,,,,,,,,,,,,,,,,,,,,,,,,,,,,,,,,,,,,,,,,,,,,,,,,,,,,,,,,,,,,,,,,,,,,,,,,
1696194715.5620751,1.0414421558380127,1.8909543752670288,-0.02974088117480278,0.0,0.7854079604148865,6.389945338014513e-05,0.38114237785339355,0.38125887513160706,1.0416207313537598,1.8812843561172485,-0.028102831915020943,0.0,0.7853900194168091,1.5759100278955884e-05,-0.3812667429447174,-0.38118982315063477,,,,,,,,,,,,,,,,,,,,,,,,,,,,,,,,,,,,,,,,,,,,,,,,,,,,,,,,,,,,,,,,,,,,,,,,,,,,,,,,,,,,,,,,,,,,,,,,,,,,,,,,,,,,,,,,,,,,,,,,,,,,,,,,,,,,,,0.00016142333333846182,0.009395081549882889,0.0014288363745436072,0.0,-0.010310233570635319,0.05531547591090202,-0.041362449526786804,-0.009137480519711971,-0.0008157626143656671,-0.01103978231549263,0.0019936836324632168,0.0,0.006911429576575756,0.03151426091790199,-0.0034853217657655478,-0.01593192294239998,,,,,,,,,,,,,,,,,,,,,,,,,,,,,,,,,,,,,,,,,,,,,,,,,,,,,,,,,,,,,,,,,,,,,,,,
1696194715.7004673,1.0442770719528198,1.8940362930297852,-0.030953405424952507,0.0,0.7854701280593872,-6.174193549668416e-05,0.3878946006298065,0.3884704113006592,1.0446175336837769,1.8769527673721313,-0.028046544641256332,0.0,0.7854007482528687,-0.00014991540228947997,-0.38819441199302673,-0.38780951499938965,,,,,,,,,,,,,,,,,,,,,,,,,,,,,,,,,,,,,,,,,,,,,,,,,,,,,,,,,,,,,,,,,,,,,,,,,,,,,,,,,,,,,,,,,,,,,,,,,,,,,,,,,,,,,,,,,,,,,,,,,,,,,,,,,,,,,,0.05304558202624321,0.022647596895694733,-0.018852243199944496,0.0,0.006372352130711079,0.02651681937277317,0.10877037793397903,0.1934255212545395,0.05770100653171539,-0.050683096051216125,-0.005725045222789049,0.0,-0.0007894763257354498,-0.015553915873169899,-0.17365123331546783,-0.11788433790206909,,,,,,,,,,,,,,,,,,,,,,,,,,,,,,,,,,,,,,,,,,,,,,,,,,,,,,,,,,,,,,,,,,,,,,,,
1696194715.8311636,1.0475205183029175,1.8950114250183105,-0.03184477612376213,0.0,0.7854215502738953,4.694009476224892e-05,0.39860159158706665,0.398853063583374,1.0479111671447754,1.874597191810608,-0.028390033170580864,0.0,0.7853822708129883,-4.4588879973161966e-05,-0.398779034614563,-0.39864516258239746,,,,,,,,,,,,,,,,,,,,,,,,,,,,,,,,,,,,,,,,,,,,,,,,,,,,,,,,,,,,,,,,,,,,,,,,,,,,,,,,,,,,,,,,,,,,,,,,,,,,,,,,,,,,,,,,,,,,,,,,,,,,,,,,,,,,,,0.004510762169957161,0.009037737734615803,0.00010997916979249567,0.0,0.0017474538180977106,0.027419963851571083,0.029888376593589783,0.03975384682416916,0.0027833105996251106,-0.0124704884365201,0.0025545971002429724,0.0,-0.011428933590650558,-0.007986665703356266,-0.064444400370121,-0.04345133528113365,,,,,,,,,,,,,,,,,,,,,,,,,,,,,,,,,,,,,,,,,,,,,,,,,,,,,,,,,,,,,,,,,,,,,,,,
1696194715.9969473,1.0504792928695679,1.894686222076416,-0.032470010221004486,0.0,0.7854543328285217,4.591654214891605e-05,0.41007623076438904,0.41052570939064026,1.0508872270584106,1.873670220375061,-0.02891535870730877,0.0,0.785356879234314,-0.00010509950516279787,-0.4103175103664398,-0.4101208448410034,,,,,,,,,,,,,,,,,,,,,,,,,,,,,,,,,,,,,,,,,,,,,,,,,,,,,,,,,,,,,,,,,,,,,,,,,,,,,,,,,,,,,,,,,,,,,,,,,,,,,,,,,,,,,,,,,,,,,,,,,,,,,,,,,,,,,,-0.002614424331113696,0.01800900511443615,0.0011209554504603148,0.0,0.018733108416199684,0.0018524561310186982,0.10819817334413528,0.07652734220027924,-0.006303648930042982,-0.015753788873553276,0.0065714530646800995,0.0,-0.03834281116724014,-0.04190538823604584,-0.10913737863302231,-0.0680617094039917,,,,,,,,,,,,,,,,,,,,,,,,,,,,,,,,,,,,,,,,,,,,,,,,,,,,,,,,,,,,,,,,,,,,,,,,
1696194716.1226292,1.05436110496521,1.8921457529067993,-0.03293609246611595,0.0,0.7853556871414185,7.880583871155977e-05,0.429300993680954,0.42965003848075867,1.0547162294387817,1.8745907545089722,-0.029973585158586502,0.0,0.7855047583580017,0.00013575624325312674,-0.42942145466804504,-0.4295443892478943,,,,,,,,,,,,,,,,,,,,,,,,,,,,,,,,,,,,,,,,,,,,,,,,,,,,,,,,,,,,,,,,,,,,,,,,,,,,,,,,,,,,,,,,,,,,,,,,,,,,,,,,,,,,,,,,,,,,,,,,,,,,,,,,,,,,,,0.03803951293230057,-0.045252591371536255,-0.0021824960131198168,0.0,-0.011701074428856373,0.018568284809589386,0.09761464595794678,0.07488754391670227,0.03826012834906578,0.028643812984228134,-0.016444595530629158,0.0,0.01795772649347782,0.031398799270391464,-0.10129863023757935,-0.14566496014595032,,,,,,,,,,,,,,,,,,,,,,,,,,,,,,,,,,,,,,,,,,,,,,,,,,,,,,,,,,,,,,,,,,,,,,,,
1696194716.275575,1.0566949844360352,1.8895128965377808,-0.03301871940493584,0.0,0.7854129076004028,7.366207137238234e-05,0.4452357292175293,0.4459339380264282,1.057180404663086,1.8765358924865723,-0.0308737363666296,0.0,0.785380482673645,-0.00012873686500824988,-0.4478466808795929,-0.4477626383304596,,,,,,,,,,,,,,,,,,,,,,,,,,,,,,,,,,,,,,,,,,,,,,,,,,,,,,,,,,,,,,,,,,,,,,,,,,,,,,,,,,,,,,,,,,,,,,,,,,,,,,,,,,,,,,,,,,,,,,,,,,,,,,,,,,,,,,0.014048098586499691,-0.02167966589331627,0.0001282384037040174,0.0,0.025269711390137672,-0.040748290717601776,0.29241642355918884,0.28423717617988586,-0.0027611434925347567,-0.01536447275429964,0.006386437453329563,0.0,-0.041830338537693024,-0.07601533085107803,-0.17535002529621124,-0.09860964864492416,,,,,,,,,,,,,,,,,,,,,,,,,,,,,,,,,,,,,,,,,,,,,,,,,,,,,,,,,,,,,,,,,,,,,,,,
1696194716.4246385,1.058516502380371,1.886070966720581,-0.03284487873315811,0.0,0.785418689250946,-5.7398519857088104e-05,0.4635736048221588,0.4637189507484436,1.0587846040725708,1.879722237586975,-0.031812649220228195,0.0,0.7855598330497742,0.00019934188458137214,-0.46653473377227783,-0.466980904340744,,,,,,,,,,,,,,,,,,,,,,,,,,,,,,,,,,,,,,,,,,,,,,,,,,,,,,,,,,,,,,,,,,,,,,,,,,,,,,,,,,,,,,,,,,,,,,,,,,,,,,,,,,,,,,,,,,,,,,,,,,,,,,,,,,,,,,0.002549842931330204,0.0020938070956617594,-0.0023145030718296766,0.0,0.021346569061279297,-0.05274716392159462,0.14172783493995667,0.09400902688503265,0.009953109547495842,0.07644999027252197,-0.01637236215174198,0.0,0.0017042432446032763,-0.009253636002540588,-0.2949235439300537,-0.3373505175113678,,,,,,,,,,,,,,,,,,,,,,,,,,,,,,,,,,,,,,,,,,,,,,,,,,,,,,,,,,,,,,,,,,,,,,,,
1696194716.588365,1.0593104362487793,1.8799238204956055,-0.03194424882531166,0.0,0.7853047251701355,0.00022244983119890094,0.49299949407577515,0.493571013212204,1.0593599081039429,1.8831537961959839,-0.03254003822803497,0.0,0.7856027483940125,0.00032072290196083486,-0.4851323068141937,-0.4857334494590759,,,,,,,,,,,,,,,,,,,,,,,,,,,,,,,,,,,,,,,,,,,,,,,,,,,,,,,,,,,,,,,,,,,,,,,,,,,,,,,,,,,,,,,,,,,,,,,,,,,,,,,,,,,,,,,,,,,,,,,,,,,,,,,,,,,,,,-0.0064310492016375065,-0.07617340981960297,0.01645866222679615,0.0,8.581675501773134e-05,-0.0073996903374791145,0.29448720812797546,0.331792950630188,-0.007613761350512505,0.07758709788322449,-0.012664522044360638,0.0,0.023831117898225784,0.05262044444680214,-0.2862889766693115,-0.3228742182254791,,,,,,,,,,,,,,,,,,,,,,,,,,,,,,,,,,,,,,,,,,,,,,,,,,,,,,,,,,,,,,,,,,,,,,,,
1696194716.7117841,1.0589674711227417,1.8776609897613525,-0.03148889169096947,0.0,0.7854011654853821,-7.786702190060169e-05,0.5062956213951111,0.5063549876213074,1.058383822441101,1.8882580995559692,-0.03319830819964409,0.0,0.7855082750320435,0.00020926225988660008,-0.5108193755149841,-0.511142373085022,,,,,,,,,,,,,,,,,,,,,,,,,,,,,,,,,,,,,,,,,,,,,,,,,,,,,,,,,,,,,,,,,,,,,,,,,,,,,,,,,,,,,,,,,,,,,,,,,,,,,,,,,,,,,,,,,,,,,,,,,,,,,,,,,,,,,,0.00048536763642914593,-0.005287335254251957,-0.0019244869472458959,0.0,0.01760304719209671,-0.0639353096485138,0.1699516326189041,0.11814908683300018,-0.017331058159470558,0.04977396875619888,-0.005134707782417536,0.0,0.015929531306028366,0.047785453498363495,-0.13117338716983795,-0.13736210763454437,,,,,,,,,,,,,,,,,,,,,,,,,,,,,,,,,,,,,,,,,,,,,,,,,,,,,,,,,,,,,,,,,,,,,,,,
1696194716.8724136,1.0566071271896362,1.8732755184173584,-0.030178045853972435,0.0,0.7853944301605225,-7.893737347330898e-05,0.5342826247215271,0.5342880487442017,1.0567431449890137,1.891869068145752,-0.03343836963176727,0.0,0.7855198383331299,0.00028107507387176156,-0.5290287733078003,-0.529643714427948,,,,,,,,,,,,,,,,,,,,,,,,,,,,,,,,,,,,,,,,,,,,,,,,,,,,,,,,,,,,,,,,,,,,,,,,,,,,,,,,,,,,,,,,,,,,,,,,,,,,,,,,,,,,,,,,,,,,,,,,,,,,,,,,,,,,,,-0.002358012832701206,-0.006657278630882502,-0.001205340027809143,0.0,0.013499421067535877,-0.05837409943342209,0.16556444764137268,0.1204247772693634,-0.0525328703224659,0.06721323728561401,0.0016393099213019013,0.0,0.016178442165255547,0.05392610654234886,-0.17038418352603912,-0.259770005941391,,,,,,,,,,,,,,,,,,,,,,,,,,,,,,,,,,,,,,,,,,,,,,,,,,,,,,,,,,,,,,,,,,,,,,,,
1696194717.036723,1.0541800260543823,1.871394157409668,-0.02927522175014019,0.0,0.7853483557701111,0.00015629309928044677,0.5512635707855225,0.55140620470047,1.0530792474746704,1.8960131406784058,-0.03330292925238609,0.0,0.7854770421981812,0.00023247741046361625,-0.5541682839393616,-0.5550050139427185,,,,,,,,,,,,,,,,,,,,,,,,,,,,,,,,,,,,,,,,,,,,,,,,,,,,,,,,,,,,,,,,,,,,,,,,,,,,,,,,,,,,,,,,,,,,,,,,,,,,,,,,,,,,,,,,,,,,,,,,,,,,,,,,,,,,,,-0.03532230481505394,-0.010625348426401615,0.014764034189283848,0.0,-0.008760950528085232,0.04380552098155022,0.04153681546449661,0.07955656945705414,-0.059454284608364105,0.04246741905808449,0.007841793820261955,0.0,0.006359504535794258,0.029109930619597435,-0.21581114828586578,-0.32236021757125854,,,,,,,,,,,,,,,,,,,,,,,,,,,,,,,,,,,,,,,,,,,,,,,,,,,,,,,,,,,,,,,,,,,,,,,,
1696194717.225243,1.0501166582107544,1.870591640472412,-0.02818703092634678,0.0,0.7853529453277588,5.921307820244692e-05,0.5722557306289673,0.572254478931427,1.0495952367782593,1.8981505632400513,-0.03287743404507637,0.0,0.7854319214820862,8.63124878378585e-05,-0.5729701519012451,-0.573481559753418,,,,,,,,,,,,,,,,,,,,,,,,,,,,,,,,,,,,,,,,,,,,,,,,,,,,,,,,,,,,,,,,,,,,,,,,,,,,,,,,,,,,,,,,,,,,,,,,,,,,,,,,,,,,,,,,,,,,,,,,,,,,,,,,,,,,,,-0.06712774932384491,0.017433011904358864,0.018391074612736702,0.0,-0.008203457109630108,0.005139583256095648,0.13082848489284515,0.12854355573654175,0.005557549186050892,0.01157232467085123,-0.005552506074309349,0.0,0.0011920093093067408,-0.00651203840970993,-0.16378429532051086,-0.1686767041683197,,,,,,,,,,,,,,,,,,,,,,,,,,,,,,,,,,,,,,,,,,,,,,,,,,,,,,,,,,,,,,,,,,,,,,,,
1696194717.347266,1.0464696884155273,1.8716657161712646,-0.0275532566010952,0.0,0.7853751182556152,-9.058522118721157e-05,0.5876842141151428,0.587520956993103,1.0473324060440063,1.8986445665359497,-0.03243875131011009,0.0,0.7854376435279846,9.250623406842351e-05,-0.5824456810951233,-0.5827157497406006,,,,,,,,,,,,,,,,,,,,,,,,,,,,,,,,,,,,,,,,,,,,,,,,,,,,,,,,,,,,,,,,,,,,,,,,,,,,,,,,,,,,,,,,,,,,,,,,,,,,,,,,,,,,,,,,,,,,,,,,,,,,,,,,,,,,,,-0.027305124327540398,0.006883817259222269,0.0032504932023584843,0.0,-0.0062098195776343346,-0.013902336359024048,0.19549556076526642,0.18194793164730072,-0.001986656105145812,0.009965166449546814,-0.0018722200766205788,0.0,0.012788893654942513,0.02648448571562767,-0.0841718539595604,-0.10335930436849594,,,,,,,,,,,,,,,,,,,,,,,,,,,,,,,,,,,,,,,,,,,,,,,,,,,,,,,,,,,,,,,,,,,,,,,,
1696194717.4712598,1.043670415878296,1.8735111951828003,-0.027234092354774475,0.0,0.7853860855102539,-7.944736717035994e-05,0.5979520678520203,0.5977893471717834,1.0428398847579956,1.8976770639419556,-0.031227093189954758,0.0,0.7853420376777649,-7.597744843224064e-05,-0.5986523032188416,-0.5989035367965698,,,,,,,,,,,,,,,,,,,,,,,,,,,,,,,,,,,,,,,,,,,,,,,,,,,,,,,,,,,,,,,,,,,,,,,,,,,,,,,,,,,,,,,,,,,,,,,,,,,,,,,,,,,,,,,,,,,,,,,,,,,,,,,,,,,,,,-0.023722484707832336,0.01499069295823574,0.0019082322251051664,0.0,-0.012390173971652985,0.01296204887330532,0.1380755603313446,0.14311465620994568,-0.06381025165319443,-0.045904599130153656,0.025870708748698235,0.0,-0.00796071719378233,-0.012674584984779358,-0.08925966918468475,-0.09290114790201187,,,,,,,,,,,,,,,,,,,,,,,,,,,,,,,,,,,,,,,,,,,,,,,,,,,,,,,,,,,,,,,,,,,,,,,,
1696194717.56479,1.0414305925369263,1.8758796453475952,-0.027136344462633133,0.0,0.78541100025177,3.1728744943393394e-05,0.6056902408599854,0.6056884527206421,1.0402804613113403,1.8955440521240234,-0.03027484379708767,0.0,0.7853379249572754,-3.425173053983599e-05,-0.6079145073890686,-0.6082370281219482,,,,,,,,,,,,,,,,,,,,,,,,,,,,,,,,,,,,,,,,,,,,,,,,,,,,,,,,,,,,,,,,,,,,,,,,,,,,,,,,,,,,,,,,,,,,,,,,,,,,,,,,,,,,,,,,,,,,,,,,,,,,,,,,,,,,,,-0.005324358120560646,-0.01225262600928545,0.002912546042352915,0.0,-0.0042683775536715984,0.04314802959561348,0.037640031427145004,0.08856947720050812,-0.04070344939827919,-0.05702551454305649,0.019677428528666496,0.0,0.0025150154251605272,0.021555636078119278,-0.10092777013778687,-0.1529553383588791,,,,,,,,,,,,,,,,,,,,,,,,,,,,,,,,,,,,,,,,,,,,,,,,,,,,,,,,,,,,,,,,,,,,,,,,
1696194717.685987,1.039304256439209,1.8794530630111694,-0.027278929948806763,0.0,0.7854922413825989,-0.0002974606759380549,0.6129958033561707,0.6127265691757202,1.0390342473983765,1.8938214778900146,-0.029702862724661827,0.0,0.7854307889938354,0.00017086935986299068,-0.6129724383354187,-0.6132911443710327,,,,,,,,,,,,,,,,,,,,,,,,,,,,,,,,,,,,,,,,,,,,,,,,,,,,,,,,,,,,,,,,,,,,,,,,,,,,,,,,,,,,,,,,,,,,,,,,,,,,,,,,,,,,,,,,,,,,,,,,,,,,,,,,,,,,,,-0.0342816486954689,0.0992099866271019,-0.011043420061469078,0.0,0.013536081649363041,-0.058986157178878784,0.13791875541210175,0.08457177877426147,-0.001326469355262816,0.012377682141959667,-0.004260757938027382,0.0,0.02925378829240799,0.07950418442487717,-0.07010243088006973,-0.13972876965999603,,,,,,,,,,,,,,,,,,,,,,,,,,,,,,,,,,,,,,,,,,,,,,,,,,,,,,,,,,,,,,,,,,,,,,,,
1696194717.8678708,1.0373507738113403,1.8844445943832397,-0.027691558003425598,0.0,0.7853925824165344,6.543259223690256e-05,0.6199637055397034,0.6200003623962402,1.0371068716049194,1.88827645778656,-0.02829568460583687,0.0,0.7852995991706848,-0.00020576477982103825,-0.620808482170105,-0.6207208037376404,,,,,,,,,,,,,,,,,,,,,,,,,,,,,,,,,,,,,,,,,,,,,,,,,,,,,,,,,,,,,,,,,,,,,,,,,,,,,,,,,,,,,,,,,,,,,,,,,,,,,,,,,,,,,,,,,,,,,,,,,,,,,,,,,,,,,,-0.002164517529308796,-0.00011527156311785802,0.0024790752213448286,0.0,-0.01586509682238102,0.0541691891849041,-0.03338876739144325,0.0053802072070539,-0.009299875237047672,-0.0524388812482357,0.012531665153801441,0.0,-0.024000296369194984,-0.07110896706581116,-0.02177727222442627,0.028511829674243927,,,,,,,,,,,,,,,,,,,,,,,,,,,,,,,,,,,,,,,,,,,,,,,,,,,,,,,,,,,,,,,,,,,,,,,,
1696194718.0121028,1.0371695756912231,1.890082597732544,-0.028652729466557503,0.0,0.7855134606361389,-0.0003268286236561835,0.6226271986961365,0.6224279999732971,1.03721022605896,1.884433388710022,-0.02765730954706669,0.0,0.7853724956512451,-7.152285888878396e-06,-0.6223146319389343,-0.6221434473991394,,,,,,,,,,,,,,,,,,,,,,,,,,,,,,,,,,,,,,,,,,,,,,,,,,,,,,,,,,,,,,,,,,,,,,,,,,,,,,,,,,,,,,,,,,,,,,,,,,,,,,,,,,,,,,,,,,,,,,,,,,,,,,,,,,,,,,0.011952403001487255,0.08569452166557312,-0.02298903837800026,0.0,0.01639317348599434,-0.0592365600168705,0.08340837806463242,0.036654237657785416,0.009205701760947704,-0.034223996102809906,0.003286328399553895,0.0,0.02043970488011837,0.05783303827047348,0.012915600091218948,-0.017789755016565323,,,,,,,,,,,,,,,,,,,,,,,,,,,,,,,,,,,,,,,,,,,,,,,,,,,,,,,,,,,,,,,,,,,,,,,,
1696194718.1408963,1.0378612279891968,1.89268958568573,-0.029254768043756485,0.0,0.7854646444320679,-0.00019073535804636776,0.6217426061630249,0.6216486096382141,1.038548469543457,1.8799505233764648,-0.02718612737953663,0.0,0.7853938937187195,2.231838516308926e-05,-0.6207643747329712,-0.6206812858581543,,,,,,,,,,,,,,,,,,,,,,,,,,,,,,,,,,,,,,,,,,,,,,,,,,,,,,,,,,,,,,,,,,,,,,,,,,,,,,,,,,,,,,,,,,,,,,,,,,,,,,,,,,,,,,,,,,,,,,,,,,,,,,,,,,,,,,0.0163117628544569,0.04182291775941849,-0.014933492057025433,0.0,0.009048955515027046,-0.03857479244470596,0.04711185768246651,0.014240543358027935,0.001425253925845027,-0.009453382343053818,0.0009655110770836473,0.0,0.012886309996247292,0.03694990649819374,0.0158676840364933,-0.0044830176047980785,,,,,,,,,,,,,,,,,,,,,,,,,,,,,,,,,,,,,,,,,,,,,,,,,,,,,,,,,,,,,,,,,,,,,,,,
1696194718.239331,1.0397857427597046,1.8956313133239746,-0.030186481773853302,0.0,0.7854108810424805,0.00015265302499756217,0.6175528168678284,0.6177602410316467,1.040546178817749,1.8766911029815674,-0.027082057669758797,0.0,0.7853285670280457,-0.00022230685863178223,-0.6174084544181824,-0.6167742609977722,,,,,,,,,,,,,,,,,,,,,,,,,,,,,,,,,,,,,,,,,,,,,,,,,,,,,,,,,,,,,,,,,,,,,,,,,,,,,,,,,,,,,,,,,,,,,,,,,,,,,,,,,,,,,,,,,,,,,,,,,,,,,,,,,,,,,,0.0005064409342594445,0.006055247038602829,0.005103833973407745,0.0,-0.019424861297011375,0.09190696477890015,-0.1537042111158371,-0.09368591755628586,0.05205175280570984,-0.06617924571037292,-0.001442728447727859,0.0,-0.002556777559220791,-0.018247362226247787,0.0517725870013237,0.13090810179710388,,,,,,,,,,,,,,,,,,,,,,,,,,,,,,,,,,,,,,,,,,,,,,,,,,,,,,,,,,,,,,,,,,,,,,,,
1696194718.3536084,1.0428279638290405,1.8978921175003052,-0.03127504140138626,0.0,0.7854163646697998,0.0001093013706849888,0.6106857657432556,0.6108953356742859,1.0432865619659424,1.8736943006515503,-0.027192870154976845,0.0,0.7853458523750305,-0.0001885981037048623,-0.6115188598632812,-0.6110194325447083,,,,,,,,,,,,,,,,,,,,,,,,,,,,,,,,,,,,,,,,,,,,,,,,,,,,,,,,,,,,,,,,,,,,,,,,,,,,,,,,,,,,,,,,,,,,,,,,,,,,,,,,,,,,,,,,,,,,,,,,,,,,,,,,,,,,,,0.002904103370383382,0.011407340876758099,0.004145510960370302,0.0,-0.012396435253322124,0.05436970293521881,-0.1611015796661377,-0.1230088546872139,0.06932714581489563,-0.048583704978227615,-0.009181048721075058,0.0,-0.006176389753818512,-0.03635065257549286,0.03464704379439354,0.10767705738544464,,,,,,,,,,,,,,,,,,,,,,,,,,,,,,,,,,,,,,,,,,,,,,,,,,,,,,,,,,,,,,,,,,,,,,,,
1696194718.4529517,1.0462675094604492,1.89851713180542,-0.03217759355902672,0.0,0.7854205965995789,8.166641782736406e-05,0.6017041802406311,0.6018983125686646,1.0457639694213867,1.872072458267212,-0.027479123324155807,0.0,0.7853847146034241,-3.9843675040174276e-05,-0.6050119996070862,-0.6048113703727722,,,,,,,,,,,,,,,,,,,,,,,,,,,,,,,,,,,,,,,,,,,,,,,,,,,,,,,,,,,,,,,,,,,,,,,,,,,,,,,,,,,,,,,,,,,,,,,,,,,,,,,,,,,,,,,,,,,,,,,,,,,,,,,,,,,,,,0.004283145070075989,0.015669317916035652,0.002329722512513399,0.0,-0.006396672688424587,0.029209259897470474,-0.15852230787277222,-0.13824030756950378,0.04768688976764679,-0.015914108604192734,-0.009823786094784737,0.0,0.0024665542878210545,-0.00024990225210785866,0.04051099345088005,0.0049697174690663815,,,,,,,,,,,,,,,,,,,,,,,,,,,,,,,,,,,,,,,,,,,,,,,,,,,,,,,,,,,,,,,,,,,,,,,,
1696194718.5474637,1.0496355295181274,1.897834062576294,-0.032855499535799026,0.0,0.7854230999946594,7.07990548107773e-05,0.5918777585029602,0.5921301245689392,1.0492491722106934,1.8708475828170776,-0.028064502403140068,0.0,0.7853608727455139,-0.0001069208956323564,-0.5946041941642761,-0.5941311717033386,,,,,,,,,,,,,,,,,,,,,,,,,,,,,,,,,,,,,,,,,,,,,,,,,,,,,,,,,,,,,,,,,,,,,,,,,,,,,,,,,,,,,,,,,,,,,,,,,,,,,,,,,,,,,,,,,,,,,,,,,,,,,,,,,,,,,,0.06551589071750641,-0.02079411782324314,-0.010282418690621853,0.0,-0.002224275842308998,-0.0015768628800287843,-0.24707917869091034,-0.23882612586021423,0.0026491363532841206,-0.01747310161590576,0.004585647489875555,0.0,-0.008375809527933598,-0.009205927141010761,0.13501150906085968,0.10002703219652176,,,,,,,,,,,,,,,,,,,,,,,,,,,,,,,,,,,,,,,,,,,,,,,,,,,,,,,,,,,,,,,,,,,,,,,,
1696194718.6924145,1.0535430908203125,1.8963172435760498,-0.03349863365292549,0.0,0.7853933572769165,0.00011792447185143828,0.578761875629425,0.5789045095443726,1.0532646179199219,1.8705555200576782,-0.028959469869732857,0.0,0.7854073643684387,-0.00013174190826248378,-0.5822980403900146,-0.5812884569168091,,,,,,,,,,,,,,,,,,,,,,,,,,,,,,,,,,,,,,,,,,,,,,,,,,,,,,,,,,,,,,,,,,,,,,,,,,,,,,,,,,,,,,,,,,,,,,,,,,,,,,,,,,,,,,,,,,,,,,,,,,,,,,,,,,,,,,0.06930307298898697,-0.061851292848587036,-0.008548521436750889,0.0,-0.0012178791221231222,0.026441939175128937,-0.17459264397621155,-0.15230266749858856,0.07863541692495346,0.02842024154961109,-0.023811860010027885,0.0,-0.0088000213727355,-0.041550979018211365,0.2641151249408722,0.3983621299266815,,,,,,,,,,,,,,,,,,,,,,,,,,,,,,,,,,,,,,,,,,,,,,,,,,,,,,,,,,,,,,,,,,,,,,,,
1696194718.821919,1.0558761358261108,1.894857406616211,-0.033772509545087814,0.0,0.7853958010673523,-2.5001983885886148e-05,0.568939208984375,0.5689186453819275,1.0570909976959229,1.8716493844985962,-0.030023586004972458,0.0,0.7853468060493469,-0.00018504669424146414,-0.5653397440910339,-0.5648447275161743,,,,,,,,,,,,,,,,,,,,,,,,,,,,,,,,,,,,,,,,,,,,,,,,,,,,,,,,,,,,,,,,,,,,,,,,,,,,,,,,,,,,,,,,,,,,,,,,,,,,,,,,,,,,,,,,,,,,,,,,,,,,,,,,,,,,,,0.003582937875762582,0.017424121499061584,-0.002180376322939992,0.0,0.00406252546235919,-0.043238624930381775,-0.0994662418961525,-0.13189411163330078,-0.0019187701400369406,-0.014912143349647522,0.005834108684211969,0.0,-0.025012614205479622,-0.06699766963720322,0.13646580278873444,0.18592792749404907,,,,,,,,,,,,,,,,,,,,,,,,,,,,,,,,,,,,,,,,,,,,,,,,,,,,,,,,,,,,,,,,,,,,,,,,
1696194718.9749858,1.0601730346679688,1.8895145654678345,-0.03384611755609512,0.0,0.7853355407714844,0.0002700182667467743,0.5462670922279358,0.5463868975639343,1.0599501132965088,1.8739210367202759,-0.03108741156756878,0.0,0.7853693962097168,-0.00010653428762452677,-0.549772322177887,-0.5495357513427734,,,,,,,,,,,,,,,,,,,,,,,,,,,,,,,,,,,,,,,,,,,,,,,,,,,,,,,,,,,,,,,,,,,,,,,,,,,,,,,,,,,,,,,,,,,,,,,,,,,,,,,,,,,,,,,,,,,,,,,,,,,,,,,,,,,,,,0.04369247332215309,-0.09347549825906754,0.006365866865962744,0.0,-0.0072077540680766106,0.05324447527527809,-0.21987316012382507,-0.1844208687543869,0.002471011132001877,-0.0026488658040761948,0.0011968740727752447,0.0,-0.016106288880109787,-0.05048838630318642,0.0792875811457634,0.11381594091653824,,,,,,,,,,,,,,,,,,,,,,,,,,,,,,,,,,,,,,,,,,,,,,,,,,,,,,,,,,,,,,,,,,,,,,,,
1696194719.1453204,1.0618033409118652,1.8862345218658447,-0.033652085810899734,0.0,0.7853336930274963,0.0002342074876651168,0.5333340764045715,0.533295750617981,1.0623369216918945,1.8784836530685425,-0.03244609758257866,0.0,0.7854501008987427,0.00016063405200839043,-0.528511643409729,-0.5285323262214661,,,,,,,,,,,,,,,,,,,,,,,,,,,,,,,,,,,,,,,,,,,,,,,,,,,,,,,,,,,,,,,,,,,,,,,,,,,,,,,,,,,,,,,,,,,,,,,,,,,,,,,,,,,,,,,,,,,,,,,,,,,,,,,,,,,,,,0.02072768658399582,-0.0796957015991211,0.009555879049003124,0.0,-9.526543726678938e-05,0.005282646976411343,-0.22851291298866272,-0.2421916127204895,0.016147229820489883,0.05184980854392052,-0.014843946322798729,0.0,0.00985797680914402,0.048223186284303665,0.09976796805858612,0.023720167577266693,,,,,,,,,,,,,,,,,,,,,,,,,,,,,,,,,,,,,,,,,,,,,,,,,,,,,,,,,,,,,,,,,,,,,,,,
1696194719.259139,1.0629003047943115,1.8810945749282837,-0.033015746623277664,0.0,0.785329282283783,0.00023731926921755075,0.5141693949699402,0.5141855478286743,1.0627979040145874,1.8811848163604736,-0.03302627056837082,0.0,0.78548663854599,0.0002781518269330263,-0.5180515050888062,-0.5180793404579163,,,,,,,,,,,,,,,,,,,,,,,,,,,,,,,,,,,,,,,,,,,,,,,,,,,,,,,,,,,,,,,,,,,,,,,,,,,,,,,,,,,,,,,,,,,,,,,,,,,,,,,,,,,,,,,,,,,,,,,,,,,,,,,,,,,,,,0.010266744531691074,-0.06204955652356148,0.01126095186918974,0.0,-0.009087965823709965,0.06018950417637825,-0.18230292201042175,-0.12012700736522675,0.008678284473717213,0.09248614311218262,-0.020410830155014992,0.0,0.019716594368219376,0.07756812125444412,0.19392192363739014,0.12435484677553177,,,,,,,,,,,,,,,,,,,,,,,,,,,,,,,,,,,,,,,,,,,,,,,,,,,,,,,,,,,,,,,,,,,,,,,,
1696194719.3699198,1.0628408193588257,1.87786865234375,-0.0324389673769474,0.0,0.7853036522865295,0.00016257881361525506,0.5023186802864075,0.5018309354782104,1.0628252029418945,1.8845261335372925,-0.033607445657253265,0.0,0.785413920879364,-4.2932947508234065e-06,-0.5047398805618286,-0.5046126842498779,,,,,,,,,,,,,,,,,,,,,,,,,,,,,,,,,,,,,,,,,,,,,,,,,,,,,,,,,,,,,,,,,,,,,,,,,,,,,,,,,,,,,,,,,,,,,,,,,,,,,,,,,,,,,,,,,,,,,,,,,,,,,,,,,,,,,,-0.013175434432923794,-0.06477639824151993,0.012377046048641205,0.0,0.00026785398949868977,-0.03654865920543671,-0.2341863065958023,-0.3181050717830658,0.003370045218616724,0.006510022561997175,-0.0018224497325718403,0.0,0.0019216916989535093,0.0004101423255633563,0.07041243463754654,0.07298458367586136,,,,,,,,,,,,,,,,,,,,,,,,,,,,,,,,,,,,,,,,,,,,,,,,,,,,,,,,,,,,,,,,,,,,,,,,
1696194719.4854457,1.0621434450149536,1.874201774597168,-0.031636469066143036,0.0,0.7853316068649292,0.0002362677623750642,0.4872573912143707,0.4872278571128845,1.061582326889038,1.8899989128112793,-0.0342680923640728,0.0,0.7853996753692627,8.785301361058373e-06,-0.4847894310951233,-0.48480555415153503,,,,,,,,,,,,,,,,,,,,,,,,,,,,,,,,,,,,,,,,,,,,,,,,,,,,,,,,,,,,,,,,,,,,,,,,,,,,,,,,,,,,,,,,,,,,,,,,,,,,,,,,,,,,,,,,,,,,,,,,,,,,,,,,,,,,,,-0.012182674370706081,-0.04962296411395073,0.016279000788927078,0.0,-0.004716635216027498,0.05389314889907837,-0.1850883811712265,-0.108574278652668,-0.014942662790417671,0.0383150689303875,-0.002721295924857259,0.0,-0.008734693750739098,-0.04913705214858055,0.20733651518821716,0.23525892198085785,,,,,,,,,,,,,,,,,,,,,,,,,,,,,,,,,,,,,,,,,,,,,,,,,,,,,,,,,,,,,,,,,,,,,,,,
1696194719.6477463,1.0600723028182983,1.8698002099990845,-0.030376283451914787,0.0,0.7853148579597473,0.0002726145030464977,0.4674384593963623,0.46719443798065186,1.0601431131362915,1.8936978578567505,-0.03457551822066307,0.0,0.7853972315788269,-2.2098911358625628e-05,-0.4707481265068054,-0.47076988220214844,,,,,,,,,,,,,,,,,,,,,,,,,,,,,,,,,,,,,,,,,,,,,,,,,,,,,,,,,,,,,,,,,,,,,,,,,,,,,,,,,,,,,,,,,,,,,,,,,,,,,,,,,,,,,,,,,,,,,,,,,,,,,,,,,,,,,,-0.041021376848220825,-0.05491548776626587,0.02590976469218731,0.0,-0.010475740768015385,0.04556936025619507,-0.2234029322862625,-0.22703011333942413,-0.0011389286955818534,0.010288369841873646,-0.0013652269262820482,0.0,-0.003352509345859289,-0.029097137972712517,0.07727279514074326,0.08556036651134491,,,,,,,,,,,,,,,,,,,,,,,,,,,,,,,,,,,,,,,,,,,,,,,,,,,,,,,,,,,,,,,,,,,,,,,,
