MHC-RobotSimulators-Research/Data_Analysis_MotionReplication/test_trials/test_trial_2_rs.csv
time,jpos0,jpos1,jpos2,jpos3,jpos4,jpos5,jpos6,jpos7,jpos8,jpos9,jpos10,jpos11,jpos12,jpos13,jpos14,jpos15,runlevel,sublevel,last_seq,type0,type1,pos0,pos1,pos2,pos3,pos4,pos5,ori0,ori1,ori2,ori3,ori4,ori5,ori6,ori7,ori8,ori9,ori10,ori11,ori12,ori13,ori14,ori15,ori16,ori17,ori_d0,ori_d1,ori_d2,ori_d3,ori_d4,ori_d5,ori_d6,ori_d7,ori_d8,ori_d9,ori_d10,ori_d11,ori_d12,ori_d13,ori_d14,ori_d15,ori_d16,ori_d17,pos_d0,pos_d1,pos_d2,pos_d3,pos_d4,pos_d5,encVals0,encVals1,encVals2,encVals3,encVals4,encVals5,encVals6,encVals7,encVals8,encVals9,encVals10,encVals11,encVals12,encVals13,encVals14,encVals15,dac_vals0,dac_vals1,dac_vals2,dac_vals3,dac_vals4,dac_vals5,dac_vals6,dac_vals7,dac_vals8,dac_vals9,dac_vals10,dac_vals11,dac_vals12,dac_vals13,dac_vals14,dac_vals15,Tau0,Tau1,Tau2,Tau3,Tau4,Tau5,Tau6,Tau7,Tau8,Tau9,Tau10,Tau11,Tau12,Tau13,Tau14,Tau15,mpos0,mpos1,mpos2,mpos3,mpos4,mpos5,mpos6,mpos7,mpos8,mpos9,mpos10,mpos11,mpos12,mpos13,mpos14,mpos15,mvel0,mvel1,mvel2,mvel3,mvel4,mvel5,mvel6,mvel7,mvel8,mvel9,mvel10,mvel11,mvel12,mvel13,mvel14,mvel15,jvel0,jvel1,jvel2,jvel3,jvel4,jvel5,jvel6,jvel7,jvel8,jvel9,jvel10,jvel11,jvel12,jvel13,jvel14,jvel15,jpos_d0,jpos_d1,jpos_d2,jpos_d3,jpos_d4,jpos_d5,jpos_d6,jpos_d7,jpos_d8,jpos_d9,jpos_d10,jpos_d11,jpos_d12,jpos_d13,jpos_d14,jpos_d15,grasp_d0,grasp_d1,grasp_d2,grasp_d3,grasp_d4,grasp_d5,grasp_d6,grasp_d7,grasp_d8,grasp_d9,grasp_d10,grasp_d11,grasp_d12,grasp_d13,grasp_d14,grasp_d15,encoffsets0,encoffsets1,encoffsets2,encoffsets3,encoffsets4,encoffsets5,encoffsets6,encoffsets7,encoffsets8,encoffsets9,encoffsets10,encoffsets11,encoffsets12,encoffsets13,encoffsets14,encoffsets15,jac_vel0,jac_vel1,jac_vel2,jac_vel3,jac_vel4,jac_vel5,jac_vel6,jac_vel7,jac_vel8,jac_vel9,jac_vel10,jac_vel11,jac_f0,jac_f1,jac_f2,jac_f3,jac_f4,jac_f5,jac_f6,jac_f7,jac_f8,jac_f9,jac_f10,jac_f11
1696194447.1025226,1.0467129945755005,1.8840833902359009,-0.029986117035150528,0.0,2.3551042079925537,1.3005135290279266e-15,0.5233564972877502,0.5233564972877502,1.0467129945755005,1.8840833902359009,-0.029986117035150528,0.0,2.3551042079925537,-8.101648217855202e-15,0.5233564972877502,0.5233564972877502,,,,,,,,,,,,,,,,,,,,,,,,,,,,,,,,,,,,,,,,,,,,,,,,,,,,,,,,,,,,,,,,,,,,,,,,,,,,,,,,,,,,,,,,,,,,,,,,,,,,,,,,,,,,,,,,,,,,,,,,,,,,,,,,,,,,,,0.0,0.0,0.0,0.0,0.0,0.0,0.0,0.0,0.0,0.0,0.0,0.0,0.0,0.0,0.0,0.0,,,,,,,,,,,,,,,,,,,,,,,,,,,,,,,,,,,,,,,,,,,,,,,,,,,,,,,,,,,,,,,,,,,,,,,,
1696194450.4585,1.050186038017273,1.881520390510559,-0.030094098299741745,0.0,0.8577286601066589,-3.821473001153208e-05,0.44993409514427185,0.45002174377441406,1.050078272819519,1.887147068977356,-0.03104572929441929,0.0,0.8576679229736328,3.593886140151881e-05,-0.4020932614803314,-0.4022708833217621,,,,,,,,,,,,,,,,,,,,,,,,,,,,,,,,,,,,,,,,,,,,,,,,,,,,,,,,,,,,,,,,,,,,,,,,,,,,,,,,,,,,,,,,,,,,,,,,,,,,,,,,,,,,,,,,,,,,,,,,,,,,,,,,,,,,,,0.00024132659018505365,-0.0001572594337631017,-4.718353920907248e-07,0.0,-0.0035921307280659676,-0.010121401399374008,-0.014537317678332329,-0.018732227385044098,0.00017961254343390465,0.0001714983518468216,-2.2109301426098682e-05,0.0,-0.02385804057121277,-0.014749247580766678,-0.26185154914855957,-0.18439915776252747,,,,,,,,,,,,,,,,,,,,,,,,,,,,,,,,,,,,,,,,,,,,,,,,,,,,,,,,,,,,,,,,,,,,,,,,
1696194450.8591063,1.050249457359314,1.8844106197357178,-0.030612535774707794,0.0,0.7937401533126831,-5.889856402063742e-05,0.5619227886199951,0.5622965693473816,1.0502538681030273,1.8842085599899292,-0.03057384490966797,0.0,0.7938162684440613,2.3521493858424947e-05,-0.5563878417015076,-0.5566760301589966,,,,,,,,,,,,,,,,,,,,,,,,,,,,,,,,,,,,,,,,,,,,,,,,,,,,,,,,,,,,,,,,,,,,,,,,,,,,,,,,,,,,,,,,,,,,,,,,,,,,,,,,,,,,,,,,,,,,,,,,,,,,,,,,,,,,,,-0.001466438639909029,0.01587132178246975,-0.0031501560006290674,0.0,-0.05106193199753761,-0.013698968105018139,0.3003760576248169,0.239398792386055,-0.0006018770509399474,-0.015019561164081097,0.0031422774773091078,0.0,-0.0351891927421093,-0.012102166190743446,-0.31116655468940735,-0.2590641677379608,,,,,,,,,,,,,,,,,,,,,,,,,,,,,,,,,,,,,,,,,,,,,,,,,,,,,,,,,,,,,,,,,,,,,,,,
1696194451.2427218,1.0486668348312378,1.8838615417480469,-0.030146576464176178,0.0,0.7865378260612488,-1.2184316801722161e-05,0.5109568238258362,0.5099499225616455,1.0486090183258057,1.885481834411621,-0.030415859073400497,0.0,0.7864493727684021,-0.0001057175686582923,-0.5089626312255859,-0.5081865191459656,,,,,,,,,,,,,,,,,,,,,,,,,,,,,,,,,,,,,,,,,,,,,,,,,,,,,,,,,,,,,,,,,,,,,,,,,,,,,,,,,,,,,,,,,,,,,,,,,,,,,,,,,,,,,,,,,,,,,,,,,,,,,,,,,,,,,,-0.006327042356133461,-0.005435713566839695,0.001555136637762189,0.0,-0.01827956922352314,-0.019187619909644127,-0.539985179901123,-0.5814908742904663,-0.011305018328130245,0.01728774420917034,-0.0002851415192708373,0.0,-0.005252160131931305,-0.012751678936183453,0.7510079145431519,0.8142765760421753,,,,,,,,,,,,,,,,,,,,,,,,,,,,,,,,,,,,,,,,,,,,,,,,,,,,,,,,,,,,,,,,,,,,,,,,
1696194451.4096434,1.0491982698440552,1.8835663795471191,-0.030225293710827827,0.0,0.7859531044960022,7.163376722019166e-05,0.4604322612285614,0.4598364531993866,1.0497547388076782,1.8851492404937744,-0.030624940991401672,0.0,0.7858206629753113,-3.841699435724877e-05,-0.44535860419273376,-0.44502440094947815,,,,,,,,,,,,,,,,,,,,,,,,,,,,,,,,,,,,,,,,,,,,,,,,,,,,,,,,,,,,,,,,,,,,,,,,,,,,,,,,,,,,,,,,,,,,,,,,,,,,,,,,,,,,,,,,,,,,,,,,,,,,,,,,,,,,,,0.013297511264681816,0.003174812998622656,-0.0014990245690569282,0.0,-0.01997668482363224,0.045672476291656494,-0.5831112265586853,-0.5590643882751465,-0.0012565396027639508,-0.0011341526405885816,0.0006670596776530147,0.0,0.00971913617104292,0.015515517443418503,0.24047015607357025,0.22532477974891663,,,,,,,,,,,,,,,,,,,,,,,,,,,,,,,,,,,,,,,,,,,,,,,,,,,,,,,,,,,,,,,,,,,,,,,,
1696194451.8401117,1.0484732389450073,1.8844635486602783,-0.030209163203835487,0.0,0.7854873538017273,-2.4618764655315317e-05,0.5372047424316406,0.5376883745193481,1.0484648942947388,1.8849133253097534,-0.030284535139799118,0.0,0.7854902148246765,7.194863428594545e-05,-0.5371736288070679,-0.537683367729187,,,,,,,,,,,,,,,,,,,,,,,,,,,,,,,,,,,,,,,,,,,,,,,,,,,,,,,,,,,,,,,,,,,,,,,,,,,,,,,,,,,,,,,,,,,,,,,,,,,,,,,,,,,,,,,,,,,,,,,,,,,,,,,,,,,,,,-0.0004559695371426642,-0.0013191638281568885,-0.0008892204496078193,0.0,0.015705369412899017,-0.008824390359222889,0.3850696384906769,0.3395829498767853,0.0005924975266680121,0.0016802208265289664,-0.0008396452758461237,0.0,-0.023091325536370277,-0.010761483572423458,-0.3648424744606018,-0.34035977721214294,,,,,,,,,,,,,,,,,,,,,,,,,,,,,,,,,,,,,,,,,,,,,,,,,,,,,,,,,,,,,,,,,,,,,,,,
1696194452.0267098,1.049618124961853,1.8839290142059326,-0.030388841405510902,0.0,0.7854166030883789,-5.839105506311171e-05,0.5681635737419128,0.5683352947235107,1.0496078729629517,1.8849633932113647,-0.03056083433330059,0.0,0.7854676246643066,5.7724315411178395e-05,-0.5681767463684082,-0.5681665539741516,,,,,,,,,,,,,,,,,,,,,,,,,,,,,,,,,,,,,,,,,,,,,,,,,,,,,,,,,,,,,,,,,,,,,,,,,,,,,,,,,,,,,,,,,,,,,,,,,,,,,,,,,,,,,,,,,,,,,,,,,,,,,,,,,,,,,,0.03671713173389435,-0.018530283123254776,-0.008069781586527824,0.0,-0.003153648693114519,-0.02852136641740799,0.10325281322002411,0.07268577069044113,0.038991138339042664,0.004976687952876091,-0.01101815328001976,0.0,0.011231102980673313,0.023753387853503227,-0.061566732823848724,-0.11311803758144379,,,,,,,,,,,,,,,,,,,,,,,,,,,,,,,,,,,,,,,,,,,,,,,,,,,,,,,,,,,,,,,,,,,,,,,,
1696194452.4538107,1.0484024286270142,1.8844902515411377,-0.03019113466143608,0.0,0.785434365272522,-1.7416068658349104e-06,0.4532391428947449,0.4524124562740326,1.0483877658843994,1.8849176168441772,-0.030264534056186676,0.0,0.7852309346199036,-0.000110681212390773,-0.453022301197052,-0.4525473117828369,,,,,,,,,,,,,,,,,,,,,,,,,,,,,,,,,,,,,,,,,,,,,,,,,,,,,,,,,,,,,,,,,,,,,,,,,,,,,,,,,,,,,,,,,,,,,,,,,,,,,,,,,,,,,,,,,,,,,,,,,,,,,,,,,,,,,,-0.017667820677161217,0.00979903619736433,0.003686710726469755,0.0,0.008157499134540558,-0.0008904156857170165,-0.4847366511821747,-0.5552786588668823,-0.018632756546139717,-0.0015996588626876473,0.005319556687027216,0.0,-0.024554835632443428,-0.011525108478963375,0.5114392042160034,0.5499951243400574,,,,,,,,,,,,,,,,,,,,,,,,,,,,,,,,,,,,,,,,,,,,,,,,,,,,,,,,,,,,,,,,,,,,,,,,
1696194452.5668037,1.0492264032363892,1.8843576908111572,-0.030385110527276993,0.0,0.7854352593421936,3.898825525538996e-05,0.4347170889377594,0.4350984990596771,1.0487964153289795,1.8847476243972778,-0.030331606045365334,0.0,0.7853412628173828,-7.102167728589848e-05,-0.43539467453956604,-0.4350734353065491,,,,,,,,,,,,,,,,,,,,,,,,,,,,,,,,,,,,,,,,,,,,,,,,,,,,,,,,,,,,,,,,,,,,,,,,,,,,,,,,,,,,,,,,,,,,,,,,,,,,,,,,,,,,,,,,,,,,,,,,,,,,,,,,,,,,,,0.051167748868465424,-0.013304639607667923,-0.012175864540040493,0.0,0.008735988289117813,0.026767762377858162,-0.048038333654403687,0.04205749183893204,-0.016409099102020264,-0.0055907308124005795,0.00646570511162281,0.0,-0.021016452461481094,-0.007842863909900188,0.11043013632297516,0.12331578880548477,,,,,,,,,,,,,,,,,,,,,,,,,,,,,,,,,,,,,,,,,,,,,,,,,,,,,,,,,,,,,,,,,,,,,,,,
1696194452.959953,1.0488616228103638,1.8840855360031128,-0.030232546851038933,0.0,0.78541100025177,-1.9038929167436436e-05,0.5186867117881775,0.5189579725265503,1.0488080978393555,1.885144829750061,-0.030404534190893173,0.0,0.7854387164115906,6.538304296554998e-05,-0.5203444361686707,-0.5208895206451416,,,,,,,,,,,,,,,,,,,,,,,,,,,,,,,,,,,,,,,,,,,,,,,,,,,,,,,,,,,,,,,,,,,,,,,,,,,,,,,,,,,,,,,,,,,,,,,,,,,,,,,,,,,,,,,,,,,,,,,,,,,,,,,,,,,,,,-0.0011567204492166638,-0.0006713616312481463,-0.0003176495374646038,0.0,0.008760794065892696,-0.009779540821909904,0.24352020025253296,0.21301624178886414,0.0009121085749939084,0.0016810331726446748,-0.0010577418142929673,0.0,-0.02189108170568943,-0.015608689747750759,-0.38381749391555786,-0.3687824010848999,,,,,,,,,,,,,,,,,,,,,,,,,,,,,,,,,,,,,,,,,,,,,,,,,,,,,,,,,,,,,,,,,,,,,,,,
1696194453.1380508,1.0491888523101807,1.884626030921936,-0.03042234294116497,0.0,0.7854635119438171,-0.00017213622049894184,0.5651696920394897,0.5660400390625,1.0492075681686401,1.8844358921051025,-0.030376875773072243,0.0,0.7854745388031006,-6.280232628341764e-05,-0.5653806328773499,-0.5654948949813843,,,,,,,,,,,,,,,,,,,,,,,,,,,,,,,,,,,,,,,,,,,,,,,,,,,,,,,,,,,,,,,,,,,,,,,,,,,,,,,,,,,,,,,,,,,,,,,,,,,,,,,,,,,,,,,,,,,,,,,,,,,,,,,,,,,,,,0.04556511342525482,0.023954760283231735,-0.01861649565398693,0.0,0.0024465415626764297,-0.03727322816848755,0.48188409209251404,0.4576165974140167,0.049380335956811905,-0.04294714704155922,-0.004532406572252512,0.0,0.004174824338406324,-0.01907683163881302,-0.4382215440273285,-0.427956759929657,,,,,,,,,,,,,,,,,,,,,,,,,,,,,,,,,,,,,,,,,,,,,,,,,,,,,,,,,,,,,,,,,,,,,,,,
1696194453.4833407,1.0493298768997192,1.8832595348358154,-0.030192159116268158,0.0,0.7853538393974304,2.8883690902148373e-05,0.5075525641441345,0.5062738060951233,1.0492756366729736,1.885769248008728,-0.03062041662633419,0.0,0.7852778434753418,-6.352295895339921e-05,-0.5074822902679443,-0.5069223642349243,,,,,,,,,,,,,,,,,,,,,,,,,,,,,,,,,,,,,,,,,,,,,,,,,,,,,,,,,,,,,,,,,,,,,,,,,,,,,,,,,,,,,,,,,,,,,,,,,,,,,,,,,,,,,,,,,,,,,,,,,,,,,,,,,,,,,,-0.009026864543557167,-0.015681570395827293,0.004536019172519445,0.0,-0.010947806760668755,-0.014715778641402721,-0.7088515758514404,-0.8149747252464294,-0.010631836019456387,0.02338598482310772,-0.001459731487557292,0.0,-0.008859972469508648,-0.010598492808640003,0.602009117603302,0.6615039706230164,,,,,,,,,,,,,,,,,,,,,,,,,,,,,,,,,,,,,,,,,,,,,,,,,,,,,,,,,,,,,,,,,,,,,,,,
1696194453.7041173,1.0489819049835205,1.8847895860671997,-0.03038966841995716,0.0,0.7854800224304199,-0.00015167058154474944,0.44235819578170776,0.44146937131881714,1.04899263381958,1.8843650817871094,-0.030307497829198837,0.0,0.7851852178573608,-0.0002443539269734174,-0.44203758239746094,-0.44135305285453796,,,,,,,,,,,,,,,,,,,,,,,,,,,,,,,,,,,,,,,,,,,,,,,,,,,,,,,,,,,,,,,,,,,,,,,,,,,,,,,,,,,,,,,,,,,,,,,,,,,,,,,,,,,,,,,,,,,,,,,,,,,,,,,,,,,,,,-0.004778501112014055,0.043960198760032654,-0.008370902389287949,0.0,0.014450944028794765,-0.029064537957310677,-0.4640358090400696,-0.554792046546936,-0.0018875878304243088,-0.042314451187849045,0.008695149794220924,0.0,-0.030799446627497673,-0.03768954426050186,0.5071212649345398,0.5854484438896179,,,,,,,,,,,,,,,,,,,,,,,,,,,,,,,,,,,,,,,,,,,,,,,,,,,,,,,,,,,,,,,,,,,,,,,,
1696194453.907272,1.0502455234527588,1.8839890956878662,-0.03053761087357998,0.0,0.7854350805282593,4.3577238102443516e-05,0.4419191777706146,0.4428224265575409,1.0502328872680664,1.884633183479309,-0.03064662031829357,0.0,0.7854641675949097,3.1285599106922746e-05,-0.4420948624610901,-0.4424903094768524,,,,,,,,,,,,,,,,,,,,,,,,,,,,,,,,,,,,,,,,,,,,,,,,,,,,,,,,,,,,,,,,,,,,,,,,,,,,,,,,,,,,,,,,,,,,,,,,,,,,,,,,,,,,,,,,,,,,,,,,,,,,,,,,,,,,,,0.007431446108967066,-0.008457441814243793,-6.971465336391702e-05,0.0,0.023970210924744606,-0.014577864669263363,0.4356262981891632,0.4574868381023407,0.005894562229514122,0.00617110263556242,-0.001894202665425837,0.0,-0.02786020189523697,-0.03277651593089104,-0.4230521619319916,-0.41883817315101624,,,,,,,,,,,,,,,,,,,,,,,,,,,,,,,,,,,,,,,,,,,,,,,,,,,,,,,,,,,,,,,,,,,,,,,,
1696194454.184973,1.0486396551132202,1.8838692903518677,-0.030142616480588913,0.0,0.7853883504867554,-4.431300567375729e-06,0.5383512377738953,0.5384619235992432,1.0486067533493042,1.8854403495788574,-0.03040836565196514,0.0,0.7854329943656921,3.0348764994414523e-05,-0.5384172797203064,-0.5385183691978455,,,,,,,,,,,,,,,,,,,,,,,,,,,,,,,,,,,,,,,,,,,,,,,,,,,,,,,,,,,,,,,,,,,,,,,,,,,,,,,,,,,,,,,,,,,,,,,,,,,,,,,,,,,,,,,,,,,,,,,,,,,,,,,,,,,,,,-0.002694344613701105,0.0004807519435416907,0.0006886531482450664,0.0,-0.00010248715261695907,-0.004816349595785141,0.1306237429380417,0.11804390698671341,-0.00283717829734087,0.0015111997490748763,0.0005092807114124298,0.0,-9.633011359255761e-05,0.003745244350284338,-0.12429232895374298,-0.12585406005382538,,,,,,,,,,,,,,,,,,,,,,,,,,,,,,,,,,,,,,,,,,,,,,,,,,,,,,,,,,,,,,,,,,,,,,,,
1696194454.3049204,1.0489070415496826,1.8849111795425415,-0.03040339983999729,0.0,0.78548264503479,-4.340131999924779e-05,0.5739558935165405,0.5749533176422119,1.0489368438720703,1.8842536211013794,-0.030282771214842796,0.0,0.7854434847831726,-6.014284008415416e-05,-0.5743419528007507,-0.5743504166603088,,,,,,,,,,,,,,,,,,,,,,,,,,,,,,,,,,,,,,,,,,,,,,,,,,,,,,,,,,,,,,,,,,,,,,,,,,,,,,,,,,,,,,,,,,,,,,,,,,,,,,,,,,,,,,,,,,,,,,,,,,,,,,,,,,,,,,0.034655626863241196,0.033312179148197174,-0.012875140644609928,0.0,0.004287997726351023,0.04566603899002075,0.3819296956062317,0.482888400554657,0.03663669154047966,-0.050979867577552795,-9.894865797832608e-06,0.0,0.002585049718618393,0.018082164227962494,-0.44832339882850647,-0.4481258988380432,,,,,,,,,,,,,,,,,,,,,,,,,,,,,,,,,,,,,,,,,,,,,,,,,,,,,,,,,,,,,,,,,,,,,,,,
1696194454.622591,1.0503953695297241,1.8835828304290771,-0.0304974764585495,0.0,0.7853911519050598,8.956147939898074e-05,0.5446243286132812,0.5443210005760193,1.050369381904602,1.8849821090698242,-0.030739538371562958,0.0,0.7853502631187439,2.2344487661030143e-05,-0.5445618033409119,-0.5443392395973206,,,,,,,,,,,,,,,,,,,,,,,,,,,,,,,,,,,,,,,,,,,,,,,,,,,,,,,,,,,,,,,,,,,,,,,,,,,,,,,,,,,,,,,,,,,,,,,,,,,,,,,,,,,,,,,,,,,,,,,,,,,,,,,,,,,,,,0.005465833470225334,-0.024007273837924004,0.003900196636095643,0.0,0.005349173676222563,0.024564072489738464,-0.26194408535957336,-0.20637796819210052,0.004613725934177637,0.020929671823978424,-0.005461290944367647,0.0,-0.0035219849087297916,0.02294369973242283,0.23608490824699402,0.1814020872116089,,,,,,,,,,,,,,,,,,,,,,,,,,,,,,,,,,,,,,,,,,,,,,,,,,,,,,,,,,,,,,,,,,,,,,,,
1696194454.915871,1.0484365224838257,1.88397216796875,-0.03011157736182213,0.0,0.7854292392730713,-4.175477442913689e-06,0.44655153155326843,0.4459916055202484,1.048404574394226,1.885422945022583,-0.03035696968436241,0.0,0.7852773666381836,-0.0001038637783494778,-0.4464365243911743,-0.44609978795051575,,,,,,,,,,,,,,,,,,,,,,,,,,,,,,,,,,,,,,,,,,,,,,,,,,,,,,,,,,,,,,,,,,,,,,,,,,,,,,,,,,,,,,,,,,,,,,,,,,,,,,,,,,,,,,,,,,,,,,,,,,,,,,,,,,,,,,-0.01632929965853691,0.013057445175945759,0.0024760719388723373,0.0,0.013805635273456573,0.0013579253572970629,-0.3274666368961334,-0.2838994562625885,-0.016971241682767868,-0.006339445244520903,0.005902206525206566,0.0,-0.01608344167470932,-0.012491465546190739,0.3173190653324127,0.31014811992645264,,,,,,,,,,,,,,,,,,,,,,,,,,,,,,,,,,,,,,,,,,,,,,,,,,,,,,,,,,,,,,,,,,,,,,,,
1696194455.0131562,1.0487650632858276,1.8848321437835693,-0.030336536467075348,0.0,0.7854045629501343,-3.043966444238322e-06,0.42633283138275146,0.4260878562927246,1.0487667322158813,1.8844196796417236,-0.0302676223218441,0.0,0.7853604555130005,-6.818348538217833e-06,-0.42620450258255005,-0.426052451133728,,,,,,,,,,,,,,,,,,,,,,,,,,,,,,,,,,,,,,,,,,,,,,,,,,,,,,,,,,,,,,,,,,,,,,,,,,,,,,,,,,,,,,,,,,,,,,,,,,,,,,,,,,,,,,,,,,,,,,,,,,,,,,,,,,,,,,-0.003521918784826994,0.0021734212059527636,0.001231244532391429,0.0,-0.008958244696259499,0.00693100318312645,-0.1686839759349823,-0.19042499363422394,-0.00491504417732358,0.0018277489580214024,0.001053595682606101,0.0,0.007040614262223244,0.01599934510886669,0.2037549465894699,0.13354718685150146,,,,,,,,,,,,,,,,,,,,,,,,,,,,,,,,,,,,,,,,,,,,,,,,,,,,,,,,,,,,,,,,,,,,,,,,
1696194455.3113332,1.0505845546722412,1.883905053138733,-0.030597098171710968,0.0,0.7853235602378845,0.00013109554129187018,0.44746699929237366,0.4481886625289917,1.050571084022522,1.8845727443695068,-0.030717607587575912,0.0,0.7855885028839111,0.00020077252702321857,-0.44766658544540405,-0.44815394282341003,,,,,,,,,,,,,,,,,,,,,,,,,,,,,,,,,,,,,,,,,,,,,,,,,,,,,,,,,,,,,,,,,,,,,,,,,,,,,,,,,,,,,,,,,,,,,,,,,,,,,,,,,,,,,,,,,,,,,,,,,,,,,,,,,,,,,,0.01312477421015501,-0.04237614572048187,0.005177357234060764,0.0,-0.014469305984675884,0.025861766189336777,0.32997941970825195,0.41808032989501953,0.01120990514755249,0.03683273494243622,-0.01008478831499815,0.0,0.03182452172040939,0.033771466463804245,-0.3740459978580475,-0.44232118129730225,,,,,,,,,,,,,,,,,,,,,,,,,,,,,,,,,,,,,,,,,,,,,,,,,,,,,,,,,,,,,,,,,,,,,,,,
1696194455.589564,1.0491381883621216,1.8829476833343506,-0.0300938431173563,0.0,0.7853654623031616,3.079585439991206e-05,0.5312357544898987,0.531584620475769,1.049072265625,1.8861552476882935,-0.030639145523309708,0.0,0.7854875326156616,7.010732224443927e-05,-0.5312853455543518,-0.5315924882888794,,,,,,,,,,,,,,,,,,,,,,,,,,,,,,,,,,,,,,,,,,,,,,,,,,,,,,,,,,,,,,,,,,,,,,,,,,,,,,,,,,,,,,,,,,,,,,,,,,,,,,,,,,,,,,,,,,,,,,,,,,,,,,,,,,,,,,-0.015992946922779083,0.0038398911710828543,0.004772830288857222,0.0,-0.011357958428561687,0.00686841132119298,0.2446092814207077,0.21088166534900665,-0.017325421795248985,0.0029905939009040594,0.004254166502505541,0.0,0.008488821797072887,0.001594392815604806,-0.2569798529148102,-0.20474250614643097,,,,,,,,,,,,,,,,,,,,,,,,,,,,,,,,,,,,,,,,,,,,,,,,,,,,,,,,,,,,,,,,,,,,,,,,
1696194455.7015104,1.0483845472335815,1.883772373199463,-0.0300879068672657,0.0,0.7854704856872559,-0.00029340371838770807,0.566493570804596,0.5668858289718628,1.0483616590499878,1.885640263557434,-0.03038393147289753,0.0,0.7854238748550415,-0.00016573337779846042,-0.5663398504257202,-0.5664907693862915,,,,,,,,,,,,,,,,,,,,,,,,,,,,,,,,,,,,,,,,,,,,,,,,,,,,,,,,,,,,,,,,,,,,,,,,,,,,,,,,,,,,,,,,,,,,,,,,,,,,,,,,,,,,,,,,,,,,,,,,,,,,,,,,,,,,,,0.007139450870454311,0.07329462468624115,-0.019465243443846703,0.0,0.008741294033825397,-0.058646559715270996,0.46192193031311035,0.4624274969100952,0.013937610201537609,-0.07869075238704681,0.01110062561929226,0.0,0.0004529781290329993,-0.04612909257411957,-0.4201817214488983,-0.38232317566871643,,,,,,,,,,,,,,,,,,,,,,,,,,,,,,,,,,,,,,,,,,,,,,,,,,,,,,,,,,,,,,,,,,,,,,,,
1696194455.8714654,1.050039529800415,1.8850008249282837,-0.03067447990179062,0.0,0.7854068279266357,9.077132563106716e-05,0.5815824270248413,0.5811892747879028,1.0500737428665161,1.8836907148361206,-0.030452677980065346,0.0,0.7853221893310547,-0.0001263043814105913,-0.5817200541496277,-0.5809610486030579,,,,,,,,,,,,,,,,,,,,,,,,,,,,,,,,,,,,,,,,,,,,,,,,,,,,,,,,,,,,,,,,,,,,,,,,,,,,,,,,,,,,,,,,,,,,,,,,,,,,,,,,,,,,,,,,,,,,,,,,,,,,,,,,,,,,,,0.035523079335689545,-0.0313350185751915,-0.0038725549820810556,0.0,-4.0218284993898124e-05,0.015629291534423828,-0.4298015236854553,-0.4805227816104889,0.03508535400032997,0.014663306064903736,-0.01172485202550888,0.0,-0.011603927239775658,-0.03321681544184685,0.40656334161758423,0.5206534266471863,,,,,,,,,,,,,,,,,,,,,,,,,,,,,,,,,,,,,,,,,,,,,,,,,,,,,,,,,,,,,,,,,,,,,,,,
1696194456.146126,1.050309181213379,1.882448434829712,-0.030283715575933456,0.0,0.7853804230690002,-3.7232483009574935e-05,0.5061199069023132,0.5057685375213623,1.0502041578292847,1.8862179517745972,-0.030913643538951874,0.0,0.7853645086288452,-8.415846241405234e-05,-0.5044414401054382,-0.5040428638458252,,,,,,,,,,,,,,,,,,,,,,,,,,,,,,,,,,,,,,,,,,,,,,,,,,,,,,,,,,,,,,,,,,,,,,,,,,,,,,,,,,,,,,,,,,,,,,,,,,,,,,,,,,,,,,,,,,,,,,,,,,,,,,,,,,,,,,-0.00045392371248453856,-0.001362824346870184,-0.0008529379847459495,0.0,-0.002460600808262825,-0.02744850516319275,-0.19761280715465546,-0.18821434676647186,0.000768530007917434,-0.0006503240438178182,7.713646482443437e-06,0.0,0.015987835824489594,-0.0169761274009943,0.35483285784721375,0.36334946751594543,,,,,,,,,,,,,,,,,,,,,,,,,,,,,,,,,,,,,,,,,,,,,,,,,,,,,,,,,,,,,,,,,,,,,,,,
1696194456.362367,1.0486940145492554,1.8829227685928345,-0.029992105439305305,0.0,0.7853706479072571,6.714412393193925e-06,0.4454349875450134,0.4450662136077881,1.0486304759979248,1.886367917060852,-0.030576014891266823,0.0,0.7853876352310181,2.211899118265137e-05,-0.44537124037742615,-0.44521865248680115,,,,,,,,,,,,,,,,,,,,,,,,,,,,,,,,,,,,,,,,,,,,,,,,,,,,,,,,,,,,,,,,,,,,,,,,,,,,,,,,,,,,,,,,,,,,,,,,,,,,,,,,,,,,,,,,,,,,,,,,,,,,,,,,,,,,,,7.214754441520199e-05,-0.00517622334882617,0.0005514647928066552,0.0,-0.014115115627646446,0.010377166792750359,-0.2436085045337677,-0.207733154296875,0.0011835750192403793,0.004915500991046429,-0.0018190214177593589,0.0,0.024114085361361504,0.032869189977645874,0.235378235578537,0.19878624379634857,,,,,,,,,,,,,,,,,,,,,,,,,,,,,,,,,,,,,,,,,,,,,,,,,,,,,,,,,,,,,,,,,,,,,,,,
1696194456.472933,1.048217535018921,1.8847365379333496,-0.03021865151822567,0.0,0.7854760885238647,-0.00013940829376224428,0.41291794180870056,0.4128798842430115,1.0482374429702759,1.8847256898880005,-0.030202535912394524,0.0,0.785315752029419,-0.0002066932647721842,-0.4130181670188904,-0.41243648529052734,,,,,,,,,,,,,,,,,,,,,,,,,,,,,,,,,,,,,,,,,,,,,,,,,,,,,,,,,,,,,,,,,,,,,,,,,,,,,,,,,,,,,,,,,,,,,,,,,,,,,,,,,,,,,,,,,,,,,,,,,,,,,,,,,,,,,,0.03240503743290901,0.04244420304894447,-0.017192745581269264,0.0,0.006143167149275541,0.007152937818318605,-0.15279796719551086,-0.1133851557970047,0.03704160451889038,-0.05948091298341751,0.0012167325476184487,0.0,-0.0036621212493628263,-0.012039920315146446,0.11868254840373993,0.17646044492721558,,,,,,,,,,,,,,,,,,,,,,,,,,,,,,,,,,,,,,,,,,,,,,,,,,,,,,,,,,,,,,,,,,,,,,,,
1696194456.6284895,1.0502151250839233,1.8850854635238647,-0.030723486095666885,0.0,0.785443902015686,4.550513767753728e-05,0.4211736023426056,0.42212367057800293,1.0502501726150513,1.8835415840148926,-0.03046208806335926,0.0,0.7854568362236023,9.139335816144012e-06,-0.42151588201522827,-0.42183202505111694,,,,,,,,,,,,,,,,,,,,,,,,,,,,,,,,,,,,,,,,,,,,,,,,,,,,,,,,,,,,,,,,,,,,,,,,,,,,,,,,,,,,,,,,,,,,,,,,,,,,,,,,,,,,,,,,,,,,,,,,,,,,,,,,,,,,,,0.010650024749338627,-0.005334988236427307,-0.0010812535183504224,0.0,0.025316700339317322,-0.013332918286323547,0.4254893362522125,0.4494682848453522,0.008884185925126076,0.0018430995987728238,-0.0017660903977230191,0.0,-0.030964698642492294,-0.036793045699596405,-0.41517916321754456,-0.40731894969940186,,,,,,,,,,,,,,,,,,,,,,,,,,,,,,,,,,,,,,,,,,,,,,,,,,,,,,,,,,,,,,,,,,,,,,,,
1696194456.908063,1.0507893562316895,1.882461428642273,-0.030401106923818588,0.0,0.7854312062263489,-6.825071614002809e-05,0.4890232980251312,0.4894627332687378,1.0507237911224365,1.8859492540359497,-0.0309876911342144,0.0,0.7854294776916504,1.8584645658847876e-05,-0.48898088932037354,-0.4894655644893646,,,,,,,,,,,,,,,,,,,,,,,,,,,,,,,,,,,,,,,,,,,,,,,,,,,,,,,,,,,,,,,,,,,,,,,,,,,,,,,,,,,,,,,,,,,,,,,,,,,,,,,,,,,,,,,,,,,,,,,,,,,,,,,,,,,,,,-0.00025584205286577344,0.001969250151887536,-0.0036330679431557655,0.0,0.02249334566295147,-0.039950791746377945,0.40987449884414673,0.35795801877975464,0.0017425244441255927,-0.0011499545071274042,-0.00020975194638594985,0.0,-0.029781093820929527,-0.041243474930524826,-0.362579882144928,-0.32520660758018494,,,,,,,,,,,,,,,,,,,,,,,,,,,,,,,,,,,,,,,,,,,,,,,,,,,,,,,,,,,,,,,,,,,,,,,,
1696194457.1221294,1.0484209060668945,1.882737398147583,-0.029890313744544983,0.0,0.7853959798812866,-9.830018098000437e-05,0.5614345073699951,0.5620905756950378,1.0483382940292358,1.8866782188415527,-0.03055541403591633,0.0,0.7855077981948853,0.00014034990454092622,-0.5613582730293274,-0.5622692108154297,,,,,,,,,,,,,,,,,,,,,,,,,,,,,,,,,,,,,,,,,,,,,,,,,,,,,,,,,,,,,,,,,,,,,,,,,,,,,,,,,,,,,,,,,,,,,,,,,,,,,,,,,,,,,,,,,,,,,,,,,,,,,,,,,,,,,,-0.033398158848285675,0.03502281382679939,0.002511606551706791,0.0,0.0009122164337895811,-0.013515682891011238,0.6178319454193115,0.6775532364845276,-0.03253817558288574,-0.020004862919449806,0.012108263559639454,0.0,0.011582041159272194,0.03162736818194389,-0.6017860770225525,-0.711314857006073,,,,,,,,,,,,,,,,,,,,,,,,,,,,,,,,,,,,,,,,,,,,,,,,,,,,,,,,,,,,,,,,,,,,,,,,
1696194457.3393667,1.047790765762329,1.8849421739578247,-0.030165815725922585,0.0,0.785523533821106,-0.00039797183126211166,0.5959275960922241,0.5961247682571411,1.047885775566101,1.8845162391662598,-0.030081341043114662,0.0,0.7853016257286072,-0.0004333386605139822,-0.5960605144500732,-0.5956984758377075,,,,,,,,,,,,,,,,,,,,,,,,,,,,,,,,,,,,,,,,,,,,,,,,,,,,,,,,,,,,,,,,,,,,,,,,,,,,,,,,,,,,,,,,,,,,,,,,,,,,,,,,,,,,,,,,,,,,,,,,,,,,,,,,,,,,,,0.029315132647752762,0.09708528965711594,-0.029107825830578804,0.0,0.024558287113904953,-0.07376525551080704,0.2981528639793396,0.32993316650390625,0.051320645958185196,-0.15084253251552582,0.01434287428855896,0.0,-0.022974291816353798,-0.0864451602101326,-0.3389977514743805,-0.24513590335845947,,,,,,,,,,,,,,,,,,,,,,,,,,,,,,,,,,,,,,,,,,,,,,,,,,,,,,,,,,,,,,,,,,,,,,,,
1696194457.5781748,1.049417495727539,1.8862255811691284,-0.030734727159142494,0.0,0.7854007482528687,2.6478592189960182e-05,0.5971683263778687,0.5971547961235046,1.0493360757827759,1.882757544517517,-0.030115965753793716,0.0,0.7853298783302307,-0.0001844294456532225,-0.5991060733795166,-0.5982261896133423,,,,,,,,,,,,,,,,,,,,,,,,,,,,,,,,,,,,,,,,,,,,,,,,,,,,,,,,,,,,,,,,,,,,,,,,,,,,,,,,,,,,,,,,,,,,,,,,,,,,,,,,,,,,,,,,,,,,,,,,,,,,,,,,,,,,,,-0.0027271034196019173,0.009475423954427242,0.0007087916601449251,0.0,-0.0036923999432474375,0.0113151166588068,-0.10109511762857437,-0.07537120580673218,0.01540494617074728,-0.008259999565780163,-0.0010086477268487215,0.0,-0.00149949686601758,-0.03029625490307808,0.3770916163921356,0.45085686445236206,,,,,,,,,,,,,,,,,,,,,,,,,,,,,,,,,,,,,,,,,,,,,,,,,,,,,,,,,,,,,,,,,,,,,,,,
1696194457.788206,1.051366925239563,1.883909821510315,-0.0307871513068676,0.0,0.7853714823722839,-7.368757360382006e-05,0.549251139163971,0.5486802458763123,1.0514646768569946,1.8848888874053955,-0.030979396775364876,0.0,0.785358190536499,4.6301476686494425e-05,-0.5379597544670105,-0.5377224087715149,,,,,,,,,,,,,,,,,,,,,,,,,,,,,,,,,,,,,,,,,,,,,,,,,,,,,,,,,,,,,,,,,,,,,,,,,,,,,,,,,,,,,,,,,,,,,,,,,,,,,,,,,,,,,,,,,,,,,,,,,,,,,,,,,,,,,,-0.0005306156817823648,0.009803472086787224,-0.00383893889375031,0.0,-0.0012966057984158397,-0.05104673653841019,-0.28767210245132446,-0.30523502826690674,0.0051476843655109406,0.028681620955467224,-0.007134265266358852,0.0,-0.0012507177889347076,0.03175002336502075,0.2672474980354309,0.20536260306835175,,,,,,,,,,,,,,,,,,,,,,,,,,,,,,,,,,,,,,,,,,,,,,,,,,,,,,,,,,,,,,,,,,,,,,,,
1696194457.9688728,1.0500329732894897,1.8817766904830933,-0.030106302350759506,0.0,0.7853443622589111,-7.561298116343096e-05,0.4774281978607178,0.47667789459228516,1.049647331237793,1.887115716934204,-0.03093731217086315,0.0,0.785254716873169,-3.8322228647302836e-05,-0.4722888767719269,-0.4718506634235382,,,,,,,,,,,,,,,,,,,,,,,,,,,,,,,,,,,,,,,,,,,,,,,,,,,,,,,,,,,,,,,,,,,,,,,,,,,,,,,,,,,,,,,,,,,,,,,,,,,,,,,,,,,,,,,,,,,,,,,,,,,,,,,,,,,,,,0.0022259980905801058,-0.006527220830321312,-0.0028522610664367676,0.0,-0.012292818166315556,-0.0376470647752285,-0.3454477787017822,-0.3197247385978699,-0.03465338423848152,0.021718468517065048,0.005153181962668896,0.0,-0.0068492768332362175,0.0021027696784585714,0.6755831837654114,0.7053697109222412,,,,,,,,,,,,,,,,,,,,,,,,,,,,,,,,,,,,,,,,,,,,,,,,,,,,,,,,,,,,,,,,,,,,,,,,
1696194458.1148927,1.04869544506073,1.8820216655731201,-0.029834970831871033,0.0,0.7853211760520935,7.7907505328767e-05,0.4405640959739685,0.4399908483028412,1.0485152006149292,1.887128472328186,-0.030683647841215134,0.0,0.7853997349739075,6.921898602740839e-05,-0.4391336143016815,-0.43903014063835144,,,,,,,,,,,,,,,,,,,,,,,,,,,,,,,,,,,,,,,,,,,,,,,,,,,,,,,,,,,,,,,,,,,,,,,,,,,,,,,,,,,,,,,,,,,,,,,,,,,,,,,,,,,,,,,,,,,,,,,,,,,,,,,,,,,,,,0.007421132177114487,-0.027040032669901848,0.003259455319494009,0.0,-0.04115135595202446,0.06263280659914017,-0.3991699814796448,-0.3060397505760193,0.0024937454145401716,0.011616555973887444,-0.004100956954061985,0.0,0.032049380242824554,0.05405170097947121,0.243797168135643,0.19419942796230316,,,,,,,,,,,,,,,,,,,,,,,,,,,,,,,,,,,,,,,,,,,,,,,,,,,,,,,,,,,,,,,,,,,,,,,,
1696194458.2264342,1.0477638244628906,1.8848111629486084,-0.030121905729174614,0.0,0.78547602891922,-8.090838673524559e-05,0.40807464718818665,0.4081896245479584,1.048261046409607,1.8836615085601807,-0.030020028352737427,0.0,0.7853308916091919,-0.00016501244681421667,-0.403972864151001,-0.40373870730400085,,,,,,,,,,,,,,,,,,,,,,,,,,,,,,,,,,,,,,,,,,,,,,,,,,,,,,,,,,,,,,,,,,,,,,,,,,,,,,,,,,,,,,,,,,,,,,,,,,,,,,,,,,,,,,,,,,,,,,,,,,,,,,,,,,,,,,0.026392439380288124,0.043187450617551804,-0.012511007487773895,0.0,-0.005188148468732834,0.04398517310619354,-0.15123476088047028,-0.09138735383749008,0.018459511920809746,-0.040641047060489655,0.003002757439389825,0.0,-0.009114653803408146,-0.04208030179142952,0.09258638322353363,0.10907187312841415,,,,,,,,,,,,,,,,,,,,,,,,,,,,,,,,,,,,,,,,,,,,,,,,,,,,,,,,,,,,,,,,,,,,,,,,
1696194458.3268518,1.0496801137924194,1.8861340284347534,-0.030778151005506516,0.0,0.7854745984077454,4.4587955926544964e-05,0.41061609983444214,0.4111320674419403,1.050191879272461,1.882633924484253,-0.030286645516753197,0.0,0.7853648662567139,-7.969354192027822e-05,-0.41492849588394165,-0.414870023727417,,,,,,,,,,,,,,,,,,,,,,,,,,,,,,,,,,,,,,,,,,,,,,,,,,,,,,,,,,,,,,,,,,,,,,,,,,,,,,,,,,,,,,,,,,,,,,,,,,,,,,,,,,,,,,,,,,,,,,,,,,,,,,,,,,,,,,-0.008938824757933617,0.02234160713851452,0.002066052984446287,0.0,0.02432822622358799,0.008886702358722687,0.15909656882286072,0.10716212540864944,-0.010623098351061344,-0.017948847264051437,0.008613863959908485,0.0,-0.04118100553750992,-0.03338581696152687,-0.1999584138393402,-0.154503732919693,,,,,,,,,,,,,,,,,,,,,,,,,,,,,,,,,,,,,,,,,,,,,,,,,,,,,,,,,,,,,,,,,,,,,,,,
1696194458.502537,1.0515581369400024,1.8844785690307617,-0.030932147055864334,0.0,0.7854489684104919,-8.301246998598799e-05,0.44394606351852417,0.4444100856781006,1.0516120195388794,1.8836956024169922,-0.030803561210632324,0.0,0.7853997945785522,-4.057506885146722e-05,-0.445852130651474,-0.44596537947654724,,,,,,,,,,,,,,,,,,,,,,,,,,,,,,,,,,,,,,,,,,,,,,,,,,,,,,,,,,,,,,,,,,,,,,,,,,,,,,,,,,,,,,,,,,,,,,,,,,,,,,,,,,,,,,,,,,,,,,,,,,,,,,,,,,,,,,-4.032029028167017e-05,0.014068108052015305,-0.0050344145856797695,0.0,0.029065849259495735,-0.05612504482269287,0.36961665749549866,0.30410122871398926,0.0020484747365117073,-0.003961300011724234,0.0009079512092284858,0.0,-0.026225704699754715,-0.04285530373454094,-0.1642797291278839,-0.1250678151845932,,,,,,,,,,,,,,,,,,,,,,,,,,,,,,,,,,,,,,,,,,,,,,,,,,,,,,,,,,,,,,,,,,,,,,,,
1696194458.678809,1.0507526397705078,1.8814853429794312,-0.030201680958271027,0.0,0.7853103876113892,0.00014015847409609705,0.5082873702049255,0.5089504718780518,1.050553560256958,1.8870480060577393,-0.031140221282839775,0.0,0.7855124473571777,0.00013797261635772884,-0.5117465853691101,-0.5121607184410095,,,,,,,,,,,,,,,,,,,,,,,,,,,,,,,,,,,,,,,,,,,,,,,,,,,,,,,,,,,,,,,,,,,,,,,,,,,,,,,,,,,,,,,,,,,,,,,,,,,,,,,,,,,,,,,,,,,,,,,,,,,,,,,,,,,,,,-0.031946804374456406,-0.02190111018717289,0.015728436410427094,0.0,-0.0163570549339056,0.022411208599805832,0.4176177680492401,0.48262324929237366,-0.020704373717308044,0.021012570708990097,0.0015389216132462025,0.0,0.013075705617666245,0.019130868837237358,-0.28247466683387756,-0.2459021359682083,,,,,,,,,,,,,,,,,,,,,,,,,,,,,,,,,,,,,,,,,,,,,,,,,,,,,,,,,,,,,,,,,,,,,,,,
1696194458.8025568,1.04862380027771,1.8817493915557861,-0.029762452468276024,0.0,0.7853842973709106,-0.00010320880392100662,0.5538190603256226,0.554232120513916,1.048378586769104,1.8876343965530396,-0.03073958493769169,0.0,0.7854567766189575,0.00012327740842010826,-0.5583016276359558,-0.5587059855461121,,,,,,,,,,,,,,,,,,,,,,,,,,,,,,,,,,,,,,,,,,,,,,,,,,,,,,,,,,,,,,,,,,,,,,,,,,,,,,,,,,,,,,,,,,,,,,,,,,,,,,,,,,,,,,,,,,,,,,,,,,,,,,,,,,,,,,-0.05329631641507149,0.054639898240566254,0.005517127923667431,0.0,-0.004728318657726049,-0.02758607268333435,0.4811578094959259,0.498522013425827,0.0016354655381292105,0.009681216441094875,-0.003039752831682563,0.0,0.0027909576892852783,0.028428032994270325,-0.24413558840751648,-0.2582241892814636,,,,,,,,,,,,,,,,,,,,,,,,,,,,,,,,,,,,,,,,,,,,,,,,,,,,,,,,,,,,,,,,,,,,,,,,
1696194458.910902,1.0471217632293701,1.8837436437606812,-0.02978736162185669,0.0,0.785480260848999,-0.00030356645584106445,0.5850560069084167,0.5851402878761292,1.0470192432403564,1.8861116170883179,-0.030161909759044647,0.0,0.7854486107826233,0.00012208738189656287,-0.5875680446624756,-0.587833046913147,,,,,,,,,,,,,,,,,,,,,,,,,,,,,,,,,,,,,,,,,,,,,,,,,,,,,,,,,,,,,,,,,,,,,,,,,,,,,,,,,,,,,,,,,,,,,,,,,,,,,,,,,,,,,,,,,,,,,,,,,,,,,,,,,,,,,,-0.014534487389028072,0.08784286677837372,-0.015505091287195683,0.0,0.011473722755908966,-0.06123560294508934,0.3343251347541809,0.2993699014186859,-0.0023619176354259253,0.005268019624054432,-0.0014167301123961806,0.0,0.015813924372196198,0.05249318480491638,-0.17323234677314758,-0.20382186770439148,,,,,,,,,,,,,,,,,,,,,,,,,,,,,,,,,,,,,,,,,,,,,,,,,,,,,,,,,,,,,,,,,,,,,,,,
1696194459.0551722,1.047223448753357,1.8865638971328735,-0.03027954138815403,0.0,0.785393238067627,0.0001361807226203382,0.6025534868240356,0.6027430295944214,1.0476243495941162,1.8829046487808228,-0.029743431136012077,0.0,0.7853962182998657,6.163895250210771e-06,-0.6022799611091614,-0.6019979119300842,,,,,,,,,,,,,,,,,,,,,,,,,,,,,,,,,,,,,,,,,,,,,,,,,,,,,,,,,,,,,,,,,,,,,,,,,,,,,,,,,,,,,,,,,,,,,,,,,,,,,,,,,,,,,,,,,,,,,,,,,,,,,,,,,,,,,,-0.0071238321252167225,0.005320260301232338,0.007951774634420872,0.0,-0.018077930435538292,0.06524485349655151,-0.126552015542984,-0.07292379438877106,-0.010466487146914005,-0.0032860131468623877,0.0042917621321976185,0.0,0.013910205103456974,0.04156263917684555,0.07096142321825027,0.04241226240992546,,,,,,,,,,,,,,,,,,,,,,,,,,,,,,,,,,,,,,,,,,,,,,,,,,,,,,,,,,,,,,,,,,,,,,,,
1696194459.1764593,1.0498915910720825,1.8867146968841553,-0.030936310067772865,0.0,0.7853939533233643,6.449110514950007e-05,0.5857019424438477,0.5853433609008789,1.0500246286392212,1.882025122642517,-0.03014935925602913,0.0,0.7853857278823853,6.412368384189904e-05,-0.5859472155570984,-0.5856791734695435,,,,,,,,,,,,,,,,,,,,,,,,,,,,,,,,,,,,,,,,,,,,,,,,,,,,,,,,,,,,,,,,,,,,,,,,,,,,,,,,,,,,,,,,,,,,,,,,,,,,,,,,,,,,,,,,,,,,,,,,,,,,,,,,,,,,,,0.01778087206184864,-0.005579770542681217,-0.002059156773611903,0.0,-0.0012952962424606085,-0.005354402586817741,-0.4195564389228821,-0.4280368685722351,0.03691991791129112,0.01449159998446703,-0.011985311284661293,0.0,0.0076370141468942165,0.0492149293422699,0.18315882980823517,0.11759389191865921,,,,,,,,,,,,,,,,,,,,,,,,,,,,,,,,,,,,,,,,,,,,,,,,,,,,,,,,,,,,,,,,,,,,,,,,
1696194459.3747122,1.0518022775650024,1.8838640451431274,-0.030872657895088196,0.0,0.7853703498840332,0.0001560740201966837,0.5420215129852295,0.5417719483375549,1.0518263578414917,1.8843330144882202,-0.030962707474827766,0.0,0.785354495048523,-0.00015991715190466493,-0.5373871326446533,-0.5368512868881226,,,,,,,,,,,,,,,,,,,,,,,,,,,,,,,,,,,,,,,,,,,,,,,,,,,,,,,,,,,,,,,,,,,,,,,,,,,,,,,,,,,,,,,,,,,,,,,,,,,,,,,,,,,,,,,,,,,,,,,,,,,,,,,,,,,,,,0.00887866597622633,-0.0398297980427742,0.006839680019766092,0.0,0.0016406024806201458,0.04317428544163704,-0.2924652695655823,-0.2174357771873474,-7.005437510088086e-05,-0.010373746044933796,0.0034421568270772696,0.0,0.0025318360421806574,-0.04986703395843506,0.33063772320747375,0.37199297547340393,,,,,,,,,,,,,,,,,,,,,,,,,,,,,,,,,,,,,,,,,,,,,,,,,,,,,,,,,,,,,,,,,,,,,,,,
1696194459.5831733,1.0508652925491333,1.8809233903884888,-0.030144546180963516,0.0,0.785332202911377,-4.129849185119383e-05,0.48533761501312256,0.4841773509979248,1.051270842552185,1.886771321296692,-0.03125978633761406,0.0,0.7853844165802002,-7.246522000059485e-05,-0.4965423047542572,-0.4962598383426666,,,,,,,,,,,,,,,,,,,,,,,,,,,,,,,,,,,,,,,,,,,,,,,,,,,,,,,,,,,,,,,,,,,,,,,,,,,,,,,,,,,,,,,,,,,,,,,,,,,,,,,,,,,,,,,,,,,,,,,,,,,,,,,,,,,,,,-0.014956454746425152,-0.013595661148428917,0.003276033792644739,0.0,-0.00941410567611456,-0.04723194241523743,-0.503504753112793,-0.5679921507835388,0.005428912118077278,0.0016277803806588054,-0.0018035080283880234,0.0,0.02057337947189808,-0.016080114990472794,0.27008309960365295,0.24508695304393768,,,,,,,,,,,,,,,,,,,,,,,,,,,,,,,,,,,,,,,,,,,,,,,,,,,,,,,,,,,,,,,,,,,,,,,,
1696194459.7247837,1.0496535301208496,1.8803526163101196,-0.029773687943816185,0.0,0.7853915095329285,3.8174137444002554e-05,0.4581800103187561,0.4577468931674957,1.0490562915802002,1.8885632753372192,-0.031058523803949356,0.0,0.7854057550430298,4.871103374171071e-05,-0.4517839550971985,-0.4517228901386261,,,,,,,,,,,,,,,,,,,,,,,,,,,,,,,,,,,,,,,,,,,,,,,,,,,,,,,,,,,,,,,,,,,,,,,,,,,,,,,,,,,,,,,,,,,,,,,,,,,,,,,,,,,,,,,,,,,,,,,,,,,,,,,,,,,,,,-0.0027477010153234005,-0.00991896539926529,0.0005875760107301176,0.0,0.01097027212381363,0.02316400595009327,-0.25188693404197693,-0.08147269487380981,0.003651665523648262,0.011360559612512589,-0.0037636186461895704,0.0,0.027624765411019325,0.033674534410238266,0.2149806171655655,0.1728370040655136,,,,,,,,,,,,,,,,,,,,,,,,,,,,,,,,,,,,,,,,,,,,,,,,,,,,,,,,,,,,,,,,,,,,,,,,
1696194459.8827438,1.0463353395462036,1.8831301927566528,-0.02948991395533085,0.0,0.7854368090629578,-0.0001815684954635799,0.4090059697628021,0.40803638100624084,1.0460306406021118,1.8866857290267944,-0.0300265084952116,0.0,0.7852345705032349,-0.00016947285621427,-0.40477967262268066,-0.4043813645839691,,,,,,,,,,,,,,,,,,,,,,,,,,,,,,,,,,,,,,,,,,,,,,,,,,,,,,,,,,,,,,,,,,,,,,,,,,,,,,,,,,,,,,,,,,,,,,,,,,,,,,,,,,,,,,,,,,,,,,,,,,,,,,,,,,,,,,-0.019901752471923828,0.05991498753428459,-0.005432228557765484,0.0,-0.015767013654112816,0.023068981245160103,-0.4245883822441101,-0.4651210308074951,-0.020158451050519943,-0.06707921624183655,0.01734294556081295,0.0,-0.0014213332906365395,0.01468196976929903,0.34440723061561584,0.37217268347740173,,,,,,,,,,,,,,,,,,,,,,,,,,,,,,,,,,,,,,,,,,,,,,,,,,,,,,,,,,,,,,,,,,,,,,,,
1696194460.0421355,1.0459803342819214,1.8862354755401611,-0.029958339408040047,0.0,0.7854604125022888,-0.00023198776762001216,0.39103421568870544,0.3908737599849701,1.0461739301681519,1.883802056312561,-0.029566626995801926,0.0,0.7853120565414429,-0.0002587006601970643,-0.3907696008682251,-0.39039677381515503,,,,,,,,,,,,,,,,,,,,,,,,,,,,,,,,,,,,,,,,,,,,,,,,,,,,,,,,,,,,,,,,,,,,,,,,,,,,,,,,,,,,,,,,,,,,,,,,,,,,,,,,,,,,,,,,,,,,,,,,,,,,,,,,,,,,,,0.011403503827750683,0.0407068096101284,-0.014352826401591301,0.0,0.009837323799729347,-0.06526000052690506,0.027433186769485474,-0.03707881271839142,0.032791655510663986,-0.07994306087493896,0.006228718440979719,0.0,-0.012197960168123245,-0.0505259670317173,-0.011832686141133308,0.05811811611056328,,,,,,,,,,,,,,,,,,,,,,,,,,,,,,,,,,,,,,,,,,,,,,,,,,,,,,,,,,,,,,,,,,,,,,,,
1696194460.1624205,1.048018455505371,1.887743353843689,-0.030690152198076248,0.0,0.7854042649269104,-0.00010156254575122148,0.39650145173072815,0.39673036336898804,1.047682762145996,1.8820215463638306,-0.029610561206936836,0.0,0.7854442596435547,1.4412444215849973e-06,-0.3940097689628601,-0.39401668310165405,,,,,,,,,,,,,,,,,,,,,,,,,,,,,,,,,,,,,,,,,,,,,,,,,,,,,,,,,,,,,,,,,,,,,,,,,,,,,,,,,,,,,,,,,,,,,,,,,,,,,,,,,,,,,,,,,,,,,,,,,,,,,,,,,,,,,,0.03644545003771782,-0.004582568537443876,-0.01159656886011362,0.0,-0.006770612671971321,-0.028959862887859344,0.12956468760967255,0.06715206801891327,0.037728216499090195,-0.010576857253909111,-0.00876553449779749,0.0,0.010423335246741772,-0.001516446121968329,-0.05990401282906532,-0.06930817663669586,,,,,,,,,,,,,,,,,,,,,,,,,,,,,,,,,,,,,,,,,,,,,,,,,,,,,,,,,,,,,,,,,,,,,,,,
1696194460.2768989,1.0504138469696045,1.8867393732070923,-0.031062006950378418,0.0,0.7854242324829102,7.065294630592689e-05,0.41787049174308777,0.4189964532852173,1.0505706071853638,1.8817369937896729,-0.030224815011024475,0.0,0.7853775024414062,-8.449541928712279e-05,-0.418940007686615,-0.41891902685165405,,,,,,,,,,,,,,,,,,,,,,,,,,,,,,,,,,,,,,,,,,,,,,,,,,,,,,,,,,,,,,,,,,,,,,,,,,,,,,,,,,,,,,,,,,,,,,,,,,,,,,,,,,,,,,,,,,,,,,,,,,,,,,,,,,,,,,0.018713606521487236,-0.009152412414550781,-0.0018704913090914488,0.0,0.019500602036714554,-0.01926971785724163,0.4805455505847931,0.5167503952980042,-5.281942867441103e-05,-0.010983679443597794,0.0031380916479974985,0.0,-0.03258590027689934,-0.05115111172199249,-0.14790891110897064,-0.096860870718956,,,,,,,,,,,,,,,,,,,,,,,,,,,,,,,,,,,,,,,,,,,,,,,,,,,,,,,,,,,,,,,,,,,,,,,,
1696194460.418449,1.0521904230117798,1.8841215372085571,-0.03101649321615696,0.0,0.7854211926460266,-6.079283411963843e-05,0.4530300498008728,0.4532924294471741,1.052299976348877,1.8841370344161987,-0.03104267828166485,0.0,0.7854074835777283,-4.6692759497091174e-05,-0.45916351675987244,-0.45929887890815735,,,,,,,,,,,,,,,,,,,,,,,,,,,,,,,,,,,,,,,,,,,,,,,,,,,,,,,,,,,,,,,,,,,,,,,,,,,,,,,,,,,,,,,,,,,,,,,,,,,,,,,,,,,,,,,,,,,,,,,,,,,,,,,,,,,,,,0.003713844809681177,0.0036331764422357082,-0.003144688904285431,0.0,0.020304115489125252,-0.04569883644580841,0.23756107687950134,0.19169370830059052,0.0026777861639857292,-0.0014996366808190942,0.0005317445029504597,0.0,-0.029580073431134224,-0.05402880162000656,-0.20219328999519348,-0.1558387279510498,,,,,,,,,,,,,,,,,,,,,,,,,,,,,,,,,,,,,,,,,,,,,,,,,,,,,,,,,,,,,,,,,,,,,,,,
1696194460.5585659,1.0516854524612427,1.8807909488677979,-0.03030451387166977,0.0,0.7853293418884277,6.683043466182426e-05,0.5001081228256226,0.5010684728622437,1.051476240158081,1.887407898902893,-0.0314185805618763,0.0,0.7855120897293091,0.00015316072676796466,-0.5030211210250854,-0.5039898753166199,,,,,,,,,,,,,,,,,,,,,,,,,,,,,,,,,,,,,,,,,,,,,,,,,,,,,,,,,,,,,,,,,,,,,,,,,,,,,,,,,,,,,,,,,,,,,,,,,,,,,,,,,,,,,,,,,,,,,,,,,,,,,,,,,,,,,,-0.03207184746861458,-0.03580281883478165,0.011633097194135189,0.0,0.009745736606419086,-0.03351008892059326,0.8220969438552856,0.8649648427963257,-0.013732432387769222,0.028500309213995934,-0.0015729161677882075,0.0,-0.024128446355462074,-0.03515348583459854,-0.5672940015792847,-0.5950467586517334,,,,,,,,,,,,,,,,,,,,,,,,,,,,,,,,,,,,,,,,,,,,,,,,,,,,,,,,,,,,,,,,,,,,,,,,
1696194460.6542618,1.049827218055725,1.8799588680267334,-0.029753604903817177,0.0,0.7854092121124268,-2.0497158402577043e-05,0.5339562296867371,0.5344176292419434,1.0494474172592163,1.8889343738555908,-0.031209902837872505,0.0,0.7854942083358765,0.00010052352445200086,-0.5353807210922241,-0.5356380343437195,,,,,,,,,,,,,,,,,,,,,,,,,,,,,,,,,,,,,,,,,,,,,,,,,,,,,,,,,,,,,,,,,,,,,,,,,,,,,,,,,,,,,,,,,,,,,,,,,,,,,,,,,,,,,,,,,,,,,,,,,,,,,,,,,,,,,,0.005880891811102629,-0.021341297775506973,-0.0033603087067604065,0.0,0.012919824570417404,-0.005552828777581453,0.46133488416671753,0.3675675690174103,-0.039350539445877075,0.013581691309809685,0.009513027034699917,0.0,0.006527771707624197,0.01643429510295391,-0.23240303993225098,-0.1674405187368393,,,,,,,,,,,,,,,,,,,,,,,,,,,,,,,,,,,,,,,,,,,,,,,,,,,,,,,,,,,,,,,,,,,,,,,,
1696194460.8262665,1.0475552082061768,1.8799985647201538,-0.029221851378679276,0.0,0.7854349613189697,-0.00018596347945276648,0.5686644315719604,0.5688197612762451,1.047197699546814,1.8897451162338257,-0.030840229243040085,0.0,0.7854798436164856,0.00022624280245508999,-0.5722996592521667,-0.5728923082351685,,,,,,,,,,,,,,,,,,,,,,,,,,,,,,,,,,,,,,,,,,,,,,,,,,,,,,,,,,,,,,,,,,,,,,,,,,,,,,,,,,,,,,,,,,,,,,,,,,,,,,,,,,,,,,,,,,,,,,,,,,,,,,,,,,,,,,-0.05030703544616699,0.07251456379890442,0.00010885813389904797,0.0,0.0073448228649795055,-0.044472165405750275,0.3686608076095581,0.3537123501300812,0.008059317246079445,0.022969774901866913,-0.008326049894094467,0.0,0.02097826451063156,0.06977658718824387,-0.2676874101161957,-0.3112095892429352,,,,,,,,,,,,,,,,,,,,,,,,,,,,,,,,,,,,,,,,,,,,,,,,,,,,,,,,,,,,,,,,,,,,,,,,
1696194460.9564323,1.0453753471374512,1.883284091949463,-0.029309788718819618,0.0,0.7854886054992676,-0.00030960814910940826,0.5993966460227966,0.5993274450302124,1.0452630519866943,1.887258768081665,-0.029954999685287476,0.0,0.7853437066078186,-0.0001576790091348812,-0.600162923336029,-0.6001971364021301,,,,,,,,,,,,,,,,,,,,,,,,,,,,,,,,,,,,,,,,,,,,,,,,,,,,,,,,,,,,,,,,,,,,,,,,,,,,,,,,,,,,,,,,,,,,,,,,,,,,,,,,,,,,,,,,,,,,,,,,,,,,,,,,,,,,,,-0.014490818604826927,0.09013158828020096,-0.015893174335360527,0.0,0.013166064396500587,-0.0617012195289135,0.23994654417037964,0.19465194642543793,-0.01003318466246128,-0.046701885759830475,0.012036911211907864,0.0,-0.01660294644534588,-0.058696575462818146,-0.1317155361175537,-0.07343029975891113,,,,,,,,,,,,,,,,,,,,,,,,,,,,,,,,,,,,,,,,,,,,,,,,,,,,,,,,,,,,,,,,,,,,,,,,
1696194461.0650609,1.0458178520202637,1.8866668939590454,-0.029977038502693176,0.0,0.7853977680206299,0.00014576759713236243,0.6078948378562927,0.6081123352050781,1.0457067489624023,1.8841402530670166,-0.029519138857722282,0.0,0.7853455543518066,-0.00012964397319592535,-0.6082687377929688,-0.6081615090370178,,,,,,,,,,,,,,,,,,,,,,,,,,,,,,,,,,,,,,,,,,,,,,,,,,,,,,,,,,,,,,,,,,,,,,,,,,,,,,,,,,,,,,,,,,,,,,,,,,,,,,,,,,,,,,,,,,,,,,,,,,,,,,,,,,,,,,-0.0029248371720314026,0.00044963182881474495,0.00776019087061286,0.0,-0.020802931860089302,0.08201062679290771,-0.1170121282339096,-0.05419804900884628,0.02158459648489952,-0.039916399866342545,0.0019009069073945284,0.0,-0.009660927578806877,-0.03730900585651398,-0.039425842463970184,-0.039252568036317825,,,,,,,,,,,,,,,,,,,,,,,,,,,,,,,,,,,,,,,,,,,,,,,,,,,,,,,,,,,,,,,,,,,,,,,,
1696194461.2364867,1.047489881515503,1.8882782459259033,-0.030671129003167152,0.0,0.7854483723640442,2.3666370907449163e-05,0.6053552031517029,0.6053097248077393,1.0477941036224365,1.8812804222106934,-0.029505683109164238,0.0,0.7853868007659912,-2.4352671061933506e-06,-0.6040687561035156,-0.6041656136512756,,,,,,,,,,,,,,,,,,,,,,,,,,,,,,,,,,,,,,,,,,,,,,,,,,,,,,,,,,,,,,,,,,,,,,,,,,,,,,,,,,,,,,,,,,,,,,,,,,,,,,,,,,,,,,,,,,,,,,,,,,,,,,,,,,,,,,0.05467156693339348,-0.007778702303767204,-0.01313069649040699,0.0,0.0036223814822733402,0.024678219109773636,-0.27924075722694397,-0.27213820815086365,0.00580067140981555,-0.0071275606751441956,-0.0010507043916732073,0.0,8.98906946531497e-05,-0.0029161886777728796,-0.035960715264081955,-0.08979055285453796,,,,,,,,,,,,,,,,,,,,,,,,,,,,,,,,,,,,,,,,,,,,,,,,,,,,,,,,,,,,,,,,,,,,,,,,
1696194461.3624406,1.0508049726486206,1.8870142698287964,-0.031202184036374092,0.0,0.7853918075561523,7.18301089364104e-05,0.5792779326438904,0.5789486765861511,1.0512089729309082,1.8815094232559204,-0.030345795676112175,0.0,0.7853478193283081,-0.0001080147922039032,-0.5772371888160706,-0.5763905048370361,,,,,,,,,,,,,,,,,,,,,,,,,,,,,,,,,,,,,,,,,,,,,,,,,,,,,,,,,,,,,,,,,,,,,,,,,,,,,,,,,,,,,,,,,,,,,,,,,,,,,,,,,,,,,,,,,,,,,,,,,,,,,,,,,,,,,,0.02125280164182186,-0.010720750316977501,-0.002095866482704878,0.0,0.0012754761846736073,-0.016923891380429268,-0.41151657700538635,-0.434502512216568,0.049077823758125305,0.033626340329647064,-0.018584517762064934,0.0,-0.01112511195242405,-0.03842013329267502,0.43268734216690063,0.543919026851654,,,,,,,,,,,,,,,,,,,,,,,,,,,,,,,,,,,,,,,,,,,,,,,,,,,,,,,,,,,,,,,,,,,,,,,,
1696194461.464055,1.0520648956298828,1.8849879503250122,-0.031136590987443924,0.0,0.7853060960769653,0.00012344904826022685,0.5585900545120239,0.5575730800628662,1.052153468132019,1.8827940225601196,-0.03077748417854309,0.0,0.7853386998176575,-0.0001988619042094797,-0.5571609139442444,-0.5566474199295044,,,,,,,,,,,,,,,,,,,,,,,,,,,,,,,,,,,,,,,,,,,,,,,,,,,,,,,,,,,,,,,,,,,,,,,,,,,,,,,,,,,,,,,,,,,,,,,,,,,,,,,,,,,,,,,,,,,,,,,,,,,,,,,,,,,,,,0.014397796243429184,-0.05091787129640579,0.004068087320774794,0.0,0.00484237028285861,-0.06004469096660614,-0.7027544379234314,-0.749540388584137,0.0022511733695864677,-0.013267498463392258,0.0028228284791111946,0.0,-0.011987176723778248,-0.06819603592157364,0.26734745502471924,0.24235185980796814,,,,,,,,,,,,,,,,,,,,,,,,,,,,,,,,,,,,,,,,,,,,,,,,,,,,,,,,,,,,,,,,,,,,,,,,
1696194461.560115,1.0525435209274292,1.8820557594299316,-0.030735893175005913,0.0,0.7853267788887024,-1.1272666597506031e-05,0.5268360376358032,0.5257878303527832,1.052405595779419,1.8862459659576416,-0.03143637999892235,0.0,0.7853705883026123,-8.234295819420367e-05,-0.5188655257225037,-0.5185971260070801,,,,,,,,,,,,,,,,,,,,,,,,,,,,,,,,,,,,,,,,,,,,,,,,,,,,,,,,,,,,,,,,,,,,,,,,,,,,,,,,,,,,,,,,,,,,,,,,,,,,,,,,,,,,,,,,,,,,,,,,,,,,,,,,,,,,,,-0.004982343874871731,-0.027031254023313522,0.002836799481883645,0.0,-0.001245769439265132,-0.07122966647148132,-0.49226754903793335,-0.5728399157524109,0.005775091703981161,0.005886832717806101,-0.0017363355727866292,0.0,-0.0006933336844667792,-0.03667404502630234,0.234349325299263,0.24185162782669067,,,,,,,,,,,,,,,,,,,,,,,,,,,,,,,,,,,,,,,,,,,,,,,,,,,,,,,,,,,,,,,,,,,,,,,,
1696194461.6794147,1.0511428117752075,1.878942847251892,-0.029884222894906998,0.0,0.7853376865386963,-2.014763049373869e-05,0.48032280802726746,0.4794924259185791,1.051275610923767,1.8888047933578491,-0.03161650523543358,0.0,0.7852717041969299,5.1877254009013996e-05,-0.4884894788265228,-0.48828721046447754,,,,,,,,,,,,,,,,,,,,,,,,,,,,,,,,,,,,,,,,,,,,,,,,,,,,,,,,,,,,,,,,,,,,,,,,,,,,,,,,,,,,,,,,,,,,,,,,,,,,,,,,,,,,,,,,,,,,,,,,,,,,,,,,,,,,,,0.0025405921041965485,-0.012231596745550632,-0.003616368630900979,0.0,0.004894278012216091,-0.008349647745490074,-0.3573089838027954,-0.1940184384584427,-0.05957648158073425,0.047389909625053406,0.006354006007313728,0.0,-0.02368571050465107,0.019848518073558807,0.4921203851699829,0.4877146780490875,,,,,,,,,,,,,,,,,,,,,,,,,,,,,,,,,,,,,,,,,,,,,,,,,,,,,,,,,,,,,,,,,,,,,,,,
1696194461.7831786,1.048417091369629,1.8785067796707153,-0.02916947938501835,0.0,0.785361111164093,-1.8884893506765366e-05,0.4440297484397888,0.44360437989234924,1.0476371049880981,1.890926718711853,-0.031137434765696526,0.0,0.7852256298065186,-8.638526196591556e-05,-0.4395526945590973,-0.43936601281166077,,,,,,,,,,,,,,,,,,,,,,,,,,,,,,,,,,,,,,,,,,,,,,,,,,,,,,,,,,,,,,,,,,,,,,,,,,,,,,,,,,,,,,,,,,,,,,,,,,,,,,,,,,,,,,,,,,,,,,,,,,,,,,,,,,,,,,-0.0012016488471999764,-0.013112309388816357,0.0007270276546478271,0.0,-0.010305947624146938,-0.012282664887607098,-0.20569239556789398,-0.1878684163093567,-0.07077500969171524,-0.007427874021232128,0.02042430080473423,0.0,-0.028475554659962654,-0.013631109148263931,0.4285602271556854,0.4504949450492859,,,,,,,,,,,,,,,,,,,,,,,,,,,,,,,,,,,,,,,,,,,,,,,,,,,,,,,,,,,,,,,,,,,,,,,,
1696194461.8785303,1.0458662509918213,1.8803057670593262,-0.028893761336803436,0.0,0.7854485511779785,-0.00011185994662810117,0.41752779483795166,0.41702350974082947,1.0454481840133667,1.8899592161178589,-0.03046533837914467,0.0,0.7852455973625183,-0.0001000057891360484,-0.41527631878852844,-0.4150889217853546,,,,,,,,,,,,,,,,,,,,,,,,,,,,,,,,,,,,,,,,,,,,,,,,,,,,,,,,,,,,,,,,,,,,,,,,,,,,,,,,,,,,,,,,,,,,,,,,,,,,,,,,,,,,,,,,,,,,,,,,,,,,,,,,,,,,,,-0.034167345613241196,0.04671137034893036,-0.0002066082670353353,0.0,0.015409051440656185,-0.030423350632190704,-0.17836596071720123,-0.17680037021636963,-0.040329087525606155,-0.04758356884121895,0.018728790804743767,0.0,-0.0019724254962056875,0.02084636501967907,0.35457441210746765,0.34869328141212463,,,,,,,,,,,,,,,,,,,,,,,,,,,,,,,,,,,,,,,,,,,,,,,,,,,,,,,,,,,,,,,,,,,,,,,,
1696194461.9842675,1.0443907976150513,1.8832346200942993,-0.029070543125271797,0.0,0.7854738831520081,-0.0002335870813112706,0.39935436844825745,0.3989678621292114,1.0442534685134888,1.8874883651733398,-0.029764872044324875,0.0,0.7852736115455627,-0.00017554924124851823,-0.39813944697380066,-0.39780840277671814,,,,,,,,,,,,,,,,,,,,,,,,,,,,,,,,,,,,,,,,,,,,,,,,,,,,,,,,,,,,,,,,,,,,,,,,,,,,,,,,,,,,,,,,,,,,,,,,,,,,,,,,,,,,,,,,,,,,,,,,,,,,,,,,,,,,,,-0.013877978548407555,0.05522504821419716,-0.009045128710567951,0.0,0.018985170871019363,-0.06803347170352936,-0.06707152724266052,-0.11186838150024414,-0.00553502794355154,-0.07622625678777695,0.015165566466748714,0.0,0.0012835997622460127,0.011484691873192787,0.1614094376564026,0.1878582388162613,,,,,,,,,,,,,,,,,,,,,,,,,,,,,,,,,,,,,,,,,,,,,,,,,,,,,,,,,,,,,,,,,,,,,,,,
1696194462.1341395,1.0439456701278687,1.8858827352523804,-0.029441775754094124,0.0,0.7854843139648438,-0.00017941264377441257,0.388711154460907,0.3888198733329773,1.0444897413253784,1.8839397430419922,-0.0292076263576746,0.0,0.785321831703186,-0.0002558602427598089,-0.388247013092041,-0.3878929913043976,,,,,,,,,,,,,,,,,,,,,,,,,,,,,,,,,,,,,,,,,,,,,,,,,,,,,,,,,,,,,,,,,,,,,,,,,,,,,,,,,,,,,,,,,,,,,,,,,,,,,,,,,,,,,,,,,,,,,,,,,,,,,,,,,,,,,,0.023935317993164062,0.05641797184944153,-0.017203249037265778,0.0,0.004922898020595312,0.0032019615173339844,-0.008879600092768669,0.034505393356084824,0.03405563905835152,-0.08147115260362625,0.0062312595546245575,0.0,-0.010129941627383232,-0.049391984939575195,-0.038092777132987976,0.030724281445145607,,,,,,,,,,,,,,,,,,,,,,,,,,,,,,,,,,,,,,,,,,,,,,,,,,,,,,,,,,,,,,,,,,,,,,,,
1696194462.2454472,1.0462452173233032,1.8890870809555054,-0.03050708770751953,0.0,0.7854213118553162,6.790594488848001e-05,0.3919628858566284,0.392151415348053,1.0459399223327637,1.8816555738449097,-0.02914770133793354,0.0,0.7853928208351135,-6.261545058805496e-05,-0.3907025456428528,-0.39045268297195435,,,,,,,,,,,,,,,,,,,,,,,,,,,,,,,,,,,,,,,,,,,,,,,,,,,,,,,,,,,,,,,,,,,,,,,,,,,,,,,,,,,,,,,,,,,,,,,,,,,,,,,,,,,,,,,,,,,,,,,,,,,,,,,,,,,,,,-4.264290964783868e-06,0.009311452507972717,0.0011998562840744853,0.0,-0.0022496532183140516,0.047427475452423096,-0.012802429497241974,0.000667879416141659,0.02008235640823841,-0.026310067623853683,0.0002970940840896219,0.0,-0.00812163669615984,0.011836444027721882,-0.1388998180627823,-0.13521479070186615,,,,,,,,,,,,,,,,,,,,,,,,,,,,,,,,,,,,,,,,,,,,,,,,,,,,,,,,,,,,,,,,,,,,,,,,
1696194462.3489864,1.0490483045578003,1.88917076587677,-0.031189851462841034,0.0,0.7853893041610718,1.4696604921482503e-05,0.4050707221031189,0.4057433307170868,1.0487124919891357,1.8800140619277954,-0.029511693865060806,0.0,0.7855240106582642,3.43202700605616e-05,-0.40230974555015564,-0.4023169279098511,,,,,,,,,,,,,,,,,,,,,,,,,,,,,,,,,,,,,,,,,,,,,,,,,,,,,,,,,,,,,,,,,,,,,,,,,,,,,,,,,,,,,,,,,,,,,,,,,,,,,,,,,,,,,,,,,,,,,,,,,,,,,,,,,,,,,,0.06714808195829391,-0.03602255508303642,-0.014054573141038418,0.0,-0.004335219971835613,0.010947491973638535,0.21410803496837616,0.29041028022766113,0.06998705863952637,0.0037861764430999756,-0.02006613276898861,0.0,0.02184917777776718,0.0014991405187174678,-0.25293833017349243,-0.25831878185272217,,,,,,,,,,,,,,,,,,,,,,,,,,,,,,,,,,,,,,,,,,,,,,,,,,,,,,,,,,,,,,,,,,,,,,,,
1696194462.4996197,1.0517163276672363,1.8878812789916992,-0.031570494174957275,0.0,0.785268247127533,0.0002883599081542343,0.4231298565864563,0.42430704832077026,1.0515440702438354,1.8797606229782104,-0.03011981025338173,0.0,0.7856491208076477,0.0002867319853976369,-0.420491099357605,-0.4208007752895355,,,,,,,,,,,,,,,,,,,,,,,,,,,,,,,,,,,,,,,,,,,,,,,,,,,,,,,,,,,,,,,,,,,,,,,,,,,,,,,,,,,,,,,,,,,,,,,,,,,,,,,,,,,,,,,,,,,,,,,,,,,,,,,,,,,,,,0.0763772651553154,-0.11443904042243958,0.00047040078788995743,0.0,-0.030962200835347176,0.06419844925403595,0.34600135684013367,0.47711074352264404,0.05655745044350624,0.05096051096916199,-0.024385428056120872,0.0,0.05728350952267647,0.08370768278837204,-0.3051147758960724,-0.38020944595336914,,,,,,,,,,,,,,,,,,,,,,,,,,,,,,,,,,,,,,,,,,,,,,,,,,,,,,,,,,,,,,,,,,,,,,,,
1696194462.6619422,1.0539342164993286,1.884966254234314,-0.03156088665127754,0.0,0.7852597236633301,0.00033976088161580265,0.45072057843208313,0.45159202814102173,1.054017424583435,1.8821688890457153,-0.031106047332286835,0.0,0.7854743003845215,4.754821475216886e-06,-0.4531343877315521,-0.4535147249698639,,,,,,,,,,,,,,,,,,,,,,,,,,,,,,,,,,,,,,,,,,,,,,,,,,,,,,,,,,,,,,,,,,,,,,,,,,,,,,,,,,,,,,,,,,,,,,,,,,,,,,,,,,,,,,,,,,,,,,,,,,,,,,,,,,,,,,0.02541467547416687,-0.09462704509496689,0.013640139251947403,0.0,-0.03259969875216484,0.08183196932077408,0.2526012659072876,0.3382667303085327,0.0038403267972171307,0.023279456421732903,-0.003879903582856059,0.0,-0.039751145988702774,-0.0788397267460823,-0.3984675705432892,-0.3597908020019531,,,,,,,,,,,,,,,,,,,,,,,,,,,,,,,,,,,,,,,,,,,,,,,,,,,,,,,,,,,,,,,,,,,,,,,,
1696194462.771837,1.0544110536575317,1.8809908628463745,-0.030995376408100128,0.0,0.7854299545288086,-0.00010612830374157056,0.4866291284561157,0.48692288994789124,1.0544239282608032,1.8852752447128296,-0.0317378044128418,0.0,0.7854355573654175,-3.2883039239095524e-05,-0.4816870391368866,-0.4820225238800049,,,,,,,,,,,,,,,,,,,,,,,,,,,,,,,,,,,,,,,,,,,,,,,,,,,,,,,,,,,,,,,,,,,,,,,,,,,,,,,,,,,,,,,,,,,,,,,,,,,,,,,,,,,,,,,,,,,,,,,,,,,,,,,,,,,,,,0.002402570564299822,0.002666865475475788,-0.004793614614754915,0.0,0.034456901252269745,-0.08392924815416336,0.33847254514694214,0.22438767552375793,0.005953660234808922,-0.00817871280014515,0.00060700171161443,0.0,-0.031946200877428055,-0.06429201364517212,-0.3197494149208069,-0.21004363894462585,,,,,,,,,,,,,,,,,,,,,,,,,,,,,,,,,,,,,,,,,,,,,,,,,,,,,,,,,,,,,,,,,,,,,,,,
1696194462.9064724,1.0538753271102905,1.8790531158447266,-0.03050920180976391,0.0,0.7852863669395447,0.00018811234622262418,0.503931999206543,0.504509449005127,1.0533381700515747,1.8884708881378174,-0.032040562480688095,0.0,0.7856482267379761,0.00043079908937215805,-0.5073902010917664,-0.5084513425827026,,,,,,,,,,,,,,,,,,,,,,,,,,,,,,,,,,,,,,,,,,,,,,,,,,,,,,,,,,,,,,,,,,,,,,,,,,,,,,,,,,,,,,,,,,,,,,,,,,,,,,,,,,,,,,,,,,,,,,,,,,,,,,,,,,,,,,-0.040569525212049484,-0.042198169976472855,0.018971603363752365,0.0,-0.01531290728598833,0.026413388550281525,0.45442813634872437,0.48046809434890747,-0.07711786776781082,0.08839549869298935,0.0032562208361923695,0.0,0.03826964274048805,0.07978598773479462,-0.4495815634727478,-0.5107090473175049,,,,,,,,,,,,,,,,,,,,,,,,,,,,,,,,,,,,,,,,,,,,,,,,,,,,,,,,,,,,,,,,,,,,,,,,
1696194463.007584,1.0503122806549072,1.876832127571106,-0.02930760569870472,0.0,0.7853580117225647,0.00010789307998493314,0.5482257604598999,0.5484762787818909,1.0510441064834595,1.8912853002548218,-0.03200323507189751,0.0,0.7854630947113037,0.00012005274766124785,-0.5395533442497253,-0.5402286648750305,,,,,,,,,,,,,,,,,,,,,,,,,,,,,,,,,,,,,,,,,,,,,,,,,,,,,,,,,,,,,,,,,,,,,,,,,,,,,,,,,,,,,,,,,,,,,,,,,,,,,,,,,,,,,,,,,,,,,,,,,,,,,,,,,,,,,,-0.04027579352259636,0.002412571804597974,0.012893134728074074,0.0,-0.007011238019913435,0.027508363127708435,0.17147104442119598,0.18779276311397552,0.007990274578332901,0.018580080941319466,-0.007425328716635704,0.0,-0.005071269813925028,-0.010304884053766727,-0.3073776066303253,-0.30794355273246765,,,,,,,,,,,,,,,,,,,,,,,,,,,,,,,,,,,,,,,,,,,,,,,,,,,,,,,,,,,,,,,,,,,,,,,,
1696194463.1444042,1.047372579574585,1.8771642446517944,-0.02870309352874756,0.0,0.7853841185569763,-1.550887645862531e-05,0.5755473375320435,0.5756346583366394,1.0475878715515137,1.8926206827163696,-0.03142339363694191,0.0,0.7854370474815369,0.00012639637861866504,-0.5701932907104492,-0.5709601044654846,,,,,,,,,,,,,,,,,,,,,,,,,,,,,,,,,,,,,,,,,,,,,,,,,,,,,,,,,,,,,,,,,,,,,,,,,,,,,,,,,,,,,,,,,,,,,,,,,,,,,,,,,,,,,,,,,,,,,,,,,,,,,,,,,,,,,,0.0022208387963473797,-0.02218008227646351,-0.0002632542164064944,0.0,-0.001809400855563581,0.013634293340146542,0.22765479981899261,0.23752819001674652,-0.05627201870083809,-0.014463415369391441,0.01721547544002533,0.0,0.010041440837085247,0.03595927730202675,-0.3039424419403076,-0.4000275731086731,,,,,,,,,,,,,,,,,,,,,,,,,,,,,,,,,,,,,,,,,,,,,,,,,,,,,,,,,,,,,,,,,,,,,,,,
1696194463.2963834,1.0443401336669922,1.8794881105422974,-0.028406551107764244,0.0,0.7853755354881287,6.423078593797982e-05,0.5982118248939514,0.5983113050460815,1.0447007417678833,1.8921031951904297,-0.03067031502723694,0.0,0.7853761315345764,-3.5001580727112014e-06,-0.5930987596511841,-0.5935043692588806,,,,,,,,,,,,,,,,,,,,,,,,,,,,,,,,,,,,,,,,,,,,,,,,,,,,,,,,,,,,,,,,,,,,,,,,,,,,,,,,,,,,,,,,,,,,,,,,,,,,,,,,,,,,,,,,,,,,,,,,,,,,,,,,,,,,,,0.0026998419780284166,-0.02093500643968582,0.0030762881506234407,0.0,-0.01876894198358059,0.06131911650300026,0.0896783322095871,0.13101983070373535,-0.03643167391419411,-0.051042210310697556,0.0184320081025362,0.0,0.007883802987635136,0.02705272287130356,-0.20582550764083862,-0.25891995429992676,,,,,,,,,,,,,,,,,,,,,,,,,,,,,,,,,,,,,,,,,,,,,,,,,,,,,,,,,,,,,,,,,,,,,,,,
1696194463.4030316,1.0429946184158325,1.8823177814483643,-0.02860148437321186,0.0,0.7854741811752319,-0.0002185440098401159,0.6086187362670898,0.6085445880889893,1.042664885520935,1.8882461786270142,-0.029540369287133217,0.0,0.785398542881012,6.640180799877271e-05,-0.611458957195282,-0.6116064190864563,,,,,,,,,,,,,,,,,,,,,,,,,,,,,,,,,,,,,,,,,,,,,,,,,,,,,,,,,,,,,,,,,,,,,,,,,,,,,,,,,,,,,,,,,,,,,,,,,,,,,,,,,,,,,,,,,,,,,,,,,,,,,,,,,,,,,,-0.011178538203239441,0.07777319848537445,-0.012113189324736595,0.0,7.52826381358318e-05,0.0013593240873888135,0.12748701870441437,0.12902411818504333,-0.0008034314378164709,-0.0293629951775074,0.004323319531977177,0.0,0.026017125695943832,0.07344061136245728,-0.10824079811573029,-0.15455208718776703,,,,,,,,,,,,,,,,,,,,,,,,,,,,,,,,,,,,,,,,,,,,,,,,,,,,,,,,,,,,,,,,,,,,,,,,
1696194463.545121,1.0425503253936768,1.8865331411361694,-0.029231365770101547,0.0,0.7854741215705872,-0.0002400021767243743,0.6171807646751404,0.6170621514320374,1.0427134037017822,1.8846707344055176,-0.028929034247994423,0.0,0.7853249311447144,-0.00017434869369026273,-0.6172410249710083,-0.6171079874038696,,,,,,,,,,,,,,,,,,,,,,,,,,,,,,,,,,,,,,,,,,,,,,,,,,,,,,,,,,,,,,,,,,,,,,,,,,,,,,,,,,,,,,,,,,,,,,,,,,,,,,,,,,,,,,,,,,,,,,,,,,,,,,,,,,,,,,0.005930512212216854,0.04921355098485947,-0.01423728559166193,0.0,0.013103345409035683,-0.06634233891963959,0.11854537576436996,0.060100484639406204,0.0102871498093009,-0.0505329854786396,0.00720163295045495,0.0,-0.013787097297608852,-0.05173817276954651,-0.028048831969499588,0.0010716894175857306,,,,,,,,,,,,,,,,,,,,,,,,,,,,,,,,,,,,,,,,,,,,,,,,,,,,,,,,,,,,,,,,,,,,,,,,
1696194463.6822288,1.043578863143921,1.8895930051803589,-0.02997858077287674,0.0,0.7854031324386597,0.00013934323214925826,0.6165236234664917,0.6167066097259521,1.044458031654358,1.8807564973831177,-0.028655143454670906,0.0,0.7853612899780273,-9.165277151623741e-05,-0.6151259541511536,-0.614592432975769,,,,,,,,,,,,,,,,,,,,,,,,,,,,,,,,,,,,,,,,,,,,,,,,,,,,,,,,,,,,,,,,,,,,,,,,,,,,,,,,,,,,,,,,,,,,,,,,,,,,,,,,,,,,,,,,,,,,,,,,,,,,,,,,,,,,,,-0.0020639204885810614,0.0038167075254023075,0.007071656174957752,0.0,-0.01888827607035637,0.07556985318660736,-0.15827402472496033,-0.100771464407444,0.019746463745832443,-0.030951449647545815,0.0008644619956612587,0.0,0.010146587155759335,0.029505101963877678,0.11241540312767029,0.1156974658370018,,,,,,,,,,,,,,,,,,,,,,,,,,,,,,,,,,,,,,,,,,,,,,,,,,,,,,,,,,,,,,,,,,,,,,,,
1696194463.788013,1.0457743406295776,1.8913524150848389,-0.03079122304916382,0.0,0.7854114174842834,9.427610348211601e-05,0.609778642654419,0.6099051833152771,1.0473902225494385,1.878261685371399,-0.028904739767313004,0.0,0.7853481769561768,-0.00015630561392754316,-0.6055445671081543,-0.6050216555595398,,,,,,,,,,,,,,,,,,,,,,,,,,,,,,,,,,,,,,,,,,,,,,,,,,,,,,,,,,,,,,,,,,,,,,,,,,,,,,,,,,,,,,,,,,,,,,,,,,,,,,,,,,,,,,,,,,,,,,,,,,,,,,,,,,,,,,-0.002233775332570076,0.015243560075759888,0.004462488926947117,0.0,-0.010870279744267464,0.041216544806957245,-0.18130820989608765,-0.14889290928840637,0.07139720022678375,-0.030284184962511063,-0.013697017915546894,0.0,-0.006686568260192871,-0.03142370283603668,0.0979769378900528,0.1627413034439087,,,,,,,,,,,,,,,,,,,,,,,,,,,,,,,,,,,,,,,,,,,,,,,,,,,,,,,,,,,,,,,,,,,,,,,,
1696194463.903765,1.0503208637237549,1.8910850286483765,-0.03181902691721916,0.0,0.7854225039482117,0.00010192592162638903,0.5897777080535889,0.5898061990737915,1.0495136976242065,1.8774685859680176,-0.029257209971547127,0.0,0.7853531241416931,-0.0001899520866572857,-0.5957387685775757,-0.5946772694587708,,,,,,,,,,,,,,,,,,,,,,,,,,,,,,,,,,,,,,,,,,,,,,,,,,,,,,,,,,,,,,,,,,,,,,,,,,,,,,,,,,,,,,,,,,,,,,,,,,,,,,,,,,,,,,,,,,,,,,,,,,,,,,,,,,,,,,0.06057512387633324,-0.03463973477482796,-0.009941640309989452,0.0,0.0035666986368596554,0.02519550733268261,-0.3027305006980896,-0.28832125663757324,0.05287861078977585,-0.001021597534418106,-0.012128903530538082,0.0,-0.009569836780428886,-0.03452187031507492,0.34159812331199646,0.44371017813682556,,,,,,,,,,,,,,,,,,,,,,,,,,,,,,,,,,,,,,,,,,,,,,,,,,,,,,,,,,,,,,,,,,,,,,,,
1696194464.0402236,1.0532035827636719,1.889235019683838,-0.032155368477106094,0.0,0.7853816747665405,0.0001844005164457485,0.5709201693534851,0.5708437561988831,1.0525624752044678,1.8774586915969849,-0.02995157241821289,0.0,0.7853387594223022,-0.00020151482021901757,-0.5771075487136841,-0.5765600204467773,,,,,,,,,,,,,,,,,,,,,,,,,,,,,,,,,,,,,,,,,,,,,,,,,,,,,,,,,,,,,,,,,,,,,,,,,,,,,,,,,,,,,,,,,,,,,,,,,,,,,,,,,,,,,,,,,,,,,,,,,,,,,,,,,,,,,,0.04817189648747444,-0.06335293501615524,-0.0010129568399861455,0.0,0.002562662586569786,0.018292060121893883,-0.35537615418434143,-0.3628273606300354,-0.004358137026429176,-0.019556254148483276,0.007008559536188841,0.0,-0.019611991941928864,-0.06563105434179306,0.18994440138339996,0.23269061744213104,,,,,,,,,,,,,,,,,,,,,,,,,,,,,,,,,,,,,,,,,,,,,,,,,,,,,,,,,,,,,,,,,,,,,,,,
1696194464.1631336,1.0547975301742554,1.887542724609375,-0.032225511968135834,0.0,0.785404622554779,-5.3858417231822386e-05,0.5565447211265564,0.5564303994178772,1.0554990768432617,1.8802450895309448,-0.03113081492483616,0.0,0.7854483127593994,0.00021305780683178455,-0.5487716794013977,-0.5485545992851257,,,,,,,,,,,,,,,,,,,,,,,,,,,,,,,,,,,,,,,,,,,,,,,,,,,,,,,,,,,,,,,,,,,,,,,,,,,,,,,,,,,,,,,,,,,,,,,,,,,,,,,,,,,,,,,,,,,,,,,,,,,,,,,,,,,,,,0.005070840939879417,0.005153263453394175,-0.0027053121011704206,0.0,0.011697479523718357,-0.04713093116879463,-0.08939506113529205,-0.10497225821018219,0.03216000646352768,0.08071225881576538,-0.024419473484158516,0.0,0.014942224137485027,0.07071635127067566,0.2917754352092743,0.2265048623085022,,,,,,,,,,,,,,,,,,,,,,,,,,,,,,,,,,,,,,,,,,,,,,,,,,,,,,,,,,,,,,,,,,,,,,,,
1696194464.3077796,1.0565248727798462,1.8832935094833374,-0.031888239085674286,0.0,0.7853956818580627,-7.160410314099863e-05,0.5282751321792603,0.528080403804779,1.0565251111984253,1.884049654006958,-0.032027386128902435,0.0,0.7854193449020386,0.0002076558448607102,-0.5201495289802551,-0.5200896859169006,,,,,,,,,,,,,,,,,,,,,,,,,,,,,,,,,,,,,,,,,,,,,,,,,,,,,,,,,,,,,,,,,,,,,,,,,,,,,,,,,,,,,,,,,,,,,,,,,,,,,,,,,,,,,,,,,,,,,,,,,,,,,,,,,,,,,,0.004093623254448175,-0.0007281487341970205,-0.002244633622467518,0.0,0.012127378955483437,-0.06289071589708328,-0.0866590142250061,-0.10286619514226913,-0.003343351883813739,0.0915520042181015,-0.016546016559004784,0.0,0.002687700092792511,0.044003672897815704,0.32227417826652527,0.2856520116329193,,,,,,,,,,,,,,,,,,,,,,,,,,,,,,,,,,,,,,,,,,,,,,,,,,,,,,,,,,,,,,,,,,,,,,,,
1696194464.4326003,1.0561902523040771,1.8785452842712402,-0.03098575957119465,0.0,0.7853851318359375,-7.999682566151023e-05,0.4953937530517578,0.4951156675815582,1.055604100227356,1.8885661363601685,-0.03259110078215599,0.0,0.7853800654411316,0.00012579423491843045,-0.4895254671573639,-0.4895046353340149,,,,,,,,,,,,,,,,,,,,,,,,,,,,,,,,,,,,,,,,,,,,,,,,,,,,,,,,,,,,,,,,,,,,,,,,,,,,,,,,,,,,,,,,,,,,,,,,,,,,,,,,,,,,,,,,,,,,,,,,,,,,,,,,,,,,,,0.0010973491007462144,-0.005409004632383585,-0.002039124723523855,0.0,0.008728843182325363,-0.06479690968990326,-0.08832316845655441,-0.11139556765556335,-0.033153802156448364,0.07759764790534973,-0.005208568647503853,0.0,-0.004925226327031851,-0.001343462849035859,0.4178526997566223,0.4091026782989502,,,,,,,,,,,,,,,,,,,,,,,,,,,,,,,,,,,,,,,,,,,,,,,,,,,,,,,,,,,,,,,,,,,,,,,,
1696194464.6058798,1.0548839569091797,1.8757344484329224,-0.030169382691383362,0.0,0.7853263020515442,9.508142102276906e-05,0.47252094745635986,0.4717501401901245,1.0544525384902954,1.8911199569702148,-0.03276624158024788,0.0,0.7853713035583496,1.6557009075768292e-05,-0.47059744596481323,-0.4706394076347351,,,,,,,,,,,,,,,,,,,,,,,,,,,,,,,,,,,,,,,,,,,,,,,,,,,,,,,,,,,,,,,,,,,,,,,,,,,,,,,,,,,,,,,,,,,,,,,,,,,,,,,,,,,,,,,,,,,,,,,,,,,,,,,,,,,,,,-0.04478711634874344,-0.031928226351737976,0.018719317391514778,0.0,-0.0072527131997048855,-0.02196528948843479,-0.31610235571861267,-0.4210750460624695,-0.01936585269868374,0.027759166434407234,-0.0008378431666642427,0.0,0.0032329268287867308,-0.025021014735102654,0.30847105383872986,0.3163776099681854,,,,,,,,,,,,,,,,,,,,,,,,,,,,,,,,,,,,,,,,,,,,,,,,,,,,,,,,,,,,,,,,,,,,,,,,
1696194464.73521,1.05174720287323,1.8740856647491455,-0.029174987226724625,0.0,0.7853391766548157,-7.838496821932495e-05,0.44504523277282715,0.4441255033016205,1.0509971380233765,1.894051194190979,-0.03246668726205826,0.0,0.785318911075592,7.223236025311053e-05,-0.44280895590782166,-0.4429658055305481,,,,,,,,,,,,,,,,,,,,,,,,,,,,,,,,,,,,,,,,,,,,,,,,,,,,,,,,,,,,,,,,,,,,,,,,,,,,,,,,,,,,,,,,,,,,,,,,,,,,,,,,,,,,,,,,,,,,,,,,,,,,,,,,,,,,,,-0.025814838707447052,-0.006912469398230314,0.00429789163172245,0.0,-0.011013551615178585,-0.033679649233818054,-0.25104591250419617,-0.2978263199329376,-0.06145699694752693,0.02110576257109642,0.012062530033290386,0.0,-0.0013247592141851783,0.020743180066347122,0.35198941826820374,0.3106522560119629,,,,,,,,,,,,,,,,,,,,,,,,,,,,,,,,,,,,,,,,,,,,,,,,,,,,,,,,,,,,,,,,,,,,,,,,
1696194464.8888233,1.0480022430419922,1.87447988986969,-0.028386665508151054,0.0,0.7853752374649048,-2.4366792786167935e-05,0.42102542519569397,0.42075926065444946,1.0476617813110352,1.8950717449188232,-0.03187799081206322,0.0,0.7853774428367615,8.479446114506572e-05,-0.4213257133960724,-0.42151957750320435,,,,,,,,,,,,,,,,,,,,,,,,,,,,,,,,,,,,,,,,,,,,,,,,,,,,,,,,,,,,,,,,,,,,,,,,,,,,,,,,,,,,,,,,,,,,,,,,,,,,,,,,,,,,,,,,,,,,,,,,,,,,,,,,,,,,,,-0.003246540203690529,-0.008343109861016273,0.00024325020785909146,0.0,-0.007410722319036722,-0.00817203987389803,-0.08922514319419861,-0.08442725986242294,-0.021953418850898743,0.0069832568988204,0.0032216112595051527,0.0,0.027397572994232178,0.04104938358068466,0.2297067493200302,0.1858275830745697,,,,,,,,,,,,,,,,,,,,,,,,,,,,,,,,,,,,,,,,,,,,,,,,,,,,,,,,,,,,,,,,,,,,,,,,
1696194465.0156562,1.0451583862304688,1.8761929273605347,-0.028026605024933815,0.0,0.7853707671165466,-7.632545020896941e-05,0.4064335227012634,0.4057972729206085,1.0437721014022827,1.8939601182937622,-0.030786661431193352,0.0,0.7852951884269714,-1.273504722121288e-06,-0.4012327492237091,-0.40137603878974915,,,,,,,,,,,,,,,,,,,,,,,,,,,,,,,,,,,,,,,,,,,,,,,,,,,,,,,,,,,,,,,,,,,,,,,,,,,,,,,,,,,,,,,,,,,,,,,,,,,,,,,,,,,,,,,,,,,,,,,,,,,,,,,,,,,,,,-0.02088852785527706,0.014356235973536968,0.001608451479114592,0.0,-0.021908065304160118,0.018677420914173126,-0.18589650094509125,-0.18388494849205017,-0.0424320250749588,-0.03131120279431343,0.015165750868618488,0.0,0.015168016776442528,0.039805375039577484,0.2538217604160309,0.2142031490802765,,,,,,,,,,,,,,,,,,,,,,,,,,,,,,,,,,,,,,,,,,,,,,,,,,,,,,,,,,,,,,,,,,,,,,,,
1696194465.1752493,1.0416152477264404,1.8806581497192383,-0.027989543974399567,0.0,0.7853599190711975,9.259275975637138e-05,0.38852640986442566,0.3882691562175751,1.0417978763580322,1.8923429250717163,-0.030061203986406326,0.0,0.7854159474372864,9.244892135029659e-05,-0.3906882703304291,-0.3907547891139984,,,,,,,,,,,,,,,,,,,,,,,,,,,,,,,,,,,,,,,,,,,,,,,,,,,,,,,,,,,,,,,,,,,,,,,,,,,,,,,,,,,,,,,,,,,,,,,,,,,,,,,,,,,,,,,,,,,,,,,,,,,,,,,,,,,,,,0.007487906143069267,-0.03226041793823242,0.005697526037693024,0.0,-0.030198900029063225,0.09596886485815048,-0.2015838623046875,-0.1105794608592987,-0.0012248988496139646,0.0039229500107467175,-0.0015614934964105487,0.0,0.024778008460998535,0.056386519223451614,0.0662434846162796,0.02522861212491989,,,,,,,,,,,,,,,,,,,,,,,,,,,,,,,,,,,,,,,,,,,,,,,,,,,,,,,,,,,,,,,,,,,,,,,,
1696194465.3190107,1.040305733680725,1.8850773572921753,-0.028467657044529915,0.0,0.7854809165000916,-0.0002454491623211652,0.38148489594459534,0.3812544643878937,1.0403904914855957,1.888910174369812,-0.029138032346963882,0.0,0.78529292345047,-0.0001588604791322723,-0.38277533650398254,-0.3825477063655853,,,,,,,,,,,,,,,,,,,,,,,,,,,,,,,,,,,,,,,,,,,,,,,,,,,,,,,,,,,,,,,,,,,,,,,,,,,,,,,,,,,,,,,,,,,,,,,,,,,,,,,,,,,,,,,,,,,,,,,,,,,,,,,,,,,,,,-0.010269301012158394,0.05901075154542923,-0.010209578089416027,0.0,0.019628459587693214,-0.07116304337978363,0.021111177280545235,-0.026563378050923347,-0.0031404062174260616,-0.07864261418581009,0.01472177729010582,0.0,7.032242865534499e-05,0.0121019147336483,0.04879623278975487,0.06575802713632584,,,,,,,,,,,,,,,,,,,,,,,,,,,,,,,,,,,,,,,,,,,,,,,,,,,,,,,,,,,,,,,,,,,,,,,,
1696194465.4245245,1.0404444932937622,1.8881139755249023,-0.02902188152074814,0.0,0.7854085564613342,-1.9600169252953492e-05,0.3796711266040802,0.3796183168888092,1.0403921604156494,1.8853732347488403,-0.028528884053230286,0.0,0.7853158116340637,-0.00018668966367840767,-0.3799782991409302,-0.3796413540840149,,,,,,,,,,,,,,,,,,,,,,,,,,,,,,,,,,,,,,,,,,,,,,,,,,,,,,,,,,,,,,,,,,,,,,,,,,,,,,,,,,,,,,,,,,,,,,,,,,,,,,,,,,,,,,,,,,,,,,,,,,,,,,,,,,,,,,-0.001380321802571416,0.01394588965922594,-0.0015064452309161425,0.0,-0.0005927272723056376,0.007060426287353039,-0.029492085799574852,-0.018643444404006004,0.02073919028043747,-0.08208874613046646,0.009215732105076313,0.0,-0.0002801540249492973,0.0024686697870492935,-0.028737589716911316,0.007966797798871994,,,,,,,,,,,,,,,,,,,,,,,,,,,,,,,,,,,,,,,,,,,,,,,,,,,,,,,,,,,,,,,,,,,,,,,,
1696194465.5507436,1.0412087440490723,1.8907396793365479,-0.029645642265677452,0.0,0.7854301929473877,-4.9990070692729205e-05,0.38034626841545105,0.3804440200328827,1.0418919324874878,1.8807132244110107,-0.028065431863069534,0.0,0.7853355407714844,-0.0002528213954064995,-0.3813976049423218,-0.38112813234329224,,,,,,,,,,,,,,,,,,,,,,,,,,,,,,,,,,,,,,,,,,,,,,,,,,,,,,,,,,,,,,,,,,,,,,,,,,,,,,,,,,,,,,,,,,,,,,,,,,,,,,,,,,,,,,,,,,,,,,,,,,,,,,,,,,,,,,0.0014807385159656405,0.009733665734529495,0.00030780647648498416,0.0,-0.004750446416437626,-0.015075922012329102,0.026375222951173782,-0.03505748510360718,0.04695400968194008,-0.07527203857898712,0.0022365886252373457,0.0,-0.012504917569458485,-0.06818679720163345,-0.07107488811016083,-0.036259181797504425,,,,,,,,,,,,,,,,,,,,,,,,,,,,,,,,,,,,,,,,,,,,,,,,,,,,,,,,,,,,,,,,,,,,,,,,
1696194465.6689694,1.0441333055496216,1.8938379287719727,-0.030861521139740944,0.0,0.785455584526062,-5.776183752459474e-05,0.3875410556793213,0.3881229758262634,1.0437355041503906,1.8778717517852783,-0.0279987920075655,0.0,0.7853881120681763,-6.78153955959715e-05,-0.38581645488739014,-0.385511189699173,,,,,,,,,,,,,,,,,,,,,,,,,,,,,,,,,,,,,,,,,,,,,,,,,,,,,,,,,,,,,,,,,,,,,,,,,,,,,,,,,,,,,,,,,,,,,,,,,,,,,,,,,,,,,,,,,,,,,,,,,,,,,,,,,,,,,,0.030392952263355255,0.016868166625499725,-0.005628161132335663,0.0,-0.005161683075129986,-0.016132041811943054,0.1169736459851265,0.08225367218255997,0.022750800475478172,-0.029201656579971313,0.00011414965410949662,0.0,-0.00517231272533536,0.01563536375761032,-0.1105349138379097,-0.10863631218671799,,,,,,,,,,,,,,,,,,,,,,,,,,,,,,,,,,,,,,,,,,,,,,,,,,,,,,,,,,,,,,,,,,,,,,,,
1696194465.8247888,1.0467512607574463,1.8948732614517212,-0.03166999667882919,0.0,0.7854251265525818,-6.0023896367056295e-05,0.3955240547657013,0.3959619402885437,1.046785593032837,1.8751752376556396,-0.02823048271238804,0.0,0.7854273319244385,-3.7295376387191936e-05,-0.3948182463645935,-0.3945572078227997,,,,,,,,,,,,,,,,,,,,,,,,,,,,,,,,,,,,,,,,,,,,,,,,,,,,,,,,,,,,,,,,,,,,,,,,,,,,,,,,,,,,,,,,,,,,,,,,,,,,,,,,,,,,,,,,,,,,,,,,,,,,,,,,,,,,,,0.06585821509361267,-0.013490493409335613,-0.0194232240319252,0.0,0.003584024030715227,0.005390286445617676,0.13777302205562592,0.18923813104629517,0.027284730225801468,-0.017339186742901802,-0.0014314193977043033,0.0,-0.004718292038887739,0.009342187084257603,-0.14764486253261566,-0.15510252118110657,,,,,,,,,,,,,,,,,,,,,,,,,,,,,,,,,,,,,,,,,,,,,,,,,,,,,,,,,,,,,,,,,,,,,,,,
1696194465.9585006,1.050586223602295,1.8941808938980103,-0.0324382558465004,0.0,0.7853783965110779,0.00013008379028178751,0.41000059247016907,0.41092929244041443,1.0501410961151123,1.8740479946136475,-0.02881588041782379,0.0,0.7854834794998169,7.334636029554531e-05,-0.40702396631240845,-0.4070502519607544,,,,,,,,,,,,,,,,,,,,,,,,,,,,,,,,,,,,,,,,,,,,,,,,,,,,,,,,,,,,,,,,,,,,,,,,,,,,,,,,,,,,,,,,,,,,,,,,,,,,,,,,,,,,,,,,,,,,,,,,,,,,,,,,,,,,,,0.09360456466674805,-0.06901964545249939,-0.0154240932315588,0.0,-0.0013694018125534058,0.04192226752638817,0.20353318750858307,0.37771108746528625,0.045075904577970505,0.006346219219267368,-0.013543153181672096,0.0,0.019092552363872528,0.024739516898989677,-0.09098100662231445,-0.1313505917787552,,,,,,,,,,,,,,,,,,,,,,,,,,,,,,,,,,,,,,,,,,,,,,,,,,,,,,,,,,,,,,,,,,,,,,,,
1696194466.0661821,1.0529721975326538,1.8926934003829956,-0.032715629786252975,0.0,0.7853519916534424,0.00017209684301633388,0.42223548889160156,0.4229806661605835,1.0528686046600342,1.8743044137954712,-0.02948257140815258,0.0,0.7854040265083313,-7.030840788502246e-05,-0.420651376247406,-0.42048555612564087,,,,,,,,,,,,,,,,,,,,,,,,,,,,,,,,,,,,,,,,,,,,,,,,,,,,,,,,,,,,,,,,,,,,,,,,,,,,,,,,,,,,,,,,,,,,,,,,,,,,,,,,,,,,,,,,,,,,,,,,,,,,,,,,,,,,,,0.06262818723917007,-0.07446587830781937,-0.003692934988066554,0.0,-0.005729224067181349,0.03807380050420761,0.18011653423309326,0.2678409218788147,0.0033035341184586287,-0.01944671757519245,0.006046279799193144,0.0,-0.023893797770142555,-0.025723129510879517,-0.14946098625659943,-0.11139793694019318,,,,,,,,,,,,,,,,,,,,,,,,,,,,,,,,,,,,,,,,,,,,,,,,,,,,,,,,,,,,,,,,,,,,,,,,
1696194466.19916,1.0554333925247192,1.8904097080230713,-0.032884418964385986,0.0,0.7854195833206177,-3.851265864796005e-05,0.4385850429534912,0.4390317499637604,1.0554354190826416,1.8756604194641113,-0.03032209724187851,0.0,0.7854688167572021,-4.835273557546316e-06,-0.4360901117324829,-0.4360996186733246,,,,,,,,,,,,,,,,,,,,,,,,,,,,,,,,,,,,,,,,,,,,,,,,,,,,,,,,,,,,,,,,,,,,,,,,,,,,,,,,,,,,,,,,,,,,,,,,,,,,,,,,,,,,,,,,,,,,,,,,,,,,,,,,,,,,,,0.004914348479360342,0.016540545970201492,-0.00431911600753665,0.0,0.01508945133537054,-0.05297047272324562,0.24024048447608948,0.15270163118839264,0.015965156257152557,0.015910549089312553,-0.004841156303882599,0.0,-0.0255545936524868,-0.040610913187265396,-0.27800169587135315,-0.24899454414844513,,,,,,,,,,,,,,,,,,,,,,,,,,,,,,,,,,,,,,,,,,,,,,,,,,,,,,,,,,,,,,,,,,,,,,,,
1696194466.3533978,1.0578464269638062,1.8860100507736206,-0.032661523669958115,0.0,0.7851762175559998,0.0006108758971095085,0.45931825041770935,0.4606124460697174,1.058206558227539,1.880142331123352,-0.03175370767712593,0.0,0.7855573296546936,0.0001921219954965636,-0.46565672755241394,-0.4661003351211548,,,,,,,,,,,,,,,,,,,,,,,,,,,,,,,,,,,,,,,,,,,,,,,,,,,,,,,,,,,,,,,,,,,,,,,,,,,,,,,,,,,,,,,,,,,,,,,,,,,,,,,,,,,,,,,,,,,,,,,,,,,,,,,,,,,,,,0.035257674753665924,-0.17187702655792236,0.024825870990753174,0.0,-0.04407580569386482,0.12150877714157104,0.35468557476997375,0.58795166015625,0.012584376148879528,0.0796831026673317,-0.017709514126181602,0.0,-0.004776590038090944,-0.019427353516221046,-0.3049589693546295,-0.34769555926322937,,,,,,,,,,,,,,,,,,,,,,,,,,,,,,,,,,,,,,,,,,,,,,,,,,,,,,,,,,,,,,,,,,,,,,,,
1696194466.4442854,1.0585190057754517,1.8819608688354492,-0.032127801328897476,0.0,0.7853657603263855,5.542633880395442e-05,0.48227185010910034,0.48273640871047974,1.0584710836410522,1.8835633993148804,-0.03240553289651871,0.0,0.785620391368866,0.0003321354161016643,-0.48407092690467834,-0.4846727252006531,,,,,,,,,,,,,,,,,,,,,,,,,,,,,,,,,,,,,,,,,,,,,,,,,,,,,,,,,,,,,,,,,,,,,,,,,,,,,,,,,,,,,,,,,,,,,,,,,,,,,,,,,,,,,,,,,,,,,,,,,,,,,,,,,,,,,,0.00044923523091711104,-0.03595772385597229,0.004448565188795328,0.0,0.02105189487338066,-0.056834280490875244,0.3329988121986389,0.2804010212421417,-0.005089386831969023,0.08358645439147949,-0.013737429864704609,0.0,0.02506216987967491,0.0511179119348526,-0.31969425082206726,-0.35715147852897644,,,,,,,,,,,,,,,,,,,,,,,,,,,,,,,,,,,,,,,,,,,,,,,,,,,,,,,,,,,,,,,,,,,,,,,,
1696194466.5815423,1.0582553148269653,1.8780434131622314,-0.031396135687828064,0.0,0.7853913903236389,-3.607061444199644e-05,0.5042538046836853,0.5044341683387756,1.05821692943573,1.8864505290985107,-0.03284631669521332,0.0,0.7856007218360901,0.00036045824526809156,-0.4992593228816986,-0.4998551905155182,,,,,,,,,,,,,,,,,,,,,,,,,,,,,,,,,,,,,,,,,,,,,,,,,,,,,,,,,,,,,,,,,,,,,,,,,,,,,,,,,,,,,,,,,,,,,,,,,,,,,,,,,,,,,,,,,,,,,,,,,,,,,,,,,,,,,,0.0021368281450122595,-0.006543325260281563,-0.0031071773264557123,0.0,0.020530808717012405,-0.04584423825144768,0.2313939481973648,0.16961398720741272,-0.02890174463391304,0.08584298938512802,-0.008414696902036667,0.0,0.03426928445696831,0.07863207906484604,-0.23179608583450317,-0.29503145813941956,,,,,,,,,,,,,,,,,,,,,,,,,,,,,,,,,,,,,,,,,,,,,,,,,,,,,,,,,,,,,,,,,,,,,,,,
1696194466.7005687,1.0572465658187866,1.8752844333648682,-0.030682582408189774,0.0,0.7853931188583374,-0.00012099984451197088,0.5211524963378906,0.5211824774742126,1.0562154054641724,1.8914077281951904,-0.03323864936828613,0.0,0.7855432629585266,0.00027741570374928415,-0.5260037183761597,-0.5268307328224182,,,,,,,,,,,,,,,,,,,,,,,,,,,,,,,,,,,,,,,,,,,,,,,,,,,,,,,,,,,,,,,,,,,,,,,,,,,,,,,,,,,,,,,,,,,,,,,,,,,,,,,,,,,,,,,,,,,,,,,,,,,,,,,,,,,,,,0.0012269302969798446,-0.00836856383830309,-0.006046775728464127,0.0,0.021461190655827522,-0.07592777162790298,0.30157455801963806,0.2411469668149948,-0.04879070073366165,0.06399078667163849,0.00011942134733544663,0.0,0.012237802147865295,0.029198188334703445,-0.3083846867084503,-0.3265918493270874,,,,,,,,,,,,,,,,,,,,,,,,,,,,,,,,,,,,,,,,,,,,,,,,,,,,,,,,,,,,,,,,,,,,,,,,
1696194466.8270578,1.0538969039916992,1.8722809553146362,-0.02933565527200699,0.0,0.7852837443351746,0.00022629552404396236,0.5467106699943542,0.5469256639480591,1.0540721416473389,1.8942018747329712,-0.0332232341170311,0.0,0.7854858040809631,0.00020204759493935853,-0.5429826378822327,-0.543623149394989,,,,,,,,,,,,,,,,,,,,,,,,,,,,,,,,,,,,,,,,,,,,,,,,,,,,,,,,,,,,,,,,,,,,,,,,,,,,,,,,,,,,,,,,,,,,,,,,,,,,,,,,,,,,,,,,,,,,,,,,,,,,,,,,,,,,,,-0.08703500032424927,-0.021866001188755035,0.03323006257414818,0.0,-0.018583500757813454,0.03293221443891525,0.23324698209762573,0.25799834728240967,-0.06892458349466324,0.044766027480363846,0.009220234118402004,0.0,0.008680793456733227,0.028305131942033768,-0.2147057205438614,-0.2372835874557495,,,,,,,,,,,,,,,,,,,,,,,,,,,,,,,,,,,,,,,,,,,,,,,,,,,,,,,,,,,,,,,,,,,,,,,,
1696194466.9256995,1.0515960454940796,1.8716458082199097,-0.028711866587400436,0.0,0.7853447198867798,-1.6734731616452336e-05,0.5605577230453491,0.5605047345161438,1.0500638484954834,1.896938681602478,-0.032775528728961945,0.0,0.7854635715484619,0.0001470720599172637,-0.5662239789962769,-0.5669898390769958,,,,,,,,,,,,,,,,,,,,,,,,,,,,,,,,,,,,,,,,,,,,,,,,,,,,,,,,,,,,,,,,,,,,,,,,,,,,,,,,,,,,,,,,,,,,,,,,,,,,,,,,,,,,,,,,,,,,,,,,,,,,,,,,,,,,,,-0.06263670325279236,0.00569531787186861,0.01570090651512146,0.0,-0.004365846514701843,-0.02731495350599289,0.27509087324142456,0.2425064891576767,0.00948397722095251,0.019873082637786865,-0.007834752090275288,0.0,0.005922845099121332,-0.0016131290467455983,-0.25966379046440125,-0.25171175599098206,,,,,,,,,,,,,,,,,,,,,,,,,,,,,,,,,,,,,,,,,,,,,,,,,,,,,,,,,,,,,,,,,,,,,,,,
1696194467.0743763,1.0482399463653564,1.8716254234313965,-0.027953915297985077,0.0,0.7853763699531555,-6.587202369701117e-05,0.5777808427810669,0.5776498317718506,1.0468721389770508,1.8978880643844604,-0.032208021730184555,0.0,0.7853971719741821,1.153774633166904e-06,-0.5813742876052856,-0.5816621780395508,,,,,,,,,,,,,,,,,,,,,,,,,,,,,,,,,,,,,,,,,,,,,,,,,,,,,,,,,,,,,,,,,,,,,,,,,,,,,,,,,,,,,,,,,,,,,,,,,,,,,,,,,,,,,,,,,,,,,,,,,,,,,,,,,,,,,,-0.029352474957704544,6.50132424198091e-05,0.004121816251426935,0.0,-0.002281538210809231,-0.0015329880407080054,0.22576163709163666,0.22323569655418396,-0.011729013174772263,0.010433094576001167,-0.0012178347678855062,0.0,-0.011719717644155025,-0.03557683154940605,-0.13473649322986603,-0.0567283034324646,,,,,,,,,,,,,,,,,,,,,,,,,,,,,,,,,,,,,,,,,,,,,,,,,,,,,,,,,,,,,,,,,,,,,,,,
1696194467.2143269,1.0444573163986206,1.8733490705490112,-0.027379950508475304,0.0,0.785412073135376,-0.00015179590263869613,0.593233585357666,0.59300696849823,1.0442723035812378,1.8979135751724243,-0.03161292150616646,0.0,0.7853885889053345,2.5832609935605433e-06,-0.5924831628799438,-0.5927329063415527,,,,,,,,,,,,,,,,,,,,,,,,,,,,,,,,,,,,,,,,,,,,,,,,,,,,,,,,,,,,,,,,,,,,,,,,,,,,,,,,,,,,,,,,,,,,,,,,,,,,,,,,,,,,,,,,,,,,,,,,,,,,,,,,,,,,,,-0.05486980080604553,0.05549075827002525,0.003951634280383587,0.0,-0.002556550083681941,-0.019156524911522865,0.18757674098014832,0.15568213164806366,-0.010621560737490654,0.008325120434165001,-0.00022788354544900358,0.0,-0.0063154930248856544,-0.028581082820892334,-0.1083020269870758,-0.03223831579089165,,,,,,,,,,,,,,,,,,,,,,,,,,,,,,,,,,,,,,,,,,,,,,,,,,,,,,,,,,,,,,,,,,,,,,,,
1696194467.3243778,1.0407575368881226,1.8772070407867432,-0.027210883796215057,0.0,0.785422682762146,-7.07607832737267e-05,0.6069292426109314,0.6068040132522583,1.040711760520935,1.8957561254501343,-0.030412383377552032,0.0,0.7853214740753174,-0.0001739764556987211,-0.6056585311889648,-0.6056579947471619,,,,,,,,,,,,,,,,,,,,,,,,,,,,,,,,,,,,,,,,,,,,,,,,,,,,,,,,,,,,,,,,,,,,,,,,,,,,,,,,,,,,,,,,,,,,,,,,,,,,,,,,,,,,,,,,,,,,,,,,,,,,,,,,,,,,,,-0.020159227773547173,0.019963406026363373,0.001433026627637446,0.0,-0.0007889086264185607,0.031091943383216858,0.08992620557546616,0.11699573695659637,-0.036996882408857346,-0.04153183847665787,0.018459374085068703,0.0,-0.01888415217399597,-0.06587590277194977,-0.0673925057053566,0.04219711944460869,,,,,,,,,,,,,,,,,,,,,,,,,,,,,,,,,,,,,,,,,,,,,,,,,,,,,,,,,,,,,,,,,,,,,,,,
1696194467.4365594,1.0390284061431885,1.88009774684906,-0.02731819450855255,0.0,0.7853749394416809,8.015659841476008e-05,0.6132798790931702,0.6133111715316772,1.0388538837432861,1.8932126760482788,-0.02954559400677681,0.0,0.78532475233078,-9.248252172255889e-05,-0.6128029227256775,-0.6129101514816284,,,,,,,,,,,,,,,,,,,,,,,,,,,,,,,,,,,,,,,,,,,,,,,,,,,,,,,,,,,,,,,,,,,,,,,,,,,,,,,,,,,,,,,,,,,,,,,,,,,,,,,,,,,,,,,,,,,,,,,,,,,,,,,,,,,,,,-0.0014291796833276749,-0.0125697897747159,0.004090328700840473,0.0,-0.025104979053139687,0.07981640100479126,-0.01365838572382927,0.04573173075914383,-0.022714633494615555,-0.07269109040498734,0.018529901280999184,0.0,0.0038819480687379837,0.019315088167786598,-0.08013298362493515,-0.09735512733459473,,,,,,,,,,,,,,,,,,,,,,,,,,,,,,,,,,,,,,,,,,,,,,,,,,,,,,,,,,,,,,,,,,,,,,,,
1696194467.5901496,1.0374526977539062,1.8843326568603516,-0.027700986713171005,0.0,0.7853900194168091,2.2624195480602793e-05,0.6194025278091431,0.6193762421607971,1.0371688604354858,1.887940526008606,-0.02824794501066208,0.0,0.7852560877799988,-0.00030992162646725774,-0.6204091310501099,-0.6202093362808228,,,,,,,,,,,,,,,,,,,,,,,,,,,,,,,,,,,,,,,,,,,,,,,,,,,,,,,,,,,,,,,,,,,,,,,,,,,,,,,,,,,,,,,,,,,,,,,,,,,,,,,,,,,,,,,,,,,,,,,,,,,,,,,,,,,,,,-0.0071234689094126225,0.01539093628525734,-0.001681924914009869,0.0,-0.014604189433157444,0.030957011505961418,0.0175914466381073,0.026032209396362305,-0.009617251344025135,-0.09386558830738068,0.02061479724943638,0.0,-0.027760019525885582,-0.0828237384557724,-0.03243469074368477,0.04212343320250511,,,,,,,,,,,,,,,,,,,,,,,,,,,,,,,,,,,,,,,,,,,,,,,,,,,,,,,,,,,,,,,,,,,,,,,,
1696194467.7042289,1.0371558666229248,1.8883278369903564,-0.028327271342277527,0.0,0.7854393124580383,8.402877938351594e-06,0.6214160919189453,0.6214810609817505,1.0372744798660278,1.8853029012680054,-0.027823828160762787,0.0,0.7854140996932983,0.00011084374273195863,-0.6214874386787415,-0.621496319770813,,,,,,,,,,,,,,,,,,,,,,,,,,,,,,,,,,,,,,,,,,,,,,,,,,,,,,,,,,,,,,,,,,,,,,,,,,,,,,,,,,,,,,,,,,,,,,,,,,,,,,,,,,,,,,,,,,,,,,,,,,,,,,,,,,,,,,0.006500072777271271,0.02972438931465149,-0.0036571300588548183,0.0,-0.01953517086803913,0.07721766084432602,-0.08584588766098022,-0.030080905184149742,-0.0019495886517688632,0.003072533756494522,-0.0010234073270112276,0.0,0.02687140367925167,0.07966186106204987,0.012031539343297482,-0.05332273989915848,,,,,,,,,,,,,,,,,,,,,,,,,,,,,,,,,,,,,,,,,,,,,,,,,,,,,,,,,,,,,,,,,,,,,,,,
1696194467.8329592,1.0381931066513062,1.8928533792495728,-0.029372019693255424,0.0,0.7855103015899658,-0.00030136029818095267,0.6210692524909973,0.620925784111023,1.0385186672210693,1.8804678916931152,-0.02726682275533676,0.0,0.7853649854660034,-1.946203610714292e-06,-0.6204073429107666,-0.6203709840774536,,,,,,,,,,,,,,,,,,,,,,,,,,,,,,,,,,,,,,,,,,,,,,,,,,,,,,,,,,,,,,,,,,,,,,,,,,,,,,,,,,,,,,,,,,,,,,,,,,,,,,,,,,,,,,,,,,,,,,,,,,,,,,,,,,,,,,0.031084060668945312,0.06950026750564575,-0.025837671011686325,0.0,0.015825800597667694,-0.050670892000198364,0.055406879633665085,0.018062062561511993,-7.969716534717008e-05,-0.007565895561128855,0.0018318330403417349,0.0,3.534020288498141e-05,0.010119261220097542,0.03467513993382454,-0.02948564849793911,,,,,,,,,,,,,,,,,,,,,,,,,,,,,,,,,,,,,,,,,,,,,,,,,,,,,,,,,,,,,,,,,,,,,,,,
1696194467.9379518,1.039712905883789,1.8953206539154053,-0.03012898378074169,0.0,0.7854511141777039,5.432029502117075e-05,0.617756187915802,0.6179428100585938,1.0404739379882812,1.8769557476043701,-0.02710844948887825,0.0,0.7853627800941467,-9.1127360065002e-05,-0.6171552538871765,-0.6166377663612366,,,,,,,,,,,,,,,,,,,,,,,,,,,,,,,,,,,,,,,,,,,,,,,,,,,,,,,,,,,,,,,,,,,,,,,,,,,,,,,,,,,,,,,,,,,,,,,,,,,,,,,,,,,,,,,,,,,,,,,,,,,,,,,,,,,,,,0.0211812574416399,0.023276368156075478,-0.005818310659378767,0.0,-0.011500016786158085,0.07534667104482651,-0.15169861912727356,-0.09776226431131363,0.02220279909670353,-0.03415973111987114,0.0009192071738652885,0.0,0.01014945562928915,0.02963312715291977,0.09050273895263672,0.09152878820896149,,,,,,,,,,,,,,,,,,,,,,,,,,,,,,,,,,,,,,,,,,,,,,,,,,,,,,,,,,,,,,,,,,,,,,,,
1696194468.0681057,1.042660117149353,1.8978636264801025,-0.031230751425027847,0.0,0.7854135632514954,0.00011954621732002124,0.6110769510269165,0.6112902760505676,1.0436298847198486,1.873291254043579,-0.02719334326684475,0.0,0.7853770852088928,-3.30237417074386e-05,-0.6101462841033936,-0.6097565293312073,,,,,,,,,,,,,,,,,,,,,,,,,,,,,,,,,,,,,,,,,,,,,,,,,,,,,,,,,,,,,,,,,,,,,,,,,,,,,,,,,,,,,,,,,,,,,,,,,,,,,,,,,,,,,,,,,,,,,,,,,,,,,,,,,,,,,,0.0012991329422220588,0.010175743140280247,0.004993031267076731,0.0,-0.013130206614732742,0.05738837271928787,-0.1614256501197815,-0.11937674880027771,-0.002603006549179554,-0.01064205914735794,0.004185444675385952,0.0,0.005885883700102568,0.030653994530439377,0.10567382723093033,0.08567000925540924,,,,,,,,,,,,,,,,,,,,,,,,,,,,,,,,,,,,,,,,,,,,,,,,,,,,,,,,,,,,,,,,,,,,,,,,
1696194468.2097716,1.0463145971298218,1.8989185094833374,-0.03227304294705391,0.0,0.785428524017334,-9.502560715191066e-05,0.6023862957954407,0.602389931678772,1.0471911430358887,1.8710030317306519,-0.027627067640423775,0.0,0.7853704690933228,-0.00016704146401025355,-0.6017820239067078,-0.6010801196098328,,,,,,,,,,,,,,,,,,,,,,,,,,,,,,,,,,,,,,,,,,,,,,,,,,,,,,,,,,,,,,,,,,,,,,,,,,,,,,,,,,,,,,,,,,,,,,,,,,,,,,,,,,,,,,,,,,,,,,,,,,,,,,,,,,,,,,0.04210926964879036,-0.006248134654015303,-0.01258817221969366,0.0,0.003523454302921891,-0.02730141580104828,-0.005298289004713297,-0.03641591966152191,0.06428896635770798,-0.020649295300245285,-0.012739894911646843,0.0,-0.005014447029680014,-0.031009860336780548,0.10859110951423645,0.20301936566829681,,,,,,,,,,,,,,,,,,,,,,,,,,,,,,,,,,,,,,,,,,,,,,,,,,,,,,,,,,,,,,,,,,,,,,,,
1696194468.3612134,1.0492322444915771,1.8988568782806396,-0.032922886312007904,0.0,0.7854166626930237,3.175064193783328e-05,0.5937814712524414,0.5938584804534912,1.0506303310394287,1.8699321746826172,-0.02823523059487343,0.0,0.7853901386260986,-0.00012327097647357732,-0.591802179813385,-0.5911358594894409,,,,,,,,,,,,,,,,,,,,,,,,,,,,,,,,,,,,,,,,,,,,,,,,,,,,,,,,,,,,,,,,,,,,,,,,,,,,,,,,,,,,,,,,,,,,,,,,,,,,,,,,,,,,,,,,,,,,,,,,,,,,,,,,,,,,,,0.0034372846130281687,0.008152716793119907,-0.0002577388659119606,0.0,0.0024125762283802032,0.01280891615897417,-0.07521098107099533,-0.0656907930970192,0.06216305121779442,-6.733727059327066e-05,-0.015354865230619907,0.0,-0.003826156724244356,-0.02958761528134346,0.12947800755500793,0.23046164214611053,,,,,,,,,,,,,,,,,,,,,,,,,,,,,,,,,,,,,,,,,,,,,,,,,,,,,,,,,,,,,,,,,,,,,,,,
1696194468.4993453,1.0533766746520996,1.897068977355957,-0.033578481525182724,0.0,0.785406768321991,9.225354733644053e-05,0.579724133014679,0.5798702239990234,1.054574966430664,1.8701990842819214,-0.02919543720781803,0.0,0.7853943109512329,-0.00013127841521054506,-0.5776944160461426,-0.5768346190452576,,,,,,,,,,,,,,,,,,,,,,,,,,,,,,,,,,,,,,,,,,,,,,,,,,,,,,,,,,,,,,,,,,,,,,,,,,,,,,,,,,,,,,,,,,,,,,,,,,,,,,,,,,,,,,,,,,,,,,,,,,,,,,,,,,,,,,0.02541033737361431,-0.010825037956237793,-0.0024106064811348915,0.0,0.004195588640868664,-0.004841094370931387,-0.18455635011196136,-0.18265333771705627,0.04996803402900696,0.017372697591781616,-0.014601599425077438,0.0,-0.011103751137852669,-0.0386321097612381,0.2368040680885315,0.32633882761001587,,,,,,,,,,,,,,,,,,,,,,,,,,,,,,,,,,,,,,,,,,,,,,,,,,,,,,,,,,,,,,,,,,,,,,,,
1696194468.7514043,1.0581306219100952,1.8931868076324463,-0.03401559963822365,0.0,0.7853578925132751,0.0003010566288139671,0.5603342652320862,0.560543954372406,1.0576190948486328,1.8709828853607178,-0.030027739703655243,0.0,0.7854325175285339,9.560200123814866e-05,-0.5648632049560547,-0.5648819804191589,,,,,,,,,,,,,,,,,,,,,,,,,,,,,,,,,,,,,,,,,,,,,,,,,,,,,,,,,,,,,,,,,,,,,,,,,,,,,,,,,,,,,,,,,,,,,,,,,,,,,,,,,,,,,,,,,,,,,,,,,,,,,,,,,,,,,,0.07265271991491318,-0.11293525993824005,0.00029519901727326214,0.0,-0.0007502140942960978,0.06174463778734207,-0.26604628562927246,-0.2187676876783371,0.012820277363061905,0.003600548952817917,-0.0035515516065061092,0.0,0.017414448782801628,0.05563089996576309,0.02574349194765091,-0.06123572587966919,,,,,,,,,,,,,,,,,,,,,,,,,,,,,,,,,,,,,,,,,,,,,,,,,,,,,,,,,,,,,,,,,,,,,,,,
1696194468.8451347,1.0595805644989014,1.890683889389038,-0.03391081839799881,0.0,0.7852503061294556,0.0005897613009437919,0.5510810613632202,0.5512621402740479,1.059931755065918,1.8737798929214478,-0.031071830540895462,0.0,0.7855150103569031,0.00011316085874568671,-0.551572859287262,-0.5505357384681702,,,,,,,,,,,,,,,,,,,,,,,,,,,,,,,,,,,,,,,,,,,,,,,,,,,,,,,,,,,,,,,,,,,,,,,,,,,,,,,,,,,,,,,,,,,,,,,,,,,,,,,,,,,,,,,,,,,,,,,,,,,,,,,,,,,,,,0.08464005589485168,-0.19101785123348236,0.01317824237048626,0.0,-0.024841880425810814,0.0913827046751976,-0.5078332424163818,-0.49018594622612,0.06949903815984726,0.13322344422340393,-0.03897774964570999,0.0,0.009231967851519585,-0.012560253031551838,0.5191781520843506,0.6939853429794312,,,,,,,,,,,,,,,,,,,,,,,,,,,,,,,,,,,,,,,,,,,,,,,,,,,,,,,,,,,,,,,,,,,,,,,,
1696194468.9720926,1.0608636140823364,1.887943983078003,-0.033730123192071915,0.0,0.7852928042411804,0.00029664853354915977,0.539803147315979,0.5397686958312988,1.0612386465072632,1.8765593767166138,-0.03185831010341644,0.0,0.7854475378990173,7.950817234814167e-05,-0.5382730960845947,-0.5378615260124207,,,,,,,,,,,,,,,,,,,,,,,,,,,,,,,,,,,,,,,,,,,,,,,,,,,,,,,,,,,,,,,,,,,,,,,,,,,,,,,,,,,,,,,,,,,,,,,,,,,,,,,,,,,,,,,,,,,,,,,,,,,,,,,,,,,,,,0.027619000524282455,-0.08891475200653076,0.010119310580193996,0.0,-0.010323104448616505,0.04159596934914589,-0.273072212934494,-0.24690350890159607,0.022374574095010757,0.10422728955745697,-0.023670777678489685,0.0,-0.013675341382622719,-0.044423896819353104,0.3513147532939911,0.42070069909095764,,,,,,,,,,,,,,,,,,,,,,,,,,,,,,,,,,,,,,,,,,,,,,,,,,,,,,,,,,,,,,,,,,,,,,,,
1696194469.1575112,1.0624825954437256,1.8824235200881958,-0.03314557671546936,0.0,0.7853173613548279,0.0002452882472425699,0.519442617893219,0.5193081498146057,1.0625243186950684,1.8812991380691528,-0.03297727555036545,0.0,0.7854338884353638,4.9930778914131224e-05,-0.5180570483207703,-0.5177752375602722,,,,,,,,,,,,,,,,,,,,,,,,,,,,,,,,,,,,,,,,,,,,,,,,,,,,,,,,,,,,,,,,,,,,,,,,,,,,,,,,,,,,,,,,,,,,,,,,,,,,,,,,,,,,,,,,,,,,,,,,,,,,,,,,,,,,,,0.008944271132349968,-0.08317700028419495,0.012995695695281029,0.0,-0.0017867130227386951,0.0029873084276914597,-0.23673808574676514,-0.2680898606777191,0.0016577866626903415,0.0703033059835434,-0.011490761302411556,0.0,-0.007127305027097464,-0.036861151456832886,0.29249054193496704,0.35375091433525085,,,,,,,,,,,,,,,,,,,,,,,,,,,,,,,,,,,,,,,,,,,,,,,,,,,,,,,,,,,,,,,,,,,,,,,,
1696194469.306726,1.0627249479293823,1.8772059679031372,-0.032303981482982635,0.0,0.7853459119796753,1.9232165868743323e-05,0.499597430229187,0.49916204810142517,1.0625633001327515,1.8858652114868164,-0.03378373757004738,0.0,0.7854567170143127,0.0002494466316420585,-0.5006498098373413,-0.5007697939872742,,,,,,,,,,,,,,,,,,,,,,,,,,,,,,,,,,,,,,,,,,,,,,,,,,,,,,,,,,,,,,,,,,,,,,,,,,,,,,,,,,,,,,,,,,,,,,,,,,,,,,,,,,,,,,,,,,,,,,,,,,,,,,,,,,,,,,-0.007001179736107588,-0.03122781589627266,0.004402559716254473,0.0,0.010225825943052769,-0.0709194764494896,-0.15090404450893402,-0.21269701421260834,-0.014818020164966583,0.09449974447488785,-0.013818351551890373,0.0,0.007985144853591919,0.049847643822431564,0.21065616607666016,0.15760521590709686,,,,,,,,,,,,,,,,,,,,,,,,,,,,,,,,,,,,,,,,,,,,,,,,,,,,,,,,,,,,,,,,,,,,,,,,
1696194469.4423614,1.061888337135315,1.8733447790145874,-0.03145040571689606,0.0,0.7853802442550659,-0.00013471282727550715,0.48376256227493286,0.4833165407180786,1.0612921714782715,1.890968918800354,-0.034371934831142426,0.0,0.7854313254356384,0.0001534843468107283,-0.4813944399356842,-0.4814625680446625,,,,,,,,,,,,,,,,,,,,,,,,,,,,,,,,,,,,,,,,,,,,,,,,,,,,,,,,,,,,,,,,,,,,,,,,,,,,,,,,,,,,,,,,,,,,,,,,,,,,,,,,,,,,,,,,,,,,,,,,,,,,,,,,,,,,,,-0.0032481045927852392,0.0018759815720841289,-0.006291605066508055,0.0,0.015239677391946316,-0.08918382227420807,-0.038778066635131836,-0.09503399580717087,-0.018230313435196877,0.05326669663190842,-0.005286746192723513,0.0,0.006522022653371096,0.04276261851191521,0.11701556295156479,0.07826486229896545,,,,,,,,,,,,,,,,,,,,,,,,,,,,,,,,,,,,,,,,,,,,,,,,,,,,,,,,,,,,,,,,,,,,,,,,
1696194469.587209,1.0600647926330566,1.8697704076766968,-0.030405431985855103,0.0,0.7853751182556152,-0.00014149554772302508,0.46721234917640686,0.4667221009731293,1.0599339008331299,1.8940526247024536,-0.03458966314792633,0.0,0.7853955626487732,-5.688734745490365e-05,-0.46926918625831604,-0.46925926208496094,,,,,,,,,,,,,,,,,,,,,,,,,,,,,,,,,,,,,,,,,,,,,,,,,,,,,,,,,,,,,,,,,,,,,,,,,,,,,,,,,,,,,,,,,,,,,,,,,,,,,,,,,,,,,,,,,,,,,,,,,,,,,,,,,,,,,,-0.003147839568555355,-0.0011353405425325036,-0.006279389373958111,0.0,0.012034066021442413,-0.08279211074113846,-0.035207461565732956,-0.08437972515821457,0.0018915197579190135,0.0014034388586878777,-0.0014369575073942542,0.0,-0.0024381945841014385,-0.044521115720272064,0.0880182683467865,0.14037370681762695,,,,,,,,,,,,,,,,,,,,,,,,,,,,,,,,,,,,,,,,,,,,,,,,,,,,,,,,,,,,,,,,,,,,,,,,
