MHC-RobotSimulators-Research/Data_Analysis_MotionReplication/test_trials/test_trial_1_rs.csv
time,jpos0,jpos1,jpos2,jpos3,jpos4,jpos5,jpos6,jpos7,jpos8,jpos9,jpos10,jpos11,jpos12,jpos13,jpos14,jpos15,runlevel,sublevel,last_seq,type0,type1,pos0,pos1,pos2,pos3,pos4,pos5,ori0,ori1,ori2,ori3,ori4,ori5,ori6,ori7,ori8,ori9,ori10,ori11,ori12,ori13,ori14,ori15,ori16,ori17,ori_d0,ori_d1,ori_d2,ori_d3,ori_d4,ori_d5,ori_d6,ori_d7,ori_d8,ori_d9,ori_d10,ori_d11,ori_d12,ori_d13,ori_d14,ori_d15,ori_d16,ori_d17,pos_d0,pos_d1,pos_d2,pos_d3,pos_d4,pos_d5,encVals0,encVals1,encVals2,encVals3,encVals4,encVals5,encVals6,encVals7,encVals8,encVals9,encVals10,encVals11,encVals12,encVals13,encVals14,encVals15,dac_vals0,dac_vals1,dac_vals2,dac_vals3,dac_vals4,dac_vals5,dac_vals6,dac_vals7,dac_vals8,dac_vals9,dac_vals10,dac_vals11,dac_vals12,dac_vals13,dac_vals14,dac_vals15,Tau0,Tau1,Tau2,Tau3,Tau4,Tau5,Tau6,Tau7,Tau8,Tau9,Tau10,Tau11,Tau12,Tau13,Tau14,Tau15,mpos0,mpos1,mpos2,mpos3,mpos4,mpos5,mpos6,mpos7,mpos8,mpos9,mpos10,mpos11,mpos12,mpos13,mpos14,mpos15,mvel0,mvel1,mvel2,mvel3,mvel4,mvel5,mvel6,mvel7,mvel8,mvel9,mvel10,mvel11,mvel12,mvel13,mvel14,mvel15,jvel0,jvel1,jvel2,jvel3,jvel4,jvel5,jvel6,jvel7,jvel8,jvel9,jvel10,jvel11,jvel12,jvel13,jvel14,jvel15,jpos_d0,jpos_d1,jpos_d2,jpos_d3,jpos_d4,jpos_d5,jpos_d6,jpos_d7,jpos_d8,jpos_d9,jpos_d10,jpos_d11,jpos_d12,jpos_d13,jpos_d14,jpos_d15,grasp_d0,grasp_d1,grasp_d2,grasp_d3,grasp_d4,grasp_d5,grasp_d6,grasp_d7,grasp_d8,grasp_d9,grasp_d10,grasp_d11,grasp_d12,grasp_d13,grasp_d14,grasp_d15,encoffsets0,encoffsets1,encoffsets2,encoffsets3,encoffsets4,encoffsets5,encoffsets6,encoffsets7,encoffsets8,encoffsets9,encoffsets10,encoffsets11,encoffsets12,encoffsets13,encoffsets14,encoffsets15,jac_vel0,jac_vel1,jac_vel2,jac_vel3,jac_vel4,jac_vel5,jac_vel6,jac_vel7,jac_vel8,jac_vel9,jac_vel10,jac_vel11,jac_f0,jac_f1,jac_f2,jac_f3,jac_f4,jac_f5,jac_f6,jac_f7,jac_f8,jac_f9,jac_f10,jac_f11
1696193737.2241514,1.0467129945755005,1.8840833902359009,-0.029986117035150528,0.0,2.3551042079925537,6.349483380582363e-16,0.5233564972877502,0.5233564972877502,1.0467129945755005,1.8840833902359009,-0.029986117035150528,0.0,2.3551042079925537,-5.686363838429192e-15,0.5233564972877502,0.5233564972877502,,,,,,,,,,,,,,,,,,,,,,,,,,,,,,,,,,,,,,,,,,,,,,,,,,,,,,,,,,,,,,,,,,,,,,,,,,,,,,,,,,,,,,,,,,,,,,,,,,,,,,,,,,,,,,,,,,,,,,,,,,,,,,,,,,,,,,0.0,0.0,0.0,0.0,0.0,0.0,0.0,0.0,0.0,0.0,0.0,0.0,0.0,0.0,0.0,0.0,,,,,,,,,,,,,,,,,,,,,,,,,,,,,,,,,,,,,,,,,,,,,,,,,,,,,,,,,,,,,,,,,,,,,,,,
1696193740.522742,1.0502195358276367,1.8814812898635864,-0.030095187947154045,0.0,0.8404881954193115,4.447084393177647e-06,0.44915133714675903,0.44927552342414856,1.0500726699829102,1.8871428966522217,-0.03104369528591633,0.0,0.8605855107307434,3.601498974603601e-05,-0.4002900719642639,-0.4004695415496826,,,,,,,,,,,,,,,,,,,,,,,,,,,,,,,,,,,,,,,,,,,,,,,,,,,,,,,,,,,,,,,,,,,,,,,,,,,,,,,,,,,,,,,,,,,,,,,,,,,,,,,,,,,,,,,,,,,,,,,,,,,,,,,,,,,,,,0.0012218736810609698,-0.001614607172086835,-4.780518793268129e-05,0.0,-0.6618467569351196,0.012097664177417755,-0.01527413446456194,-0.021602822467684746,0.0001825930958148092,0.0001738870923873037,-2.3334025172516704e-05,0.0,-0.025208767503499985,-0.014828015118837357,-0.2628318667411804,-0.18534839153289795,,,,,,,,,,,,,,,,,,,,,,,,,,,,,,,,,,,,,,,,,,,,,,,,,,,,,,,,,,,,,,,,,,,,,,,,
1696193740.9351065,1.0502511262893677,1.8846296072006226,-0.030648982152342796,0.0,0.7922506928443909,-8.079342478595208e-06,0.5711370706558228,0.571317732334137,1.050255298614502,1.8842145204544067,-0.03057517297565937,0.0,0.7935235500335693,9.753416088642552e-05,-0.5555890202522278,-0.5563086867332458,,,,,,,,,,,,,,,,,,,,,,,,,,,,,,,,,,,,,,,,,,,,,,,,,,,,,,,,,,,,,,,,,,,,,,,,,,,,,,,,,,,,,,,,,,,,,,,,,,,,,,,,,,,,,,,,,,,,,,,,,,,,,,,,,,,,,,7.072157313814387e-05,0.004276922903954983,-0.0006370585761032999,0.0,-0.0364232063293457,0.0015586977824568748,0.1573551893234253,0.16804853081703186,0.000735949317459017,-0.02154356613755226,0.00365479220636189,0.0,-0.030714508146047592,0.014517528936266899,-0.6669620275497437,-0.734620213508606,,,,,,,,,,,,,,,,,,,,,,,,,,,,,,,,,,,,,,,,,,,,,,,,,,,,,,,,,,,,,,,,,,,,,,,,
1696193741.3902392,1.0483827590942383,1.883554458618164,-0.03002891130745411,0.0,0.7862564921379089,4.159567652095575e-06,0.49300384521484375,0.492803156375885,1.0483381748199463,1.885869026184082,-0.030421102419495583,0.0,0.7861859202384949,-3.0530794902006164e-05,-0.49298906326293945,-0.4927021563053131,,,,,,,,,,,,,,,,,,,,,,,,,,,,,,,,,,,,,,,,,,,,,,,,,,,,,,,,,,,,,,,,,,,,,,,,,,,,,,,,,,,,,,,,,,,,,,,,,,,,,,,,,,,,,,,,,,,,,,,,,,,,,,,,,,,,,,-0.0022050710394978523,-0.001850776607170701,0.0007864526705816388,0.0,-0.0032739518210291862,-0.0006795910303480923,-0.12509605288505554,-0.12046076357364655,-0.007327523548156023,0.01161267515271902,-0.00027294823667034507,0.0,-0.015847593545913696,-0.0033924051094800234,0.31817060708999634,0.35143032670021057,,,,,,,,,,,,,,,,,,,,,,,,,,,,,,,,,,,,,,,,,,,,,,,,,,,,,,,,,,,,,,,,,,,,,,,,
1696193741.5498965,1.0493594408035278,1.8835861682891846,-0.030253665521740913,0.0,0.7859014272689819,9.112029511015862e-05,0.4554162323474884,0.4549877941608429,1.0494340658187866,1.8853349685668945,-0.030583009123802185,0.0,0.7858290076255798,-0.00014274103159550577,-0.45441538095474243,-0.45338231325149536,,,,,,,,,,,,,,,,,,,,,,,,,,,,,,,,,,,,,,,,,,,,,,,,,,,,,,,,,,,,,,,,,,,,,,,,,,,,,,,,,,,,,,,,,,,,,,,,,,,,,,,,,,,,,,,,,,,,,,,,,,,,,,,,,,,,,,-0.0016029966063797474,-0.0008798661874607205,0.006166122388094664,0.0,-0.02280217595398426,0.03106369823217392,-0.47331950068473816,-0.44437599182128906,0.014327578246593475,-0.010075693018734455,-0.0005582748563028872,0.0,0.008176134899258614,0.01595236547291279,0.6074346303939819,0.6655535101890564,,,,,,,,,,,,,,,,,,,,,,,,,,,,,,,,,,,,,,,,,,,,,,,,,,,,,,,,,,,,,,,,,,,,,,,,
1696193741.9982119,1.0484168529510498,1.8844776153564453,-0.03019467368721962,0.0,0.785426914691925,1.3519804269890301e-05,0.538701057434082,0.5390669703483582,1.0484586954116821,1.8849172592163086,-0.030283741652965546,0.0,0.7854952216148376,7.175034988904372e-05,-0.5373810529708862,-0.5378878712654114,,,,,,,,,,,,,,,,,,,,,,,,,,,,,,,,,,,,,,,,,,,,,,,,,,,,,,,,,,,,,,,,,,,,,,,,,,,,,,,,,,,,,,,,,,,,,,,,,,,,,,,,,,,,,,,,,,,,,,,,,,,,,,,,,,,,,,-0.010253334417939186,0.003557344665750861,0.002755118068307638,0.0,-0.011769800446927547,0.003499356098473072,0.260439932346344,0.2195044457912445,0.0006403294391930103,0.0016572627937421203,-0.0008349924464710057,0.0,-0.02256937138736248,-0.010637952946126461,-0.36355137825012207,-0.3392459452152252,,,,,,,,,,,,,,,,,,,,,,,,,,,,,,,,,,,,,,,,,,,,,,,,,,,,,,,,,,,,,,,,,,,,,,,,
1696193742.207181,1.0489243268966675,1.8842437267303467,-0.03026190958917141,0.0,0.7854799628257751,0.00021250128338579088,0.5612524747848511,0.5619102716445923,1.049208164215088,1.8849400281906128,-0.03046167828142643,0.0,0.7854296565055847,-0.0001139937448897399,-0.5627936124801636,-0.5622268319129944,,,,,,,,,,,,,,,,,,,,,,,,,,,,,,,,,,,,,,,,,,,,,,,,,,,,,,,,,,,,,,,,,,,,,,,,,,,,,,,,,,,,,,,,,,,,,,,,,,,,,,,,,,,,,,,,,,,,,,,,,,,,,,,,,,,,,,-0.029765980318188667,0.033162783831357956,0.012796455062925816,0.0,0.0077586001716554165,0.053025130182504654,-0.0329136922955513,-0.026369977742433548,0.0082708103582263,-0.01012396439909935,0.0027053062804043293,0.0,-0.013529344461858273,-0.01599382422864437,-0.019944442436099052,0.03441378101706505,,,,,,,,,,,,,,,,,,,,,,,,,,,,,,,,,,,,,,,,,,,,,,,,,,,,,,,,,,,,,,,,,,,,,,,,
1696193742.618124,1.0485228300094604,1.8844386339187622,-0.030211661010980606,0.0,0.785378098487854,-3.353252031956799e-05,0.459382563829422,0.4579439163208008,1.048718810081482,1.8849153518676758,-0.0303407683968544,0.0,0.7852379679679871,-0.00010788976214826107,-0.47018522024154663,-0.4697234332561493,,,,,,,,,,,,,,,,,,,,,,,,,,,,,,,,,,,,,,,,,,,,,,,,,,,,,,,,,,,,,,,,,,,,,,,,,,,,,,,,,,,,,,,,,,,,,,,,,,,,,,,,,,,,,,,,,,,,,,,,,,,,,,,,,,,,,,-0.014236902818083763,0.005607195198535919,0.0021832333877682686,0.0,-0.013964543119072914,-0.006719449535012245,-0.7628243565559387,-0.8669437170028687,-0.017983613535761833,-0.00159567897208035,0.0051727923564612865,0.0,-0.024670833721756935,-0.0115160858258605,0.49290794134140015,0.5318804979324341,,,,,,,,,,,,,,,,,,,,,,,,,,,,,,,,,,,,,,,,,,,,,,,,,,,,,,,,,,,,,,,,,,,,,,,,
1696193742.7492604,1.0497337579727173,1.884281039237976,-0.030480528250336647,0.0,0.7854074835777283,-7.505893154302612e-05,0.4326320290565491,0.4325670599937439,1.0488941669464111,1.8847211599349976,-0.03034648299217224,0.0,0.785365641117096,-2.3875056285760365e-05,-0.4341123104095459,-0.43382662534713745,,,,,,,,,,,,,,,,,,,,,,,,,,,,,,,,,,,,,,,,,,,,,,,,,,,,,,,,,,,,,,,,,,,,,,,,,,,,,,,,,,,,,,,,,,,,,,,,,,,,,,,,,,,,,,,,,,,,,,,,,,,,,,,,,,,,,,0.033445995301008224,-0.011637433432042599,-0.010009370744228363,0.0,-0.0019449020037427545,-0.020252542570233345,-0.0379769466817379,-0.0861910954117775,-0.012379951775074005,-0.002824752125889063,0.005774855613708496,0.0,-0.010767638683319092,0.014848261140286922,0.11845648288726807,0.08647126704454422,,,,,,,,,,,,,,,,,,,,,,,,,,,,,,,,,,,,,,,,,,,,,,,,,,,,,,,,,,,,,,,,,,,,,,,,
1696193743.1329865,1.0485824346542358,1.8840973377227783,-0.03016408160328865,0.0,0.7853440046310425,3.423692032811232e-05,0.5287097692489624,0.5294528603553772,1.0486105680465698,1.8852119445800781,-0.030368268489837646,0.0,0.7855533957481384,0.0001394596038153395,-0.5262690782546997,-0.5269039273262024,,,,,,,,,,,,,,,,,,,,,,,,,,,,,,,,,,,,,,,,,,,,,,,,,,,,,,,,,,,,,,,,,,,,,,,,,,,,,,,,,,,,,,,,,,,,,,,,,,,,,,,,,,,,,,,,,,,,,,,,,,,,,,,,,,,,,,-0.018209533765912056,0.0013444963842630386,0.005179706960916519,0.0,-0.013604194857180119,0.010591319762170315,0.498867928981781,0.5932819247245789,-0.019562924280762672,0.006254341918975115,0.003999066073447466,0.0,0.022356145083904266,0.015832537785172462,-0.4725635051727295,-0.4895578622817993,,,,,,,,,,,,,,,,,,,,,,,,,,,,,,,,,,,,,,,,,,,,,,,,,,,,,,,,,,,,,,,,,,,,,,,,
1696193743.2750292,1.0489012002944946,1.8845140933990479,-0.030313637107610703,0.0,0.7854039072990417,9.861723083304241e-05,0.566008448600769,0.5663661956787109,1.0489104986190796,1.8846601247787476,-0.030346782878041267,0.0,0.7854491472244263,1.3050274901615921e-05,-0.5650962591171265,-0.5651790499687195,,,,,,,,,,,,,,,,,,,,,,,,,,,,,,,,,,,,,,,,,,,,,,,,,,,,,,,,,,,,,,,,,,,,,,,,,,,,,,,,,,,,,,,,,,,,,,,,,,,,,,,,,,,,,,,,,,,,,,,,,,,,,,,,,,,,,,-0.0028684798162430525,-0.0013950836146250367,0.004217358306050301,0.0,-0.004138030577450991,0.051166679710149765,0.12713146209716797,0.1513037383556366,0.015838874503970146,-0.019175009801983833,-0.00022627590806223452,0.0,-0.004470656625926495,0.02125711739063263,-0.376177042722702,-0.3740044832229614,,,,,,,,,,,,,,,,,,,,,,,,,,,,,,,,,,,,,,,,,,,,,,,,,,,,,,,,,,,,,,,,,,,,,,,,
1696193743.5895257,1.049367904663086,1.8833119869232178,-0.030215183272957802,0.0,0.7853811383247375,-2.7611169571173377e-05,0.5091131329536438,0.5087893605232239,1.0492395162582397,1.8858716487884521,-0.030630605295300484,0.0,0.7853286266326904,-1.3059950106253382e-05,-0.5037818551063538,-0.5035327672958374,,,,,,,,,,,,,,,,,,,,,,,,,,,,,,,,,,,,,,,,,,,,,,,,,,,,,,,,,,,,,,,,,,,,,,,,,,,,,,,,,,,,,,,,,,,,,,,,,,,,,,,,,,,,,,,,,,,,,,,,,,,,,,,,,,,,,,-0.0008864006958901882,-0.0005020977114327252,-0.0005503292195498943,0.0,-0.0037871713284403086,-0.020379647612571716,-0.19150422513484955,-0.17786292731761932,-0.006195079069584608,0.014734904281795025,-0.0012848202604800463,0.0,-0.006823152769356966,0.01250088308006525,0.2711489796638489,0.2325538545846939,,,,,,,,,,,,,,,,,,,,,,,,,,,,,,,,,,,,,,,,,,,,,,,,,,,,,,,,,,,,,,,,,,,,,,,,
1696193743.7957273,1.0489715337753296,1.884814977645874,-0.03038124181330204,0.0,0.7853678464889526,3.4138665796490386e-05,0.4348902106285095,0.43426579236984253,1.0489856004714966,1.8845003843307495,-0.03033265843987465,0.0,0.7852967381477356,-9.013804083224386e-05,-0.4404725134372711,-0.43975135684013367,,,,,,,,,,,,,,,,,,,,,,,,,,,,,,,,,,,,,,,,,,,,,,,,,,,,,,,,,,,,,,,,,,,,,,,,,,,,,,,,,,,,,,,,,,,,,,,,,,,,,,,,,,,,,,,,,,,,,,,,,,,,,,,,,,,,,,0.0023844437673687935,-0.008075421676039696,0.0026655662804841995,0.0,-0.015436584129929543,0.02812950871884823,-0.44712331891059875,-0.35852736234664917,0.0017393375746905804,-0.012080555781722069,0.0012697712518274784,0.0,0.025260552763938904,0.0343007929623127,0.5897169709205627,0.5887745022773743,,,,,,,,,,,,,,,,,,,,,,,,,,,,,,,,,,,,,,,,,,,,,,,,,,,,,,,,,,,,,,,,,,,,,,,,
1696193744.05138,1.0503129959106445,1.8840479850769043,-0.030564136803150177,0.0,0.7853307127952576,0.00011325294326525182,0.4344728887081146,0.43523120880126953,1.0501844882965088,1.8843858242034912,-0.030591093003749847,0.0,0.7853931784629822,-3.3094642276410013e-05,-0.43271002173423767,-0.43277567625045776,,,,,,,,,,,,,,,,,,,,,,,,,,,,,,,,,,,,,,,,,,,,,,,,,,,,,,,,,,,,,,,,,,,,,,,,,,,,,,,,,,,,,,,,,,,,,,,,,,,,,,,,,,,,,,,,,,,,,,,,,,,,,,,,,,,,,,0.025489110499620438,-0.04453151673078537,0.0013528874842450023,0.0,-0.012961618602275848,0.023005669936537743,0.3332635164260864,0.4262215495109558,-0.0014887398574501276,-0.002557299565523863,0.001447895192541182,0.0,-0.02416658215224743,-0.03246621415019035,-0.12518493831157684,-0.08958509564399719,,,,,,,,,,,,,,,,,,,,,,,,,,,,,,,,,,,,,,,,,,,,,,,,,,,,,,,,,,,,,,,,,,,,,,,,
1696193744.3964908,1.0485806465148926,1.8838592767715454,-0.03012581542134285,0.0,0.7854177951812744,-2.845408016582951e-05,0.5428515076637268,0.5436002612113953,1.0486115217208862,1.885463833808899,-0.030411478132009506,0.0,0.7855479121208191,0.00019822601461783051,-0.5395163893699646,-0.5406924486160278,,,,,,,,,,,,,,,,,,,,,,,,,,,,,,,,,,,,,,,,,,,,,,,,,,,,,,,,,,,,,,,,,,,,,,,,,,,,,,,,,,,,,,,,,,,,,,,,,,,,,,,,,,,,,,,,,,,,,,,,,,,,,,,,,,,,,,-0.009163947775959969,0.0008951197378337383,0.0012168273096904159,0.0,0.01347395684570074,-0.009204327128827572,0.57951420545578,0.5842694044113159,-0.018413333222270012,0.0030226411763578653,0.0037926603108644485,0.0,0.0003524968051351607,0.01456389483064413,-0.7827332019805908,-0.8731232285499573,,,,,,,,,,,,,,,,,,,,,,,,,,,,,,,,,,,,,,,,,,,,,,,,,,,,,,,,,,,,,,,,,,,,,,,,
1696193744.488618,1.0492138862609863,1.8850634098052979,-0.030507108196616173,0.0,0.7854698896408081,-0.00010799620940815657,0.5733660459518433,0.5740994215011597,1.0490527153015137,1.8842676877975464,-0.030310379341244698,0.0,0.7854436039924622,2.8207708965055645e-05,-0.5709248185157776,-0.5710364580154419,,,,,,,,,,,,,,,,,,,,,,,,,,,,,,,,,,,,,,,,,,,,,,,,,,,,,,,,,,,,,,,,,,,,,,,,,,,,,,,,,,,,,,,,,,,,,,,,,,,,,,,,,,,,,,,,,,,,,,,,,,,,,,,,,,,,,,0.03532949835062027,0.03846949711441994,-0.017481515184044838,0.0,0.006350064184516668,0.021451959386467934,0.3690381646156311,0.4535626173019409,0.01415962353348732,-0.021364765241742134,0.0005305809900164604,0.0,0.0017938599921762943,0.03563207760453224,-0.3577187657356262,-0.37608301639556885,,,,,,,,,,,,,,,,,,,,,,,,,,,,,,,,,,,,,,,,,,,,,,,,,,,,,,,,,,,,,,,,,,,,,,,,
1696193744.7348788,1.0503907203674316,1.8832932710647583,-0.030443895608186722,0.0,0.785393476486206,0.0001319906732533127,0.5376410484313965,0.5371360778808594,1.0502548217773438,1.8847345113754272,-0.030667584389448166,0.0,0.7853798270225525,-5.751105345552787e-05,-0.5485023856163025,-0.548316478729248,,,,,,,,,,,,,,,,,,,,,,,,,,,,,,,,,,,,,,,,,,,,,,,,,,,,,,,,,,,,,,,,,,,,,,,,,,,,,,,,,,,,,,,,,,,,,,,,,,,,,,,,,,,,,,,,,,,,,,,,,,,,,,,,,,,,,,0.00774375069886446,-0.03946717083454132,0.006340659689158201,0.0,0.0022612889297306538,0.025522002950310707,-0.42573282122612,-0.46910783648490906,-0.00028898142045363784,-0.0013418076559901237,0.0007690713973715901,0.0,0.004645355045795441,-0.01673119328916073,0.13414256274700165,0.13458621501922607,,,,,,,,,,,,,,,,,,,,,,,,,,,,,,,,,,,,,,,,,,,,,,,,,,,,,,,,,,,,,,,,,,,,,,,,
1696193745.013279,1.0484501123428345,1.8839664459228516,-0.030114490538835526,0.0,0.7853580713272095,-4.127562715439126e-05,0.44758832454681396,0.44649365544319153,1.048400640487671,1.8854331970214844,-0.030360214412212372,0.0,0.7853690385818481,-1.077529122994747e-05,-0.4459729790687561,-0.44577470421791077,,,,,,,,,,,,,,,,,,,,,,,,,,,,,,,,,,,,,,,,,,,,,,,,,,,,,,,,,,,,,,,,,,,,,,,,,,,,,,,,,,,,,,,,,,,,,,,,,,,,,,,,,,,,,,,,,,,,,,,,,,,,,,,,,,,,,,-0.009468640200793743,0.003825203515589237,0.0009035200928337872,0.0,-0.01928263157606125,-0.0036350584123283625,-0.5744072198867798,-0.5929529666900635,-0.0004691289213951677,0.0028946632519364357,-0.000932284165173769,0.0,0.017642982304096222,0.017179619520902634,0.2709132730960846,0.2505505681037903,,,,,,,,,,,,,,,,,,,,,,,,,,,,,,,,,,,,,,,,,,,,,,,,,,,,,,,,,,,,,,,,,,,,,,,,
1696193745.1246512,1.0485650300979614,1.8848024606704712,-0.030279235914349556,0.0,0.785391628742218,0.0001643668656470254,0.42263779044151306,0.422618567943573,1.0488994121551514,1.8840937614440918,-0.030246099457144737,0.0,0.7852972149848938,-0.0002496697998140007,-0.42073217034339905,-0.42017844319343567,,,,,,,,,,,,,,,,,,,,,,,,,,,,,,,,,,,,,,,,,,,,,,,,,,,,,,,,,,,,,,,,,,,,,,,,,,,,,,,,,,,,,,,,,,,,,,,,,,,,,,,,,,,,,,,,,,,,,,,,,,,,,,,,,,,,,,-0.004895468708127737,-0.005766688380390406,0.009434835985302925,0.0,-0.017785700038075447,0.07880415767431259,-0.2871744632720947,-0.2305324524641037,0.047251783311367035,-0.05990856513381004,-0.001556994509883225,0.0,-0.0132417231798172,-0.04805834963917732,0.15975813567638397,0.23684778809547424,,,,,,,,,,,,,,,,,,,,,,,,,,,,,,,,,,,,,,,,,,,,,,,,,,,,,,,,,,,,,,,,,,,,,,,,
1696193745.3455918,1.0506396293640137,1.883673906326294,-0.030573366209864616,0.0,0.7854208946228027,-2.2955360691412352e-05,0.4532518982887268,0.45348599553108215,1.050438404083252,1.8843294382095337,-0.030638467520475388,0.0,0.7854006290435791,-3.5656685213325545e-05,-0.44297492504119873,-0.44322019815444946,,,,,,,,,,,,,,,,,,,,,,,,,,,,,,,,,,,,,,,,,,,,,,,,,,,,,,,,,,,,,,,,,,,,,,,,,,,,,,,,,,,,,,,,,,,,,,,,,,,,,,,,,,,,,,,,,,,,,,,,,,,,,,,,,,,,,,0.0004312116652727127,0.002042079111561179,-0.0008990658679977059,0.0,0.014855791814625263,-0.021550580859184265,0.17663055658340454,0.13606034219264984,-0.0017522346461191773,-0.008477533236145973,0.0031072183046489954,0.0,-0.03707202151417732,-0.04660189896821976,-0.2775525450706482,-0.23164772987365723,,,,,,,,,,,,,,,,,,,,,,,,,,,,,,,,,,,,,,,,,,,,,,,,,,,,,,,,,,,,,,,,,,,,,,,,
1696193745.6122956,1.0490602254867554,1.8829935789108276,-0.030080066993832588,0.0,0.7853729724884033,-1.0304621355317067e-05,0.5313332080841064,0.5321333408355713,1.0489925146102905,1.8861725330352783,-0.030626589432358742,0.0,0.7854450941085815,8.38571140775457e-05,-0.533513605594635,-0.5341193079948425,,,,,,,,,,,,,,,,,,,,,,,,,,,,,,,,,,,,,,,,,,,,,,,,,,,,,,,,,,,,,,,,,,,,,,,,,,,,,,,,,,,,,,,,,,,,,,,,,,,,,,,,,,,,,,,,,,,,,,,,,,,,,,,,,,,,,,-0.02409505657851696,0.004599388688802719,0.005843637511134148,0.0,0.0023504046257585287,-0.010352431796491146,0.6212866306304932,0.6923009753227234,0.0023990555200725794,0.004498020280152559,-0.0023339104373008013,0.0,-0.019203824922442436,-0.012119646184146404,-0.39726415276527405,-0.3870297074317932,,,,,,,,,,,,,,,,,,,,,,,,,,,,,,,,,,,,,,,,,,,,,,,,,,,,,,,,,,,,,,,,,,,,,,,,
1696193745.7430537,1.0483698844909668,1.8842190504074097,-0.030162693932652473,0.0,0.7854692935943604,-0.00030195654835551977,0.5739462375640869,0.5743303894996643,1.0484468936920166,1.8847918510437012,-0.03026209957897663,0.0,0.785453200340271,0.0001807291409932077,-0.5808001756668091,-0.5812106728553772,,,,,,,,,,,,,,,,,,,,,,,,,,,,,,,,,,,,,,,,,,,,,,,,,,,,,,,,,,,,,,,,,,,,,,,,,,,,,,,,,,,,,,,,,,,,,,,,,,,,,,,,,,,,,,,,,,,,,,,,,,,,,,,,,,,,,,0.008261555805802345,0.07543540000915527,-0.020267946645617485,0.0,0.00905231386423111,-0.060744527727365494,0.4602518677711487,0.46110284328460693,-0.000959864177275449,0.014827805571258068,-0.003588547930121422,0.0,0.006442206911742687,0.0716700479388237,-0.30065441131591797,-0.3586726784706116,,,,,,,,,,,,,,,,,,,,,,,,,,,,,,,,,,,,,,,,,,,,,,,,,,,,,,,,,,,,,,,,,,,,,,,,
1696193745.9814057,1.0501084327697754,1.8851017951965332,-0.03070313297212124,0.0,0.7854068279266357,1.9346744011272676e-05,0.5834712982177734,0.5833295583724976,1.0503288507461548,1.8836476802825928,-0.030504530295729637,0.0,0.7853171229362488,-0.0001306298072449863,-0.581260621547699,-0.5804582238197327,,,,,,,,,,,,,,,,,,,,,,,,,,,,,,,,,,,,,,,,,,,,,,,,,,,,,,,,,,,,,,,,,,,,,,,,,,,,,,,,,,,,,,,,,,,,,,,,,,,,,,,,,,,,,,,,,,,,,,,,,,,,,,,,,,,,,,0.0254104845225811,-0.023162396624684334,-0.003288188250735402,0.0,0.006190575193613768,0.005233793519437313,-0.12892399728298187,-0.10071320086717606,0.03595247119665146,0.015916448086500168,-0.012135238386690617,0.0,-0.011560121551156044,-0.03317361697554588,0.4427972733974457,0.5566914081573486,,,,,,,,,,,,,,,,,,,,,,,,,,,,,,,,,,,,,,,,,,,,,,,,,,,,,,,,,,,,,,,,,,,,,,,,
1696193746.2719917,1.0504249334335327,1.8828281164169312,-0.03037874400615692,0.0,0.7853482365608215,-6.406669126590714e-05,0.5176084637641907,0.5168905258178711,1.0500524044036865,1.8863956928253174,-0.03091023862361908,0.0,0.7852796316146851,1.4661903833257384e-06,-0.5019606947898865,-0.5015529990196228,,,,,,,,,,,,,,,,,,,,,,,,,,,,,,,,,,,,,,,,,,,,,,,,,,,,,,,,,,,,,,,,,,,,,,,,,,,,,,,,,,,,,,,,,,,,,,,,,,,,,,,,,,,,,,,,,,,,,,,,,,,,,,,,,,,,,,0.00017811378347687423,0.0005426098359748721,-0.002467603888362646,0.0,-0.010228619910776615,-0.039763376116752625,-0.34187501668930054,-0.32745060324668884,-0.017006153240799904,0.033772654831409454,-0.0019925893284380436,0.0,-0.01633400283753872,0.01691240817308426,0.5002012848854065,0.4928635060787201,,,,,,,,,,,,,,,,,,,,,,,,,,,,,,,,,,,,,,,,,,,,,,,,,,,,,,,,,,,,,,,,,,,,,,,,
1696193746.4550655,1.0485713481903076,1.8831902742385864,-0.030010607093572617,0.0,0.7853476405143738,7.70355200074846e-06,0.44481030106544495,0.4440913796424866,1.0486551523208618,1.8862394094467163,-0.030560078099370003,0.0,0.785383939743042,1.6014088032534346e-05,-0.44923338294029236,-0.44907084107398987,,,,,,,,,,,,,,,,,,,,,,,,,,,,,,,,,,,,,,,,,,,,,,,,,,,,,,,,,,,,,,,,,,,,,,,,,,,,,,,,,,,,,,,,,,,,,,,,,,,,,,,,,,,,,,,,,,,,,,,,,,,,,,,,,,,,,,0.00307941110804677,-0.01336325891315937,0.0006446720217354596,0.0,-0.02192854695022106,0.021404223516583443,-0.422299861907959,-0.3766929805278778,0.0007116292254067957,0.005809478927403688,-0.0020819820929318666,0.0,0.0238532405346632,0.029162542894482613,0.25840798020362854,0.22735674679279327,,,,,,,,,,,,,,,,,,,,,,,,,,,,,,,,,,,,,,,,,,,,,,,,,,,,,,,,,,,,,,,,,,,,,,,,
1696193746.5683768,1.0482860803604126,1.8849174976348877,-0.030267339199781418,0.0,0.7854745984077454,-0.0001191875635413453,0.4139252007007599,0.41387316584587097,1.0485584735870361,1.8841028213500977,-0.030165893957018852,0.0,0.7853315472602844,-0.00015100488963071257,-0.41162216663360596,-0.41137295961380005,,,,,,,,,,,,,,,,,,,,,,,,,,,,,,,,,,,,,,,,,,,,,,,,,,,,,,,,,,,,,,,,,,,,,,,,,,,,,,,,,,,,,,,,,,,,,,,,,,,,,,,,,,,,,,,,,,,,,,,,,,,,,,,,,,,,,,0.03195261210203171,0.041717302054166794,-0.017199398949742317,0.0,0.004409950692206621,0.02065178006887436,-0.1638306826353073,-0.11891858279705048,0.02136833406984806,-0.036696989089250565,0.001137253944762051,0.0,-0.007532001007348299,-0.03589412569999695,0.11902013421058655,0.13148540258407593,,,,,,,,,,,,,,,,,,,,,,,,,,,,,,,,,,,,,,,,,,,,,,,,,,,,,,,,,,,,,,,,,,,,,,,,
1696193746.7552078,1.0504087209701538,1.8848044872283936,-0.0307194571942091,0.0,0.7853537201881409,4.8499536205781624e-05,0.42701247334480286,0.42738819122314453,1.0506880283355713,1.883839726448059,-0.03061368316411972,0.0,0.7853831648826599,-5.326103200786747e-05,-0.4320839047431946,-0.432094544172287,,,,,,,,,,,,,,,,,,,,,,,,,,,,,,,,,,,,,,,,,,,,,,,,,,,,,,,,,,,,,,,,,,,,,,,,,,,,,,,,,,,,,,,,,,,,,,,,,,,,,,,,,,,,,,,,,,,,,,,,,,,,,,,,,,,,,,0.022131843492388725,-0.026094144210219383,-0.0011006785789504647,0.0,-0.01886589266359806,0.013313157483935356,0.13727864623069763,0.10316924005746841,-0.00036836747312918305,-0.006748213432729244,0.0020662308670580387,0.0,-0.02602292411029339,-0.036024026572704315,-0.11025344580411911,-0.07127028703689575,,,,,,,,,,,,,,,,,,,,,,,,,,,,,,,,,,,,,,,,,,,,,,,,,,,,,,,,,,,,,,,,,,,,,,,,
1696193747.0242383,1.050563097000122,1.882276177406311,-0.03031008318066597,0.0,0.7854089736938477,-1.0121612831426319e-05,0.49424871802330017,0.495038241147995,1.0504873991012573,1.8862415552139282,-0.030983801931142807,0.0,0.785428524017334,1.267476000066381e-05,-0.49507153034210205,-0.49527668952941895,,,,,,,,,,,,,,,,,,,,,,,,,,,,,,,,,,,,,,,,,,,,,,,,,,,,,,,,,,,,,,,,,,,,,,,,,,,,,,,,,,,,,,,,,,,,,,,,,,,,,,,,,,,,,,,,,,,,,,,,,,,,,,,,,,,,,,-0.007550859823822975,-0.010368774645030499,0.0020307167433202267,0.0,0.020262787118554115,-0.031872011721134186,0.5842703580856323,0.5848020911216736,0.00022404827177524567,0.0034762003924697638,-0.0004390401591081172,0.0,-0.018656497821211815,-0.02470933087170124,-0.1961691975593567,-0.18143807351589203,,,,,,,,,,,,,,,,,,,,,,,,,,,,,,,,,,,,,,,,,,,,,,,,,,,,,,,,,,,,,,,,,,,,,,,,
1696193747.1715817,1.0488003492355347,1.8827130794525146,-0.0299815870821476,0.0,0.7854135036468506,6.3681295614514966e-06,0.5478121638298035,0.5483364462852478,1.048969030380249,1.8866124153137207,-0.030694102868437767,0.0,0.7854486703872681,5.5018266721162945e-05,-0.5413511991500854,-0.541426956653595,,,,,,,,,,,,,,,,,,,,,,,,,,,,,,,,,,,,,,,,,,,,,,,,,,,,,,,,,,,,,,,,,,,,,,,,,,,,,,,,,,,,,,,,,,,,,,,,,,,,,,,,,,,,,,,,,,,,,,,,,,,,,,,,,,,,,,0.0031174663454294205,-0.015258717350661755,0.00020948844030499458,0.0,0.006653056014329195,0.0180609580129385,0.41906246542930603,0.41240984201431274,-0.003330213949084282,0.0011431509628891945,0.0017322571948170662,0.0,0.004460352472960949,0.022632205858826637,-0.13466009497642517,-0.1339835524559021,,,,,,,,,,,,,,,,,,,,,,,,,,,,,,,,,,,,,,,,,,,,,,,,,,,,,,,,,,,,,,,,,,,,,,,,
1696193747.3113241,1.0480910539627075,1.8848356008529663,-0.030174868181347847,0.0,0.7854207754135132,6.536534056067467e-05,0.5845075845718384,0.5849728584289551,1.0479099750518799,1.8853087425231934,-0.030226752161979675,0.0,0.7854491472244263,0.00010149565787287429,-0.5807093381881714,-0.580920398235321,,,,,,,,,,,,,,,,,,,,,,,,,,,,,,,,,,,,,,,,,,,,,,,,,,,,,,,,,,,,,,,,,,,,,,,,,,,,,,,,,,,,,,,,,,,,,,,,,,,,,,,,,,,,,,,,,,,,,,,,,,,,,,,,,,,,,,-0.0015564181376248598,-0.00949872750788927,0.006885908544063568,0.0,-0.011614087037742138,0.03350711986422539,0.16564717888832092,0.1447490006685257,-0.004340135958045721,0.002755251945927739,-0.0002350816794205457,0.0,0.014592904597520828,0.04577794671058655,-0.18585744500160217,-0.20249947905540466,,,,,,,,,,,,,,,,,,,,,,,,,,,,,,,,,,,,,,,,,,,,,,,,,,,,,,,,,,,,,,,,,,,,,,,,
1696193747.4115968,1.0490785837173462,1.8857802152633667,-0.030575357377529144,0.0,0.7853916883468628,-4.2235162254655734e-05,0.5867632031440735,0.5867569446563721,1.0491167306900024,1.8833762407302856,-0.03016766346991062,0.0,0.7853379845619202,-0.0002149882639059797,-0.586538553237915,-0.5853278636932373,,,,,,,,,,,,,,,,,,,,,,,,,,,,,,,,,,,,,,,,,,,,,,,,,,,,,,,,,,,,,,,,,,,,,,,,,,,,,,,,,,,,,,,,,,,,,,,,,,,,,,,,,,,,,,,,,,,,,,,,,,,,,,,,,,,,,,-0.00012501163291744888,0.011529263108968735,-0.0003513293631840497,0.0,-0.0007152862963266671,-0.017907287925481796,0.021814268082380295,0.05892388895153999,0.007407272234559059,-0.01603587530553341,0.0043352036736905575,0.0,0.004134293645620346,-0.013427088037133217,0.4711877107620239,0.5486881732940674,,,,,,,,,,,,,,,,,,,,,,,,,,,,,,,,,,,,,,,,,,,,,,,,,,,,,,,,,,,,,,,,,,,,,,,,
1696193747.6195712,1.0514638423919678,1.8827416896820068,-0.030602537095546722,0.0,0.785353422164917,1.049123784468975e-05,0.5288705229759216,0.5280250906944275,1.051344633102417,1.8848538398742676,-0.030941566452383995,0.0,0.7853632569313049,-0.00014243808982428163,-0.537543535232544,-0.5370904803276062,,,,,,,,,,,,,,,,,,,,,,,,,,,,,,,,,,,,,,,,,,,,,,,,,,,,,,,,,,,,,,,,,,,,,,,,,,,,,,,,,,,,,,,,,,,,,,,,,,,,,,,,,,,,,,,,,,,,,,,,,,,,,,,,,,,,,,0.0012432938674464822,-0.013685844838619232,0.0009469513315707445,0.0,-0.004379879217594862,-0.03718574717640877,-0.4885077178478241,-0.5360969305038452,-0.00022587743296753615,-0.0076872059144079685,0.0023757044691592455,0.0,0.005937768612056971,-0.04216620698571205,0.2787037491798401,0.28172823786735535,,,,,,,,,,,,,,,,,,,,,,,,,,,,,,,,,,,,,,,,,,,,,,,,,,,,,,,,,,,,,,,,,,,,,,,,
1696193747.8035147,1.0497075319290161,1.8816207647323608,-0.029987167567014694,0.0,0.7853727340698242,1.1711837942129932e-05,0.4697064757347107,0.46850818395614624,1.0495855808258057,1.8872369527816772,-0.030943656340241432,0.0,0.7851711511611938,-6.755367940058932e-05,-0.47033360600471497,-0.4697883427143097,,,,,,,,,,,,,,,,,,,,,,,,,,,,,,,,,,,,,,,,,,,,,,,,,,,,,,,,,,,,,,,,,,,,,,,,,,,,,,,,,,,,,,,,,,,,,,,,,,,,,,,,,,,,,,,,,,,,,,,,,,,,,,,,,,,,,,-0.03218546509742737,-0.004522826988250017,0.009802255779504776,0.0,-0.006925587542355061,-0.01598421111702919,-0.6030950546264648,-0.7312499284744263,-0.05803615227341652,0.025966152548789978,0.01032949984073639,0.0,-0.03923635184764862,-0.003877230454236269,0.7424944043159485,0.7881179451942444,,,,,,,,,,,,,,,,,,,,,,,,,,,,,,,,,,,,,,,,,,,,,,,,,,,,,,,,,,,,,,,,,,,,,,,,
1696193747.9524755,1.0477904081344604,1.883418321609497,-0.029871081933379173,0.0,0.7854706645011902,-0.00013569172006100416,0.4207112193107605,0.4200863540172577,1.0479974746704102,1.8866472244262695,-0.030478335916996002,0.0,0.7853209972381592,-0.00013976187619846314,-0.42598873376846313,-0.42584314942359924,,,,,,,,,,,,,,,,,,,,,,,,,,,,,,,,,,,,,,,,,,,,,,,,,,,,,,,,,,,,,,,,,,,,,,,,,,,,,,,,,,,,,,,,,,,,,,,,,,,,,,,,,,,,,,,,,,,,,,,,,,,,,,,,,,,,,,-0.026664836332201958,0.04994192346930504,-0.0029889214783906937,0.0,0.02199859358370304,-0.03583339601755142,-0.2585262358188629,-0.24302168190479279,-0.011923879384994507,-0.006342588923871517,0.005239581689238548,0.0,-0.017934434115886688,-0.049802977591753006,0.04039488732814789,0.018148282542824745,,,,,,,,,,,,,,,,,,,,,,,,,,,,,,,,,,,,,,,,,,,,,,,,,,,,,,,,,,,,,,,,,,,,,,,,
1696193748.105157,1.0480822324752808,1.8855509757995605,-0.03031345270574093,0.0,0.7854443788528442,3.1446763841813663e-06,0.4033479690551758,0.40344274044036865,1.0480602979660034,1.8841230869293213,-0.03005426935851574,0.0,0.7853034734725952,-0.0002445598365738988,-0.4042252004146576,-0.4038221836090088,,,,,,,,,,,,,,,,,,,,,,,,,,,,,,,,,,,,,,,,,,,,,,,,,,,,,,,,,,,,,,,,,,,,,,,,,,,,,,,,,,,,,,,,,,,,,,,,,,,,,,,,,,,,,,,,,,,,,,,,,,,,,,,,,,,,,,0.012751630507409573,0.021444261074066162,-0.0041476041078567505,0.0,-0.009949786588549614,0.05285220593214035,-0.12655428051948547,-0.0994889959692955,0.03353727236390114,-0.06157591938972473,0.0036731131840497255,0.0,-0.01244839932769537,-0.05256670340895653,0.08402473479509354,0.09108101576566696,,,,,,,,,,,,,,,,,,,,,,,,,,,,,,,,,,,,,,,,,,,,,,,,,,,,,,,,,,,,,,,,,,,,,,,,
1696193748.2367573,1.0499687194824219,1.8861900568008423,-0.030853435397148132,0.0,0.7854627370834351,4.39439136243891e-05,0.4108893573284149,0.4115144908428192,1.0503300428390503,1.8826005458831787,-0.03032159060239792,0.0,0.7855396866798401,8.29403506941162e-06,-0.4137503206729889,-0.4139903485774994,,,,,,,,,,,,,,,,,,,,,,,,,,,,,,,,,,,,,,,,,,,,,,,,,,,,,,,,,,,,,,,,,,,,,,,,,,,,,,,,,,,,,,,,,,,,,,,,,,,,,,,,,,,,,,,,,,,,,,,,,,,,,,,,,,,,,,-0.007047203369438648,0.021458910778164864,0.0023794877342879772,0.0,0.01960376836359501,0.0023912223987281322,0.21101787686347961,0.18008626997470856,0.04039338603615761,-0.0054938895627856255,-0.006827277597039938,0.0,-0.03013860061764717,-0.027174361050128937,-0.7483339905738831,-0.7460139393806458,,,,,,,,,,,,,,,,,,,,,,,,,,,,,,,,,,,,,,,,,,,,,,,,,,,,,,,,,,,,,,,,,,,,,,,,
1696193748.4517195,1.0517542362213135,1.8842108249664307,-0.030929988250136375,0.0,0.7854504585266113,-7.957294292282313e-05,0.44904014468193054,0.4495292007923126,1.0517878532409668,1.8840839862823486,-0.030919747427105904,0.0,0.7858136892318726,0.0004911612486466765,-0.44958922266960144,-0.4507964551448822,,,,,,,,,,,,,,,,,,,,,,,,,,,,,,,,,,,,,,,,,,,,,,,,,,,,,,,,,,,,,,,,,,,,,,,,,,,,,,,,,,,,,,,,,,,,,,,,,,,,,,,,,,,,,,,,,,,,,,,,,,,,,,,,,,,,,,-0.0007620935211889446,0.012351191602647305,-0.004374357871711254,0.0,0.029325412586331367,-0.05859411507844925,0.3807956874370575,0.30293774604797363,0.004983776248991489,0.10479343682527542,-0.020678941160440445,0.0,0.07548823207616806,0.08516699820756912,-0.8099927306175232,-1.039631724357605,,,,,,,,,,,,,,,,,,,,,,,,,,,,,,,,,,,,,,,,,,,,,,,,,,,,,,,,,,,,,,,,,,,,,,,,
1696193748.6506119,1.0510010719299316,1.8815444707870483,-0.030278902500867844,0.0,0.7853415608406067,0.00012431206414476037,0.5063384771347046,0.5067794322967529,1.0503504276275635,1.8874115943908691,-0.03115665726363659,0.0,0.7854328751564026,3.247700442443602e-05,-0.5210554599761963,-0.521104097366333,,,,,,,,,,,,,,,,,,,,,,,,,,,,,,,,,,,,,,,,,,,,,,,,,,,,,,,,,,,,,,,,,,,,,,,,,,,,,,,,,,,,,,,,,,,,,,,,,,,,,,,,,,,,,,,,,,,,,,,,,,,,,,,,,,,,,,-0.01793156936764717,-0.014434055425226688,0.009890436194837093,0.0,-0.015489579178392887,0.03433215618133545,0.22325196862220764,0.2245924174785614,-0.004179534036666155,0.007566178683191538,-1.3735370885115117e-06,0.0,-0.0032405757810920477,-0.0011101202107965946,-0.08381030708551407,-0.026806918904185295,,,,,,,,,,,,,,,,,,,,,,,,,,,,,,,,,,,,,,,,,,,,,,,,,,,,,,,,,,,,,,,,,,,,,,,,
1696193748.7742798,1.0482711791992188,1.881994605064392,-0.029723644256591797,0.0,0.7853863835334778,-0.0001071541992132552,0.5612252950668335,0.5616183876991272,1.0484225749969482,1.8875848054885864,-0.030736180022358894,0.0,0.7854422330856323,-1.918502130138222e-05,-0.5575084090232849,-0.5578414797782898,,,,,,,,,,,,,,,,,,,,,,,,,,,,,,,,,,,,,,,,,,,,,,,,,,,,,,,,,,,,,,,,,,,,,,,,,,,,,,,,,,,,,,,,,,,,,,,,,,,,,,,,,,,,,,,,,,,,,,,,,,,,,,,,,,,,,,-0.0541626513004303,0.05589750409126282,0.005453697871416807,0.0,-0.004902496002614498,-0.02702055126428604,0.4761044979095459,0.49042654037475586,-0.034565042704343796,-0.016546450555324554,0.012911035679280758,0.0,-0.002247158670797944,-0.03114430047571659,-0.29122114181518555,-0.20287786424160004,,,,,,,,,,,,,,,,,,,,,,,,,,,,,,,,,,,,,,,,,,,,,,,,,,,,,,,,,,,,,,,,,,,,,,,,
1696193748.9274516,1.0469155311584473,1.8836894035339355,-0.029710711911320686,0.0,0.7853898406028748,0.00013904747902415693,0.5909940004348755,0.5913577675819397,1.046790599822998,1.8857436180114746,-0.03003767691552639,0.0,0.785350501537323,-0.00020803669758606702,-0.5935160517692566,-0.5935453176498413,,,,,,,,,,,,,,,,,,,,,,,,,,,,,,,,,,,,,,,,,,,,,,,,,,,,,,,,,,,,,,,,,,,,,,,,,,,,,,,,,,,,,,,,,,,,,,,,,,,,,,,,,,,,,,,,,,,,,,,,,,,,,,,,,,,,,,0.0018620339687913656,-0.021405771374702454,0.007334840018302202,0.0,-0.017856448888778687,0.08865521103143692,0.09954419732093811,0.16180278360843658,-0.007423837669193745,-0.08453962206840515,0.01808311976492405,0.0,-0.00950977299362421,-0.04783462733030319,-0.2384345978498459,-0.19246011972427368,,,,,,,,,,,,,,,,,,,,,,,,,,,,,,,,,,,,,,,,,,,,,,,,,,,,,,,,,,,,,,,,,,,,,,,,
1696193749.041344,1.0468852519989014,1.8861700296401978,-0.03014012798666954,0.0,0.7854017019271851,7.387679943349212e-05,0.6040955185890198,0.6042448282241821,1.0471208095550537,1.883555293083191,-0.02974002994596958,0.0,0.7853972315788269,9.65761864790693e-06,-0.6041995882987976,-0.6039465069770813,,,,,,,,,,,,,,,,,,,,,,,,,,,,,,,,,,,,,,,,,,,,,,,,,,,,,,,,,,,,,,,,,,,,,,,,,,,,,,,,,,,,,,,,,,,,,,,,,,,,,,,,,,,,,,,,,,,,,,,,,,,,,,,,,,,,,,-0.006586794275790453,0.007645687088370323,0.003015866968780756,0.0,-0.010494443587958813,0.04988199844956398,-0.005518984515219927,0.030094098299741745,-0.012226052582263947,-0.0033014891669154167,0.004693321418017149,0.0,0.014220541343092918,0.041593294590711594,0.057385966181755066,0.028441404923796654,,,,,,,,,,,,,,,,,,,,,,,,,,,,,,,,,,,,,,,,,,,,,,,,,,,,,,,,,,,,,,,,,,,,,,,,
1696193749.153519,1.0502668619155884,1.8862477540969849,-0.0309480931609869,0.0,0.7854039072990417,9.201215289067477e-05,0.5819944739341736,0.5817217826843262,1.0500680208206177,1.8822625875473022,-0.030205894261598587,0.0,0.7853198647499084,-0.0001221151032950729,-0.5853966474533081,-0.5845109820365906,,,,,,,,,,,,,,,,,,,,,,,,,,,,,,,,,,,,,,,,,,,,,,,,,,,,,,,,,,,,,,,,,,,,,,,,,,,,,,,,,,,,,,,,,,,,,,,,,,,,,,,,,,,,,,,,,,,,,,,,,,,,,,,,,,,,,,0.059224892407655716,-0.05764314532279968,-0.006067942827939987,0.0,0.002695208415389061,0.021760335192084312,-0.359390527009964,-0.3700767159461975,0.04845273867249489,0.019482625648379326,-0.014751605689525604,0.0,-0.009393610991537571,-0.031155655160546303,0.463085412979126,0.6289612054824829,,,,,,,,,,,,,,,,,,,,,,,,,,,,,,,,,,,,,,,,,,,,,,,,,,,,,,,,,,,,,,,,,,,,,,,,
1696193749.3347118,1.0518243312835693,1.8835792541503906,-0.030836675316095352,0.0,0.7853752374649048,-0.00010381313040852547,0.5378233790397644,0.537284255027771,1.05179762840271,1.884385585784912,-0.0309666208922863,0.0,0.7853522896766663,-0.00017191836377605796,-0.5376557111740112,-0.5371595025062561,,,,,,,,,,,,,,,,,,,,,,,,,,,,,,,,,,,,,,,,,,,,,,,,,,,,,,,,,,,,,,,,,,,,,,,,,,,,,,,,,,,,,,,,,,,,,,,,,,,,,,,,,,,,,,,,,,,,,,,,,,,,,,,,,,,,,,-0.0007124499534256756,0.011858023703098297,-0.004465999081730843,0.0,0.004808133468031883,-0.07443943619728088,-0.25365307927131653,-0.2646488845348358,-0.0006968100788071752,-0.008414627984166145,0.0027343544643372297,0.0,-0.0005915070651099086,-0.059651169925928116,0.3088158369064331,0.32587265968322754,,,,,,,,,,,,,,,,,,,,,,,,,,,,,,,,,,,,,,,,,,,,,,,,,,,,,,,,,,,,,,,,,,,,,,,,
1696193749.4776113,1.051390290260315,1.8817825317382812,-0.03042471781373024,0.0,0.785352349281311,-0.00011779333726735786,0.5046924352645874,0.5039916038513184,1.050510287284851,1.887507677078247,-0.031210316345095634,0.0,0.7853291034698486,-5.400208829087205e-05,-0.484921932220459,-0.48448723554611206,,,,,,,,,,,,,,,,,,,,,,,,,,,,,,,,,,,,,,,,,,,,,,,,,,,,,,,,,,,,,,,,,,,,,,,,,,,,,,,,,,,,,,,,,,,,,,,,,,,,,,,,,,,,,,,,,,,,,,,,,,,,,,,,,,,,,,0.004427782259881496,-0.0028549120761454105,-0.005188468378037214,0.0,-0.0035965375136584044,-0.0678182989358902,-0.273836612701416,-0.2704949676990509,-0.013918680138885975,0.020945243537425995,-0.0006368824979290366,0.0,0.00982653722167015,-0.019894756376743317,0.5722155570983887,0.6036875247955322,,,,,,,,,,,,,,,,,,,,,,,,,,,,,,,,,,,,,,,,,,,,,,,,,,,,,,,,,,,,,,,,,,,,,,,,
1696193749.6059268,1.049103021621704,1.8809055089950562,-0.029726117849349976,0.0,0.7853760719299316,-8.740747580304742e-05,0.457125723361969,0.45545855164527893,1.0495554208755493,1.8882167339324951,-0.031099539250135422,0.0,0.7850875854492188,-0.0001608553866390139,-0.46650245785713196,-0.4661084711551666,,,,,,,,,,,,,,,,,,,,,,,,,,,,,,,,,,,,,,,,,,,,,,,,,,,,,,,,,,,,,,,,,,,,,,,,,,,,,,,,,,,,,,,,,,,,,,,,,,,,,,,,,,,,,,,,,,,,,,,,,,,,,,,,,,,,,,-0.050290629267692566,0.02326330356299877,0.007513135205954313,0.0,-0.01006983406841755,-0.010548263788223267,-0.7016540765762329,-0.7667038440704346,-0.09182893484830856,-0.017761260271072388,0.027311621233820915,0.0,-0.05797121301293373,-0.030622951686382294,0.765990138053894,0.8197654485702515,,,,,,,,,,,,,,,,,,,,,,,,,,,,,,,,,,,,,,,,,,,,,,,,,,,,,,,,,,,,,,,,,,,,,,,,
1696193749.7002285,1.0472708940505981,1.8825271129608154,-0.029596203938126564,0.0,0.7854334115982056,-7.169428135966882e-05,0.42840567231178284,0.427636057138443,1.0475208759307861,1.8880970478057861,-0.03061913512647152,0.0,0.7852752208709717,-0.00012168861576355994,-0.43548479676246643,-0.435261994600296,,,,,,,,,,,,,,,,,,,,,,,,,,,,,,,,,,,,,,,,,,,,,,,,,,,,,,,,,,,,,,,,,,,,,,,,,,,,,,,,,,,,,,,,,,,,,,,,,,,,,,,,,,,,,,,,,,,,,,,,,,,,,,,,,,,,,,-0.014374537393450737,0.020869124680757523,0.00020297746232245117,0.0,-0.0026306621730327606,0.02290431596338749,-0.39681413769721985,-0.3322368562221527,-0.018936490640044212,-0.030075691640377045,0.009942238219082355,0.0,-0.01990717463195324,-0.015221267007291317,0.2731671631336212,0.28713780641555786,,,,,,,,,,,,,,,,,,,,,,,,,,,,,,,,,,,,,,,,,,,,,,,,,,,,,,,,,,,,,,,,,,,,,,,,
1696193749.8396378,1.0466762781143188,1.8856230974197388,-0.030001915991306305,0.0,0.7854321599006653,0.00015324306150432676,0.4069172441959381,0.40705788135528564,1.0464709997177124,1.8851524591445923,-0.029872000217437744,0.0,0.7853842973709106,0.0001609089522389695,-0.40818676352500916,-0.4080565571784973,,,,,,,,,,,,,,,,,,,,,,,,,,,,,,,,,,,,,,,,,,,,,,,,,,,,,,,,,,,,,,,,,,,,,,,,,,,,,,,,,,,,,,,,,,,,,,,,,,,,,,,,,,,,,,,,,,,,,,,,,,,,,,,,,,,,,,0.005565677769482136,0.01513875462114811,0.0018307823920622468,0.0,-0.026717837899923325,0.14515811204910278,-0.2254870980978012,-0.13017207384109497,-0.01613418385386467,0.026140127331018448,-0.0012626826064661145,0.0,0.02620716765522957,0.1157531663775444,0.18890833854675293,0.05648958683013916,,,,,,,,,,,,,,,,,,,,,,,,,,,,,,,,,,,,,,,,,,,,,,,,,,,,,,,,,,,,,,,,,,,,,,,,
1696193749.9932437,1.0482242107391357,1.8877313137054443,-0.030747223645448685,0.0,0.7854101657867432,-6.78131400491111e-05,0.4014196991920471,0.40189990401268005,1.0478944778442383,1.8818567991256714,-0.029627352952957153,0.0,0.7853770852088928,-5.552848051593173e-06,-0.39969491958618164,-0.3997091054916382,,,,,,,,,,,,,,,,,,,,,,,,,,,,,,,,,,,,,,,,,,,,,,,,,,,,,,,,,,,,,,,,,,,,,,,,,,,,,,,,,,,,,,,,,,,,,,,,,,,,,,,,,,,,,,,,,,,,,,,,,,,,,,,,,,,,,,0.05999152734875679,-0.013102676719427109,-0.017448682337999344,0.0,-0.00035680358996614814,-0.005078746005892754,0.16580680012702942,0.23279115557670593,0.004212570376694202,-0.00563669390976429,-0.0014792983420193195,0.0,-0.0035324092023074627,-0.008066707290709019,0.11891522258520126,0.11388072371482849,,,,,,,,,,,,,,,,,,,,,,,,,,,,,,,,,,,,,,,,,,,,,,,,,,,,,,,,,,,,,,,,,,,,,,,,
1696193750.120744,1.0505995750427246,1.8869476318359375,-0.03113739565014839,0.0,0.7854394316673279,-1.8022808944806457e-05,0.42058825492858887,0.420850545167923,1.0511960983276367,1.8818961381912231,-0.030408060178160667,0.0,0.7856587171554565,0.0002766106044873595,-0.42592355608940125,-0.426343709230423,,,,,,,,,,,,,,,,,,,,,,,,,,,,,,,,,,,,,,,,,,,,,,,,,,,,,,,,,,,,,,,,,,,,,,,,,,,,,,,,,,,,,,,,,,,,,,,,,,,,,,,,,,,,,,,,,,,,,,,,,,,,,,,,,,,,,,0.00023844688257668167,0.01082873810082674,-0.001396435429342091,0.0,0.019409097731113434,-0.0185757614672184,0.13570035994052887,0.09307610988616943,0.057623375207185745,0.05044345185160637,-0.02550206519663334,0.0,0.05166164040565491,0.06450609862804413,-0.38240742683410645,-0.4559588134288788,,,,,,,,,,,,,,,,,,,,,,,,,,,,,,,,,,,,,,,,,,,,,,,,,,,,,,,,,,,,,,,,,,,,,,,,
1696193750.2719479,1.0524483919143677,1.8837672472000122,-0.031006254255771637,0.0,0.78531813621521,0.00018482016457710415,0.458232045173645,0.4587803781032562,1.052408218383789,1.8838857412338257,-0.031025197356939316,0.0,0.7854849696159363,6.2817387515679e-05,-0.45825836062431335,-0.45889726281166077,,,,,,,,,,,,,,,,,,,,,,,,,,,,,,,,,,,,,,,,,,,,,,,,,,,,,,,,,,,,,,,,,,,,,,,,,,,,,,,,,,,,,,,,,,,,,,,,,,,,,,,,,,,,,,,,,,,,,,,,,,,,,,,,,,,,,,0.010592487640678883,-0.04704003408551216,0.008181882090866566,0.0,-0.022030772641301155,0.04961249977350235,0.1835559457540512,0.18736694753170013,0.0012518845032900572,0.021981971338391304,-0.0036242236383259296,0.0,-0.03962079808115959,-0.05839493125677109,-0.5306036472320557,-0.5235533714294434,,,,,,,,,,,,,,,,,,,,,,,,,,,,,,,,,,,,,,,,,,,,,,,,,,,,,,,,,,,,,,,,,,,,,,,,
1696193750.4233756,1.0520139932632446,1.8808224201202393,-0.03038991056382656,0.0,0.7853110432624817,0.00019564521790016443,0.5001489520072937,0.5006056427955627,1.052006721496582,1.8868649005889893,-0.03145131096243858,0.0,0.7854626774787903,2.0606694306479767e-05,-0.49900972843170166,-0.49945980310440063,,,,,,,,,,,,,,,,,,,,,,,,,,,,,,,,,,,,,,,,,,,,,,,,,,,,,,,,,,,,,,,,,,,,,,,,,,,,,,,,,,,,,,,,,,,,,,,,,,,,,,,,,,,,,,,,,,,,,,,,,,,,,,,,,,,,,,-0.018635591492056847,-0.027901768684387207,0.012182082049548626,0.0,-0.022487157955765724,0.05997098609805107,0.20902803540229797,0.23317688703536987,0.0062027014791965485,-0.003154394216835499,-0.0021148240193724632,0.0,-0.026599882170557976,-0.050550829619169235,-0.3648900091648102,-0.14284273982048035,,,,,,,,,,,,,,,,,,,,,,,,,,,,,,,,,,,,,,,,,,,,,,,,,,,,,,,,,,,,,,,,,,,,,,,,
1696193750.5476868,1.049088716506958,1.8794424533843994,-0.029459523037075996,0.0,0.7853304743766785,6.464487523771822e-05,0.550632894039154,0.5510633587837219,1.0492329597473145,1.8896191120147705,-0.03128507733345032,0.0,0.7854496836662292,9.650463471189141e-05,-0.548228919506073,-0.5486403107643127,,,,,,,,,,,,,,,,,,,,,,,,,,,,,,,,,,,,,,,,,,,,,,,,,,,,,,,,,,,,,,,,,,,,,,,,,,,,,,,,,,,,,,,,,,,,,,,,,,,,,,,,,,,,,,,,,,,,,,,,,,,,,,,,,,,,,,-0.06472985446453094,0.01444595493376255,0.018328065052628517,0.0,-0.013009099289774895,0.004307289607822895,0.4079715609550476,0.4397791028022766,0.0012713167816400528,0.012097840197384357,-0.003121106419712305,0.0,-0.004813463892787695,0.003999074921011925,-0.23029950261116028,-0.22966688871383667,,,,,,,,,,,,,,,,,,,,,,,,,,,,,,,,,,,,,,,,,,,,,,,,,,,,,,,,,,,,,,,,,,,,,,,,
1696193750.7062101,1.0473885536193848,1.8798496723175049,-0.029162269085645676,0.0,0.7853875160217285,5.252892879070714e-05,0.5765000581741333,0.5767543315887451,1.0465000867843628,1.8894197940826416,-0.03061673976480961,0.0,0.7854606509208679,0.0001773367985151708,-0.5840204358100891,-0.5847460627555847,,,,,,,,,,,,,,,,,,,,,,,,,,,,,,,,,,,,,,,,,,,,,,,,,,,,,,,,,,,,,,,,,,,,,,,,,,,,,,,,,,,,,,,,,,,,,,,,,,,,,,,,,,,,,,,,,,,,,,,,,,,,,,,,,,,,,,0.005098479799926281,-0.026926985010504723,0.002659186255186796,0.0,-0.008351038210093975,0.04815780371427536,0.21377339959144592,0.24577711522579193,-0.01343473233282566,-0.008601974695920944,0.0037384708411991596,0.0,0.021842360496520996,0.06463582813739777,-0.3509593605995178,-0.4147981107234955,,,,,,,,,,,,,,,,,,,,,,,,,,,,,,,,,,,,,,,,,,,,,,,,,,,,,,,,,,,,,,,,,,,,,,,,
1696193750.8402843,1.045283317565918,1.8833450078964233,-0.029293430969119072,0.0,0.7854607701301575,-0.00019608008733484894,0.6032976508140564,0.6032564640045166,1.0451252460479736,1.8868972063064575,-0.029871126636862755,0.0,0.7854435443878174,0.0002440959942759946,-0.6056633591651917,-0.6060666441917419,,,,,,,,,,,,,,,,,,,,,,,,,,,,,,,,,,,,,,,,,,,,,,,,,,,,,,,,,,,,,,,,,,,,,,,,,,,,,,,,,,,,,,,,,,,,,,,,,,,,,,,,,,,,,,,,,,,,,,,,,,,,,,,,,,,,,,-0.012265138328075409,0.05435703322291374,-0.009594674222171307,0.0,0.008459086529910564,-0.05154133215546608,0.18254879117012024,0.12868086993694305,0.0020974401850253344,0.02737024798989296,-0.008531640283763409,0.0,0.02843308076262474,0.10872862488031387,-0.138217031955719,-0.2486640065908432,,,,,,,,,,,,,,,,,,,,,,,,,,,,,,,,,,,,,,,,,,,,,,,,,,,,,,,,,,,,,,,,,,,,,,,,
1696193751.0269878,1.045456051826477,1.8870190382003784,-0.02998710423707962,0.0,0.7854829430580139,-0.00012804227299056947,0.6139630079269409,0.6139498353004456,1.0458412170410156,1.8830920457839966,-0.029372207820415497,0.0,0.7853235602378845,-0.0002167478232877329,-0.6134154796600342,-0.6128436326980591,,,,,,,,,,,,,,,,,,,,,,,,,,,,,,,,,,,,,,,,,,,,,,,,,,,,,,,,,,,,,,,,,,,,,,,,,,,,,,,,,,,,,,,,,,,,,,,,,,,,,,,,,,,,,,,,,,,,,,,,,,,,,,,,,,,,,,0.035316117107868195,0.04490197077393532,-0.018810665234923363,0.0,0.003335644956678152,0.0199116263538599,-0.08080384135246277,-0.0663735419511795,0.04208029434084892,-0.06556868553161621,0.0008641896420158446,0.0,-0.0028260659892112017,-0.01637999154627323,0.0509418323636055,0.13051392138004303,,,,,,,,,,,,,,,,,,,,,,,,,,,,,,,,,,,,,,,,,,,,,,,,,,,,,,,,,,,,,,,,,,,,,,,,
1696193751.1456053,1.047245740890503,1.8881944417953491,-0.030603040009737015,0.0,0.7854538559913635,3.0264445740613155e-05,0.6076172590255737,0.6075756549835205,1.0473440885543823,1.881576657295227,-0.029446598142385483,0.0,0.7853602170944214,-0.00011264282511547208,-0.6068675518035889,-0.606067419052124,,,,,,,,,,,,,,,,,,,,,,,,,,,,,,,,,,,,,,,,,,,,,,,,,,,,,,,,,,,,,,,,,,,,,,,,,,,,,,,,,,,,,,,,,,,,,,,,,,,,,,,,,,,,,,,,,,,,,,,,,,,,,,,,,,,,,,0.05466747656464577,-0.007360718213021755,-0.01412876881659031,0.0,0.004688240122050047,0.035033926367759705,-0.2738472819328308,-0.2583081126213074,-0.016235122457146645,-0.015665683895349503,0.01070783007889986,0.0,0.008416425436735153,0.022681890055537224,0.286936491727829,0.2838149964809418,,,,,,,,,,,,,,,,,,,,,,,,,,,,,,,,,,,,,,,,,,,,,,,,,,,,,,,,,,,,,,,,,,,,,,,,
1696193751.277649,1.0506353378295898,1.88726806640625,-0.031212233006954193,0.0,0.7853924632072449,0.0001590733154444024,0.5830563306808472,0.5827998518943787,1.050925612449646,1.881234049797058,-0.030232630670070648,0.0,0.7853630781173706,-6.797066453145817e-05,-0.5823056697845459,-0.5811151266098022,,,,,,,,,,,,,,,,,,,,,,,,,,,,,,,,,,,,,,,,,,,,,,,,,,,,,,,,,,,,,,,,,,,,,,,,,,,,,,,,,,,,,,,,,,,,,,,,,,,,,,,,,,,,,,,,,,,,,,,,,,,,,,,,,,,,,,0.04950916767120361,-0.05493461713194847,-0.0030498814303427935,0.0,0.0013299912679940462,0.019443554803729057,-0.4560457468032837,-0.4804374873638153,0.07418705523014069,0.05172541365027428,-0.02690514177083969,0.0,-0.0007549593574367464,-0.008180644363164902,0.6078160405158997,0.7934125065803528,,,,,,,,,,,,,,,,,,,,,,,,,,,,,,,,,,,,,,,,,,,,,,,,,,,,,,,,,,,,,,,,,,,,,,,,
1696193751.429219,1.0526446104049683,1.8851089477539062,-0.031287264078855515,0.0,0.7853612899780273,0.00017787505930755287,0.5566154718399048,0.5565313100814819,1.052850365638733,1.8829472064971924,-0.03096926026046276,0.0,0.7854089140892029,0.00014063689741306007,-0.5514306426048279,-0.5512049198150635,,,,,,,,,,,,,,,,,,,,,,,,,,,,,,,,,,,,,,,,,,,,,,,,,,,,,,,,,,,,,,,,,,,,,,,,,,,,,,,,,,,,,,,,,,,,,,,,,,,,,,,,,,,,,,,,,,,,,,,,,,,,,,,,,,,,,,0.018383922055363655,-0.05303201079368591,0.00717954570427537,0.0,0.0010835622670128942,0.04777700826525688,-0.24910131096839905,-0.1654500961303711,0.017368707805871964,0.04319292679429054,-0.013103010132908821,0.0,0.011980184353888035,0.06968928873538971,0.2526519298553467,0.17765597999095917,,,,,,,,,,,,,,,,,,,,,,,,,,,,,,,,,,,,,,,,,,,,,,,,,,,,,,,,,,,,,,,,,,,,,,,,
1696193751.5902915,1.0530726909637451,1.8805596828460693,-0.03058129921555519,0.0,0.7853198647499084,0.00017649811343289912,0.50894695520401,0.5080417990684509,1.053337574005127,1.8853960037231445,-0.03150491043925285,0.0,0.7853582501411438,0.00012825147132389247,-0.5239561200141907,-0.5236139297485352,,,,,,,,,,,,,,,,,,,,,,,,,,,,,,,,,,,,,,,,,,,,,,,,,,,,,,,,,,,,,,,,,,,,,,,,,,,,,,,,,,,,,,,,,,,,,,,,,,,,,,,,,,,,,,,,,,,,,,,,,,,,,,,,,,,,,,-0.020838238298892975,-0.061804719269275665,0.017460312694311142,0.0,-0.006244403775781393,-0.014422337524592876,-0.5472080111503601,-0.6583653688430786,-0.02093370445072651,0.07051976025104523,-0.007968765683472157,0.0,0.0033853340428322554,0.045988213270902634,0.5609421133995056,0.514149010181427,,,,,,,,,,,,,,,,,,,,,,,,,,,,,,,,,,,,,,,,,,,,,,,,,,,,,,,,,,,,,,,,,,,,,,,,
1696193751.7385128,1.0514111518859863,1.8782695531845093,-0.029796116054058075,0.0,0.7853447198867798,5.711447010980919e-05,0.4718746542930603,0.4707617461681366,1.050743818283081,1.8902924060821533,-0.0317469947040081,0.0,0.7853018641471863,7.3325885750819e-05,-0.46605557203292847,-0.4659924805164337,,,,,,,,,,,,,,,,,,,,,,,,,,,,,,,,,,,,,,,,,,,,,,,,,,,,,,,,,,,,,,,,,,,,,,,,,,,,,,,,,,,,,,,,,,,,,,,,,,,,,,,,,,,,,,,,,,,,,,,,,,,,,,,,,,,,,,-0.050376296043395996,-0.019605692476034164,0.017049483954906464,0.0,-0.006260842550545931,-0.023180615156888962,-0.4869932532310486,-0.6354923248291016,-0.05510472133755684,0.048005081713199615,0.0058890413492918015,0.0,-0.00479715084657073,0.013364172540605068,0.56062912940979,0.5316812992095947,,,,,,,,,,,,,,,,,,,,,,,,,,,,,,,,,,,,,,,,,,,,,,,,,,,,,,,,,,,,,,,,,,,,,,,,
1696193751.8515341,1.0490578413009644,1.8780293464660645,-0.029240326955914497,0.0,0.7853502631187439,-1.2563943528220989e-05,0.4431338608264923,0.4423978328704834,1.049257755279541,1.8910603523254395,-0.0315425805747509,0.0,0.7853778600692749,-2.926419983850792e-05,-0.44761523604393005,-0.44747239351272583,,,,,,,,,,,,,,,,,,,,,,,,,,,,,,,,,,,,,,,,,,,,,,,,,,,,,,,,,,,,,,,,,,,,,,,,,,,,,,,,,,,,,,,,,,,,,,,,,,,,,,,,,,,,,,,,,,,,,,,,,,,,,,,,,,,,,,-8.34946331451647e-05,-0.020555738359689713,-0.0010445367079228163,0.0,-0.007668626494705677,0.012996088713407516,-0.3076864778995514,-0.226300448179245,-0.011008494533598423,0.005387858487665653,0.003072067629545927,0.0,0.0014278886374086142,0.0035270163789391518,0.056573592126369476,0.059947509318590164,,,,,,,,,,,,,,,,,,,,,,,,,,,,,,,,,,,,,,,,,,,,,,,,,,,,,,,,,,,,,,,,,,,,,,,,
1696193751.9625587,1.047238826751709,1.8787156343460083,-0.028933420777320862,0.0,0.7854233980178833,-5.775836143584456e-06,0.42540857195854187,0.4252380430698395,1.045942783355713,1.890371561050415,-0.03066275455057621,0.0,0.7853038907051086,-0.00016142238746397197,-0.4154594838619232,-0.41533029079437256,,,,,,,,,,,,,,,,,,,,,,,,,,,,,,,,,,,,,,,,,,,,,,,,,,,,,,,,,,,,,,,,,,,,,,,,,,,,,,,,,,,,,,,,,,,,,,,,,,,,,,,,,,,,,,,,,,,,,,,,,,,,,,,,,,,,,,-0.014253133907914162,0.00581909017637372,0.0023106858134269714,0.0,0.015562755987048149,-0.016146361827850342,-0.10422023385763168,-0.03571402281522751,-0.020525889471173286,-0.0023675390984863043,0.005316358059644699,0.0,-0.03205590695142746,-0.07786324620246887,0.09709812700748444,0.14676019549369812,,,,,,,,,,,,,,,,,,,,,,,,,,,,,,,,,,,,,,,,,,,,,,,,,,,,,,,,,,,,,,,,,,,,,,,,
1696193752.1154826,1.0444209575653076,1.883411169052124,-0.029096441343426704,0.0,0.7853716015815735,0.00011543204163899645,0.3960162401199341,0.39587512612342834,1.0444146394729614,1.8881551027297974,-0.02991909347474575,0.0,0.785415530204773,4.166678627370857e-05,-0.39786356687545776,-0.3977685570716858,,,,,,,,,,,,,,,,,,,,,,,,,,,,,,,,,,,,,,,,,,,,,,,,,,,,,,,,,,,,,,,,,,,,,,,,,,,,,,,,,,,,,,,,,,,,,,,,,,,,,,,,,,,,,,,,,,,,,,,,,,,,,,,,,,,,,,-0.0009503814508207142,-0.015118931420147419,0.006710999645292759,0.0,-0.025379257276654243,0.08693822473287582,-0.21319927275180817,-0.1438961625099182,-0.005216145422309637,-0.014042234979569912,0.004448363557457924,0.0,0.02605319395661354,0.052039965987205505,0.07127003371715546,0.08101777732372284,,,,,,,,,,,,,,,,,,,,,,,,,,,,,,,,,,,,,,,,,,,,,,,,,,,,,,,,,,,,,,,,,,,,,,,,
1696193752.2594535,1.0446243286132812,1.8867477178573608,-0.02975182607769966,0.0,0.7854925394058228,-0.00030123142641969025,0.38955092430114746,0.3894723057746887,1.0446921586990356,1.8842092752456665,-0.02930271066725254,0.0,0.7853354811668396,-0.00017867947462946177,-0.38956642150878906,-0.38917553424835205,,,,,,,,,,,,,,,,,,,,,,,,,,,,,,,,,,,,,,,,,,,,,,,,,,,,,,,,,,,,,,,,,,,,,,,,,,,,,,,,,,,,,,,,,,,,,,,,,,,,,,,,,,,,,,,,,,,,,,,,,,,,,,,,,,,,,,0.026139361783862114,0.06727778166532516,-0.02274252660572529,0.0,0.01462057325989008,-0.05765004828572273,0.035532522946596146,0.03109290823340416,0.031324032694101334,-0.07788903266191483,0.0053971800953149796,0.0,0.0033244038932025433,0.004751153755933046,-0.0437210276722908,0.012911356985569,,,,,,,,,,,,,,,,,,,,,,,,,,,,,,,,,,,,,,,,,,,,,,,,,,,,,,,,,,,,,,,,,,,,,,,,
1696193752.382334,1.0458177328109741,1.8885847330093384,-0.03033635765314102,0.0,0.7854316830635071,-0.00016247414168901742,0.3906434178352356,0.3906776010990143,1.0462288856506348,1.8816392421722412,-0.02921810746192932,0.0,0.7854306101799011,-0.00017370397108606994,-0.3915789723396301,-0.39111679792404175,,,,,,,,,,,,,,,,,,,,,,,,,,,,,,,,,,,,,,,,,,,,,,,,,,,,,,,,,,,,,,,,,,,,,,,,,,,,,,,,,,,,,,,,,,,,,,,,,,,,,,,,,,,,,,,,,,,,,,,,,,,,,,,,,,,,,,0.029462529346346855,0.015569371171295643,-0.014511343091726303,0.0,-0.0009528293157927692,-0.03603990748524666,0.081255704164505,0.013083970174193382,0.07670416682958603,-0.06132659688591957,-0.008214837871491909,0.0,-0.0009912911336869001,-0.012367133982479572,-0.32431599497795105,-0.26924002170562744,,,,,,,,,,,,,,,,,,,,,,,,,,,,,,,,,,,,,,,,,,,,,,,,,,,,,,,,,,,,,,,,,,,,,,,,
1696193752.5126796,1.0486525297164917,1.8891487121582031,-0.0310788806527853,0.0,0.7854301929473877,4.059627099195495e-05,0.4034147560596466,0.40420636534690857,1.048754096031189,1.8802587985992432,-0.029572853818535805,0.0,0.7857791781425476,0.00020020903320983052,-0.40183719992637634,-0.4019167423248291,,,,,,,,,,,,,,,,,,,,,,,,,,,,,,,,,,,,,,,,,,,,,,,,,,,,,,,,,,,,,,,,,,,,,,,,,,,,,,,,,,,,,,,,,,,,,,,,,,,,,,,,,,,,,,,,,,,,,,,,,,,,,,,,,,,,,,0.027077239006757736,0.0018038393463939428,-0.004176975693553686,0.0,0.005964517127722502,0.005363879259675741,0.2382037490606308,0.2385653704404831,0.16505666077136993,0.022595200687646866,-0.0471433587372303,0.0,0.0867052674293518,0.06288095563650131,-0.600941002368927,-0.6576063632965088,,,,,,,,,,,,,,,,,,,,,,,,,,,,,,,,,,,,,,,,,,,,,,,,,,,,,,,,,,,,,,,,,,,,,,,,
1696193752.6338406,1.05173659324646,1.8875706195831299,-0.03151528909802437,0.0,0.7854295969009399,-2.5078801627387293e-05,0.4265751838684082,0.4268619418144226,1.0522552728652954,1.880678415298462,-0.030445216223597527,0.0,0.7855167984962463,0.00013996275083627552,-0.42994678020477295,-0.43013209104537964,,,,,,,,,,,,,,,,,,,,,,,,,,,,,,,,,,,,,,,,,,,,,,,,,,,,,,,,,,,,,,,,,,,,,,,,,,,,,,,,,,,,,,,,,,,,,,,,,,,,,,,,,,,,,,,,,,,,,,,,,,,,,,,,,,,,,,0.004695839248597622,0.009798508137464523,-0.0024400397669523954,0.0,0.01630408689379692,-0.02243446186184883,0.1499456912279129,0.12156983464956284,0.03514286130666733,0.030882421880960464,-0.016559647396206856,0.0,0.014836647547781467,0.02180623635649681,-0.14181272685527802,-0.1735018491744995,,,,,,,,,,,,,,,,,,,,,,,,,,,,,,,,,,,,,,,,,,,,,,,,,,,,,,,,,,,,,,,,,,,,,,,,
1696193752.8071012,1.053932547569275,1.8849643468856812,-0.03155974671244621,0.0,0.7852808237075806,0.0002983491576742381,0.45010194182395935,0.45090818405151367,1.0542984008789062,1.8833271265029907,-0.03137751296162605,0.0,0.7855672240257263,0.0001456604659324512,-0.46190714836120605,-0.4625716805458069,,,,,,,,,,,,,,,,,,,,,,,,,,,,,,,,,,,,,,,,,,,,,,,,,,,,,,,,,,,,,,,,,,,,,,,,,,,,,,,,,,,,,,,,,,,,,,,,,,,,,,,,,,,,,,,,,,,,,,,,,,,,,,,,,,,,,,0.023806242272257805,-0.09097690880298615,0.012928277254104614,0.0,-0.019990500062704086,0.05884462594985962,0.25251615047454834,0.3567035496234894,0.008093815296888351,0.06438788026571274,-0.013262216001749039,0.0,-0.029520997777581215,-0.06089017912745476,-0.548252522945404,-0.570440411567688,,,,,,,,,,,,,,,,,,,,,,,,,,,,,,,,,,,,,,,,,,,,,,,,,,,,,,,,,,,,,,,,,,,,,,,,
1696193752.9192486,1.0543363094329834,1.8802547454833984,-0.03082585148513317,0.0,0.7853010296821594,0.00020072876941412687,0.49076372385025024,0.49155113101005554,1.054277777671814,1.8861663341522217,-0.03185837343335152,0.0,0.7854871153831482,3.563437348930165e-05,-0.4879772365093231,-0.4887857735157013,,,,,,,,,,,,,,,,,,,,,,,,,,,,,,,,,,,,,,,,,,,,,,,,,,,,,,,,,,,,,,,,,,,,,,,,,,,,,,,,,,,,,,,,,,,,,,,,,,,,,,,,,,,,,,,,,,,,,,,,,,,,,,,,,,,,,,-0.014777393080294132,-0.06895197927951813,0.017471754923462868,0.0,0.0004884839290753007,-0.011903791688382626,0.478304922580719,0.5311004519462585,-0.007771831005811691,0.024314023554325104,-0.0011998529080301523,0.0,-0.04986940324306488,-0.10596542805433273,-0.5298249125480652,-0.4688865542411804,,,,,,,,,,,,,,,,,,,,,,,,,,,,,,,,,,,,,,,,,,,,,,,,,,,,,,,,,,,,,,,,,,,,,,,,
1696193753.0683467,1.0528584718704224,1.8772573471069336,-0.02997465804219246,0.0,0.7853717803955078,-5.9541598602663726e-05,0.525725245475769,0.5260475277900696,1.0531911849975586,1.8894416093826294,-0.03217708319425583,0.0,0.7854995727539062,0.00016863398195710033,-0.5174576640129089,-0.5178378224372864,,,,,,,,,,,,,,,,,,,,,,,,,,,,,,,,,,,,,,,,,,,,,,,,,,,,,,,,,,,,,,,,,,,,,,,,,,,,,,,,,,,,,,,,,,,,,,,,,,,,,,,,,,,,,,,,,,,,,,,,,,,,,,,,,,,,,,-0.019431084394454956,-0.019498147070407867,0.004768745508044958,0.0,0.019492268562316895,-0.07478414475917816,0.47894152998924255,0.4308452904224396,-0.028310544788837433,0.03585013747215271,0.0007999474182724953,0.0,0.010589509271085262,0.03267056122422218,-0.21087110042572021,-0.1885652095079422,,,,,,,,,,,,,,,,,,,,,,,,,,,,,,,,,,,,,,,,,,,,,,,,,,,,,,,,,,,,,,,,,,,,,,,,
1696193753.2141728,1.050455927848816,1.8762074708938599,-0.029248680919408798,0.0,0.7853913307189941,-8.790560241322964e-05,0.5531026721000671,0.5531893968582153,1.050697922706604,1.8919651508331299,-0.0320252925157547,0.0,0.7855044007301331,0.0002205596538260579,-0.5452999472618103,-0.5465098023414612,,,,,,,,,,,,,,,,,,,,,,,,,,,,,,,,,,,,,,,,,,,,,,,,,,,,,,,,,,,,,,,,,,,,,,,,,,,,,,,,,,,,,,,,,,,,,,,,,,,,,,,,,,,,,,,,,,,,,,,,,,,,,,,,,,,,,,0.0032291423995047808,-0.01602546125650406,-0.00288423546589911,0.0,0.009573793970048428,-0.04021880775690079,0.2994365394115448,0.2646734416484833,-0.13498333096504211,0.022414686158299446,0.030702603980898857,0.0,0.008816263638436794,0.01674470119178295,-0.48493361473083496,-0.5445264577865601,,,,,,,,,,,,,,,,,,,,,,,,,,,,,,,,,,,,,,,,,,,,,,,,,,,,,,,,,,,,,,,,,,,,,,,,
1696193753.357014,1.0469666719436646,1.8771352767944336,-0.028587287291884422,0.0,0.7853963375091553,-8.986665488919243e-05,0.580057680606842,0.5800706744194031,1.0472010374069214,1.8929582834243774,-0.03139249607920647,0.0,0.7854296565055847,0.00012010249338345602,-0.5759642124176025,-0.5767102241516113,,,,,,,,,,,,,,,,,,,,,,,,,,,,,,,,,,,,,,,,,,,,,,,,,,,,,,,,,,,,,,,,,,,,,,,,,,,,,,,,,,,,,,,,,,,,,,,,,,,,,,,,,,,,,,,,,,,,,,,,,,,,,,,,,,,,,,-0.0655793845653534,0.05684258043766022,0.00883955042809248,0.0,-0.0017643118044361472,-0.02394971251487732,0.2502067983150482,0.2325410097837448,-0.0563158318400383,-0.016993748024106026,0.017671266570687294,0.0,0.009450460784137249,0.03657659515738487,-0.28697991371154785,-0.3842453956604004,,,,,,,,,,,,,,,,,,,,,,,,,,,,,,,,,,,,,,,,,,,,,,,,,,,,,,,,,,,,,,,,,,,,,,,,
1696193753.5231972,1.0445420742034912,1.8788868188858032,-0.028349310159683228,0.0,0.7853825092315674,3.5425320675130934e-05,0.5983405709266663,0.5983931422233582,1.0435519218444824,1.891215205192566,-0.03024963103234768,0.0,0.7853352427482605,-0.00014252708933781832,-0.602581799030304,-0.6027383208274841,,,,,,,,,,,,,,,,,,,,,,,,,,,,,,,,,,,,,,,,,,,,,,,,,,,,,,,,,,,,,,,,,,,,,,,,,,,,,,,,,,,,,,,,,,,,,,,,,,,,,,,,,,,,,,,,,,,,,,,,,,,,,,,,,,,,,,-0.0023186146281659603,-0.007716726511716843,0.001989653566852212,0.0,-0.011329787783324718,0.032500144094228745,0.06719860434532166,0.08622944355010986,-0.04514724016189575,-0.06786393374204636,0.02514774538576603,0.0,-0.01023741066455841,-0.027190228924155235,-0.14533749222755432,-0.13069391250610352,,,,,,,,,,,,,,,,,,,,,,,,,,,,,,,,,,,,,,,,,,,,,,,,,,,,,,,,,,,,,,,,,,,,,,,,
1696193753.6698017,1.042560338973999,1.8830841779708862,-0.028635693714022636,0.0,0.7854728102684021,-0.00022150014410726726,0.6131349802017212,0.6130470037460327,1.0423321723937988,1.8879995346069336,-0.029417794197797775,0.0,0.7853285670280457,-0.00018376423395238817,-0.6147478818893433,-0.614690363407135,,,,,,,,,,,,,,,,,,,,,,,,,,,,,,,,,,,,,,,,,,,,,,,,,,,,,,,,,,,,,,,,,,,,,,,,,,,,,,,,,,,,,,,,,,,,,,,,,,,,,,,,,,,,,,,,,,,,,,,,,,,,,,,,,,,,,,-0.009211825206875801,0.07864748686552048,-0.012925523333251476,0.0,-0.0005565918982028961,0.0009248873684555292,0.11196950078010559,0.11249498277902603,-0.009024454280734062,-0.05187437683343887,0.012750272639095783,0.0,-0.014206631109118462,-0.06054924428462982,-0.06391119211912155,-0.005068800877779722,,,,,,,,,,,,,,,,,,,,,,,,,,,,,,,,,,,,,,,,,,,,,,,,,,,,,,,,,,,,,,,,,,,,,,,,
1696193753.762698,1.0425293445587158,1.8856297731399536,-0.02905368059873581,0.0,0.785426139831543,-3.9585400372743607e-05,0.6164729595184326,0.616519033908844,1.0426348447799683,1.8854974508285522,-0.029055513441562653,0.0,0.7853854298591614,-2.837188912963029e-05,-0.6169618964195251,-0.6170036792755127,,,,,,,,,,,,,,,,,,,,,,,,,,,,,,,,,,,,,,,,,,,,,,,,,,,,,,,,,,,,,,,,,,,,,,,,,,,,,,,,,,,,,,,,,,,,,,,,,,,,,,,,,,,,,,,,,,,,,,,,,,,,,,,,,,,,,,-0.002842310583218932,0.008943947032094002,0.0006102051702328026,0.0,-0.0017877256032079458,-0.007375749759376049,0.034810665994882584,0.021831560879945755,-0.0017416307236999273,-0.017071831971406937,0.0034764748997986317,0.0,0.0018363435519859195,-0.0060618105344474316,-0.04174244403839111,-0.041776739060878754,,,,,,,,,,,,,,,,,,,,,,,,,,,,,,,,,,,,,,,,,,,,,,,,,,,,,,,,,,,,,,,,,,,,,,,,
1696193753.8563044,1.043967843055725,1.8890652656555176,-0.029984001070261,0.0,0.7854118943214417,5.975845124339685e-05,0.614682674407959,0.6147748827934265,1.0443421602249146,1.8817592859268188,-0.02879949100315571,0.0,0.7853702306747437,-2.6768700990942307e-05,-0.6141817569732666,-0.6142849326133728,,,,,,,,,,,,,,,,,,,,,,,,,,,,,,,,,,,,,,,,,,,,,,,,,,,,,,,,,,,,,,,,,,,,,,,,,,,,,,,,,,,,,,,,,,,,,,,,,,,,,,,,,,,,,,,,,,,,,,,,,,,,,,,,,,,,,,0.00016532259178347886,0.011981774121522903,0.001310270861722529,0.0,-0.011849615722894669,0.051690611988306046,-0.07479816675186157,-0.036976851522922516,0.005110736470669508,-0.01886412687599659,0.0015825756127014756,0.0,0.0002471534244250506,-0.010609078221023083,-0.03871333971619606,-0.09135229140520096,,,,,,,,,,,,,,,,,,,,,,,,,,,,,,,,,,,,,,,,,,,,,,,,,,,,,,,,,,,,,,,,,,,,,,,,
1696193753.951236,1.0462980270385742,1.8905411958694458,-0.030799798667430878,0.0,0.7854694724082947,4.4190917833475396e-05,0.6073001027107239,0.6074178218841553,1.0454446077346802,1.8803093433380127,-0.028801286593079567,0.0,0.7853687405586243,-6.085651330067776e-05,-0.611103355884552,-0.6108524203300476,,,,,,,,,,,,,,,,,,,,,,,,,,,,,,,,,,,,,,,,,,,,,,,,,,,,,,,,,,,,,,,,,,,,,,,,,,,,,,,,,,,,,,,,,,,,,,,,,,,,,,,,,,,,,,,,,,,,,,,,,,,,,,,,,,,,,,0.05263141170144081,0.011240950785577297,-0.01394522562623024,0.0,0.00013644702266901731,0.053448423743247986,-0.28244274854660034,-0.23951885104179382,-0.0003370799240656197,-0.01785225421190262,0.004068732261657715,0.0,-0.00028061456396244466,0.005031820386648178,0.0606294646859169,0.05922817438840866,,,,,,,,,,,,,,,,,,,,,,,,,,,,,,,,,,,,,,,,,,,,,,,,,,,,,,,,,,,,,,,,,,,,,,,,
1696193754.0644293,1.0501530170440674,1.890794038772583,-0.03171396628022194,0.0,0.7854178547859192,1.7136231690528803e-05,0.5895598530769348,0.5895836353302002,1.0501545667648315,1.8778221607208252,-0.02945523150265217,0.0,0.7853530645370483,-0.00015003127919044346,-0.5907848477363586,-0.5901706218719482,,,,,,,,,,,,,,,,,,,,,,,,,,,,,,,,,,,,,,,,,,,,,,,,,,,,,,,,,,,,,,,,,,,,,,,,,,,,,,,,,,,,,,,,,,,,,,,,,,,,,,,,,,,,,,,,,,,,,,,,,,,,,,,,,,,,,,0.005095116328448057,0.011386178433895111,-0.0014817767078056931,0.0,0.0011975960806012154,0.008266870863735676,-0.11017423868179321,-0.09867151826620102,-0.003567836480215192,-0.020955026149749756,0.007634520530700684,0.0,-0.005541913211345673,-0.020623603835701942,0.1935068815946579,0.2209848165512085,,,,,,,,,,,,,,,,,,,,,,,,,,,,,,,,,,,,,,,,,,,,,,,,,,,,,,,,,,,,,,,,,,,,,,,,
1696193754.1861453,1.0526293516159058,1.889440894126892,-0.03205479681491852,0.0,0.7853711843490601,8.800937939668074e-05,0.5744174718856812,0.5743802785873413,1.0530822277069092,1.8782814741134644,-0.030230939388275146,0.0,0.7853644490242004,-7.786286005284637e-05,-0.5730639100074768,-0.5725085735321045,,,,,,,,,,,,,,,,,,,,,,,,,,,,,,,,,,,,,,,,,,,,,,,,,,,,,,,,,,,,,,,,,,,,,,,,,,,,,,,,,,,,,,,,,,,,,,,,,,,,,,,,,,,,,,,,,,,,,,,,,,,,,,,,,,,,,,0.037991829216480255,-0.04135911911725998,-0.002070882823318243,0.0,-0.00873462576419115,0.025333993136882782,-0.17210562527179718,-0.15628591179847717,0.04482746124267578,0.04173443093895912,-0.019762638956308365,0.0,-0.018904078751802444,-0.055538855493068695,0.2842450737953186,0.37116166949272156,,,,,,,,,,,,,,,,,,,,,,,,,,,,,,,,,,,,,,,,,,,,,,,,,,,,,,,,,,,,,,,,,,,,,,,,
1696193754.3407357,1.0553051233291626,1.8864703178405762,-0.03215252235531807,0.0,0.7853564620018005,0.00016817587311379611,0.5504805445671082,0.5504785776138306,1.0559073686599731,1.8810679912567139,-0.03136463463306427,0.0,0.7853825688362122,-5.4068907047621906e-05,-0.5423771739006042,-0.5416713356971741,,,,,,,,,,,,,,,,,,,,,,,,,,,,,,,,,,,,,,,,,,,,,,,,,,,,,,,,,,,,,,,,,,,,,,,,,,,,,,,,,,,,,,,,,,,,,,,,,,,,,,,,,,,,,,,,,,,,,,,,,,,,,,,,,,,,,,0.023321211338043213,-0.05477096140384674,0.005686348304152489,0.0,-0.0021073324605822563,0.04404958337545395,-0.1922225058078766,-0.12993232905864716,0.017418017610907555,0.05765918642282486,-0.01382350828498602,0.0,-0.012716859579086304,-0.049472905695438385,0.46717143058776855,0.5513617396354675,,,,,,,,,,,,,,,,,,,,,,,,,,,,,,,,,,,,,,,,,,,,,,,,,,,,,,,,,,,,,,,,,,,,,,,,
1696193754.4727297,1.0565942525863647,1.8818312883377075,-0.031631577759981155,0.0,0.7853165864944458,0.00033571425592526793,0.5199747681617737,0.5197789669036865,1.05653715133667,1.8830406665802002,-0.031846724450588226,0.0,0.7853600978851318,-0.00017486180877313018,-0.5256807804107666,-0.5252978205680847,,,,,,,,,,,,,,,,,,,,,,,,,,,,,,,,,,,,,,,,,,,,,,,,,,,,,,,,,,,,,,,,,,,,,,,,,,,,,,,,,,,,,,,,,,,,,,,,,,,,,,,,,,,,,,,,,,,,,,,,,,,,,,,,,,,,,,0.003553099697455764,-0.09186408668756485,0.019816476851701736,0.0,-0.009670144878327847,0.06206366792321205,-0.3695056140422821,-0.361809104681015,0.0017424188554286957,-0.009542496874928474,0.002561362227424979,0.0,-0.013952946290373802,-0.0793195515871048,0.21123462915420532,0.2609734833240509,,,,,,,,,,,,,,,,,,,,,,,,,,,,,,,,,,,,,,,,,,,,,,,,,,,,,,,,,,,,,,,,,,,,,,,,
1696193754.5957575,1.0561833381652832,1.8786638975143433,-0.031001221388578415,0.0,0.7853379845619202,-1.428870382369496e-05,0.4967544674873352,0.4959864914417267,1.0556745529174805,1.8881789445877075,-0.03254083916544914,0.0,0.7853881120681763,0.00038458718336187303,-0.4932709336280823,-0.49339455366134644,,,,,,,,,,,,,,,,,,,,,,,,,,,,,,,,,,,,,,,,,,,,,,,,,,,,,,,,,,,,,,,,,,,,,,,,,,,,,,,,,,,,,,,,,,,,,,,,,,,,,,,,,,,,,,,,,,,,,,,,,,,,,,,,,,,,,,-0.01382376253604889,-0.024618279188871384,0.0028660171665251255,0.0,0.004004220943897963,-0.06306368112564087,-0.26910313963890076,-0.35463452339172363,-0.06753502786159515,0.15115399658679962,-0.010325664654374123,0.0,-0.001386636751703918,0.0829184353351593,0.6204870939254761,0.5717608332633972,,,,,,,,,,,,,,,,,,,,,,,,,,,,,,,,,,,,,,,,,,,,,,,,,,,,,,,,,,,,,,,,,,,,,,,,
1696193754.7125518,1.0549397468566895,1.876358151435852,-0.030290303751826286,0.0,0.7853373289108276,0.00025463468045927584,0.4770851135253906,0.4765058159828186,1.0545610189437866,1.890377163887024,-0.03266473114490509,0.0,0.7853701710700989,8.9957948148367e-06,-0.47577130794525146,-0.47570791840553284,,,,,,,,,,,,,,,,,,,,,,,,,,,,,,,,,,,,,,,,,,,,,,,,,,,,,,,,,,,,,,,,,,,,,,,,,,,,,,,,,,,,,,,,,,,,,,,,,,,,,,,,,,,,,,,,,,,,,,,,,,,,,,,,,,,,,,-0.05104393512010574,-0.037122685462236404,0.02362130768597126,0.0,-0.0068058837205171585,0.06149783730506897,-0.3599936366081238,-0.40326470136642456,-0.021223677322268486,0.028217656537890434,-0.0008067432208918035,0.0,0.0035829117987304926,-0.014934388920664787,0.2873481810092926,0.31423017382621765,,,,,,,,,,,,,,,,,,,,,,,,,,,,,,,,,,,,,,,,,,,,,,,,,,,,,,,,,,,,,,,,,,,,,,,,
1696193754.8423529,1.0518240928649902,1.8745696544647217,-0.029270678758621216,0.0,0.7853868007659912,0.00010746088082669303,0.44854989647865295,0.44820988178253174,1.0511008501052856,1.8935071229934692,-0.032391395419836044,0.0,0.7852602005004883,7.701518916292116e-05,-0.4468676745891571,-0.44701123237609863,,,,,,,,,,,,,,,,,,,,,,,,,,,,,,,,,,,,,,,,,,,,,,,,,,,,,,,,,,,,,,,,,,,,,,,,,,,,,,,,,,,,,,,,,,,,,,,,,,,,,,,,,,,,,,,,,,,,,,,,,,,,,,,,,,,,,,-0.04015834257006645,0.0027267064433544874,0.012841767631471157,0.0,0.005796491168439388,0.028159072622656822,-0.21812810003757477,-0.1602858155965805,-0.10027821362018585,0.026121489703655243,0.02200854755938053,0.0,-0.022756105288863182,0.023933129385113716,0.4461726248264313,0.394474059343338,,,,,,,,,,,,,,,,,,,,,,,,,,,,,,,,,,,,,,,,,,,,,,,,,,,,,,,,,,,,,,,,,,,,,,,,
1696193755.0032866,1.048600435256958,1.8745547533035278,-0.02852790057659149,0.0,0.7854137420654297,2.1239886336843483e-05,0.4262278974056244,0.425878643989563,1.0468991994857788,1.8948014974594116,-0.03165648505091667,0.0,0.7853712439537048,7.065829413477331e-05,-0.41867488622665405,-0.418872207403183,,,,,,,,,,,,,,,,,,,,,,,,,,,,,,,,,,,,,,,,,,,,,,,,,,,,,,,,,,,,,,,,,,,,,,,,,,,,,,,,,,,,,,,,,,,,,,,,,,,,,,,,,,,,,,,,,,,,,,,,,,,,,,,,,,,,,,-0.04168716073036194,0.023801444098353386,0.008279368281364441,0.0,0.009803902357816696,0.006818221416324377,-0.15769225358963013,-0.12192361056804657,-0.024663588032126427,0.0069738044403493404,0.0035720125306397676,0.0,0.025242136791348457,0.031195545569062233,0.24628911912441254,0.21272535622119904,,,,,,,,,,,,,,,,,,,,,,,,,,,,,,,,,,,,,,,,,,,,,,,,,,,,,,,,,,,,,,,,,,,,,,,,
1696193755.1146216,1.0442451238632202,1.8773976564407349,-0.028021736070513725,0.0,0.7854180932044983,-0.00017671904060989618,0.40352800488471985,0.40272626280784607,1.0446863174438477,1.8942681550979614,-0.031057873740792274,0.0,0.7854504585266113,0.00017004444089252502,-0.4063785970211029,-0.4065414071083069,,,,,,,,,,,,,,,,,,,,,,,,,,,,,,,,,,,,,,,,,,,,,,,,,,,,,,,,,,,,,,,,,,,,,,,,,,,,,,,,,,,,,,,,,,,,,,,,,,,,,,,,,,,,,,,,,,,,,,,,,,,,,,,,,,,,,,-0.052156075835227966,0.06310204416513443,0.001976451138034463,0.0,-0.007784117944538593,-0.018417654559016228,-0.1825421154499054,-0.2635766267776489,0.005589821841567755,0.01640884019434452,-0.005758516490459442,0.0,0.051728617399930954,0.08861025422811508,0.12353868782520294,0.06211964786052704,,,,,,,,,,,,,,,,,,,,,,,,,,,,,,,,,,,,,,,,,,,,,,,,,,,,,,,,,,,,,,,,,,,,,,,,
1696193755.2581723,1.042179822921753,1.8800097703933716,-0.028010433539748192,0.0,0.7853844165802002,-4.2962645238731056e-05,0.39233529567718506,0.3919357359409332,1.0419199466705322,1.8920356035232544,-0.03003762848675251,0.0,0.7853661179542542,-2.7641106498776935e-05,-0.3918750286102295,-0.3919123113155365,,,,,,,,,,,,,,,,,,,,,,,,,,,,,,,,,,,,,,,,,,,,,,,,,,,,,,,,,,,,,,,,,,,,,,,,,,,,,,,,,,,,,,,,,,,,,,,,,,,,,,,,,,,,,,,,,,,,,,,,,,,,,,,,,,,,,,-0.013534687459468842,0.0246132742613554,-0.0007151667959988117,0.0,-0.029830383136868477,0.05428974702954292,-0.15390276908874512,-0.12764522433280945,-0.009274637326598167,0.002336848760023713,0.001132617937400937,0.0,0.00067710573785007,-0.013566738925874233,0.06091264262795448,0.06730809807777405,,,,,,,,,,,,,,,,,,,,,,,,,,,,,,,,,,,,,,,,,,,,,,,,,,,,,,,,,,,,,,,,,,,,,,,,
1696193755.4168515,1.0404638051986694,1.8841123580932617,-0.028338391333818436,0.0,0.7854675650596619,-0.00020867020066361874,0.3829800486564636,0.3827502727508545,1.0404852628707886,1.8892476558685303,-0.029226865619421005,0.0,0.7854204177856445,0.00014144773012958467,-0.38346314430236816,-0.38355308771133423,,,,,,,,,,,,,,,,,,,,,,,,,,,,,,,,,,,,,,,,,,,,,,,,,,,,,,,,,,,,,,,,,,,,,,,,,,,,,,,,,,,,,,,,,,,,,,,,,,,,,,,,,,,,,,,,,,,,,,,,,,,,,,,,,,,,,,-0.01171052921563387,0.058115165680646896,-0.010390479117631912,0.0,0.010752041824162006,-0.04967402294278145,0.02011343277990818,-0.02039850875735283,-8.738055475987494e-05,0.01323492918163538,-0.004337412770837545,0.0,0.03189094364643097,0.08279214799404144,0.07038144767284393,-0.0037856961134821177,,,,,,,,,,,,,,,,,,,,,,,,,,,,,,,,,,,,,,,,,,,,,,,,,,,,,,,,,,,,,,,,,,,,,,,,
1696193755.5701919,1.0402055978775024,1.887887716293335,-0.028918778523802757,0.0,0.7853958606719971,0.0001408475509379059,0.3789099156856537,0.3790969252586365,1.040168046951294,1.8853002786636353,-0.02846628427505493,0.0,0.7853745818138123,-8.059033461904619e-06,-0.37907883524894714,-0.3791045546531677,,,,,,,,,,,,,,,,,,,,,,,,,,,,,,,,,,,,,,,,,,,,,,,,,,,,,,,,,,,,,,,,,,,,,,,,,,,,,,,,,,,,,,,,,,,,,,,,,,,,,,,,,,,,,,,,,,,,,,,,,,,,,,,,,,,,,,0.0010612783953547478,-0.00832278747111559,0.007291893474757671,0.0,-0.02128923498094082,0.09131479263305664,-0.09491048753261566,-0.03197193518280983,-0.004234058782458305,-0.0010264834854751825,0.0013398797018453479,0.0,0.00040679037920199335,-0.000834180333185941,0.03469500690698624,-0.0022013753186911345,,,,,,,,,,,,,,,,,,,,,,,,,,,,,,,,,,,,,,,,,,,,,,,,,,,,,,,,,,,,,,,,,,,,,,,,
1696193755.676824,1.0410118103027344,1.8906219005584717,-0.029581770300865173,0.0,0.7854292988777161,-3.594017471186817e-05,0.3798854947090149,0.3799593448638916,1.0420496463775635,1.8802003860473633,-0.028013436123728752,0.0,0.7853919267654419,1.5227385119942483e-05,-0.3817203640937805,-0.3816356658935547,,,,,,,,,,,,,,,,,,,,,,,,,,,,,,,,,,,,,,,,,,,,,,,,,,,,,,,,,,,,,,,,,,,,,,,,,,,,,,,,,,,,,,,,,,,,,,,,,,,,,,,,,,,,,,,,,,,,,,,,,,,,,,,,,,,,,,0.000796985870692879,0.00974121131002903,-0.0001248271728400141,0.0,-0.00622541643679142,-0.0034079316537827253,0.020273584872484207,-0.04162527620792389,0.0013747744960710406,-0.011303064413368702,0.001542676123790443,0.0,0.006771971005946398,0.031681131571531296,-0.011729147285223007,-0.02444593235850334,,,,,,,,,,,,,,,,,,,,,,,,,,,,,,,,,,,,,,,,,,,,,,,,,,,,,,,,,,,,,,,,,,,,,,,,
1696193755.7783473,1.043275237083435,1.8932058811187744,-0.03057957999408245,0.0,0.785474419593811,-7.312667730730027e-05,0.38512346148490906,0.38568592071533203,1.0444979667663574,1.8773281574249268,-0.028081834316253662,0.0,0.7854064702987671,-0.00013290716742631048,-0.3879781663417816,-0.3876706063747406,,,,,,,,,,,,,,,,,,,,,,,,,,,,,,,,,,,,,,,,,,,,,,,,,,,,,,,,,,,,,,,,,,,,,,,,,,,,,,,,,,,,,,,,,,,,,,,,,,,,,,,,,,,,,,,,,,,,,,,,,,,,,,,,,,,,,,0.05282089486718178,0.02568272314965725,-0.019348038360476494,0.0,0.007245413493365049,0.02501612901687622,0.10655432939529419,0.19030557572841644,0.061779409646987915,-0.04941799119114876,-0.006499465089291334,0.0,0.0014523037243634462,-0.015687592327594757,-0.14323420822620392,-0.1393059343099594,,,,,,,,,,,,,,,,,,,,,,,,,,,,,,,,,,,,,,,,,,,,,,,,,,,,,,,,,,,,,,,,,,,,,,,,
1696193755.8914483,1.0466786623001099,1.894646167755127,-0.03158331289887428,0.0,0.78544020652771,8.435318886768073e-05,0.3958923816680908,0.39641478657722473,1.0472509860992432,1.8752342462539673,-0.02834504283964634,0.0,0.7854074239730835,1.2824063560401555e-05,-0.3967851400375366,-0.3967258334159851,,,,,,,,,,,,,,,,,,,,,,,,,,,,,,,,,,,,,,,,,,,,,,,,,,,,,,,,,,,,,,,,,,,,,,,,,,,,,,,,,,,,,,,,,,,,,,,,,,,,,,,,,,,,,,,,,,,,,,,,,,,,,,,,,,,,,,0.0008790791034698486,0.016926366835832596,0.0029512529727071524,0.0,0.0023639369755983353,0.03119349665939808,0.06730338931083679,0.07140183448791504,0.008425923995673656,-0.011059719137847424,0.0013674584915861487,0.0,0.0006058104336261749,0.019400399178266525,-0.02326180972158909,-0.07233885675668716,,,,,,,,,,,,,,,,,,,,,,,,,,,,,,,,,,,,,,,,,,,,,,,,,,,,,,,,,,,,,,,,,,,,,,,,
1696193756.0317686,1.0503888130187988,1.8943880796432495,-0.03239801526069641,0.0,0.7854470610618591,4.667577741201967e-05,0.41009995341300964,0.41062411665916443,1.0504639148712158,1.8740134239196777,-0.028877373784780502,0.0,0.785388171672821,-5.703751230612397e-05,-0.4087875783443451,-0.40864506363868713,,,,,,,,,,,,,,,,,,,,,,,,,,,,,,,,,,,,,,,,,,,,,,,,,,,,,,,,,,,,,,,,,,,,,,,,,,,,,,,,,,,,,,,,,,,,,,,,,,,,,,,,,,,,,,,,,,,,,,,,,,,,,,,,,,,,,,-0.0004392734554130584,0.018901297822594643,0.0008217906579375267,0.0,0.012592325918376446,-0.001343725947663188,0.1269189566373825,0.09820172190666199,0.003668268909677863,-0.013031085021793842,0.0032991820480674505,0.0,-0.013591764494776726,-0.01648477278649807,-0.08512791991233826,-0.056941501796245575,,,,,,,,,,,,,,,,,,,,,,,,,,,,,,,,,,,,,,,,,,,,,,,,,,,,,,,,,,,,,,,,,,,,,,,,
1696193756.1708295,1.054165244102478,1.8921666145324707,-0.03289476037025452,0.0,0.7853571176528931,7.600568642374128e-05,0.4283750355243683,0.4287216067314148,1.054338812828064,1.8745230436325073,-0.02986464835703373,0.0,0.7853606939315796,-0.00014143217413220555,-0.4280228912830353,-0.42785921692848206,,,,,,,,,,,,,,,,,,,,,,,,,,,,,,,,,,,,,,,,,,,,,,,,,,,,,,,,,,,,,,,,,,,,,,,,,,,,,,,,,,,,,,,,,,,,,,,,,,,,,,,,,,,,,,,,,,,,,,,,,,,,,,,,,,,,,,0.03815905749797821,-0.04424329102039337,-0.002381690312176943,0.0,-0.011628560721874237,0.018564028665423393,0.09633045643568039,0.07366664707660675,-0.004322614520788193,-0.016548888757824898,0.00659611402079463,0.0,-0.045597486197948456,-0.07234269380569458,-0.1433672159910202,-0.07590415328741074,,,,,,,,,,,,,,,,,,,,,,,,,,,,,,,,,,,,,,,,,,,,,,,,,,,,,,,,,,,,,,,,,,,,,,,,
1696193756.3211968,1.0570091009140015,1.888856291770935,-0.03297550231218338,0.0,0.7853325009346008,0.00015945659833960235,0.4480234384536743,0.4484385848045349,1.0571389198303223,1.8766705989837646,-0.030903341248631477,0.0,0.785586953163147,0.00025007096701301634,-0.4467742443084717,-0.4470803737640381,,,,,,,,,,,,,,,,,,,,,,,,,,,,,,,,,,,,,,,,,,,,,,,,,,,,,,,,,,,,,,,,,,,,,,,,,,,,,,,,,,,,,,,,,,,,,,,,,,,,,,,,,,,,,,,,,,,,,,,,,,,,,,,,,,,,,,0.028813499957323074,-0.05517001450061798,0.0036248844116926193,0.0,-0.016937386244535446,0.0395566001534462,0.09313523024320602,0.09784424304962158,0.03920183703303337,0.07331869006156921,-0.02491208165884018,0.0,0.028608625754714012,0.04159047454595566,-0.22185610234737396,-0.28511500358581543,,,,,,,,,,,,,,,,,,,,,,,,,,,,,,,,,,,,,,,,,,,,,,,,,,,,,,,,,,,,,,,,,,,,,,,,
1696193756.436617,1.0583257675170898,1.8859461545944214,-0.03277267888188362,0.0,0.7853435277938843,0.00019762090232688934,0.46266254782676697,0.463516503572464,1.0584863424301147,1.8791998624801636,-0.03165426477789879,0.0,0.7856245040893555,0.0003622392541728914,-0.46287328004837036,-0.4633229374885559,,,,,,,,,,,,,,,,,,,,,,,,,,,,,,,,,,,,,,,,,,,,,,,,,,,,,,,,,,,,,,,,,,,,,,,,,,,,,,,,,,,,,,,,,,,,,,,,,,,,,,,,,,,,,,,,,,,,,,,,,,,,,,,,,,,,,,0.012625881470739841,-0.0670749843120575,0.008073393255472183,0.0,0.01730913110077381,-0.028650159016251564,0.39613208174705505,0.4280994236469269,0.019362038001418114,0.0874171033501625,-0.022257758304476738,0.0,0.0415024496614933,0.08574909716844559,-0.21913233399391174,-0.30312567949295044,,,,,,,,,,,,,,,,,,,,,,,,,,,,,,,,,,,,,,,,,,,,,,,,,,,,,,,,,,,,,,,,,,,,,,,,
1696193756.5480812,1.0590741634368896,1.8803532123565674,-0.03196387365460396,0.0,0.7853026390075684,0.00022841428290121257,0.4905945062637329,0.4911947250366211,1.0590742826461792,1.8834062814712524,-0.03251371905207634,0.0,0.7854123711585999,-4.0004066249821335e-05,-0.48629358410835266,-0.48638975620269775,,,,,,,,,,,,,,,,,,,,,,,,,,,,,,,,,,,,,,,,,,,,,,,,,,,,,,,,,,,,,,,,,,,,,,,,,,,,,,,,,,,,,,,,,,,,,,,,,,,,,,,,,,,,,,,,,,,,,,,,,,,,,,,,,,,,,,-0.005227359943091869,-0.0783478245139122,0.016561737284064293,0.0,0.00024028238840401173,-0.007604265119880438,0.3066125214099884,0.3435470461845398,0.001812180271372199,0.005898652598261833,-0.0004803211195394397,0.0,-0.022576281800866127,-0.05244627967476845,-0.1282067745923996,-0.0921972468495369,,,,,,,,,,,,,,,,,,,,,,,,,,,,,,,,,,,,,,,,,,,,,,,,,,,,,,,,,,,,,,,,,,,,,,,,
1696193756.662982,1.0586708784103394,1.8777068853378296,-0.03143462911248207,0.0,0.7854085564613342,-0.00013355293776839972,0.5064482092857361,0.5065263509750366,1.0586199760437012,1.8869397640228271,-0.03302214294672012,0.0,0.7854188084602356,-1.2853570297011174e-05,-0.5041080713272095,-0.5042740106582642,,,,,,,,,,,,,,,,,,,,,,,,,,,,,,,,,,,,,,,,,,,,,,,,,,,,,,,,,,,,,,,,,,,,,,,,,,,,,,,,,,,,,,,,,,,,,,,,,,,,,,,,,,,,,,,,,,,,,,,,,,,,,,,,,,,,,,-0.00065792998066172,0.001259477692656219,-0.0067674932070076466,0.0,0.027213845402002335,-0.08979999274015427,0.30403831601142883,0.2278059870004654,0.0013676173985004425,0.009976627305150032,-0.0015051818918436766,0.0,-0.018894145265221596,-0.044668905436992645,-0.12296390533447266,-0.09293362498283386,,,,,,,,,,,,,,,,,,,,,,,,,,,,,,,,,,,,,,,,,,,,,,,,,,,,,,,,,,,,,,,,,,,,,,,,
1696193756.7948365,1.0566978454589844,1.873758316040039,-0.03028356283903122,0.0,0.7853910326957703,-7.018562610028312e-05,0.5313078761100769,0.5313282012939453,1.0564807653427124,1.8919016122817993,-0.03338566794991493,0.0,0.7854229211807251,8.593131184397862e-08,-0.5299666523933411,-0.5303581357002258,,,,,,,,,,,,,,,,,,,,,,,,,,,,,,,,,,,,,,,,,,,,,,,,,,,,,,,,,,,,,,,,,,,,,,,,,,,,,,,,,,,,,,,,,,,,,,,,,,,,,,,,,,,,,,,,,,,,,,,,,,,,,,,,,,,,,,-0.002393455244600773,-0.008295102044939995,-0.0013741095317527652,0.0,0.01337756309658289,-0.05420413240790367,0.17918461561203003,0.13711796700954437,0.003586770500987768,0.0077528078109025955,-0.002367721637710929,0.0,-0.022092193365097046,-0.057592350989580154,-0.18881678581237793,-0.14380726218223572,,,,,,,,,,,,,,,,,,,,,,,,,,,,,,,,,,,,,,,,,,,,,,,,,,,,,,,,,,,,,,,,,,,,,,,,
1696193756.9081004,1.054715871810913,1.872100591659546,-0.02954033762216568,0.0,0.7853797674179077,4.9586327804718167e-05,0.5462290048599243,0.5462930202484131,1.0544575452804565,1.894397258758545,-0.033342767506837845,0.0,0.7854861617088318,0.0002397471253061667,-0.5438936948776245,-0.5447454452514648,,,,,,,,,,,,,,,,,,,,,,,,,,,,,,,,,,,,,,,,,,,,,,,,,,,,,,,,,,,,,,,,,,,,,,,,,,,,,,,,,,,,,,,,,,,,,,,,,,,,,,,,,,,,,,,,,,,,,,,,,,,,,,,,,,,,,,-0.007210839074105024,-0.010353045538067818,0.0009685525437816978,0.0,0.00425080768764019,0.020766623318195343,0.09691567718982697,0.11123863607645035,-0.058666814118623734,0.046175822615623474,0.006839463487267494,0.0,0.005965506657958031,0.027397358790040016,-0.2272282987833023,-0.33333835005760193,,,,,,,,,,,,,,,,,,,,,,,,,,,,,,,,,,,,,,,,,,,,,,,,,,,,,,,,,,,,,,,,,,,,,,,,
1696193757.1027107,1.051055669784546,1.870767593383789,-0.028434520587325096,0.0,0.7853541374206543,6.197319453349337e-05,0.5670079588890076,0.5670152902603149,1.0500080585479736,1.89768385887146,-0.032879531383514404,0.0,0.7854207754135132,0.00013739321730099618,-0.568845272064209,-0.5696105360984802,,,,,,,,,,,,,,,,,,,,,,,,,,,,,,,,,,,,,,,,,,,,,,,,,,,,,,,,,,,,,,,,,,,,,,,,,,,,,,,,,,,,,,,,,,,,,,,,,,,,,,,,,,,,,,,,,,,,,,,,,,,,,,,,,,,,,,-0.06611320376396179,0.015872174873948097,0.01782648079097271,0.0,-0.006668525282293558,0.0056909299455583096,0.14068497717380524,0.13554275035858154,-0.1057574450969696,0.016903121024370193,0.0243217870593071,0.0,-0.0020353286527097225,0.012286994606256485,-0.2042798548936844,-0.24795418977737427,,,,,,,,,,,,,,,,,,,,,,,,,,,,,,,,,,,,,,,,,,,,,,,,,,,,,,,,,,,,,,,,,,,,,,,,
1696193757.195692,1.0474830865859985,1.87153959274292,-0.027753541246056557,0.0,0.7853825092315674,-9.760290413396433e-05,0.5824902057647705,0.5823068022727966,1.047497272491455,1.8983420133590698,-0.03242817148566246,0.0,0.7854421138763428,0.00014151849609334022,-0.5808610320091248,-0.5814157724380493,,,,,,,,,,,,,,,,,,,,,,,,,,,,,,,,,,,,,,,,,,,,,,,,,,,,,,,,,,,,,,,,,,,,,,,,,,,,,,,,,,,,,,,,,,,,,,,,,,,,,,,,,,,,,,,,,,,,,,,,,,,,,,,,,,,,,,-0.062352489680051804,0.03641309216618538,0.009524009190499783,0.0,-0.0027654278092086315,-0.022590341046452522,0.22327138483524323,0.18921959400177002,0.0036132277455180883,0.018106257542967796,-0.006799257360398769,0.0,0.011709396727383137,0.022928781807422638,-0.15945659577846527,-0.18888381123542786,,,,,,,,,,,,,,,,,,,,,,,,,,,,,,,,,,,,,,,,,,,,,,,,,,,,,,,,,,,,,,,,,,,,,,,,
1696193757.2959194,1.0447654724121094,1.8730581998825073,-0.02739950828254223,0.0,0.7854248285293579,-0.0001489464775659144,0.5929007530212402,0.5927013754844666,1.0442709922790527,1.8978869915008545,-0.03159654140472412,0.0,0.7853198051452637,-9.898053394863382e-05,-0.5926435589790344,-0.5930079817771912,,,,,,,,,,,,,,,,,,,,,,,,,,,,,,,,,,,,,,,,,,,,,,,,,,,,,,,,,,,,,,,,,,,,,,,,,,,,,,,,,,,,,,,,,,,,,,,,,,,,,,,,,,,,,,,,,,,,,,,,,,,,,,,,,,,,,,-0.0651482343673706,0.07228495180606842,0.004747926723212004,0.0,0.0027709449641406536,-0.03393814340233803,0.16007152199745178,0.12040343880653381,-0.06814103573560715,-0.04057500883936882,0.024169661104679108,0.0,-0.02317585051059723,-0.043187856674194336,-0.11586689203977585,-0.12898924946784973,,,,,,,,,,,,,,,,,,,,,,,,,,,,,,,,,,,,,,,,,,,,,,,,,,,,,,,,,,,,,,,,,,,,,,,,
1696193757.419211,1.0406503677368164,1.8771430253982544,-0.027178123593330383,0.0,0.7854444980621338,-0.00013118410424795002,0.6078667044639587,0.6077355146408081,1.0404725074768066,1.8956964015960693,-0.03035474754869938,0.0,0.7854552865028381,0.00019717926625162363,-0.6074060797691345,-0.6077961921691895,,,,,,,,,,,,,,,,,,,,,,,,,,,,,,,,,,,,,,,,,,,,,,,,,,,,,,,,,,,,,,,,,,,,,,,,,,,,,,,,,,,,,,,,,,,,,,,,,,,,,,,,,,,,,,,,,,,,,,,,,,,,,,,,,,,,,,-0.034791916608810425,0.05636836588382721,-0.001957918517291546,0.0,0.006726287305355072,-0.03239870071411133,0.09951912611722946,0.0733167827129364,0.0024763091932982206,0.013063774444162846,-0.004674954805523157,0.0,0.03695332258939743,0.08542744070291519,-0.1011851504445076,-0.15211090445518494,,,,,,,,,,,,,,,,,,,,,,,,,,,,,,,,,,,,,,,,,,,,,,,,,,,,,,,,,,,,,,,,,,,,,,,,
1696193757.526613,1.0389741659164429,1.880216121673584,-0.027329321950674057,0.0,0.7854198217391968,-3.8859492633491755e-05,0.613836944103241,0.6137613654136658,1.0387060642242432,1.8930894136428833,-0.029491908848285675,0.0,0.7853240966796875,-0.00016751181101426482,-0.6138132214546204,-0.6137809157371521,,,,,,,,,,,,,,,,,,,,,,,,,,,,,,,,,,,,,,,,,,,,,,,,,,,,,,,,,,,,,,,,,,,,,,,,,,,,,,,,,,,,,,,,,,,,,,,,,,,,,,,,,,,,,,,,,,,,,,,,,,,,,,,,,,,,,,-0.011519846506416798,0.02751302905380726,-0.0007829357637092471,0.0,-0.0171489417552948,0.058015480637550354,0.02021770365536213,0.06030144542455673,-0.02258802019059658,-0.05098428204655647,0.015983711928129196,0.0,-0.011741472408175468,-0.05005529522895813,-0.04856494814157486,0.016732141375541687,,,,,,,,,,,,,,,,,,,,,,,,,,,,,,,,,,,,,,,,,,,,,,,,,,,,,,,,,,,,,,,,,,,,,,,,
1696193757.6200237,1.037698745727539,1.8847193717956543,-0.02782846800982952,0.0,0.7854772210121155,-0.00018552278925199062,0.6188430786132812,0.6186996698379517,1.0376571416854858,1.8895756006240845,-0.02865288220345974,0.0,0.7853918671607971,0.00010412205301690847,-0.6185203194618225,-0.6187153458595276,,,,,,,,,,,,,,,,,,,,,,,,,,,,,,,,,,,,,,,,,,,,,,,,,,,,,,,,,,,,,,,,,,,,,,,,,,,,,,,,,,,,,,,,,,,,,,,,,,,,,,,,,,,,,,,,,,,,,,,,,,,,,,,,,,,,,,-0.00689317611977458,0.07259645313024521,-0.0104074003174901,0.0,-0.008182153105735779,0.0348493754863739,0.007959828712046146,0.031029514968395233,-0.004122839774936438,0.007792698685079813,-0.002183469943702221,0.0,0.016104424372315407,0.05040398985147476,-0.030117860063910484,-0.08850608766078949,,,,,,,,,,,,,,,,,,,,,,,,,,,,,,,,,,,,,,,,,,,,,,,,,,,,,,,,,,,,,,,,,,,,,,,,
1696193757.777932,1.0372614860534668,1.8891873359680176,-0.028508493676781654,0.0,0.7854779362678528,-0.00022848602384328842,0.6217941045761108,0.6216455698013306,1.0373185873031616,1.8850488662719727,-0.027784140780568123,0.0,0.785268247127533,-0.00030853826319798827,-0.6215674877166748,-0.6212606430053711,,,,,,,,,,,,,,,,,,,,,,,,,,,,,,,,,,,,,,,,,,,,,,,,,,,,,,,,,,,,,,,,,,,,,,,,,,,,,,,,,,,,,,,,,,,,,,,,,,,,,,,,,,,,,,,,,,,,,,,,,,,,,,,,,,,,,,0.0025636302307248116,0.054737307131290436,-0.01435681153088808,0.0,0.010601421818137169,-0.05487353727221489,0.09691957384347916,0.04407747462391853,0.015801092609763145,-0.09170573949813843,0.01347227394580841,0.0,-0.02392590418457985,-0.07938805222511292,-0.016111111268401146,0.05339183285832405,,,,,,,,,,,,,,,,,,,,,,,,,,,,,,,,,,,,,,,,,,,,,,,,,,,,,,,,,,,,,,,,,,,,,,,,
1696193757.903375,1.038643479347229,1.8938798904418945,-0.029650691896677017,0.0,0.7855241298675537,-0.00036106130573898554,0.6203786134719849,0.620219886302948,1.038725733757019,1.8798725605010986,-0.0272128414362669,0.0,0.7853928804397583,2.1083342289784923e-05,-0.6202491521835327,-0.620166003704071,,,,,,,,,,,,,,,,,,,,,,,,,,,,,,,,,,,,,,,,,,,,,,,,,,,,,,,,,,,,,,,,,,,,,,,,,,,,,,,,,,,,,,,,,,,,,,,,,,,,,,,,,,,,,,,,,,,,,,,,,,,,,,,,,,,,,,0.03317870572209358,0.0700504258275032,-0.02671535313129425,0.0,0.02157970517873764,-0.0882091149687767,0.08630744367837906,0.019495077431201935,0.0012759810779243708,-0.01032940112054348,0.0011509181931614876,0.0,0.012634744867682457,0.0369681641459465,0.01468717958778143,-0.005650562234222889,,,,,,,,,,,,,,,,,,,,,,,,,,,,,,,,,,,,,,,,,,,,,,,,,,,,,,,,,,,,,,,,,,,,,,,,
1696193758.0078785,1.0400129556655884,1.8957502841949463,-0.03026392124593258,0.0,0.7854121923446655,7.490527059417218e-05,0.6171455979347229,0.6172477006912231,1.0406179428100586,1.8767149448394775,-0.02710239589214325,0.0,0.7853286266326904,-0.00022199277009349316,-0.61715167760849,-0.6165206432342529,,,,,,,,,,,,,,,,,,,,,,,,,,,,,,,,,,,,,,,,,,,,,,,,,,,,,,,,,,,,,,,,,,,,,,,,,,,,,,,,,,,,,,,,,,,,,,,,,,,,,,,,,,,,,,,,,,,,,,,,,,,,,,,,,,,,,,0.0025778652634471655,0.009465005248785019,0.0006696477648802102,0.0,-0.011243660934269428,0.05788212642073631,-0.08456431329250336,-0.047774430364370346,0.0516890250146389,-0.06629979610443115,-0.0013395784189924598,0.0,-0.00252337078563869,-0.018248053267598152,0.05046013370156288,0.12962788343429565,,,,,,,,,,,,,,,,,,,,,,,,,,,,,,,,,,,,,,,,,,,,,,,,,,,,,,,,,,,,,,,,,,,,,,,,
1696193758.1243885,1.0427395105361938,1.8978134393692017,-0.031262822449207306,0.0,0.7854543924331665,-0.0001542516693007201,0.6114726662635803,0.6114306449890137,1.0432101488113403,1.8737421035766602,-0.027179645374417305,0.0,0.7853617668151855,-8.870616875356063e-05,-0.6113524436950684,-0.6111598610877991,,,,,,,,,,,,,,,,,,,,,,,,,,,,,,,,,,,,,,,,,,,,,,,,,,,,,,,,,,,,,,,,,,,,,,,,,,,,,,,,,,,,,,,,,,,,,,,,,,,,,,,,,,,,,,,,,,,,,,,,,,,,,,,,,,,,,,0.036484330892562866,0.014151803217828274,-0.015855614095926285,0.0,0.006608970928937197,-0.034431952983140945,0.030823150649666786,-0.009089556522667408,0.04082668200135231,-0.029797254130244255,-0.005566312000155449,0.0,-0.0028455352876335382,-0.017930319532752037,0.021444713696837425,-0.001113094505853951,,,,,,,,,,,,,,,,,,,,,,,,,,,,,,,,,,,,,,,,,,,,,,,,,,,,,,,,,,,,,,,,,,,,,,,,
1696193758.275531,1.0463331937789917,1.8988914489746094,-0.03228526934981346,0.0,0.785447359085083,-5.9271991631248966e-05,0.6025344133377075,0.6026151776313782,1.0465233325958252,1.8711966276168823,-0.027497004717588425,0.0,0.7853726148605347,-6.69027358526364e-05,-0.6030294895172119,-0.6027907133102417,,,,,,,,,,,,,,,,,,,,,,,,,,,,,,,,,,,,,,,,,,,,,,,,,,,,,,,,,,,,,,,,,,,,,,,,,,,,,,,,,,,,,,,,,,,,,,,,,,,,,,,,,,,,,,,,,,,,,,,,,,,,,,,,,,,,,,0.06788265705108643,-0.015045521780848503,-0.018892498686909676,0.0,0.007888327352702618,-0.003535262309014797,-0.07448799163103104,-0.06789371371269226,0.0020972525235265493,-0.012360974214971066,0.0024348099250346422,0.0,-0.0035940224770456553,-0.008917578496038914,0.05258243903517723,0.06288281828165054,,,,,,,,,,,,,,,,,,,,,,,,,,,,,,,,,,,,,,,,,,,,,,,,,,,,,,,,,,,,,,,,,,,,,,,,
1696193758.396478,1.0500315427780151,1.8984583616256714,-0.03303584083914757,0.0,0.7854142189025879,6.164416845422238e-05,0.5908898711204529,0.5910344123840332,1.051163673400879,1.8699489831924438,-0.028348935768008232,0.0,0.7853652238845825,-0.00011698278831318021,-0.5892214179039001,-0.5886929035186768,,,,,,,,,,,,,,,,,,,,,,,,,,,,,,,,,,,,,,,,,,,,,,,,,,,,,,,,,,,,,,,,,,,,,,,,,,,,,,,,,,,,,,,,,,,,,,,,,,,,,,,,,,,,,,,,,,,,,,,,,,,,,,,,,,,,,,0.0011346912942826748,0.015286865644156933,0.0020125755108892918,0.0,-0.0016108960844576359,0.007320108357816935,-0.1419214904308319,-0.13624724745750427,-0.002385084517300129,-0.014284773729741573,0.0060908910818398,0.0,-0.008071285672485828,-0.014783132821321487,0.13829827308654785,0.16114024817943573,,,,,,,,,,,,,,,,,,,,,,,,,,,,,,,,,,,,,,,,,,,,,,,,,,,,,,,,,,,,,,,,,,,,,,,,
1696193758.5149212,1.052872657775879,1.8972946405410767,-0.03349706903100014,0.0,0.7854151129722595,1.4563753211405128e-05,0.5814411044120789,0.5814982652664185,1.0536938905715942,1.870125651359558,-0.028981156647205353,0.0,0.7854035496711731,-8.128085028147325e-05,-0.581018328666687,-0.5804049968719482,,,,,,,,,,,,,,,,,,,,,,,,,,,,,,,,,,,,,,,,,,,,,,,,,,,,,,,,,,,,,,,,,,,,,,,,,,,,,,,,,,,,,,,,,,,,,,,,,,,,,,,,,,,,,,,,,,,,,,,,,,,,,,,,,,,,,,0.0058134314604103565,0.006246128585189581,-0.001211192226037383,0.0,0.005533155053853989,-0.0034496088046580553,-0.07441804558038712,-0.07381740212440491,0.05737900733947754,0.022743014618754387,-0.018761558458209038,0.0,-0.006795406807214022,-0.03287526220083237,0.16405409574508667,0.24753116071224213,,,,,,,,,,,,,,,,,,,,,,,,,,,,,,,,,,,,,,,,,,,,,,,,,,,,,,,,,,,,,,,,,,,,,,,,
1696193758.615811,1.057167649269104,1.893548846244812,-0.033853501081466675,0.0,0.7853739261627197,0.00019945911481045187,0.5632265210151672,0.5633702278137207,1.0576536655426025,1.871946096420288,-0.030217766761779785,0.0,0.7854731678962708,0.0001318935537710786,-0.5634477734565735,-0.5630995035171509,,,,,,,,,,,,,,,,,,,,,,,,,,,,,,,,,,,,,,,,,,,,,,,,,,,,,,,,,,,,,,,,,,,,,,,,,,,,,,,,,,,,,,,,,,,,,,,,,,,,,,,,,,,,,,,,,,,,,,,,,,,,,,,,,,,,,,0.05093405395746231,-0.0679464265704155,-0.0009612286230549216,0.0,0.00249703461304307,0.01831739768385887,-0.23806945979595184,-0.22181758284568787,0.060366466641426086,0.05395545810461044,-0.02529572695493698,0.0,0.021444931626319885,0.047437913715839386,0.1651870161294937,0.1762746274471283,,,,,,,,,,,,,,,,,,,,,,,,,,,,,,,,,,,,,,,,,,,,,,,,,,,,,,,,,,,,,,,,,,,,,,,,
1696193758.7351785,1.0593472719192505,1.890735149383545,-0.03386526554822922,0.0,0.7853511571884155,0.00015142404299695045,0.5509064793586731,0.5509823560714722,1.0595664978027344,1.8736586570739746,-0.030947741121053696,0.0,0.7853854894638062,-0.0001203859064844437,-0.551470935344696,-0.5509818196296692,,,,,,,,,,,,,,,,,,,,,,,,,,,,,,,,,,,,,,,,,,,,,,,,,,,,,,,,,,,,,,,,,,,,,,,,,,,,,,,,,,,,,,,,,,,,,,,,,,,,,,,,,,,,,,,,,,,,,,,,,,,,,,,,,,,,,,0.03139336034655571,-0.0578434057533741,0.0032630302011966705,0.0,-0.0061034862883389,0.03537651151418686,-0.13602454960346222,-0.09818124771118164,0.0030374459456652403,-0.01349164079874754,0.004710256587713957,0.0,-0.008181795477867126,-0.029655754566192627,0.1531163454055786,0.17332236468791962,,,,,,,,,,,,,,,,,,,,,,,,,,,,,,,,,,,,,,,,,,,,,,,,,,,,,,,,,,,,,,,,,,,,,,,,
1696193758.8516445,1.0611097812652588,1.8873496055603027,-0.033685360103845596,0.0,0.7853400707244873,0.0001938955538207665,0.537626326084137,0.5376965999603271,1.0613493919372559,1.8765467405319214,-0.031878888607025146,0.0,0.7854498624801636,0.00015600997721776366,-0.5376895070075989,-0.5376754999160767,,,,,,,,,,,,,,,,,,,,,,,,,,,,,,,,,,,,,,,,,,,,,,,,,,,,,,,,,,,,,,,,,,,,,,,,,,,,,,,,,,,,,,,,,,,,,,,,,,,,,,,,,,,,,,,,,,,,,,,,,,,,,,,,,,,,,,0.022153813391923904,-0.06148775666952133,0.007436293642967939,0.0,-0.0051529258489608765,0.045714862644672394,-0.15742872655391693,-0.10499689728021622,0.019255388528108597,0.051315199583768845,-0.015440143644809723,0.0,0.009492477402091026,0.04821937903761864,0.10636930167675018,0.030551934614777565,,,,,,,,,,,,,,,,,,,,,,,,,,,,,,,,,,,,,,,,,,,,,,,,,,,,,,,,,,,,,,,,,,,,,,,,
1696193758.957654,1.062591791152954,1.8814847469329834,-0.03300756961107254,0.0,0.7853161692619324,0.0002471576153766364,0.5161699652671814,0.5160262584686279,1.0625905990600586,1.8818329572677612,-0.033091794699430466,0.0,0.7854716181755066,0.00023459744988940656,-0.5162937641143799,-0.5163165926933289,,,,,,,,,,,,,,,,,,,,,,,,,,,,,,,,,,,,,,,,,,,,,,,,,,,,,,,,,,,,,,,,,,,,,,,,,,,,,,,,,,,,,,,,,,,,,,,,,,,,,,,,,,,,,,,,,,,,,,,,,,,,,,,,,,,,,,0.009028487838804722,-0.08486273139715195,0.013769395649433136,0.0,-0.0014299015747383237,-0.0010170938912779093,-0.24561697244644165,-0.2735702693462372,0.007094245404005051,0.09541055560112,-0.019901616498827934,0.0,0.011470003984868526,0.04522951692342758,0.20336948335170746,0.16080597043037415,,,,,,,,,,,,,,,,,,,,,,,,,,,,,,,,,,,,,,,,,,,,,,,,,,,,,,,,,,,,,,,,,,,,,,,,
1696193759.094081,1.0628763437271118,1.878920555114746,-0.0326387993991375,0.0,0.7853415012359619,1.5411616914207116e-05,0.5063024163246155,0.505886971950531,1.062688946723938,1.8846369981765747,-0.03359862044453621,0.0,0.785459041595459,0.0002041151310550049,-0.5051800012588501,-0.5051835179328918,,,,,,,,,,,,,,,,,,,,,,,,,,,,,,,,,,,,,,,,,,,,,,,,,,,,,,,,,,,,,,,,,,,,,,,,,,,,,,,,,,,,,,,,,,,,,,,,,,,,,,,,,,,,,,,,,,,,,,,,,,,,,,,,,,,,,,-0.005812041461467743,-0.02869848720729351,0.003020930802449584,0.0,0.009597321972250938,-0.06729984283447266,-0.13678120076656342,-0.20205438137054443,-0.012290273793041706,0.08241457492113113,-0.012280977331101894,0.0,0.008246121928095818,0.03931185603141785,0.23559139668941498,0.20233717560768127,,,,,,,,,,,,,,,,,,,,,,,,,,,,,,,,,,,,,,,,,,,,,,,,,,,,,,,,,,,,,,,,,,,,,,,,
1696193759.242278,1.0622285604476929,1.8742104768753052,-0.031667497009038925,0.0,0.7853406667709351,-6.709527497150702e-06,0.48771214485168457,0.4871825575828552,1.0619099140167236,1.889324426651001,-0.03423060104250908,0.0,0.7854310274124146,0.00015352782793343067,-0.48749303817749023,-0.48753949999809265,,,,,,,,,,,,,,,,,,,,,,,,,,,,,,,,,,,,,,,,,,,,,,,,,,,,,,,,,,,,,,,,,,,,,,,,,,,,,,,,,,,,,,,,,,,,,,,,,,,,,,,,,,,,,,,,,,,,,,,,,,,,,,,,,,,,,,-0.013181382790207863,-0.02764998935163021,0.004781442694365978,0.0,0.007894397713243961,-0.07042676210403442,-0.1366894692182541,-0.20106083154678345,-0.01600399613380432,0.04994123429059982,-0.005504668690264225,0.0,0.007252698298543692,0.04681573435664177,0.11487217992544174,0.08190614730119705,,,,,,,,,,,,,,,,,,,,,,,,,,,,,,,,,,,,,,,,,,,,,,,,,,,,,,,,,,,,,,,,,,,,,,,,
1696193759.3621798,1.0603432655334473,1.8702986240386963,-0.030561823397874832,0.0,0.7853735685348511,-0.0001380561152473092,0.46974143385887146,0.4692484438419342,1.059481143951416,1.8946155309677124,-0.03457942232489586,0.0,0.7854157090187073,0.00021604678477160633,-0.46753162145614624,-0.46775320172309875,,,,,,,,,,,,,,,,,,,,,,,,,,,,,,,,,,,,,,,,,,,,,,,,,,,,,,,,,,,,,,,,,,,,,,,,,,,,,,,,,,,,,,,,,,,,,,,,,,,,,,,,,,,,,,,,,,,,,,,,,,,,,,,,,,,,,,-0.00291200028732419,-0.002262481953948736,-0.006160951219499111,0.0,0.012088261544704437,-0.08256012946367264,-0.038800615817308426,-0.08792395889759064,-0.049565207213163376,0.07570122182369232,-0.0008540947455912828,0.0,0.0022550909779965878,0.044547755271196365,0.21347899734973907,0.15986618399620056,,,,,,,,,,,,,,,,,,,,,,,,,,,,,,,,,,,,,,,,,,,,,,,,,,,,,,,,,,,,,,,,,,,,,,,,
