MHC-RobotSimulators-Research/Data_Analysis_MotionReplication/mai_plotter/raven_data/the_good_stuff/0arm_p1.csv
,time,jpos0,jpos1,jpos2,jpos3,jpos4,jpos5,jpos6,jpos7,jpos8,jpos9,jpos10,jpos11,jpos12,jpos13,jpos14,jpos15,runlevel,sublevel,last_seq,type0,type1,pos0,pos1,pos2,pos3,pos4,pos5,ori0,ori1,ori2,ori3,ori4,ori5,ori6,ori7,ori8,ori9,ori10,ori11,ori12,ori13,ori14,ori15,ori16,ori17,ori_d0,ori_d1,ori_d2,ori_d3,ori_d4,ori_d5,ori_d6,ori_d7,ori_d8,ori_d9,ori_d10,ori_d11,ori_d12,ori_d13,ori_d14,ori_d15,ori_d16,ori_d17,pos_d0,pos_d1,pos_d2,pos_d3,pos_d4,pos_d5,encVals0,encVals1,encVals2,encVals3,encVals4,encVals5,encVals6,encVals7,encVals8,encVals9,encVals10,encVals11,encVals12,encVals13,encVals14,encVals15,dac_vals0,dac_vals1,dac_vals2,dac_vals3,dac_vals4,dac_vals5,dac_vals6,dac_vals7,dac_vals8,dac_vals9,dac_vals10,dac_vals11,dac_vals12,dac_vals13,dac_vals14,dac_vals15,Tau0,Tau1,Tau2,Tau3,Tau4,Tau5,Tau6,Tau7,Tau8,Tau9,Tau10,Tau11,Tau12,Tau13,Tau14,Tau15,mpos0,mpos1,mpos2,mpos3,mpos4,mpos5,mpos6,mpos7,mpos8,mpos9,mpos10,mpos11,mpos12,mpos13,mpos14,mpos15,mvel0,mvel1,mvel2,mvel3,mvel4,mvel5,mvel6,mvel7,mvel8,mvel9,mvel10,mvel11,mvel12,mvel13,mvel14,mvel15,jvel0,jvel1,jvel2,jvel3,jvel4,jvel5,jvel6,jvel7,jvel8,jvel9,jvel10,jvel11,jvel12,jvel13,jvel14,jvel15,mpos_d0,mpos_d1,mpos_d2,mpos_d3,mpos_d4,mpos_d5,mpos_d6,mpos_d7,mpos_d8,mpos_d9,mpos_d10,mpos_d11,mpos_d12,mpos_d13,mpos_d14,mpos_d15,jpos_d0,jpos_d1,jpos_d2,jpos_d3,jpos_d4,jpos_d5,jpos_d6,jpos_d7,jpos_d8,jpos_d9,jpos_d10,jpos_d11,jpos_d12,jpos_d13,jpos_d14,jpos_d15,grasp_d0,grasp_d1,encoffsets0,encoffsets1,encoffsets2,encoffsets3,encoffsets4,encoffsets5,encoffsets6,encoffsets7,encoffsets8,encoffsets9,encoffsets10,encoffsets11,encoffsets12,encoffsets13,encoffsets14,encoffsets15,jac_vel0,jac_vel1,jac_vel2,jac_vel3,jac_vel4,jac_vel5,jac_vel6,jac_vel7,jac_vel8,jac_vel9,jac_vel10,jac_vel11,jac_f0,jac_f1,jac_f2,jac_f3,jac_f4,jac_f5,jac_f6,jac_f7,jac_f8,jac_f9,jac_f10,jac_f11
0,0.0,0.526866,1.577755,0.397896,0.0,-0.001579,-0.006188,0.784551,0.782411,0.527269,1.575965,0.398532,0.0,-0.000845,0.002636,0.791577,0.79215,3.0,1.0,111.0,0.0,1.0,-79715.0,-26310.0,13995.0,-79166.0,26021.0,13798.0,-0.934995,-0.217031,0.280502,-0.314231,0.14022,-0.938934,0.164446,-0.966041,-0.199303,-0.937783,0.216002,0.271856,0.306004,0.144134,0.941056,0.164086,0.965696,-0.201264,-0.934996,-0.216831,0.280653,-0.314366,0.140363,-0.938867,0.164182,-0.966066,-0.199403,-0.937606,0.216003,0.272467,0.306478,0.143317,0.941027,0.164215,0.965817,-0.200575,-79824.0,-26377.0,13987.0,-79298.0,26091.0,13805.0,17935.0,17297.0,-157769.0,0.0,-54165.0,-54305.0,-55400.0,-52842.0,-14925.0,-12563.0,153493.0,0.0,52993.0,52877.0,51593.0,54669.0,-20.0,214.0,99.0,0.0,494.0,92.0,35.0,365.0,-1.0,-191.0,-129.0,0.0,-475.0,-6.0,-426.0,-429.0,0.005571,-0.057946,-0.026974,0.0,0.018092,0.003374,-0.001293,0.013386,-0.000468,-0.051757,-0.035037,0.0,-0.017405,-0.000235,0.015599,-0.015703,4111.379883,11519.010742,51295.230469,0.0,-17635.591797,-17638.291016,18037.710938,-17230.410156,4114.529785,11506.950195,51372.542969,0.0,17661.419922,17663.039062,-17253.181641,18069.119141,0.0,0.0,0.0,0.0,0.0,0.0,0.0,0.0,0.0,0.0,0.0,0.0,0.0,0.0,0.0,0.0,0.0,0.0,0.0,0.0,0.0,0.0,0.0,0.0,0.0,0.0,0.0,0.0,0.0,0.0,0.0,0.0,4115.009277,11516.337891,51280.332031,0.0,-17635.630859,-17638.150391,18037.804688,-17230.484375,4117.026855,11505.426758,51354.558594,0.0,17661.701172,17662.957031,-17253.347656,18069.425781,30.21382,90.372864,22.790834,0.0,-0.097823,-0.339069,44.954144,44.828342,30.228634,90.280907,22.825848,0.0,0.003601,0.141887,45.340206,45.416309,1.567,1.584,-63617.0,-145286.0,-412178.0,0.0,141786.0,141676.0,-145019.0,138607.0,-60642.0,-140418.0,-417313.0,0.0,-143245.0,-143379.0,140109.0,-146099.0,0.0,0.0,0.0,0.0,0.0,0.0,0.0,0.0,0.0,0.0,0.0,0.0,0.0,0.0,0.0,0.0,0.0,0.0,0.0,0.0,0.0,0.0,0.0,0.0
1,1.390995979309082,0.526866,1.577755,0.397896,0.0,0.04064,0.005691,0.480592,0.55741,0.527269,1.575965,0.398532,0.0,-0.043642,-0.010987,0.569197,0.469501,3.0,1.0,111.0,0.0,1.0,-79757.0,-26165.0,14029.0,-79118.0,26186.0,13757.0,-0.946481,-0.191229,0.26001,-0.295804,0.191642,-0.935828,0.129128,-0.962655,-0.237952,-0.944323,0.180444,0.275127,0.309097,0.199967,0.92977,0.112755,0.963044,-0.244608,-0.946481,-0.191229,0.26001,-0.295804,0.191642,-0.935828,0.129128,-0.962655,-0.237952,-0.944323,0.180444,0.275127,0.309097,0.199967,0.92977,0.112755,0.963044,-0.244608,-79757.0,-26165.0,14029.0,-79118.0,26186.0,13757.0,17935.0,17297.0,-157769.0,0.0,-54020.0,-54237.0,-53694.0,-54164.0,-14925.0,-12563.0,153493.0,0.0,52846.0,52799.0,52905.0,52861.0,-20.0,214.0,99.0,0.0,784.0,803.0,520.0,-600.0,-1.0,-191.0,-129.0,0.0,-723.0,-653.0,790.0,-936.0,0.005571,-0.057946,-0.026974,0.0,0.028709,0.029389,-0.019047,-0.021979,-0.000468,-0.051757,-0.035037,0.0,-0.026479,-0.023898,-0.028927,-0.034272,4111.379883,11519.010742,51295.230469,0.0,-17622.541016,-17632.171875,17884.169922,-17349.390625,4114.529785,11506.950195,51372.542969,0.0,17648.191406,17656.021484,-17371.261719,17906.400391,0.0,0.0,0.0,0.0,0.0,0.0,-180.098419,-89.174942,0.0,0.0,0.0,0.0,-89.174942,0.0,0.0,-90.92347,0.0,0.0,0.0,0.0,0.0,0.0,-0.349569,-0.173088,0.0,0.0,0.0,0.0,-0.288479,0.0,0.0,-0.176481,4115.009277,11516.337891,51280.332031,0.0,-17618.335938,-17616.283203,17878.490234,-17362.654297,4117.026855,11505.426758,51354.558594,0.0,17644.53125,17642.013672,-17390.097656,17899.873047,30.21382,90.372864,22.790834,0.0,3.107575,2.093108,26.020504,31.34564,30.228634,90.280907,22.825848,0.0,-3.178786,-2.187307,31.296627,25.39558,1.038,1.038,-63617.0,-145286.0,-412178.0,0.0,141786.0,141676.0,-145019.0,138607.0,-60642.0,-140418.0,-417313.0,0.0,-143245.0,-143379.0,140109.0,-146099.0,0.0,0.0,0.0,0.0,0.0,-0.349569,0.0,0.0,0.0,0.00267,-0.001708,0.288462,0.0,0.0,0.0,0.0,0.0,-0.349569,0.0,0.0,0.0,0.00267,-0.001708,0.288462
2,1.4139671325683594,0.526866,1.577755,0.397896,0.0,0.041512,0.00639,0.475875,0.55217,0.527269,1.575965,0.398532,0.0,-0.044224,-0.012735,0.567278,0.464959,3.0,1.0,111.0,0.0,1.0,-79759.0,-26157.0,14031.0,-79112.0,26207.0,13751.0,-0.94662,-0.1917,0.259156,-0.29517,0.192353,-0.935882,0.129559,-0.96242,-0.238669,-0.944086,0.179384,0.276626,0.310428,0.200998,0.929104,0.111065,0.963027,-0.245445,-0.94662,-0.1917,0.259156,-0.29517,0.192353,-0.935882,0.129559,-0.96242,-0.238669,-0.944086,0.179384,0.276626,0.310428,0.200998,0.929104,0.111065,0.963027,-0.245445,-79759.0,-26157.0,14031.0,-79112.0,26207.0,13751.0,17935.0,17297.0,-157769.0,0.0,-54017.0,-54233.0,-53669.0,-54196.0,-14925.0,-12563.0,153493.0,0.0,52844.0,52789.0,52921.0,52840.0,-20.0,214.0,99.0,0.0,776.0,803.0,474.0,-543.0,-1.0,-191.0,-129.0,0.0,-761.0,-639.0,771.0,-900.0,0.005571,-0.057946,-0.026974,0.0,0.028409,0.029419,-0.017378,-0.019874,-0.000468,-0.051757,-0.035037,0.0,-0.027865,-0.023411,-0.028218,-0.03296,4111.379883,11519.010742,51295.230469,0.0,-17622.271484,-17631.810547,17881.919922,-17352.269531,4114.529785,11506.950195,51372.542969,0.0,17648.011719,17655.121094,-17372.699219,17904.509766,0.0,0.0,0.0,0.0,0.0,0.0,0.0,0.0,0.0,0.0,0.0,0.0,0.0,-89.174942,-89.174942,-90.92347,0.0,0.0,0.0,0.0,0.0,0.0,0.0,0.0,0.0,0.0,0.0,0.0,0.0,-0.173088,-0.086544,-0.263025,4115.009277,11516.337891,51280.332031,0.0,-17618.310547,-17616.25,17878.25,-17362.851562,4117.026855,11505.426758,51354.558594,0.0,17644.505859,17641.982422,-17390.302734,17899.617188,30.21382,90.372864,22.790834,0.0,3.112381,2.096754,25.992117,31.325426,30.228634,90.280907,22.825848,0.0,-3.18355,-2.190794,31.275604,25.365608,1.028,1.032,-63617.0,-145286.0,-412178.0,0.0,141786.0,141676.0,-145019.0,138607.0,-60642.0,-140418.0,-417313.0,0.0,-143245.0,-143379.0,140109.0,-146099.0,0.0,0.0,0.0,0.0,0.0,0.0,0.0,-0.173088,0.0,-0.093007,-0.145976,-0.086544,0.0,0.0,0.0,0.0,0.0,0.0,0.0,-0.173088,0.0,-0.093007,-0.145976,-0.086544
3,1.434999942779541,0.526866,1.577755,0.397896,0.0,0.042094,0.00674,0.4757,0.551296,0.527269,1.575965,0.398532,0.0,-0.044807,-0.013434,0.564831,0.464086,3.0,1.0,111.0,0.0,1.0,-79761.0,-26152.0,14032.0,-79109.0,26216.0,13749.0,-0.946648,-0.192182,0.258695,-0.29489,0.192781,-0.935882,0.129988,-0.962238,-0.239169,-0.943761,0.180291,0.277147,0.311206,0.201329,0.928772,0.111651,0.962789,-0.246114,-0.946648,-0.192182,0.258695,-0.29489,0.192781,-0.935882,0.129988,-0.962238,-0.239169,-0.943761,0.180291,0.277147,0.311206,0.201329,0.928772,0.111651,0.962789,-0.246114,-79761.0,-26152.0,14032.0,-79109.0,26216.0,13749.0,17935.0,17297.0,-157769.0,0.0,-54015.0,-54231.0,-53669.0,-54202.0,-14925.0,-12563.0,153493.0,0.0,52842.0,52785.0,52937.0,52837.0,-20.0,214.0,99.0,0.0,770.0,807.0,476.0,-535.0,-1.0,-191.0,-129.0,0.0,-755.0,-637.0,745.0,-896.0,0.005571,-0.057946,-0.026974,0.0,0.028196,0.029546,-0.017445,-0.019588,-0.000468,-0.051757,-0.035037,0.0,-0.027644,-0.023334,-0.027269,-0.032811,4111.379883,11519.010742,51295.230469,0.0,-17622.091797,-17631.630859,17881.919922,-17352.810547,4114.529785,11506.950195,51372.542969,0.0,17647.830078,17654.759766,-17374.140625,17904.240234,0.0,0.0,0.0,0.0,0.0,89.174942,0.0,0.0,0.0,0.0,0.0,0.0,0.0,0.0,-90.92347,0.0,0.0,0.0,0.0,0.0,0.0,0.173088,-0.086544,0.086544,0.0,0.0,0.0,0.0,0.0,0.0,-0.176481,0.0,4115.009277,11516.337891,51280.332031,0.0,-17618.310547,-17616.25,17878.25,-17362.851562,4117.026855,11505.426758,51354.558594,0.0,17644.505859,17641.982422,-17390.302734,17899.617188,30.21382,90.372864,22.790834,0.0,3.112381,2.096754,25.992117,31.325426,30.228634,90.280907,22.825848,0.0,-3.18355,-2.190794,31.275604,25.365608,1.026,1.028,-63617.0,-145286.0,-412178.0,0.0,141786.0,141676.0,-145019.0,138607.0,-60642.0,-140418.0,-417313.0,0.0,-143245.0,-143379.0,140109.0,-146099.0,0.0,0.173088,0.0,0.079267,0.15387,-0.086544,0.0,0.0,0.0,0.0,0.0,-0.176481,0.0,0.173088,0.0,0.079267,0.15387,-0.086544,0.0,0.0,0.0,0.0,0.0,-0.176481
4,1.4559991359710693,0.526866,1.577755,0.397896,0.0,0.042388,0.007266,0.475437,0.551386,0.527269,1.575965,0.398532,0.0,-0.045101,-0.013784,0.564307,0.463912,3.0,1.0,111.0,0.0,1.0,-79762.0,-26146.0,14034.0,-79108.0,26220.0,13747.0,-0.94682,-0.192088,0.258134,-0.294354,0.193089,-0.935987,0.129949,-0.962195,-0.239362,-0.943638,0.180538,0.277406,0.311551,0.201565,0.928605,0.111733,0.962693,-0.246451,-0.94682,-0.192088,0.258134,-0.294354,0.193089,-0.935987,0.129949,-0.962195,-0.239362,-0.943638,0.180538,0.277406,0.311551,0.201565,0.928605,0.111733,0.962693,-0.246451,-79762.0,-26146.0,14034.0,-79108.0,26220.0,13747.0,17935.0,17297.0,-157769.0,0.0,-54014.0,-54228.0,-53669.0,-54203.0,-14925.0,-12563.0,153493.0,0.0,52841.0,52783.0,52941.0,52837.0,-20.0,214.0,99.0,0.0,768.0,808.0,478.0,-538.0,-1.0,-191.0,-129.0,0.0,-753.0,-639.0,744.0,-898.0,0.005571,-0.057946,-0.026974,0.0,0.028122,0.02959,-0.017513,-0.019694,-0.000468,-0.051757,-0.035037,0.0,-0.027561,-0.02341,-0.027247,-0.032896,4111.379883,11519.010742,51295.230469,0.0,-17622.0,-17631.359375,17881.919922,-17352.900391,4114.529785,11506.950195,51372.542969,0.0,17647.740234,17654.580078,-17374.501953,17904.240234,0.0,0.0,0.0,0.0,0.0,0.0,0.0,0.0,0.0,0.0,0.0,0.0,0.0,0.0,0.0,0.0,0.0,0.0,0.0,0.0,0.0,0.0,0.0,0.0,0.0,0.0,0.0,0.0,0.0,0.0,0.0,0.0,4115.009277,11516.337891,51280.332031,0.0,-17618.310547,-17616.25,17878.25,-17362.851562,4117.026855,11505.426758,51354.558594,0.0,17644.505859,17641.982422,-17390.302734,17899.617188,30.21382,90.372864,22.790834,0.0,3.112381,2.096754,25.992117,31.325426,30.228634,90.280907,22.825848,0.0,-3.18355,-2.190794,31.275604,25.365608,1.026,1.028,-63617.0,-145286.0,-412178.0,0.0,141786.0,141676.0,-145019.0,138607.0,-60642.0,-140418.0,-417313.0,0.0,-143245.0,-143379.0,140109.0,-146099.0,0.0,0.0,0.0,0.0,0.0,0.0,0.0,0.0,0.0,0.0,0.0,0.0,0.0,0.0,0.0,0.0,0.0,0.0,0.0,0.0,0.0,0.0,0.0,0.0
5,1.4759981632232666,0.526866,1.577755,0.397896,0.0,0.042677,0.007439,0.47535,0.551473,0.527269,1.575965,0.398532,0.0,-0.04539,-0.014307,0.564218,0.463477,3.0,1.0,111.0,0.0,1.0,-79763.0,-26144.0,14034.0,-79106.0,26226.0,13746.0,-0.946884,-0.19208,0.257906,-0.294166,0.193378,-0.935987,0.129912,-0.962138,-0.23961,-0.943529,0.180458,0.277828,0.311986,0.201912,0.928384,0.111438,0.962635,-0.24681,-0.946884,-0.19208,0.257906,-0.294166,0.193378,-0.935987,0.129912,-0.962138,-0.23961,-0.943529,0.180458,0.277828,0.311986,0.201912,0.928384,0.111438,0.962635,-0.24681,-79763.0,-26144.0,14034.0,-79106.0,26226.0,13746.0,17935.0,17297.0,-157769.0,0.0,-54013.0,-54227.0,-53669.0,-54203.0,-14925.0,-12563.0,153493.0,0.0,52840.0,52780.0,52943.0,52836.0,-20.0,214.0,99.0,0.0,766.0,813.0,480.0,-542.0,-1.0,-191.0,-129.0,0.0,-750.0,-639.0,747.0,-899.0,0.005571,-0.057946,-0.026974,0.0,0.028045,0.029775,-0.017577,-0.019868,-0.000468,-0.051757,-0.035037,0.0,-0.027476,-0.023392,-0.027364,-0.032898,4111.379883,11519.010742,51295.230469,0.0,-17621.910156,-17631.271484,17881.919922,-17352.900391,4114.529785,11506.950195,51372.542969,0.0,17647.650391,17654.310547,-17374.681641,17904.150391,0.0,0.0,0.0,0.0,0.0,0.0,0.0,0.0,0.0,0.0,0.0,0.0,0.0,-89.174942,0.0,0.0,0.0,0.0,0.0,0.0,0.0,0.0,0.0,0.0,0.0,0.0,0.0,0.0,0.0,-0.173088,0.086544,-0.086544,4115.009277,11516.337891,51280.332031,0.0,-17618.310547,-17616.25,17878.25,-17362.851562,4117.026855,11505.426758,51354.558594,0.0,17644.505859,17641.982422,-17390.302734,17899.617188,30.21382,90.372864,22.790834,0.0,3.112381,2.096754,25.992117,31.325426,30.228634,90.280907,22.825848,0.0,-3.18355,-2.190794,31.275604,25.365608,1.026,1.027,-63617.0,-145286.0,-412178.0,0.0,141786.0,141676.0,-145019.0,138607.0,-60642.0,-140418.0,-417313.0,0.0,-143245.0,-143379.0,140109.0,-146099.0,0.0,0.0,0.0,0.0,0.0,0.0,0.0,-0.173088,0.0,-0.092559,-0.14626,0.086544,0.0,0.0,0.0,0.0,0.0,0.0,0.0,-0.173088,0.0,-0.092559,-0.14626,0.086544
6,1.4959640502929688,0.526866,1.577755,0.397896,0.0,0.042971,0.007965,0.475087,0.551559,0.527269,1.575965,0.398532,0.0,-0.045684,-0.014483,0.563607,0.463389,3.0,1.0,111.0,0.0,1.0,-79765.0,-26137.0,14036.0,-79106.0,26228.0,13745.0,-0.947056,-0.191988,0.257345,-0.29363,0.193685,-0.936092,0.129874,-0.962095,-0.239803,-0.943437,0.180785,0.277926,0.312188,0.202113,0.928272,0.111645,0.962532,-0.247119,-0.947056,-0.191988,0.257345,-0.29363,0.193685,-0.936092,0.129874,-0.962095,-0.239803,-0.943437,0.180785,0.277926,0.312188,0.202113,0.928272,0.111645,0.962532,-0.247119,-79765.0,-26137.0,14036.0,-79106.0,26228.0,13745.0,17935.0,17297.0,-157769.0,0.0,-54012.0,-54224.0,-53669.0,-54204.0,-14925.0,-12563.0,153493.0,0.0,52839.0,52779.0,52947.0,52836.0,-20.0,214.0,99.0,0.0,764.0,814.0,482.0,-545.0,-1.0,-191.0,-129.0,0.0,-748.0,-642.0,746.0,-901.0,0.005571,-0.057946,-0.026974,0.0,0.027964,0.029798,-0.017641,-0.019961,-0.000468,-0.051757,-0.035037,0.0,-0.027387,-0.023528,-0.027319,-0.032977,4111.379883,11519.010742,51295.230469,0.0,-17621.820312,-17631.0,17881.919922,-17352.990234,4114.529785,11506.950195,51372.542969,0.0,17647.560547,17654.220703,-17375.041016,17904.150391,0.0,0.0,0.0,0.0,0.0,0.0,0.0,0.0,0.0,0.0,0.0,0.0,0.0,0.0,0.0,0.0,0.0,0.0,0.0,0.0,0.0,0.0,0.0,0.0,0.0,0.0,0.0,0.0,0.0,0.0,0.0,0.0,4115.009277,11516.337891,51280.332031,0.0,-17618.310547,-17616.25,17878.25,-17362.851562,4117.026855,11505.426758,51354.558594,0.0,17644.505859,17641.982422,-17390.302734,17899.617188,30.21382,90.372864,22.790834,0.0,3.112381,2.096754,25.992117,31.325426,30.228634,90.280907,22.825848,0.0,-3.18355,-2.190794,31.275604,25.365608,1.026,1.026,-63617.0,-145286.0,-412178.0,0.0,141786.0,141676.0,-145019.0,138607.0,-60642.0,-140418.0,-417313.0,0.0,-143245.0,-143379.0,140109.0,-146099.0,0.0,0.0,0.0,0.0,0.0,0.0,0.0,0.0,0.0,0.0,0.0,0.0,0.0,0.0,0.0,0.0,0.0,0.0,0.0,0.0,0.0,0.0,0.0,0.0
7,1.51698899269104,0.526866,1.577755,0.397896,0.0,0.043259,0.008311,0.474914,0.551559,0.527269,1.575965,0.398532,0.0,-0.045972,-0.014656,0.562822,0.463126,3.0,1.0,111.0,0.0,1.0,-79766.0,-26133.0,14037.0,-79105.0,26230.0,13744.0,-0.947164,-0.191979,0.256954,-0.293279,0.193967,-0.936143,0.129879,-0.96204,-0.240022,-0.943347,0.18111,0.278022,0.312387,0.202308,0.928163,0.111854,0.96243,-0.247423,-0.947164,-0.191979,0.256954,-0.293279,0.193967,-0.936143,0.129879,-0.96204,-0.240022,-0.943363,0.181027,0.278022,0.312369,0.202335,0.928163,0.111769,0.962439,-0.247423,-79766.0,-26133.0,14037.0,-79105.0,26230.0,13744.0,17935.0,17297.0,-157769.0,0.0,-54011.0,-54222.0,-53669.0,-54205.0,-14925.0,-12563.0,153493.0,0.0,52838.0,52778.0,52952.0,52835.0,-20.0,214.0,99.0,0.0,762.0,817.0,483.0,-548.0,-1.0,-191.0,-129.0,0.0,-746.0,-646.0,743.0,-901.0,0.005571,-0.057946,-0.026974,0.0,0.027888,0.029911,-0.017708,-0.020062,-0.000468,-0.051757,-0.035037,0.0,-0.027302,-0.023673,-0.027203,-0.032979,4111.379883,11519.010742,51295.230469,0.0,-17621.730469,-17630.822266,17881.919922,-17353.080078,4114.529785,11506.950195,51372.542969,0.0,17647.470703,17654.130859,-17375.490234,17904.060547,0.0,0.0,0.0,0.0,0.0,0.0,0.0,0.0,0.0,0.0,0.0,0.0,0.0,0.0,-90.92347,0.0,0.0,0.0,0.0,0.0,0.0,0.0,0.0,0.0,0.0,0.0,0.0,0.0,0.0,0.0,-0.176481,0.0,4115.009277,11516.337891,51280.332031,0.0,-17618.310547,-17616.25,17878.25,-17362.851562,4117.026855,11505.426758,51354.558594,0.0,17644.505859,17641.982422,-17390.302734,17899.617188,30.21382,90.372864,22.790834,0.0,3.112381,2.096754,25.992117,31.325426,30.228634,90.280907,22.825848,0.0,-3.18355,-2.190794,31.275604,25.365608,1.026,1.026,-63617.0,-145286.0,-412178.0,0.0,141786.0,141676.0,-145019.0,138607.0,-60642.0,-140418.0,-417313.0,0.0,-143245.0,-143379.0,140109.0,-146099.0,0.0,0.0,0.0,0.0,0.0,0.0,0.0,0.0,0.0,0.0,0.0,-0.176481,0.0,0.0,0.0,0.0,0.0,0.0,0.0,0.0,0.0,0.0,0.0,-0.176481
8,1.5379970073699951,0.526866,1.577755,0.397896,0.0,0.043259,0.008837,0.474651,0.551646,0.527269,1.575965,0.398532,0.0,-0.046266,-0.015006,0.562297,0.462951,3.0,1.0,111.0,0.0,1.0,-79768.0,-26127.0,14039.0,-79104.0,26234.0,13743.0,-0.947332,-0.191808,0.25646,-0.292753,0.193999,-0.936301,0.129837,-0.962068,-0.239934,-0.943223,0.181357,0.278281,0.312732,0.202543,0.927995,0.111935,0.962334,-0.24776,-0.947332,-0.191808,0.25646,-0.292753,0.193999,-0.936301,0.129837,-0.962068,-0.239934,-0.943223,0.181357,0.278281,0.312732,0.202543,0.927995,0.111935,0.962334,-0.24776,-79768.0,-26127.0,14039.0,-79104.0,26234.0,13743.0,17935.0,17297.0,-157769.0,0.0,-54011.0,-54219.0,-53669.0,-54206.0,-14925.0,-12563.0,153493.0,0.0,52837.0,52776.0,52956.0,52835.0,-20.0,214.0,99.0,0.0,763.0,818.0,485.0,-550.0,-1.0,-191.0,-129.0,0.0,-700.0,-648.0,742.0,-903.0,0.005571,-0.057946,-0.026974,0.0,0.027951,0.029939,-0.017775,-0.02016,-0.000468,-0.051757,-0.035037,0.0,-0.025627,-0.023737,-0.027157,-0.033061,4111.379883,11519.010742,51295.230469,0.0,-17621.730469,-17630.550781,17881.919922,-17353.169922,4114.529785,11506.950195,51372.542969,0.0,17647.378906,17653.951172,-17375.851562,17904.060547,0.0,0.0,0.0,0.0,0.0,90.92347,0.0,0.0,0.0,0.0,0.0,0.0,-90.92347,0.0,-90.92347,0.0,0.0,0.0,0.0,0.0,0.0,0.176481,-0.088241,0.088241,0.0,0.0,0.0,0.0,-0.294136,0.0,-0.176481,0.0,4115.009277,11516.337891,51280.332031,0.0,-17618.310547,-17616.25,17878.25,-17362.851562,4117.026855,11505.426758,51354.558594,0.0,17644.505859,17641.982422,-17390.302734,17899.617188,30.21382,90.372864,22.790834,0.0,3.112381,2.096754,25.992117,31.325426,30.228634,90.280907,22.825848,0.0,-3.18355,-2.190794,31.275604,25.365608,1.026,1.025,-63617.0,-145286.0,-412178.0,0.0,141786.0,141676.0,-145019.0,138607.0,-60642.0,-140418.0,-417313.0,0.0,-143245.0,-143379.0,140109.0,-146099.0,0.0,0.176481,0.0,0.080657,0.156972,-0.088241,0.0,0.0,0.0,0.003734,-0.002353,0.117621,0.0,0.176481,0.0,0.080657,0.156972,-0.088241,0.0,0.0,0.0,0.003734,-0.002353,0.117621
9,1.5590100288391113,0.526866,1.577755,0.397896,0.0,0.043554,0.00901,0.474565,0.551383,0.527269,1.575965,0.398532,0.0,-0.046266,-0.015705,0.561948,0.462428,3.0,1.0,111.0,0.0,1.0,-79768.0,-26125.0,14039.0,-79101.0,26243.0,13741.0,-0.947362,-0.191968,0.25623,-0.292598,0.194241,-0.936299,0.129969,-0.961987,-0.240186,-0.943044,0.181285,0.278933,0.313362,0.202603,0.92777,0.111678,0.962335,-0.247871,-0.947362,-0.191968,0.25623,-0.292598,0.194241,-0.936299,0.129969,-0.961987,-0.240186,-0.943044,0.181285,0.278933,0.313362,0.202603,0.92777,0.111678,0.962335,-0.247871,-79768.0,-26125.0,14039.0,-79101.0,26243.0,13741.0,17935.0,17297.0,-157769.0,0.0,-54010.0,-54218.0,-53669.0,-54208.0,-14925.0,-12563.0,153493.0,0.0,52837.0,52772.0,52960.0,52834.0,-20.0,214.0,99.0,0.0,761.0,823.0,487.0,-551.0,-1.0,-191.0,-129.0,0.0,-745.0,-646.0,740.0,-903.0,0.005571,-0.057946,-0.026974,0.0,0.027869,0.030123,-0.017842,-0.020179,-0.000468,-0.051757,-0.035037,0.0,-0.027267,-0.02364,-0.027104,-0.033063,4111.379883,11519.010742,51295.230469,0.0,-17621.640625,-17630.460938,17881.919922,-17353.351562,4114.529785,11506.950195,51372.542969,0.0,17647.378906,17653.589844,-17376.210938,17903.970703,0.0,0.0,0.0,0.0,0.0,89.174942,0.0,-90.92347,0.0,0.0,0.0,0.0,0.0,0.0,0.0,0.0,0.0,0.0,0.0,0.0,0.0,0.173088,-0.086544,-0.089938,0.0,0.0,0.0,0.0,0.0,0.0,0.0,0.0,4115.009277,11516.337891,51280.332031,0.0,-17618.310547,-17616.25,17878.25,-17362.851562,4117.026855,11505.426758,51354.558594,0.0,17644.505859,17641.982422,-17390.302734,17899.617188,30.21382,90.372864,22.790834,0.0,3.112381,2.096754,25.992117,31.325426,30.228634,90.280907,22.825848,0.0,-3.18355,-2.190794,31.275604,25.365608,1.025,1.024,-63617.0,-145286.0,-412178.0,0.0,141786.0,141676.0,-145019.0,138607.0,-60642.0,-140418.0,-417313.0,0.0,-143245.0,-143379.0,140109.0,-146099.0,0.0,0.173088,0.0,0.079093,0.15396,-0.086544,0.0,0.0,0.0,0.0,0.0,0.0,0.0,0.173088,0.0,0.079093,0.15396,-0.086544,0.0,0.0,0.0,0.0,0.0,0.0
10,1.5800280570983887,0.526866,1.577755,0.397896,0.0,0.043842,0.00936,0.47439,0.551385,0.527269,1.575965,0.398532,0.0,-0.046555,-0.017103,0.561948,0.461729,3.0,1.0,111.0,0.0,1.0,-79769.0,-26120.0,14041.0,-79096.0,26260.0,13736.0,-0.94747,-0.191957,0.255836,-0.292244,0.194524,-0.936351,0.129973,-0.961932,-0.240404,-0.942722,0.181051,0.280171,0.314572,0.203046,0.927263,0.110995,0.962285,-0.248369,-0.94747,-0.191957,0.255836,-0.292244,0.194524,-0.936351,0.129973,-0.961932,-0.240404,-0.942722,0.181051,0.280171,0.314572,0.203046,0.927263,0.110995,0.962285,-0.248369,-79769.0,-26120.0,14041.0,-79096.0,26260.0,13736.0,17935.0,17297.0,-157769.0,0.0,-54009.0,-54216.0,-53669.0,-54209.0,-14925.0,-12563.0,153493.0,0.0,52836.0,52764.0,52964.0,52834.0,-20.0,214.0,99.0,0.0,759.0,826.0,489.0,-554.0,-1.0,-191.0,-129.0,0.0,-742.0,-634.0,739.0,-905.0,0.005571,-0.057946,-0.026974,0.0,0.02779,0.030226,-0.01791,-0.020275,-0.000468,-0.051757,-0.035037,0.0,-0.027179,-0.023217,-0.027045,-0.033143,4111.379883,11519.010742,51295.230469,0.0,-17621.550781,-17630.28125,17881.919922,-17353.439453,4114.529785,11506.950195,51372.542969,0.0,17647.291016,17652.871094,-17376.570312,17903.970703,0.0,0.0,0.0,0.0,0.0,89.174942,0.0,-89.174942,0.0,0.0,0.0,0.0,0.0,-90.92347,0.0,0.0,0.0,0.0,0.0,0.0,0.0,0.173088,-0.086544,-0.086544,0.0,0.0,0.0,0.0,0.0,-0.176481,0.088241,-0.088241,4115.009277,11516.337891,51280.332031,0.0,-17618.310547,-17616.25,17878.25,-17362.851562,4117.026855,11505.426758,51354.558594,0.0,17644.505859,17641.982422,-17390.302734,17899.617188,30.21382,90.372864,22.790834,0.0,3.112381,2.096754,25.992117,31.325426,30.228634,90.280907,22.825848,0.0,-3.18355,-2.190794,31.275604,25.365608,1.025,1.023,-63617.0,-145286.0,-412178.0,0.0,141786.0,141676.0,-145019.0,138607.0,-60642.0,-140418.0,-417313.0,0.0,-143245.0,-143379.0,140109.0,-146099.0,0.0,0.173088,0.0,0.079066,0.153974,-0.086544,0.0,-0.176481,0.0,-0.094036,-0.149342,0.088241,0.0,0.173088,0.0,0.079066,0.153974,-0.086544,0.0,-0.176481,0.0,-0.094036,-0.149342,0.088241
11,1.599959135055542,0.526866,1.577755,0.397896,0.0,0.043842,0.009536,0.474302,0.551296,0.527269,1.575965,0.398532,0.0,-0.046555,-0.017975,0.561688,0.461293,3.0,1.0,111.0,0.0,1.0,-79770.0,-26118.0,14041.0,-79093.0,26270.0,13734.0,-0.947516,-0.191955,0.25567,-0.292079,0.194517,-0.936404,0.130015,-0.961934,-0.240374,-0.942493,0.18098,0.280985,0.315362,0.203114,0.92698,0.110693,0.962284,-0.248508,-0.947516,-0.191955,0.25567,-0.292079,0.194517,-0.936404,0.130015,-0.961934,-0.240374,-0.942493,0.18098,0.280985,0.315362,0.203114,0.92698,0.110693,0.962284,-0.248508,-79770.0,-26118.0,14041.0,-79093.0,26270.0,13734.0,17935.0,17297.0,-157769.0,0.0,-54009.0,-54215.0,-53669.0,-54210.0,-14925.0,-12563.0,153493.0,0.0,52836.0,52759.0,52968.0,52834.0,-20.0,214.0,99.0,0.0,760.0,830.0,491.0,-556.0,-1.0,-191.0,-129.0,0.0,-744.0,-628.0,737.0,-907.0,0.005571,-0.057946,-0.026974,0.0,0.027846,0.03039,-0.017974,-0.02036,-0.000468,-0.051757,-0.035037,0.0,-0.027227,-0.023011,-0.026969,-0.033219,4111.379883,11519.010742,51295.230469,0.0,-17621.550781,-17630.189453,17881.919922,-17353.53125,4114.529785,11506.950195,51372.542969,0.0,17647.291016,17652.419922,-17376.929688,17903.970703,0.0,0.0,0.0,0.0,0.0,0.0,0.0,0.0,0.0,0.0,0.0,0.0,0.0,0.0,0.0,0.0,0.0,0.0,0.0,0.0,0.0,0.0,0.0,0.0,0.0,0.0,0.0,0.0,0.0,0.0,0.0,0.0,4115.009277,11516.337891,51280.332031,0.0,-17618.310547,-17616.25,17878.25,-17362.851562,4117.026855,11505.426758,51354.558594,0.0,17644.505859,17641.982422,-17390.302734,17899.617188,30.21382,90.372864,22.790834,0.0,3.112381,2.096754,25.992117,31.325426,30.228634,90.280907,22.825848,0.0,-3.18355,-2.190794,31.275604,25.365608,1.025,1.022,-63617.0,-145286.0,-412178.0,0.0,141786.0,141676.0,-145019.0,138607.0,-60642.0,-140418.0,-417313.0,0.0,-143245.0,-143379.0,140109.0,-146099.0,0.0,0.0,0.0,0.0,0.0,0.0,0.0,0.0,0.0,0.0,0.0,0.0,0.0,0.0,0.0,0.0,0.0,0.0,0.0,0.0,0.0,0.0,0.0,0.0
12,1.619992971420288,0.526866,1.577755,0.397896,0.0,0.044136,0.009886,0.474127,0.551298,0.527269,1.575965,0.398532,0.0,-0.046849,-0.018674,0.561162,0.460767,3.0,1.0,111.0,0.0,1.0,-79771.0,-26114.0,14042.0,-79090.0,26279.0,13731.0,-0.947624,-0.191946,0.255275,-0.291725,0.194805,-0.936455,0.13002,-0.961877,-0.240597,-0.942302,0.181068,0.281569,0.315995,0.20342,0.926697,0.110518,0.962203,-0.2489,-0.947624,-0.191946,0.255275,-0.291725,0.194805,-0.936455,0.13002,-0.961877,-0.240597,-0.942318,0.180985,0.281569,0.315977,0.203448,0.926697,0.110433,0.962213,-0.2489,-79771.0,-26114.0,14042.0,-79090.0,26279.0,13731.0,17935.0,17297.0,-157769.0,0.0,-54008.0,-54213.0,-53669.0,-54211.0,-14925.0,-12563.0,153493.0,0.0,52835.0,52755.0,52973.0,52833.0,-20.0,214.0,99.0,0.0,758.0,832.0,492.0,-558.0,-1.0,-191.0,-129.0,0.0,-741.0,-625.0,732.0,-907.0,0.005571,-0.057946,-0.026974,0.0,0.027759,0.030475,-0.018038,-0.020444,-0.000468,-0.051757,-0.035037,0.0,-0.027132,-0.022875,-0.026805,-0.033215,4111.379883,11519.010742,51295.230469,0.0,-17621.458984,-17630.009766,17881.919922,-17353.619141,4114.529785,11506.950195,51372.542969,0.0,17647.199219,17652.060547,-17377.380859,17903.880859,0.0,0.0,0.0,0.0,0.0,0.0,0.0,0.0,0.0,0.0,0.0,0.0,0.0,0.0,-90.92347,0.0,0.0,0.0,0.0,0.0,0.0,0.0,0.0,0.0,0.0,0.0,0.0,0.0,0.0,0.0,-0.176481,0.0,4115.009277,11516.337891,51280.332031,0.0,-17618.310547,-17616.25,17878.25,-17362.851562,4117.026855,11505.426758,51354.558594,0.0,17644.505859,17641.982422,-17390.302734,17899.617188,30.21382,90.372864,22.790834,0.0,3.112381,2.096754,25.992117,31.325426,30.228634,90.280907,22.825848,0.0,-3.18355,-2.190794,31.275604,25.365608,1.025,1.022,-63617.0,-145286.0,-412178.0,0.0,141786.0,141676.0,-145019.0,138607.0,-60642.0,-140418.0,-417313.0,0.0,-143245.0,-143379.0,140109.0,-146099.0,0.0,0.0,0.0,0.0,0.0,0.0,0.0,0.0,0.0,0.0,0.0,-0.176481,0.0,0.0,0.0,0.0,0.0,0.0,0.0,0.0,0.0,0.0,0.0,-0.176481
13,1.6419970989227295,0.526866,1.577755,0.397896,0.0,0.044136,0.010408,0.473866,0.551383,0.527269,1.575965,0.398532,0.0,-0.046849,-0.018851,0.560551,0.460679,3.0,1.0,111.0,0.0,1.0,-79773.0,-26108.0,14044.0,-79090.0,26281.0,13731.0,-0.947791,-0.191777,0.254784,-0.291202,0.194836,-0.936611,0.129979,-0.961905,-0.24051,-0.942205,0.181316,0.281734,0.316211,0.203346,0.92664,0.110726,0.962172,-0.248928,-0.947791,-0.191777,0.254784,-0.291202,0.194836,-0.936611,0.129979,-0.961905,-0.24051,-0.942205,0.181316,0.281734,0.316211,0.203346,0.92664,0.110726,0.962172,-0.248928,-79773.0,-26108.0,14044.0,-79090.0,26281.0,13731.0,17935.0,17297.0,-157769.0,0.0,-54008.0,-54210.0,-53669.0,-54212.0,-14925.0,-12563.0,153493.0,0.0,52835.0,52754.0,52977.0,52833.0,-20.0,214.0,99.0,0.0,760.0,833.0,494.0,-561.0,-1.0,-191.0,-129.0,0.0,-742.0,-628.0,730.0,-909.0,0.005571,-0.057946,-0.026974,0.0,0.02782,0.030501,-0.018108,-0.020541,-0.000468,-0.051757,-0.035037,0.0,-0.027184,-0.022989,-0.026735,-0.033297,4111.379883,11519.010742,51295.230469,0.0,-17621.458984,-17629.740234,17881.919922,-17353.710938,4114.529785,11506.950195,51372.542969,0.0,17647.199219,17651.970703,-17377.740234,17903.880859,0.0,0.0,0.0,0.0,0.0,0.0,0.0,0.0,0.0,0.0,0.0,0.0,0.0,0.0,0.0,0.0,0.0,0.0,0.0,0.0,0.0,0.0,0.0,0.0,0.0,0.0,0.0,0.0,0.0,0.0,0.0,0.0,4115.009277,11516.337891,51280.332031,0.0,-17618.310547,-17616.25,17878.25,-17362.851562,4117.026855,11505.426758,51354.558594,0.0,17644.505859,17641.982422,-17390.302734,17899.617188,30.21382,90.372864,22.790834,0.0,3.112381,2.096754,25.992117,31.325426,30.228634,90.280907,22.825848,0.0,-3.18355,-2.190794,31.275604,25.365608,1.025,1.021,-63617.0,-145286.0,-412178.0,0.0,141786.0,141676.0,-145019.0,138607.0,-60642.0,-140418.0,-417313.0,0.0,-143245.0,-143379.0,140109.0,-146099.0,0.0,0.0,0.0,0.0,0.0,0.0,0.0,0.0,0.0,0.0,0.0,0.0,0.0,0.0,0.0,0.0,0.0,0.0,0.0,0.0,0.0,0.0,0.0,0.0
14,1.6630229949951172,0.526866,1.577755,0.397896,0.0,0.044425,0.010758,0.473691,0.551208,0.527269,1.575965,0.398532,0.0,-0.047138,-0.019201,0.559854,0.460504,3.0,1.0,111.0,0.0,1.0,-79774.0,-26103.0,14045.0,-79088.0,26285.0,13730.0,-0.947882,-0.191849,0.254389,-0.290865,0.195093,-0.936662,0.130069,-0.961838,-0.240727,-0.942064,0.181644,0.281994,0.316573,0.203548,0.926472,0.110888,0.962067,-0.249259,-0.947882,-0.191849,0.254389,-0.290865,0.195093,-0.936662,0.130069,-0.961838,-0.240727,-0.942064,0.181644,0.281994,0.316573,0.203548,0.926472,0.110888,0.962067,-0.249259,-79774.0,-26103.0,14045.0,-79088.0,26285.0,13730.0,17935.0,17297.0,-157769.0,0.0,-54007.0,-54208.0,-53669.0,-54214.0,-14925.0,-12563.0,153493.0,0.0,52834.0,52752.0,52982.0,52833.0,-20.0,214.0,99.0,0.0,757.0,835.0,496.0,-561.0,-1.0,-191.0,-129.0,0.0,-740.0,-628.0,726.0,-912.0,0.005571,-0.057946,-0.026974,0.0,0.027736,0.030589,-0.018175,-0.020549,-0.000468,-0.051757,-0.035037,0.0,-0.027093,-0.023013,-0.026568,-0.033375,4111.379883,11519.010742,51295.230469,0.0,-17621.371094,-17629.560547,17881.919922,-17353.890625,4114.529785,11506.950195,51372.542969,0.0,17647.111328,17651.789062,-17378.189453,17903.880859,0.0,0.0,0.0,0.0,0.0,0.0,0.0,0.0,0.0,0.0,0.0,0.0,0.0,0.0,0.0,0.0,0.0,0.0,0.0,0.0,0.0,0.0,0.0,0.0,0.0,0.0,0.0,0.0,0.0,0.0,0.0,0.0,4115.009277,11516.337891,51280.332031,0.0,-17618.310547,-17616.25,17878.25,-17362.851562,4117.026855,11505.426758,51354.558594,0.0,17644.505859,17641.982422,-17390.302734,17899.617188,30.21382,90.372864,22.790834,0.0,3.112381,2.096754,25.992117,31.325426,30.228634,90.280907,22.825848,0.0,-3.18355,-2.190794,31.275604,25.365608,1.024,1.02,-63617.0,-145286.0,-412178.0,0.0,141786.0,141676.0,-145019.0,138607.0,-60642.0,-140418.0,-417313.0,0.0,-143245.0,-143379.0,140109.0,-146099.0,0.0,0.0,0.0,0.0,0.0,0.0,0.0,0.0,0.0,0.0,0.0,0.0,0.0,0.0,0.0,0.0,0.0,0.0,0.0,0.0,0.0,0.0,0.0,0.0
15,1.6839981079101562,0.526866,1.577755,0.397896,0.0,0.044713,0.010934,0.473603,0.551123,0.527269,1.575965,0.398532,0.0,-0.047138,-0.019547,0.559677,0.460158,3.0,1.0,111.0,0.0,1.0,-79775.0,-26101.0,14046.0,-79087.0,26289.0,13728.0,-0.947929,-0.191922,0.254158,-0.29069,0.195356,-0.936662,0.130115,-0.96177,-0.240973,-0.941982,0.181569,0.282316,0.316876,0.203591,0.926359,0.110721,0.962073,-0.249314,-0.947929,-0.191922,0.254158,-0.29069,0.195356,-0.936662,0.130115,-0.96177,-0.240973,-0.941982,0.181569,0.282316,0.316876,0.203591,0.926359,0.110721,0.962073,-0.249314,-79775.0,-26101.0,14046.0,-79087.0,26289.0,13728.0,17935.0,17297.0,-157769.0,0.0,-54006.0,-54207.0,-53669.0,-54215.0,-14925.0,-12563.0,153493.0,0.0,52834.0,52750.0,52984.0,52832.0,-20.0,214.0,99.0,0.0,755.0,840.0,498.0,-563.0,-1.0,-191.0,-129.0,0.0,-741.0,-629.0,727.0,-912.0,0.005571,-0.057946,-0.026974,0.0,0.027652,0.030753,-0.018243,-0.020635,-0.000468,-0.051757,-0.035037,0.0,-0.027141,-0.023034,-0.026631,-0.033374,4111.379883,11519.010742,51295.230469,0.0,-17621.28125,-17629.46875,17881.919922,-17353.980469,4114.529785,11506.950195,51372.542969,0.0,17647.111328,17651.611328,-17378.371094,17903.791016,0.0,0.0,0.0,0.0,0.0,0.0,0.0,0.0,0.0,0.0,0.0,0.0,0.0,0.0,0.0,0.0,0.0,0.0,0.0,0.0,0.0,0.0,0.0,0.0,0.0,0.0,0.0,0.0,0.0,0.0,0.0,0.0,4115.009277,11516.337891,51280.332031,0.0,-17618.310547,-17616.25,17878.25,-17362.851562,4117.026855,11505.426758,51354.558594,0.0,17644.505859,17641.982422,-17390.302734,17899.617188,30.21382,90.372864,22.790834,0.0,3.112381,2.096754,25.992117,31.325426,30.228634,90.280907,22.825848,0.0,-3.18355,-2.190794,31.275604,25.365608,1.024,1.019,-63617.0,-145286.0,-412178.0,0.0,141786.0,141676.0,-145019.0,138607.0,-60642.0,-140418.0,-417313.0,0.0,-143245.0,-143379.0,140109.0,-146099.0,0.0,0.0,0.0,0.0,0.0,0.0,0.0,0.0,0.0,0.0,0.0,0.0,0.0,0.0,0.0,0.0,0.0,0.0,0.0,0.0,0.0,0.0,0.0,0.0
16,1.7039940357208252,0.526866,1.577755,0.397896,0.0,0.044713,0.011107,0.473516,0.551033,0.527269,1.575965,0.398532,0.0,-0.047138,-0.019723,0.559243,0.46007,3.0,1.0,111.0,0.0,1.0,-79775.0,-26099.0,14046.0,-79087.0,26291.0,13728.0,-0.947973,-0.191922,0.253995,-0.290528,0.195349,-0.936714,0.130158,-0.961772,-0.240944,-0.941901,0.181734,0.282481,0.317075,0.203544,0.926301,0.110843,0.962051,-0.249342,-0.947973,-0.191922,0.253995,-0.290528,0.195349,-0.936714,0.130158,-0.961772,-0.240944,-0.941901,0.181734,0.282481,0.317075,0.203544,0.926301,0.110843,0.962051,-0.249342,-79775.0,-26099.0,14046.0,-79087.0,26291.0,13728.0,17935.0,17297.0,-157769.0,0.0,-54006.0,-54206.0,-53669.0,-54216.0,-14925.0,-12563.0,153493.0,0.0,52834.0,52749.0,52987.0,52832.0,-20.0,214.0,99.0,0.0,757.0,844.0,500.0,-565.0,-1.0,-191.0,-129.0,0.0,-742.0,-631.0,726.0,-914.0,0.005571,-0.057946,-0.026974,0.0,0.027704,0.030905,-0.018307,-0.02071,-0.000468,-0.051757,-0.035037,0.0,-0.027187,-0.023122,-0.026602,-0.033447,4111.379883,11519.010742,51295.230469,0.0,-17621.28125,-17629.380859,17881.919922,-17354.070312,4114.529785,11506.950195,51372.542969,0.0,17647.111328,17651.519531,-17378.640625,17903.791016,0.0,0.0,0.0,0.0,0.0,0.0,0.0,0.0,0.0,0.0,0.0,0.0,0.0,0.0,0.0,0.0,0.0,0.0,0.0,0.0,0.0,0.0,0.0,0.0,0.0,0.0,0.0,0.0,0.0,0.0,0.0,0.0,4115.009277,11516.337891,51280.332031,0.0,-17618.310547,-17616.25,17878.25,-17362.851562,4117.026855,11505.426758,51354.558594,0.0,17644.505859,17641.982422,-17390.302734,17899.617188,30.21382,90.372864,22.790834,0.0,3.112381,2.096754,25.992117,31.325426,30.228634,90.280907,22.825848,0.0,-3.18355,-2.190794,31.275604,25.365608,1.024,1.019,-63617.0,-145286.0,-412178.0,0.0,141786.0,141676.0,-145019.0,138607.0,-60642.0,-140418.0,-417313.0,0.0,-143245.0,-143379.0,140109.0,-146099.0,0.0,0.0,0.0,0.0,0.0,0.0,0.0,0.0,0.0,0.0,0.0,0.0,0.0,0.0,0.0,0.0,0.0,0.0,0.0,0.0,0.0,0.0,0.0,0.0
17,1.7240209579467773,0.526866,1.577755,0.397896,0.0,0.045007,0.011107,0.473516,0.55086,0.527269,1.575965,0.398532,0.0,-0.047432,-0.020073,0.558892,0.459718,3.0,1.0,111.0,0.0,1.0,-79775.0,-26099.0,14046.0,-79085.0,26296.0,13727.0,-0.947958,-0.192082,0.253928,-0.290535,0.195598,-0.936659,0.130248,-0.961689,-0.241226,-0.941807,0.181816,0.282739,0.317383,0.203834,0.926131,0.110754,0.961974,-0.249678,-0.947958,-0.192082,0.253928,-0.290535,0.195598,-0.936659,0.130248,-0.961689,-0.241226,-0.941823,0.181733,0.282739,0.317365,0.203862,0.926131,0.110669,0.961984,-0.249678,-79775.0,-26099.0,14046.0,-79085.0,26296.0,13727.0,17935.0,17297.0,-157769.0,0.0,-54005.0,-54206.0,-53669.0,-54217.0,-14925.0,-12563.0,153493.0,0.0,52833.0,52747.0,52990.0,52831.0,-20.0,214.0,99.0,0.0,754.0,850.0,502.0,-567.0,-1.0,-191.0,-129.0,0.0,-740.0,-632.0,726.0,-913.0,0.005571,-0.057946,-0.026974,0.0,0.027612,0.031135,-0.018371,-0.020784,-0.000468,-0.051757,-0.035037,0.0,-0.027088,-0.023129,-0.026567,-0.03344,4111.379883,11519.010742,51295.230469,0.0,-17621.189453,-17629.380859,17881.919922,-17354.160156,4114.529785,11506.950195,51372.542969,0.0,17647.019531,17651.339844,-17378.910156,17903.699219,0.0,0.0,0.0,0.0,0.0,0.0,0.0,0.0,0.0,0.0,0.0,0.0,0.0,0.0,-90.92347,0.0,0.0,0.0,0.0,0.0,0.0,0.0,0.0,0.0,0.0,0.0,0.0,0.0,0.0,0.0,-0.176481,0.0,4115.009277,11516.337891,51280.332031,0.0,-17618.310547,-17616.25,17878.25,-17362.851562,4117.026855,11505.426758,51354.558594,0.0,17644.505859,17641.982422,-17390.302734,17899.617188,30.21382,90.372864,22.790834,0.0,3.112381,2.096754,25.992117,31.325426,30.228634,90.280907,22.825848,0.0,-3.18355,-2.190794,31.275604,25.365608,1.024,1.018,-63617.0,-145286.0,-412178.0,0.0,141786.0,141676.0,-145019.0,138607.0,-60642.0,-140418.0,-417313.0,0.0,-143245.0,-143379.0,140109.0,-146099.0,0.0,0.0,0.0,0.0,0.0,0.0,0.0,0.0,0.0,0.0,0.0,-0.176481,0.0,0.0,0.0,0.0,0.0,0.0,0.0,0.0,0.0,0.0,0.0,-0.176481
18,1.7439899444580078,0.526866,1.577755,0.397896,0.0,0.045007,0.011281,0.473429,0.550597,0.527269,1.575965,0.398532,0.0,-0.047432,-0.020246,0.558629,0.459632,3.0,1.0,111.0,0.0,1.0,-79776.0,-26097.0,14047.0,-79085.0,26298.0,13726.0,-0.947985,-0.192164,0.253765,-0.29039,0.195567,-0.936711,0.130374,-0.961679,-0.241197,-0.941743,0.181902,0.282901,0.317562,0.203814,0.926075,0.110796,0.961962,-0.249705,-0.947985,-0.192164,0.253765,-0.29039,0.195567,-0.936711,0.130374,-0.961679,-0.241197,-0.941743,0.181902,0.282901,0.317562,0.203814,0.926075,0.110796,0.961962,-0.249705,-79776.0,-26097.0,14047.0,-79085.0,26298.0,13726.0,17935.0,17297.0,-157769.0,0.0,-54005.0,-54205.0,-53669.0,-54219.0,-14925.0,-12563.0,153493.0,0.0,52833.0,52746.0,52992.0,52831.0,-20.0,214.0,99.0,0.0,755.0,854.0,503.0,-567.0,-1.0,-191.0,-129.0,0.0,-741.0,-634.0,727.0,-915.0,0.005571,-0.057946,-0.026974,0.0,0.027663,0.031285,-0.018435,-0.020776,-0.000468,-0.051757,-0.035037,0.0,-0.027132,-0.023213,-0.026607,-0.033512,4111.379883,11519.010742,51295.230469,0.0,-17621.189453,-17629.291016,17881.919922,-17354.339844,4114.529785,11506.950195,51372.542969,0.0,17647.019531,17651.251953,-17379.091797,17903.699219,0.0,0.0,0.0,0.0,0.0,0.0,0.0,0.0,0.0,0.0,0.0,0.0,0.0,0.0,0.0,0.0,0.0,0.0,0.0,0.0,0.0,0.0,0.0,0.0,0.0,0.0,0.0,0.0,0.0,0.0,0.0,0.0,4115.009277,11516.337891,51280.332031,0.0,-17618.310547,-17616.25,17878.25,-17362.851562,4117.026855,11505.426758,51354.558594,0.0,17644.505859,17641.982422,-17390.302734,17899.617188,30.21382,90.372864,22.790834,0.0,3.112381,2.096754,25.992117,31.325426,30.228634,90.280907,22.825848,0.0,-3.18355,-2.190794,31.275604,25.365608,1.024,1.018,-63617.0,-145286.0,-412178.0,0.0,141786.0,141676.0,-145019.0,138607.0,-60642.0,-140418.0,-417313.0,0.0,-143245.0,-143379.0,140109.0,-146099.0,0.0,0.0,0.0,0.0,0.0,0.0,0.0,0.0,0.0,0.0,0.0,0.0,0.0,0.0,0.0,0.0,0.0,0.0,0.0,0.0,0.0,0.0,0.0,0.0
19,1.765995979309082,0.526866,1.577755,0.397896,0.0,0.045296,0.011281,0.473429,0.550248,0.527269,1.575965,0.398532,0.0,-0.04772,-0.020595,0.558281,0.459457,3.0,1.0,111.0,0.0,1.0,-79776.0,-26097.0,14047.0,-79083.0,26302.0,13725.0,-0.947954,-0.192406,0.253699,-0.290414,0.195785,-0.936658,0.130548,-0.961586,-0.241472,-0.941633,0.182064,0.28316,0.317888,0.204071,0.925906,0.11079,0.961877,-0.250036,-0.947954,-0.192406,0.253699,-0.290414,0.195785,-0.936658,0.130548,-0.961586,-0.241472,-0.941633,0.182064,0.28316,0.317888,0.204071,0.925906,0.11079,0.961877,-0.250036,-79776.0,-26097.0,14047.0,-79083.0,26302.0,13725.0,17935.0,17297.0,-157769.0,0.0,-54004.0,-54205.0,-53669.0,-54221.0,-14925.0,-12563.0,153493.0,0.0,52832.0,52744.0,52995.0,52831.0,-20.0,214.0,99.0,0.0,753.0,861.0,505.0,-567.0,-1.0,-191.0,-129.0,0.0,-738.0,-634.0,726.0,-917.0,0.005571,-0.057946,-0.026974,0.0,0.027577,0.031535,-0.018505,-0.020781,-0.000468,-0.051757,-0.035037,0.0,-0.02704,-0.023233,-0.026585,-0.03359,4111.379883,11519.010742,51295.230469,0.0,-17621.101562,-17629.291016,17881.919922,-17354.521484,4114.529785,11506.950195,51372.542969,0.0,17646.929688,17651.070312,-17379.359375,17903.699219,0.0,0.0,0.0,0.0,0.0,0.0,0.0,0.0,0.0,0.0,0.0,0.0,0.0,0.0,0.0,0.0,0.0,0.0,0.0,0.0,0.0,0.0,0.0,0.0,0.0,0.0,0.0,0.0,0.0,0.0,0.0,0.0,4115.009277,11516.337891,51280.332031,0.0,-17618.310547,-17616.25,17878.25,-17362.851562,4117.026855,11505.426758,51354.558594,0.0,17644.505859,17641.982422,-17390.302734,17899.617188,30.21382,90.372864,22.790834,0.0,3.112381,2.096754,25.992117,31.325426,30.228634,90.280907,22.825848,0.0,-3.18355,-2.190794,31.275604,25.365608,1.023,1.017,-63617.0,-145286.0,-412178.0,0.0,141786.0,141676.0,-145019.0,138607.0,-60642.0,-140418.0,-417313.0,0.0,-143245.0,-143379.0,140109.0,-146099.0,0.0,0.0,0.0,0.0,0.0,0.0,0.0,0.0,0.0,0.0,0.0,0.0,0.0,0.0,0.0,0.0,0.0,0.0,0.0,0.0,0.0,0.0,0.0,0.0
20,1.7869961261749268,0.526866,1.577755,0.397896,0.0,0.045296,0.011457,0.473341,0.549986,0.527269,1.575965,0.398532,0.0,-0.04772,-0.020772,0.557843,0.459196,3.0,1.0,111.0,0.0,1.0,-79776.0,-26095.0,14047.0,-79083.0,26304.0,13724.0,-0.947982,-0.192486,0.253533,-0.290266,0.195753,-0.93671,0.130674,-0.961577,-0.241443,-0.941567,0.18215,0.283325,0.318069,0.204051,0.925848,0.11083,0.961865,-0.250064,-0.947982,-0.192486,0.253533,-0.290266,0.195753,-0.93671,0.130674,-0.961577,-0.241443,-0.941567,0.18215,0.283325,0.318069,0.204051,0.925848,0.11083,0.961865,-0.250064,-79776.0,-26095.0,14047.0,-79083.0,26304.0,13724.0,17935.0,17297.0,-157769.0,0.0,-54004.0,-54204.0,-53669.0,-54223.0,-14925.0,-12563.0,153493.0,0.0,52832.0,52743.0,52998.0,52830.0,-20.0,214.0,99.0,0.0,755.0,866.0,507.0,-567.0,-1.0,-191.0,-129.0,0.0,-740.0,-637.0,725.0,-917.0,0.005571,-0.057946,-0.026974,0.0,0.027629,0.031693,-0.018573,-0.020775,-0.000468,-0.051757,-0.035037,0.0,-0.027084,-0.023319,-0.026545,-0.033586,4111.379883,11519.010742,51295.230469,0.0,-17621.101562,-17629.201172,17881.919922,-17354.701172,4114.529785,11506.950195,51372.542969,0.0,17646.929688,17650.980469,-17379.630859,17903.611328,0.0,0.0,0.0,0.0,0.0,0.0,0.0,0.0,0.0,0.0,0.0,0.0,0.0,0.0,0.0,0.0,0.0,0.0,0.0,0.0,0.0,0.0,0.0,0.0,0.0,0.0,0.0,0.0,0.0,0.0,0.0,0.0,4115.009277,11516.337891,51280.332031,0.0,-17618.310547,-17616.25,17878.25,-17362.851562,4117.026855,11505.426758,51354.558594,0.0,17644.505859,17641.982422,-17390.302734,17899.617188,30.21382,90.372864,22.790834,0.0,3.112381,2.096754,25.992117,31.325426,30.228634,90.280907,22.825848,0.0,-3.18355,-2.190794,31.275604,25.365608,1.023,1.017,-63617.0,-145286.0,-412178.0,0.0,141786.0,141676.0,-145019.0,138607.0,-60642.0,-140418.0,-417313.0,0.0,-143245.0,-143379.0,140109.0,-146099.0,0.0,0.0,0.0,0.0,0.0,0.0,0.0,0.0,0.0,0.0,0.0,0.0,0.0,0.0,0.0,0.0,0.0,0.0,0.0,0.0,0.0,0.0,0.0,0.0
21,1.8069579601287842,0.526866,1.577755,0.397896,0.0,0.045296,0.011807,0.473166,0.549812,0.527269,1.575965,0.398532,0.0,-0.04772,-0.020945,0.55758,0.459109,3.0,1.0,111.0,0.0,1.0,-79777.0,-26091.0,14048.0,-79082.0,26306.0,13724.0,-0.948071,-0.192483,0.253205,-0.289939,0.195741,-0.936814,0.130758,-0.96158,-0.241384,-0.941502,0.182235,0.283486,0.318247,0.204031,0.925792,0.110872,0.961853,-0.250092,-0.948071,-0.192483,0.253205,-0.289939,0.195741,-0.936814,0.130758,-0.96158,-0.241384,-0.941502,0.182235,0.283486,0.318247,0.204031,0.925792,0.110872,0.961853,-0.250092,-79777.0,-26091.0,14048.0,-79082.0,26306.0,13724.0,17935.0,17297.0,-157769.0,0.0,-54004.0,-54202.0,-53669.0,-54225.0,-14925.0,-12563.0,153493.0,0.0,52832.0,52742.0,53000.0,52830.0,-20.0,214.0,99.0,0.0,756.0,867.0,509.0,-567.0,-1.0,-191.0,-129.0,0.0,-741.0,-639.0,726.0,-919.0,0.005571,-0.057946,-0.026974,0.0,0.027677,0.031761,-0.018637,-0.020758,-0.000468,-0.051757,-0.035037,0.0,-0.027127,-0.023398,-0.026572,-0.033655,4111.379883,11519.010742,51295.230469,0.0,-17621.101562,-17629.019531,17881.919922,-17354.880859,4114.529785,11506.950195,51372.542969,0.0,17646.929688,17650.890625,-17379.810547,17903.611328,0.0,0.0,0.0,0.0,0.0,0.0,0.0,0.0,0.0,0.0,0.0,0.0,0.0,0.0,0.0,0.0,0.0,0.0,0.0,0.0,0.0,0.0,0.0,0.0,0.0,0.0,0.0,0.0,0.0,0.0,0.0,0.0,4115.009277,11516.337891,51280.332031,0.0,-17618.310547,-17616.25,17878.25,-17362.851562,4117.026855,11505.426758,51354.558594,0.0,17644.505859,17641.982422,-17390.302734,17899.617188,30.21382,90.372864,22.790834,0.0,3.112381,2.096754,25.992117,31.325426,30.228634,90.280907,22.825848,0.0,-3.18355,-2.190794,31.275604,25.365608,1.022,1.016,-63617.0,-145286.0,-412178.0,0.0,141786.0,141676.0,-145019.0,138607.0,-60642.0,-140418.0,-417313.0,0.0,-143245.0,-143379.0,140109.0,-146099.0,0.0,0.0,0.0,0.0,0.0,0.0,0.0,0.0,0.0,0.0,0.0,0.0,0.0,0.0,0.0,0.0,0.0,0.0,0.0,0.0,0.0,0.0,0.0,0.0
22,1.8280260562896729,0.526866,1.577755,0.397896,0.0,0.04559,0.01198,0.47308,0.549549,0.527269,1.575965,0.398532,0.0,-0.048009,-0.021295,0.557408,0.458758,3.0,1.0,111.0,0.0,1.0,-79778.0,-26089.0,14049.0,-79081.0,26310.0,13722.0,-0.948099,-0.192643,0.252975,-0.289784,0.195983,-0.936811,0.130891,-0.961498,-0.241636,-0.941424,0.182232,0.283746,0.318538,0.204344,0.925623,0.110696,0.961787,-0.250422,-0.948099,-0.192643,0.252975,-0.289784,0.195983,-0.936811,0.130891,-0.961498,-0.241636,-0.941424,0.182232,0.283746,0.318538,0.204344,0.925623,0.110696,0.961787,-0.250422,-79778.0,-26089.0,14049.0,-79081.0,26310.0,13722.0,17935.0,17297.0,-157769.0,0.0,-54003.0,-54201.0,-53669.0,-54227.0,-14925.0,-12563.0,153493.0,0.0,52831.0,52740.0,53002.0,52829.0,-20.0,214.0,99.0,0.0,753.0,872.0,511.0,-566.0,-1.0,-191.0,-129.0,0.0,-738.0,-639.0,727.0,-919.0,0.005571,-0.057946,-0.026974,0.0,0.027584,0.031917,-0.018704,-0.020745,-0.000468,-0.051757,-0.035037,0.0,-0.02703,-0.023402,-0.026607,-0.033648,4111.379883,11519.010742,51295.230469,0.0,-17621.009766,-17628.931641,17881.919922,-17355.060547,4114.529785,11506.950195,51372.542969,0.0,17646.841797,17650.710938,-17379.990234,17903.519531,0.0,0.0,0.0,0.0,0.0,89.174942,0.0,0.0,0.0,0.0,0.0,0.0,0.0,0.0,0.0,0.0,0.0,0.0,0.0,0.0,0.0,0.173088,-0.086544,0.086544,0.0,0.0,0.0,0.0,0.0,0.0,0.0,0.0,4115.009277,11516.337891,51280.332031,0.0,-17618.310547,-17616.25,17878.25,-17362.851562,4117.026855,11505.426758,51354.558594,0.0,17644.505859,17641.982422,-17390.302734,17899.617188,30.21382,90.372864,22.790834,0.0,3.112381,2.096754,25.992117,31.325426,30.228634,90.280907,22.825848,0.0,-3.18355,-2.190794,31.275604,25.365608,1.022,1.016,-63617.0,-145286.0,-412178.0,0.0,141786.0,141676.0,-145019.0,138607.0,-60642.0,-140418.0,-417313.0,0.0,-143245.0,-143379.0,140109.0,-146099.0,0.0,0.173088,0.0,0.078864,0.154077,-0.086544,0.0,0.0,0.0,0.0,0.0,0.0,0.0,0.173088,0.0,0.078864,0.154077,-0.086544,0.0,0.0,0.0,0.0,0.0,0.0
23,1.8479969501495361,0.526866,1.577755,0.397896,0.0,0.04559,0.01198,0.47308,0.549375,0.527269,1.575965,0.398532,0.0,-0.048009,-0.021471,0.557147,0.45867,3.0,1.0,111.0,0.0,1.0,-79778.0,-26089.0,14049.0,-79080.0,26312.0,13722.0,-0.948083,-0.192725,0.252975,-0.289801,0.195958,-0.936811,0.130974,-0.961487,-0.241636,-0.941359,0.182315,0.28391,0.318719,0.204325,0.925565,0.110735,0.961776,-0.25045,-0.948083,-0.192725,0.252975,-0.289801,0.195958,-0.936811,0.130974,-0.961487,-0.241636,-0.941359,0.182315,0.28391,0.318719,0.204325,0.925565,0.110735,0.961776,-0.25045,-79778.0,-26089.0,14049.0,-79080.0,26312.0,13722.0,17935.0,17297.0,-157769.0,0.0,-54003.0,-54201.0,-53669.0,-54228.0,-14925.0,-12563.0,153493.0,0.0,52831.0,52739.0,53004.0,52829.0,-20.0,214.0,99.0,0.0,755.0,878.0,512.0,-568.0,-1.0,-191.0,-129.0,0.0,-739.0,-641.0,727.0,-921.0,0.005571,-0.057946,-0.026974,0.0,0.027631,0.032138,-0.018768,-0.020802,-0.000468,-0.051757,-0.035037,0.0,-0.02707,-0.023474,-0.026627,-0.033716,4111.379883,11519.010742,51295.230469,0.0,-17621.009766,-17628.931641,17881.919922,-17355.150391,4114.529785,11506.950195,51372.542969,0.0,17646.841797,17650.619141,-17380.169922,17903.519531,0.0,0.0,0.0,0.0,0.0,0.0,0.0,0.0,0.0,0.0,0.0,0.0,0.0,0.0,0.0,0.0,0.0,0.0,0.0,0.0,0.0,0.0,0.0,0.0,0.0,0.0,0.0,0.0,0.0,0.0,0.0,0.0,4115.009277,11516.337891,51280.332031,0.0,-17618.310547,-17616.25,17878.25,-17362.851562,4117.026855,11505.426758,51354.558594,0.0,17644.505859,17641.982422,-17390.302734,17899.617188,30.21382,90.372864,22.790834,0.0,3.112381,2.096754,25.992117,31.325426,30.228634,90.280907,22.825848,0.0,-3.18355,-2.190794,31.275604,25.365608,1.022,1.015,-63617.0,-145286.0,-412178.0,0.0,141786.0,141676.0,-145019.0,138607.0,-60642.0,-140418.0,-417313.0,0.0,-143245.0,-143379.0,140109.0,-146099.0,0.0,0.0,0.0,0.0,0.0,0.0,0.0,0.0,0.0,0.0,0.0,0.0,0.0,0.0,0.0,0.0,0.0,0.0,0.0,0.0,0.0,0.0,0.0,0.0
24,1.867988109588623,0.526866,1.577755,0.397896,0.0,0.045878,0.012156,0.472642,0.549287,0.527269,1.575965,0.398532,0.0,-0.048009,-0.021821,0.556972,0.458322,3.0,1.0,111.0,0.0,1.0,-79779.0,-26086.0,14050.0,-79079.0,26317.0,13721.0,-0.948163,-0.192633,0.252743,-0.289592,0.196272,-0.93681,0.130855,-0.961442,-0.241883,-0.941275,0.182239,0.284235,0.319024,0.204368,0.92545,0.110564,0.961781,-0.250505,-0.948163,-0.192633,0.252743,-0.289592,0.196272,-0.93681,0.130855,-0.961442,-0.241883,-0.941275,0.182239,0.284235,0.319024,0.204368,0.92545,0.110564,0.961781,-0.250505,-79779.0,-26086.0,14050.0,-79079.0,26317.0,13721.0,17935.0,17297.0,-157769.0,0.0,-54002.0,-54200.0,-53667.0,-54229.0,-14925.0,-12563.0,153493.0,0.0,52831.0,52737.0,53006.0,52828.0,-20.0,214.0,99.0,0.0,752.0,882.0,510.0,-569.0,-1.0,-191.0,-129.0,0.0,-740.0,-641.0,728.0,-921.0,0.005571,-0.057946,-0.026974,0.0,0.027538,0.032279,-0.018673,-0.020856,-0.000468,-0.051757,-0.035037,0.0,-0.027111,-0.023466,-0.026645,-0.033705,4111.379883,11519.010742,51295.230469,0.0,-17620.921875,-17628.839844,17881.740234,-17355.240234,4114.529785,11506.950195,51372.542969,0.0,17646.841797,17650.439453,-17380.349609,17903.431641,0.0,0.0,0.0,0.0,0.0,0.0,0.0,0.0,0.0,0.0,0.0,0.0,0.0,0.0,0.0,0.0,0.0,0.0,0.0,0.0,0.0,0.0,0.0,0.0,0.0,0.0,0.0,0.0,0.0,0.0,0.0,0.0,4115.009277,11516.337891,51280.332031,0.0,-17618.310547,-17616.25,17878.25,-17362.851562,4117.026855,11505.426758,51354.558594,0.0,17644.505859,17641.982422,-17390.302734,17899.617188,30.21382,90.372864,22.790834,0.0,3.112381,2.096754,25.992117,31.325426,30.228634,90.280907,22.825848,0.0,-3.18355,-2.190794,31.275604,25.365608,1.021,1.015,-63617.0,-145286.0,-412178.0,0.0,141786.0,141676.0,-145019.0,138607.0,-60642.0,-140418.0,-417313.0,0.0,-143245.0,-143379.0,140109.0,-146099.0,0.0,0.0,0.0,0.0,0.0,0.0,0.0,0.0,0.0,0.0,0.0,0.0,0.0,0.0,0.0,0.0,0.0,0.0,0.0,0.0,0.0,0.0,0.0,0.0
25,1.889997959136963,0.526866,1.577755,0.397896,0.0,0.045878,0.012329,0.472556,0.549024,0.527269,1.575965,0.398532,0.0,-0.048303,-0.021994,0.556882,0.458235,3.0,1.0,111.0,0.0,1.0,-79779.0,-26084.0,14050.0,-79078.0,26319.0,13720.0,-0.94819,-0.192715,0.25258,-0.289447,0.19624,-0.936862,0.130981,-0.961432,-0.241854,-0.941231,0.18232,0.284329,0.31917,0.204649,0.925337,0.11052,0.961706,-0.250814,-0.94819,-0.192715,0.25258,-0.289447,0.19624,-0.936862,0.130981,-0.961432,-0.241854,-0.941231,0.18232,0.284329,0.31917,0.204649,0.925337,0.11052,0.961706,-0.250814,-79779.0,-26084.0,14050.0,-79078.0,26319.0,13720.0,17935.0,17297.0,-157769.0,0.0,-54002.0,-54199.0,-53667.0,-54231.0,-14925.0,-12563.0,153493.0,0.0,52830.0,52736.0,53007.0,52828.0,-20.0,214.0,99.0,0.0,753.0,886.0,512.0,-569.0,-1.0,-191.0,-129.0,0.0,-738.0,-643.0,731.0,-923.0,0.005571,-0.057946,-0.026974,0.0,0.027588,0.032442,-0.01874,-0.020843,-0.000468,-0.051757,-0.035037,0.0,-0.027012,-0.023549,-0.026756,-0.033779,4111.379883,11519.010742,51295.230469,0.0,-17620.921875,-17628.751953,17881.740234,-17355.421875,4114.529785,11506.950195,51372.542969,0.0,17646.75,17650.351562,-17380.441406,17903.431641,0.0,0.0,0.0,0.0,0.0,0.0,0.0,0.0,0.0,0.0,0.0,0.0,0.0,0.0,0.0,0.0,0.0,0.0,0.0,0.0,0.0,0.0,0.0,0.0,0.0,0.0,0.0,0.0,0.0,0.0,0.0,0.0,4115.009277,11516.337891,51280.332031,0.0,-17618.310547,-17616.25,17878.25,-17362.851562,4117.026855,11505.426758,51354.558594,0.0,17644.505859,17641.982422,-17390.302734,17899.617188,30.21382,90.372864,22.790834,0.0,3.112381,2.096754,25.992117,31.325426,30.228634,90.280907,22.825848,0.0,-3.18355,-2.190794,31.275604,25.365608,1.021,1.015,-63617.0,-145286.0,-412178.0,0.0,141786.0,141676.0,-145019.0,138607.0,-60642.0,-140418.0,-417313.0,0.0,-143245.0,-143379.0,140109.0,-146099.0,0.0,0.0,0.0,0.0,0.0,0.0,0.0,0.0,0.0,0.0,0.0,0.0,0.0,0.0,0.0,0.0,0.0,0.0,0.0,0.0,0.0,0.0,0.0,0.0
26,1.9109959602355957,0.526866,1.577755,0.397896,0.0,0.045878,0.012329,0.472556,0.548851,0.527269,1.575965,0.398532,0.0,-0.048303,-0.02217,0.556621,0.457971,3.0,1.0,111.0,0.0,1.0,-79779.0,-26084.0,14050.0,-79078.0,26321.0,13720.0,-0.948173,-0.192797,0.25258,-0.289464,0.196215,-0.936862,0.131065,-0.96142,-0.241854,-0.941181,0.182321,0.284494,0.319332,0.204658,0.925279,0.110474,0.961704,-0.250841,-0.948173,-0.192797,0.25258,-0.289464,0.196215,-0.936862,0.131065,-0.96142,-0.241854,-0.941181,0.182321,0.284494,0.319332,0.204658,0.925279,0.110474,0.961704,-0.250841,-79779.0,-26084.0,14050.0,-79078.0,26321.0,13720.0,17935.0,17297.0,-157769.0,0.0,-54002.0,-54199.0,-53667.0,-54232.0,-14925.0,-12563.0,153493.0,0.0,52830.0,52735.0,53009.0,52827.0,-20.0,214.0,99.0,0.0,755.0,892.0,513.0,-571.0,-1.0,-191.0,-129.0,0.0,-739.0,-645.0,731.0,-922.0,0.005571,-0.057946,-0.026974,0.0,0.027636,0.032672,-0.018804,-0.020901,-0.000468,-0.051757,-0.035037,0.0,-0.027053,-0.023622,-0.026778,-0.033768,4111.379883,11519.010742,51295.230469,0.0,-17620.921875,-17628.751953,17881.740234,-17355.509766,4114.529785,11506.950195,51372.542969,0.0,17646.75,17650.259766,-17380.621094,17903.339844,0.0,0.0,0.0,0.0,0.0,0.0,0.0,0.0,0.0,0.0,0.0,0.0,0.0,0.0,0.0,0.0,0.0,0.0,0.0,0.0,0.0,0.0,0.0,0.0,0.0,0.0,0.0,0.0,0.0,0.0,0.0,0.0,4115.009277,11516.337891,51280.332031,0.0,-17618.310547,-17616.25,17878.25,-17362.851562,4117.026855,11505.426758,51354.558594,0.0,17644.505859,17641.982422,-17390.302734,17899.617188,30.21382,90.372864,22.790834,0.0,3.112381,2.096754,25.992117,31.325426,30.228634,90.280907,22.825848,0.0,-3.18355,-2.190794,31.275604,25.365608,1.021,1.014,-63617.0,-145286.0,-412178.0,0.0,141786.0,141676.0,-145019.0,138607.0,-60642.0,-140418.0,-417313.0,0.0,-143245.0,-143379.0,140109.0,-146099.0,0.0,0.0,0.0,0.0,0.0,0.0,0.0,0.0,0.0,0.0,0.0,0.0,0.0,0.0,0.0,0.0,0.0,0.0,0.0,0.0,0.0,0.0,0.0,0.0
27,1.9309241771697998,0.526866,1.577755,0.397896,0.0,0.046173,0.012506,0.472467,0.54859,0.527269,1.575965,0.398532,0.0,-0.048591,-0.02217,0.556272,0.457971,3.0,1.0,111.0,0.0,1.0,-79780.0,-26082.0,14051.0,-79078.0,26321.0,13719.0,-0.948203,-0.192955,0.252347,-0.289306,0.196458,-0.93686,0.131197,-0.961339,-0.242105,-0.941155,0.182562,0.284428,0.319354,0.204871,0.925225,0.11064,0.961613,-0.251117,-0.948203,-0.192955,0.252347,-0.289306,0.196458,-0.93686,0.131197,-0.961339,-0.242105,-0.941155,0.182562,0.284428,0.319354,0.204871,0.925225,0.11064,0.961613,-0.251117,-79780.0,-26082.0,14051.0,-79078.0,26321.0,13719.0,17935.0,17297.0,-157769.0,0.0,-54001.0,-54198.0,-53667.0,-54234.0,-14925.0,-12563.0,153493.0,0.0,52829.0,52735.0,53011.0,52827.0,-20.0,214.0,99.0,0.0,752.0,896.0,515.0,-570.0,-1.0,-191.0,-129.0,0.0,-736.0,-649.0,732.0,-924.0,0.005571,-0.057946,-0.026974,0.0,0.027537,0.03281,-0.018865,-0.02087,-0.000468,-0.051757,-0.035037,0.0,-0.026952,-0.023767,-0.026787,-0.033833,4111.379883,11519.010742,51295.230469,0.0,-17620.830078,-17628.660156,17881.740234,-17355.689453,4114.529785,11506.950195,51372.542969,0.0,17646.662109,17650.259766,-17380.800781,17903.339844,0.0,0.0,0.0,0.0,0.0,0.0,0.0,-89.174942,0.0,0.0,0.0,0.0,0.0,0.0,0.0,0.0,0.0,0.0,0.0,0.0,0.0,0.0,0.0,-0.173088,0.0,0.0,0.0,0.0,0.0,0.0,0.0,0.0,4115.009277,11516.337891,51280.332031,0.0,-17618.310547,-17616.25,17878.25,-17362.851562,4117.026855,11505.426758,51354.558594,0.0,17644.505859,17641.982422,-17390.302734,17899.617188,30.21382,90.372864,22.790834,0.0,3.112381,2.096754,25.992117,31.325426,30.228634,90.280907,22.825848,0.0,-3.18355,-2.190794,31.275604,25.365608,1.021,1.014,-63617.0,-145286.0,-412178.0,0.0,141786.0,141676.0,-145019.0,138607.0,-60642.0,-140418.0,-417313.0,0.0,-143245.0,-143379.0,140109.0,-146099.0,0.0,0.0,0.0,0.0,0.0,0.0,0.0,0.0,0.0,0.0,0.0,0.0,0.0,0.0,0.0,0.0,0.0,0.0,0.0,0.0,0.0,0.0,0.0,0.0
28,1.951997995376587,0.526866,1.577755,0.397896,0.0,0.046173,0.012679,0.472381,0.5485,0.527269,1.575965,0.398532,0.0,-0.048591,-0.022343,0.555835,0.457884,3.0,1.0,111.0,0.0,1.0,-79780.0,-26080.0,14051.0,-79077.0,26323.0,13719.0,-0.948246,-0.192955,0.252184,-0.289145,0.196451,-0.936911,0.13124,-0.96134,-0.242076,-0.941074,0.182729,0.284589,0.31955,0.204823,0.925168,0.110764,0.961591,-0.251144,-0.948246,-0.192955,0.252184,-0.289145,0.196451,-0.936911,0.13124,-0.96134,-0.242076,-0.941074,0.182729,0.284589,0.31955,0.204823,0.925168,0.110764,0.961591,-0.251144,-79780.0,-26080.0,14051.0,-79077.0,26323.0,13719.0,17935.0,17297.0,-157769.0,0.0,-54001.0,-54197.0,-53667.0,-54235.0,-14925.0,-12563.0,153493.0,0.0,52829.0,52734.0,53014.0,52827.0,-20.0,214.0,99.0,0.0,753.0,900.0,517.0,-571.0,-1.0,-191.0,-129.0,0.0,-737.0,-651.0,730.0,-926.0,0.005571,-0.057946,-0.026974,0.0,0.027583,0.032958,-0.018929,-0.020922,-0.000468,-0.051757,-0.035037,0.0,-0.026991,-0.023839,-0.026723,-0.033901,4111.379883,11519.010742,51295.230469,0.0,-17620.830078,-17628.570312,17881.740234,-17355.78125,4114.529785,11506.950195,51372.542969,0.0,17646.662109,17650.169922,-17381.070312,17903.339844,0.0,0.0,0.0,0.0,0.0,0.0,0.0,0.0,0.0,0.0,0.0,0.0,0.0,0.0,0.0,0.0,0.0,0.0,0.0,0.0,0.0,0.0,0.0,0.0,0.0,0.0,0.0,0.0,0.0,0.0,0.0,0.0,4115.009277,11516.337891,51280.332031,0.0,-17618.310547,-17616.25,17878.25,-17362.851562,4117.026855,11505.426758,51354.558594,0.0,17644.505859,17641.982422,-17390.302734,17899.617188,30.21382,90.372864,22.790834,0.0,3.112381,2.096754,25.992117,31.325426,30.228634,90.280907,22.825848,0.0,-3.18355,-2.190794,31.275604,25.365608,1.02,1.013,-63617.0,-145286.0,-412178.0,0.0,141786.0,141676.0,-145019.0,138607.0,-60642.0,-140418.0,-417313.0,0.0,-143245.0,-143379.0,140109.0,-146099.0,0.0,0.0,0.0,0.0,0.0,0.0,0.0,0.0,0.0,0.0,0.0,0.0,0.0,0.0,0.0,0.0,0.0,0.0,0.0,0.0,0.0,0.0,0.0,0.0
29,1.9719929695129395,0.526866,1.577755,0.397896,0.0,0.046461,0.013028,0.472206,0.548328,0.527269,1.575965,0.398532,0.0,-0.048591,-0.022516,0.555745,0.457624,3.0,1.0,111.0,0.0,1.0,-79781.0,-26076.0,14052.0,-79076.0,26325.0,13718.0,-0.948337,-0.193027,0.251789,-0.288808,0.196708,-0.936961,0.131329,-0.961273,-0.242293,-0.94104,0.182651,0.28475,0.319692,0.204858,0.925111,0.110639,0.961599,-0.251171,-0.948354,-0.192945,0.251789,-0.288791,0.196733,-0.936961,0.131246,-0.961285,-0.242293,-0.94104,0.182651,0.28475,0.319692,0.204858,0.925111,0.110639,0.961599,-0.251171,-79781.0,-26076.0,14052.0,-79076.0,26325.0,13718.0,17935.0,17297.0,-157769.0,0.0,-54000.0,-54195.0,-53667.0,-54237.0,-14925.0,-12563.0,153493.0,0.0,52829.0,52733.0,53015.0,52826.0,-20.0,214.0,99.0,0.0,751.0,902.0,518.0,-570.0,-1.0,-191.0,-129.0,0.0,-738.0,-653.0,732.0,-926.0,0.005571,-0.057946,-0.026974,0.0,0.027487,0.033015,-0.01899,-0.020888,-0.000468,-0.051757,-0.035037,0.0,-0.027029,-0.023904,-0.026804,-0.033888,4111.379883,11519.010742,51295.230469,0.0,-17620.740234,-17628.390625,17881.740234,-17355.958984,4114.529785,11506.950195,51372.542969,0.0,17646.662109,17650.082031,-17381.162109,17903.25,0.0,0.0,0.0,0.0,0.0,0.0,0.0,-89.174942,0.0,0.0,0.0,0.0,0.0,0.0,0.0,0.0,0.0,0.0,0.0,0.0,0.0,0.0,0.0,-0.173088,0.0,0.0,0.0,0.0,0.0,0.0,0.0,0.0,4115.009277,11516.337891,51280.332031,0.0,-17618.310547,-17616.25,17878.25,-17362.851562,4117.026855,11505.426758,51354.558594,0.0,17644.505859,17641.982422,-17390.302734,17899.617188,30.21382,90.372864,22.790834,0.0,3.112381,2.096754,25.992117,31.325426,30.228634,90.280907,22.825848,0.0,-3.18355,-2.190794,31.275604,25.365608,1.02,1.013,-63617.0,-145286.0,-412178.0,0.0,141786.0,141676.0,-145019.0,138607.0,-60642.0,-140418.0,-417313.0,0.0,-143245.0,-143379.0,140109.0,-146099.0,0.0,0.0,0.0,0.0,0.0,0.0,0.0,0.0,0.0,0.0,0.0,0.0,0.0,0.0,0.0,0.0,0.0,0.0,0.0,0.0,0.0,0.0,0.0,0.0
30,1.991995096206665,0.526866,1.577755,0.397896,0.0,0.046461,0.014427,0.471334,0.548851,0.527269,1.575965,0.398532,0.0,-0.048885,-0.022693,0.555484,0.457536,3.0,1.0,111.0,0.0,1.0,-79786.0,-26059.0,14057.0,-79076.0,26327.0,13718.0,-0.948822,-0.192352,0.250474,-0.287361,0.196859,-0.937374,0.130997,-0.961378,-0.242058,-0.940979,0.182812,0.284847,0.319858,0.205112,0.924997,0.110675,0.961514,-0.25148,-0.948762,-0.192435,0.250637,-0.28754,0.19684,-0.937323,0.131039,-0.961365,-0.242087,-0.940979,0.182812,0.284847,0.319858,0.205112,0.924997,0.110675,0.961514,-0.25148,-79785.0,-26061.0,14056.0,-79076.0,26327.0,13718.0,17935.0,17297.0,-157769.0,0.0,-54000.0,-54187.0,-53666.0,-54238.0,-14925.0,-12563.0,153493.0,0.0,52828.0,52732.0,53017.0,52826.0,-20.0,214.0,99.0,0.0,752.0,890.0,518.0,-571.0,-1.0,-191.0,-129.0,0.0,-735.0,-654.0,732.0,-927.0,0.005571,-0.057946,-0.026974,0.0,0.027529,0.032592,-0.018971,-0.020929,-0.000468,-0.051757,-0.035037,0.0,-0.026923,-0.023965,-0.026804,-0.033952,4111.379883,11519.010742,51295.230469,0.0,-17620.740234,-17627.669922,17881.650391,-17356.050781,4114.529785,11506.950195,51372.542969,0.0,17646.570312,17649.990234,-17381.341797,17903.25,0.0,0.0,0.0,0.0,0.0,89.174942,0.0,0.0,0.0,0.0,0.0,0.0,0.0,0.0,0.0,0.0,0.0,0.0,0.0,0.0,0.0,0.173088,-0.086544,0.086544,0.0,0.0,0.0,0.0,0.0,0.0,0.0,0.0,4115.009277,11516.337891,51280.332031,0.0,-17618.310547,-17616.25,17878.25,-17362.851562,4117.026855,11505.426758,51354.558594,0.0,17644.505859,17641.982422,-17390.302734,17899.617188,30.21382,90.372864,22.790834,0.0,3.112381,2.096754,25.992117,31.325426,30.228634,90.280907,22.825848,0.0,-3.18355,-2.190794,31.275604,25.365608,1.02,1.013,-63617.0,-145286.0,-412178.0,0.0,141786.0,141676.0,-145019.0,138607.0,-60642.0,-140418.0,-417313.0,0.0,-143245.0,-143379.0,140109.0,-146099.0,0.0,0.173088,0.0,0.078595,0.154215,-0.086544,0.0,0.0,0.0,0.0,0.0,0.0,0.0,0.173088,0.0,0.078595,0.154215,-0.086544,0.0,0.0,0.0,0.0,0.0,0.0
31,2.0140380859375,0.526866,1.577755,0.397896,0.0,0.046755,0.018269,0.469413,0.550599,0.527269,1.575965,0.398532,0.0,-0.048885,-0.022866,0.555398,0.45745,3.0,1.0,111.0,0.0,1.0,-79798.0,-26012.0,14069.0,-79075.0,26329.0,13717.0,-0.95013,-0.19065,0.246791,-0.283389,0.197513,-0.938445,0.13017,-0.961583,-0.241691,-0.94093,0.182815,0.285008,0.320018,0.20512,0.92494,0.110632,0.961512,-0.251507,-0.95013,-0.19065,0.246791,-0.283389,0.197513,-0.938445,0.13017,-0.961583,-0.241691,-0.94093,0.182815,0.285008,0.320018,0.20512,0.92494,0.110632,0.961512,-0.251507,-79798.0,-26012.0,14069.0,-79075.0,26329.0,13717.0,17935.0,17297.0,-157769.0,0.0,-53999.0,-54165.0,-53666.0,-54239.0,-14925.0,-12563.0,153493.0,0.0,52828.0,52731.0,53018.0,52826.0,-20.0,214.0,99.0,0.0,749.0,849.0,520.0,-573.0,-1.0,-191.0,-129.0,0.0,-736.0,-656.0,735.0,-929.0,0.005571,-0.057946,-0.026974,0.0,0.027433,0.031067,-0.019037,-0.020981,-0.000468,-0.051757,-0.035037,0.0,-0.026962,-0.02404,-0.026897,-0.034022,4111.379883,11519.010742,51295.230469,0.0,-17620.650391,-17625.691406,17881.650391,-17356.140625,4114.529785,11506.950195,51372.542969,0.0,17646.570312,17649.900391,-17381.429688,17903.25,0.0,0.0,0.0,0.0,0.0,89.174942,0.0,0.0,0.0,0.0,0.0,0.0,0.0,0.0,0.0,0.0,0.0,0.0,0.0,0.0,0.0,0.173088,-0.086544,0.086544,0.0,0.0,0.0,0.0,0.0,0.0,0.0,0.0,4115.009277,11516.337891,51280.332031,0.0,-17618.310547,-17616.25,17878.25,-17362.851562,4117.026855,11505.426758,51354.558594,0.0,17644.505859,17641.982422,-17390.302734,17899.617188,30.21382,90.372864,22.790834,0.0,3.112381,2.096754,25.992117,31.325426,30.228634,90.280907,22.825848,0.0,-3.18355,-2.190794,31.275604,25.365608,1.02,1.012,-63617.0,-145286.0,-412178.0,0.0,141786.0,141676.0,-145019.0,138607.0,-60642.0,-140418.0,-417313.0,0.0,-143245.0,-143379.0,140109.0,-146099.0,0.0,0.173088,0.0,0.078298,0.154365,-0.086544,0.0,0.0,0.0,0.0,0.0,0.0,0.0,0.173088,0.0,0.078298,0.154365,-0.086544,0.0,0.0,0.0,0.0,0.0,0.0
32,2.0350019931793213,0.526866,1.577755,0.397896,0.0,0.046755,0.021764,0.467488,0.55217,0.527269,1.575965,0.398532,0.0,-0.048885,-0.023042,0.555136,0.457185,3.0,1.0,111.0,0.0,1.0,-79809.0,-25969.0,14080.0,-79074.0,26331.0,13717.0,-0.951318,-0.188952,0.243498,-0.279764,0.19787,-0.939457,0.129332,-0.961844,-0.241099,-0.94088,0.182816,0.285173,0.320181,0.205128,0.924882,0.110586,0.96151,-0.251535,-0.951318,-0.188952,0.243498,-0.279764,0.19787,-0.939457,0.129332,-0.961844,-0.241099,-0.94088,0.182816,0.285173,0.320181,0.205128,0.924882,0.110586,0.96151,-0.251535,-79809.0,-25969.0,14080.0,-79074.0,26331.0,13717.0,17935.0,17297.0,-157769.0,0.0,-53999.0,-54145.0,-53665.0,-54240.0,-14925.0,-12563.0,153493.0,0.0,52828.0,52730.0,53020.0,52825.0,-20.0,214.0,99.0,0.0,750.0,810.0,519.0,-574.0,-1.0,-191.0,-129.0,0.0,-737.0,-658.0,735.0,-929.0,0.005571,-0.057946,-0.026974,0.0,0.027475,0.029645,-0.019019,-0.021024,-0.000468,-0.051757,-0.035037,0.0,-0.027,-0.024104,-0.0269,-0.034008,4111.379883,11519.010742,51295.230469,0.0,-17620.650391,-17623.890625,17881.560547,-17356.230469,4114.529785,11506.950195,51372.542969,0.0,17646.570312,17649.810547,-17381.611328,17903.160156,0.0,0.0,0.0,0.0,0.0,0.0,0.0,0.0,0.0,0.0,0.0,0.0,0.0,0.0,0.0,0.0,0.0,0.0,0.0,0.0,0.0,0.0,0.0,0.0,0.0,0.0,0.0,0.0,0.0,0.0,0.0,0.0,4115.009277,11516.337891,51280.332031,0.0,-17618.310547,-17616.25,17878.25,-17362.851562,4117.026855,11505.426758,51354.558594,0.0,17644.505859,17641.982422,-17390.302734,17899.617188,30.21382,90.372864,22.790834,0.0,3.112381,2.096754,25.992117,31.325426,30.228634,90.280907,22.825848,0.0,-3.18355,-2.190794,31.275604,25.365608,1.019,1.012,-63617.0,-145286.0,-412178.0,0.0,141786.0,141676.0,-145019.0,138607.0,-60642.0,-140418.0,-417313.0,0.0,-143245.0,-143379.0,140109.0,-146099.0,0.0,0.0,0.0,0.0,0.0,0.0,0.0,0.0,0.0,0.0,0.0,0.0,0.0,0.0,0.0,0.0,0.0,0.0,0.0,0.0,0.0,0.0,0.0,0.0
33,2.0560109615325928,0.526866,1.577755,0.397896,0.0,0.047044,0.021764,0.467488,0.551997,0.527269,1.575965,0.398532,0.0,-0.049174,-0.023215,0.554873,0.457098,3.0,1.0,111.0,0.0,1.0,-79809.0,-25969.0,14080.0,-79074.0,26333.0,13716.0,-0.951303,-0.189111,0.243432,-0.279771,0.198114,-0.939404,0.129424,-0.961763,-0.241374,-0.94082,0.182977,0.285268,0.320344,0.205376,0.92477,0.110624,0.961426,-0.251838,-0.951303,-0.189111,0.243432,-0.279771,0.198114,-0.939404,0.129424,-0.961763,-0.241374,-0.94082,0.182977,0.285268,0.320344,0.205376,0.92477,0.110624,0.961426,-0.251838,-79809.0,-25969.0,14080.0,-79074.0,26333.0,13716.0,17935.0,17297.0,-157769.0,0.0,-53998.0,-54145.0,-53665.0,-54241.0,-14925.0,-12563.0,153493.0,0.0,52827.0,52729.0,53022.0,52825.0,-20.0,214.0,99.0,0.0,748.0,813.0,521.0,-575.0,-1.0,-191.0,-129.0,0.0,-735.0,-660.0,735.0,-931.0,0.005571,-0.057946,-0.026974,0.0,0.027378,0.029785,-0.01908,-0.021066,-0.000468,-0.051757,-0.035037,0.0,-0.026898,-0.024169,-0.0269,-0.034073,4111.379883,11519.010742,51295.230469,0.0,-17620.560547,-17623.890625,17881.560547,-17356.320312,4114.529785,11506.950195,51372.542969,0.0,17646.480469,17649.720703,-17381.791016,17903.160156,0.0,0.0,0.0,0.0,0.0,0.0,0.0,0.0,0.0,0.0,0.0,0.0,0.0,0.0,0.0,0.0,0.0,0.0,0.0,0.0,0.0,0.0,0.0,0.0,0.0,0.0,0.0,0.0,0.0,0.0,0.0,0.0,4115.009277,11516.337891,51280.332031,0.0,-17618.310547,-17616.25,17878.25,-17362.851562,4117.026855,11505.426758,51354.558594,0.0,17644.505859,17641.982422,-17390.302734,17899.617188,30.21382,90.372864,22.790834,0.0,3.112381,2.096754,25.992117,31.325426,30.228634,90.280907,22.825848,0.0,-3.18355,-2.190794,31.275604,25.365608,1.019,1.011,-63617.0,-145286.0,-412178.0,0.0,141786.0,141676.0,-145019.0,138607.0,-60642.0,-140418.0,-417313.0,0.0,-143245.0,-143379.0,140109.0,-146099.0,0.0,0.0,0.0,0.0,0.0,0.0,0.0,0.0,0.0,0.0,0.0,0.0,0.0,0.0,0.0,0.0,0.0,0.0,0.0,0.0,0.0,0.0,0.0,0.0
34,2.075998067855835,0.526866,1.577755,0.397896,0.0,0.047044,0.021937,0.467402,0.551907,0.527269,1.575965,0.398532,0.0,-0.049174,-0.023392,0.554612,0.456837,3.0,1.0,111.0,0.0,1.0,-79810.0,-25967.0,14081.0,-79073.0,26335.0,13715.0,-0.951345,-0.189111,0.243269,-0.279608,0.198107,-0.939453,0.129467,-0.961764,-0.241345,-0.940769,0.182979,0.285432,0.320507,0.205384,0.924712,0.11058,0.961424,-0.251866,-0.951345,-0.189111,0.243269,-0.279608,0.198107,-0.939453,0.129467,-0.961764,-0.241345,-0.940769,0.182979,0.285432,0.320507,0.205384,0.924712,0.11058,0.961424,-0.251866,-79810.0,-25967.0,14081.0,-79073.0,26335.0,13715.0,17935.0,17297.0,-157769.0,0.0,-53998.0,-54144.0,-53665.0,-54242.0,-14925.0,-12563.0,153493.0,0.0,52827.0,52728.0,53024.0,52824.0,-20.0,214.0,99.0,0.0,749.0,815.0,522.0,-576.0,-1.0,-191.0,-129.0,0.0,-736.0,-661.0,734.0,-930.0,0.005571,-0.057946,-0.026974,0.0,0.027417,0.02984,-0.019137,-0.0211,-0.000468,-0.051757,-0.035037,0.0,-0.026932,-0.024223,-0.02689,-0.034057,4111.379883,11519.010742,51295.230469,0.0,-17620.560547,-17623.800781,17881.560547,-17356.410156,4114.529785,11506.950195,51372.542969,0.0,17646.480469,17649.630859,-17381.970703,17903.070312,0.0,0.0,0.0,0.0,0.0,0.0,0.0,0.0,0.0,0.0,0.0,0.0,0.0,0.0,-90.92347,-89.174942,0.0,0.0,0.0,0.0,0.0,0.0,0.0,0.0,0.0,0.0,0.0,0.0,0.0,0.0,-0.176481,-0.173088,4115.009277,11516.337891,51280.332031,0.0,-17618.310547,-17616.25,17878.25,-17362.851562,4117.026855,11505.426758,51354.558594,0.0,17644.505859,17641.982422,-17390.302734,17899.617188,30.21382,90.372864,22.790834,0.0,3.112381,2.096754,25.992117,31.325426,30.228634,90.280907,22.825848,0.0,-3.18355,-2.190794,31.275604,25.365608,1.019,1.011,-63617.0,-145286.0,-412178.0,0.0,141786.0,141676.0,-145019.0,138607.0,-60642.0,-140418.0,-417313.0,0.0,-143245.0,-143379.0,140109.0,-146099.0,0.0,0.0,0.0,0.0,0.0,0.0,0.0,0.0,0.0,0.0,0.0,-0.176481,0.0,0.0,0.0,0.0,0.0,0.0,0.0,0.0,0.0,0.0,0.0,-0.176481
35,2.0960211753845215,0.526866,1.577755,0.397896,0.0,0.047044,0.021937,0.467229,0.551734,0.527269,1.575965,0.398532,0.0,-0.049174,-0.023565,0.554349,0.456751,3.0,1.0,111.0,0.0,1.0,-79810.0,-25967.0,14081.0,-79073.0,26337.0,13715.0,-0.951345,-0.189111,0.243269,-0.279608,0.198107,-0.939453,0.129467,-0.961764,-0.241345,-0.940704,0.183065,0.285593,0.320685,0.205364,0.924655,0.110621,0.961412,-0.251893,-0.951345,-0.189111,0.243269,-0.279608,0.198107,-0.939453,0.129467,-0.961764,-0.241345,-0.940704,0.183065,0.285593,0.320685,0.205364,0.924655,0.110621,0.961412,-0.251893,-79810.0,-25967.0,14081.0,-79073.0,26337.0,13715.0,17935.0,17297.0,-157769.0,0.0,-53998.0,-54144.0,-53664.0,-54243.0,-14925.0,-12563.0,153493.0,0.0,52827.0,52727.0,53026.0,52824.0,-20.0,214.0,99.0,0.0,750.0,819.0,522.0,-577.0,-1.0,-191.0,-129.0,0.0,-736.0,-663.0,734.0,-932.0,0.005571,-0.057946,-0.026974,0.0,0.027456,0.029972,-0.019116,-0.021134,-0.000468,-0.051757,-0.035037,0.0,-0.026966,-0.024278,-0.026878,-0.034117,4111.379883,11519.010742,51295.230469,0.0,-17620.560547,-17623.800781,17881.470703,-17356.5,4114.529785,11506.950195,51372.542969,0.0,17646.480469,17649.541016,-17382.150391,17903.070312,0.0,0.0,0.0,0.0,0.0,0.0,0.0,0.0,0.0,0.0,0.0,0.0,0.0,0.0,0.0,0.0,0.0,0.0,0.0,0.0,0.0,0.0,0.0,0.0,0.0,0.0,0.0,0.0,0.0,0.0,0.0,0.0,4115.009277,11516.337891,51280.332031,0.0,-17618.310547,-17616.25,17878.25,-17362.851562,4117.026855,11505.426758,51354.558594,0.0,17644.505859,17641.982422,-17390.302734,17899.617188,30.21382,90.372864,22.790834,0.0,3.112381,2.096754,25.992117,31.325426,30.228634,90.280907,22.825848,0.0,-3.18355,-2.190794,31.275604,25.365608,1.018,1.011,-63617.0,-145286.0,-412178.0,0.0,141786.0,141676.0,-145019.0,138607.0,-60642.0,-140418.0,-417313.0,0.0,-143245.0,-143379.0,140109.0,-146099.0,0.0,0.0,0.0,0.0,0.0,0.0,0.0,0.0,0.0,0.0,0.0,0.0,0.0,0.0,0.0,0.0,0.0,0.0,0.0,0.0,0.0,0.0,0.0,0.0
36,2.118028163909912,0.526866,1.577755,0.397896,0.0,0.047044,0.021937,0.467229,0.551558,0.527269,1.575965,0.398532,0.0,-0.049468,-0.023742,0.554437,0.456486,3.0,1.0,111.0,0.0,1.0,-79810.0,-25967.0,14081.0,-79072.0,26340.0,13714.0,-0.951328,-0.189195,0.243269,-0.279626,0.198082,-0.939453,0.129552,-0.961753,-0.241345,-0.940691,0.182979,0.28569,0.320797,0.205702,0.924541,0.110404,0.961356,-0.252201,-0.951328,-0.189195,0.243269,-0.279626,0.198082,-0.939453,0.129552,-0.961753,-0.241345,-0.940691,0.182979,0.28569,0.320797,0.205702,0.924541,0.110404,0.961356,-0.252201,-79810.0,-25967.0,14081.0,-79072.0,26340.0,13714.0,17935.0,17297.0,-157769.0,0.0,-53998.0,-54144.0,-53664.0,-54244.0,-14925.0,-12563.0,153493.0,0.0,52826.0,52726.0,53026.0,52823.0,-20.0,214.0,99.0,0.0,751.0,823.0,524.0,-578.0,-1.0,-191.0,-129.0,0.0,-734.0,-665.0,738.0,-932.0,0.005571,-0.057946,-0.026974,0.0,0.0275,0.030117,-0.019178,-0.021175,-0.000468,-0.051757,-0.035037,0.0,-0.026861,-0.024343,-0.027034,-0.034104,4111.379883,11519.010742,51295.230469,0.0,-17620.560547,-17623.800781,17881.470703,-17356.591797,4114.529785,11506.950195,51372.542969,0.0,17646.390625,17649.449219,-17382.150391,17902.980469,0.0,0.0,0.0,0.0,0.0,0.0,0.0,0.0,0.0,0.0,0.0,0.0,0.0,0.0,0.0,0.0,0.0,0.0,0.0,0.0,0.0,0.0,0.0,0.0,0.0,0.0,0.0,0.0,0.0,0.0,0.0,0.0,4115.009277,11516.337891,51280.332031,0.0,-17618.310547,-17616.25,17878.25,-17362.851562,4117.026855,11505.426758,51354.558594,0.0,17644.505859,17641.982422,-17390.302734,17899.617188,30.21382,90.372864,22.790834,0.0,3.112381,2.096754,25.992117,31.325426,30.228634,90.280907,22.825848,0.0,-3.18355,-2.190794,31.275604,25.365608,1.018,1.01,-63617.0,-145286.0,-412178.0,0.0,141786.0,141676.0,-145019.0,138607.0,-60642.0,-140418.0,-417313.0,0.0,-143245.0,-143379.0,140109.0,-146099.0,0.0,0.0,0.0,0.0,0.0,0.0,0.0,0.0,0.0,0.0,0.0,0.0,0.0,0.0,0.0,0.0,0.0,0.0,0.0,0.0,0.0,0.0,0.0,0.0
37,2.1379599571228027,0.526866,1.577755,0.397896,0.0,0.047338,0.022114,0.467141,0.551473,0.527269,1.575965,0.398532,0.0,-0.049468,-0.023915,0.554524,0.456399,3.0,1.0,111.0,0.0,1.0,-79811.0,-25965.0,14081.0,-79071.0,26342.0,13714.0,-0.951373,-0.189269,0.243035,-0.27945,0.19835,-0.939449,0.129602,-0.961683,-0.241596,-0.940658,0.1829,0.285851,0.320939,0.205738,0.924484,0.110277,0.961363,-0.252229,-0.951373,-0.189269,0.243035,-0.27945,0.19835,-0.939449,0.129602,-0.961683,-0.241596,-0.940658,0.1829,0.285851,0.320939,0.205738,0.924484,0.110277,0.961363,-0.252229,-79811.0,-25965.0,14081.0,-79071.0,26342.0,13714.0,17935.0,17297.0,-157769.0,0.0,-53997.0,-54143.0,-53664.0,-54245.0,-14925.0,-12563.0,153493.0,0.0,52826.0,52725.0,53026.0,52823.0,-20.0,214.0,99.0,0.0,748.0,824.0,525.0,-579.0,-1.0,-191.0,-129.0,0.0,-734.0,-666.0,742.0,-933.0,0.005571,-0.057946,-0.026974,0.0,0.027395,0.030168,-0.019234,-0.021206,-0.000468,-0.051757,-0.035037,0.0,-0.026894,-0.024394,-0.027176,-0.034163,4111.379883,11519.010742,51295.230469,0.0,-17620.470703,-17623.710938,17881.470703,-17356.679688,4114.529785,11506.950195,51372.542969,0.0,17646.390625,17649.361328,-17382.150391,17902.980469,0.0,0.0,0.0,0.0,0.0,0.0,0.0,0.0,0.0,0.0,0.0,0.0,0.0,0.0,0.0,0.0,0.0,0.0,0.0,0.0,0.0,0.0,0.0,0.0,0.0,0.0,0.0,0.0,0.0,0.0,0.0,0.0,4115.009277,11516.337891,51280.332031,0.0,-17618.310547,-17616.25,17878.25,-17362.851562,4117.026855,11505.426758,51354.558594,0.0,17644.505859,17641.982422,-17390.302734,17899.617188,30.21382,90.372864,22.790834,0.0,3.112381,2.096754,25.992117,31.325426,30.228634,90.280907,22.825848,0.0,-3.18355,-2.190794,31.275604,25.365608,1.018,1.01,-63617.0,-145286.0,-412178.0,0.0,141786.0,141676.0,-145019.0,138607.0,-60642.0,-140418.0,-417313.0,0.0,-143245.0,-143379.0,140109.0,-146099.0,0.0,0.0,0.0,0.0,0.0,0.0,0.0,0.0,0.0,0.0,0.0,0.0,0.0,0.0,0.0,0.0,0.0,0.0,0.0,0.0,0.0,0.0,0.0,0.0
38,2.1589980125427246,0.526866,1.577755,0.397896,0.0,0.047338,0.022114,0.466964,0.551296,0.527269,1.575965,0.398532,0.0,-0.049468,-0.024091,0.554439,0.456138,3.0,1.0,111.0,0.0,1.0,-79811.0,-25965.0,14081.0,-79071.0,26344.0,13713.0,-0.951373,-0.189269,0.243035,-0.27945,0.19835,-0.939449,0.129602,-0.961683,-0.241596,-0.940623,0.182819,0.286015,0.321084,0.205774,0.924425,0.110148,0.961371,-0.252256,-0.951373,-0.189269,0.243035,-0.27945,0.19835,-0.939449,0.129602,-0.961683,-0.241596,-0.940623,0.182819,0.286015,0.321084,0.205774,0.924425,0.110148,0.961371,-0.252256,-79811.0,-25965.0,14081.0,-79071.0,26344.0,13713.0,17935.0,17297.0,-157769.0,0.0,-53997.0,-54143.0,-53663.0,-54246.0,-14925.0,-12563.0,153493.0,0.0,52826.0,52724.0,53027.0,52822.0,-20.0,214.0,99.0,0.0,749.0,828.0,525.0,-580.0,-1.0,-191.0,-129.0,0.0,-735.0,-668.0,744.0,-933.0,0.005571,-0.057946,-0.026974,0.0,0.027434,0.030305,-0.019214,-0.021239,-0.000468,-0.051757,-0.035037,0.0,-0.026929,-0.02445,-0.027247,-0.034145,4111.379883,11519.010742,51295.230469,0.0,-17620.470703,-17623.710938,17881.380859,-17356.771484,4114.529785,11506.950195,51372.542969,0.0,17646.390625,17649.269531,-17382.240234,17902.890625,0.0,0.0,0.0,0.0,0.0,0.0,0.0,0.0,0.0,0.0,0.0,0.0,0.0,0.0,0.0,0.0,0.0,0.0,0.0,0.0,0.0,0.0,0.0,0.0,0.0,0.0,0.0,0.0,0.0,0.0,0.0,0.0,4115.009277,11516.337891,51280.332031,0.0,-17618.310547,-17616.25,17878.25,-17362.851562,4117.026855,11505.426758,51354.558594,0.0,17644.505859,17641.982422,-17390.302734,17899.617188,30.21382,90.372864,22.790834,0.0,3.112381,2.096754,25.992117,31.325426,30.228634,90.280907,22.825848,0.0,-3.18355,-2.190794,31.275604,25.365608,1.018,1.01,-63617.0,-145286.0,-412178.0,0.0,141786.0,141676.0,-145019.0,138607.0,-60642.0,-140418.0,-417313.0,0.0,-143245.0,-143379.0,140109.0,-146099.0,0.0,0.0,0.0,0.0,0.0,0.0,0.0,0.0,0.0,0.0,0.0,0.0,0.0,0.0,0.0,0.0,0.0,0.0,0.0,0.0,0.0,0.0,0.0,0.0
39,2.1799981594085693,0.526866,1.577755,0.397896,0.0,0.047338,0.022287,0.466878,0.55121,0.527269,1.575965,0.398532,0.0,-0.049468,-0.024264,0.554525,0.455875,3.0,1.0,111.0,0.0,1.0,-79811.0,-25963.0,14082.0,-79070.0,26346.0,13712.0,-0.951415,-0.189267,0.242872,-0.279287,0.198343,-0.939499,0.129644,-0.961685,-0.241567,-0.940606,0.182657,0.286176,0.321208,0.205838,0.924368,0.109936,0.961388,-0.252284,-0.951415,-0.189267,0.242872,-0.279287,0.198343,-0.939499,0.129644,-0.961685,-0.241567,-0.940606,0.182657,0.286176,0.321208,0.205838,0.924368,0.109936,0.961388,-0.252284,-79811.0,-25963.0,14082.0,-79070.0,26346.0,13712.0,17935.0,17297.0,-157769.0,0.0,-53997.0,-54142.0,-53663.0,-54247.0,-14925.0,-12563.0,153493.0,0.0,52826.0,52723.0,53027.0,52821.0,-20.0,214.0,99.0,0.0,750.0,829.0,526.0,-581.0,-1.0,-191.0,-129.0,0.0,-736.0,-669.0,748.0,-932.0,0.005571,-0.057946,-0.026974,0.0,0.027474,0.030363,-0.019271,-0.021272,-0.000468,-0.051757,-0.035037,0.0,-0.026963,-0.024505,-0.027395,-0.034126,4111.379883,11519.010742,51295.230469,0.0,-17620.470703,-17623.621094,17881.380859,-17356.859375,4114.529785,11506.950195,51372.542969,0.0,17646.390625,17649.181641,-17382.240234,17902.798828,0.0,0.0,0.0,0.0,0.0,0.0,0.0,0.0,0.0,0.0,0.0,0.0,0.0,0.0,0.0,-90.92347,0.0,0.0,0.0,0.0,0.0,0.0,0.0,0.0,0.0,0.0,0.0,0.0,0.0,0.0,0.0,-0.176481,4115.009277,11516.337891,51280.332031,0.0,-17618.310547,-17616.25,17878.25,-17362.851562,4117.026855,11505.426758,51354.558594,0.0,17644.505859,17641.982422,-17390.302734,17899.617188,30.21382,90.372864,22.790834,0.0,3.112381,2.096754,25.992117,31.325426,30.228634,90.280907,22.825848,0.0,-3.18355,-2.190794,31.275604,25.365608,1.018,1.01,-63617.0,-145286.0,-412178.0,0.0,141786.0,141676.0,-145019.0,138607.0,-60642.0,-140418.0,-417313.0,0.0,-143245.0,-143379.0,140109.0,-146099.0,0.0,0.0,0.0,0.0,0.0,0.0,0.0,0.0,0.0,0.0,0.0,0.0,0.0,0.0,0.0,0.0,0.0,0.0,0.0,0.0,0.0,0.0,0.0,0.0
40,2.199993133544922,0.526866,1.577755,0.397896,0.0,0.047626,0.022287,0.466878,0.551033,0.527269,1.575965,0.398532,0.0,-0.049756,-0.024441,0.554614,0.455787,3.0,1.0,111.0,0.0,1.0,-79811.0,-25963.0,14082.0,-79069.0,26348.0,13712.0,-0.9514,-0.189427,0.242806,-0.279294,0.198587,-0.939445,0.129738,-0.961603,-0.241842,-0.940577,0.182653,0.286275,0.321338,0.206143,0.924255,0.109804,0.961324,-0.252587,-0.9514,-0.189427,0.242806,-0.279294,0.198587,-0.939445,0.129738,-0.961603,-0.241842,-0.940577,0.182653,0.286275,0.321338,0.206143,0.924255,0.109804,0.961324,-0.252587,-79811.0,-25963.0,14082.0,-79069.0,26348.0,13712.0,17935.0,17297.0,-157769.0,0.0,-53996.0,-54142.0,-53663.0,-54248.0,-14925.0,-12563.0,153493.0,0.0,52825.0,52722.0,53027.0,52821.0,-20.0,214.0,99.0,0.0,747.0,833.0,528.0,-582.0,-1.0,-191.0,-129.0,0.0,-733.0,-670.0,752.0,-934.0,0.005571,-0.057946,-0.026974,0.0,0.02737,0.030492,-0.019326,-0.021297,-0.000468,-0.051757,-0.035037,0.0,-0.026855,-0.024551,-0.027535,-0.034181,4111.379883,11519.010742,51295.230469,0.0,-17620.380859,-17623.621094,17881.380859,-17356.951172,4114.529785,11506.950195,51372.542969,0.0,17646.300781,17649.089844,-17382.240234,17902.798828,0.0,0.0,0.0,0.0,0.0,0.0,0.0,0.0,0.0,0.0,0.0,0.0,0.0,0.0,0.0,0.0,0.0,0.0,0.0,0.0,0.0,0.0,0.0,0.0,0.0,0.0,0.0,0.0,0.0,0.0,0.0,0.0,4115.009277,11516.337891,51280.332031,0.0,-17618.310547,-17616.25,17878.25,-17362.851562,4117.026855,11505.426758,51354.558594,0.0,17644.505859,17641.982422,-17390.302734,17899.617188,30.21382,90.372864,22.790834,0.0,3.112381,2.096754,25.992117,31.325426,30.228634,90.280907,22.825848,0.0,-3.18355,-2.190794,31.275604,25.365608,1.017,1.01,-63617.0,-145286.0,-412178.0,0.0,141786.0,141676.0,-145019.0,138607.0,-60642.0,-140418.0,-417313.0,0.0,-143245.0,-143379.0,140109.0,-146099.0,0.0,0.0,0.0,0.0,0.0,0.0,0.0,0.0,0.0,0.0,0.0,0.0,0.0,0.0,0.0,0.0,0.0,0.0,0.0,0.0,0.0,0.0,0.0,0.0
41,2.2199881076812744,0.526866,1.577755,0.397896,0.0,0.047626,0.022463,0.466616,0.551122,0.527269,1.575965,0.398532,0.0,-0.049756,-0.024441,0.554437,0.455614,3.0,1.0,111.0,0.0,1.0,-79812.0,-25961.0,14082.0,-79069.0,26348.0,13712.0,-0.951476,-0.189259,0.24264,-0.279094,0.198629,-0.939496,0.129613,-0.961628,-0.241812,-0.940577,0.182654,0.286275,0.321339,0.206143,0.924255,0.109806,0.961323,-0.252587,-0.951476,-0.189259,0.24264,-0.279094,0.198629,-0.939496,0.129613,-0.961628,-0.241812,-0.940577,0.182654,0.286275,0.321339,0.206143,0.924255,0.109806,0.961323,-0.252587,-79812.0,-25961.0,14082.0,-79069.0,26348.0,13712.0,17935.0,17297.0,-157769.0,0.0,-53996.0,-54141.0,-53662.0,-54248.0,-14925.0,-12563.0,153493.0,0.0,52825.0,52722.0,53028.0,52820.0,-20.0,214.0,99.0,0.0,748.0,834.0,527.0,-584.0,-1.0,-191.0,-129.0,0.0,-734.0,-674.0,754.0,-933.0,0.005571,-0.057946,-0.026974,0.0,0.027406,0.030541,-0.019301,-0.0214,-0.000468,-0.051757,-0.035037,0.0,-0.026886,-0.024675,-0.027596,-0.034159,4111.379883,11519.010742,51295.230469,0.0,-17620.380859,-17623.529297,17881.291016,-17356.951172,4114.529785,11506.950195,51372.542969,0.0,17646.300781,17649.089844,-17382.330078,17902.710938,0.0,0.0,0.0,0.0,0.0,0.0,0.0,0.0,0.0,0.0,0.0,0.0,0.0,0.0,0.0,0.0,0.0,0.0,0.0,0.0,0.0,0.0,0.0,0.0,0.0,0.0,0.0,0.0,0.0,0.0,0.0,0.0,4115.009277,11516.337891,51280.332031,0.0,-17618.310547,-17616.25,17878.25,-17362.851562,4117.026855,11505.426758,51354.558594,0.0,17644.505859,17641.982422,-17390.302734,17899.617188,30.21382,90.372864,22.790834,0.0,3.112381,2.096754,25.992117,31.325426,30.228634,90.280907,22.825848,0.0,-3.18355,-2.190794,31.275604,25.365608,1.017,1.01,-63617.0,-145286.0,-412178.0,0.0,141786.0,141676.0,-145019.0,138607.0,-60642.0,-140418.0,-417313.0,0.0,-143245.0,-143379.0,140109.0,-146099.0,0.0,0.0,0.0,0.0,0.0,0.0,0.0,0.0,0.0,0.0,0.0,0.0,0.0,0.0,0.0,0.0,0.0,0.0,0.0,0.0,0.0,0.0,0.0,0.0
42,2.2419979572296143,0.526866,1.577755,0.397896,0.0,0.047626,0.022463,0.466616,0.550949,0.527269,1.575965,0.398532,0.0,-0.049756,-0.024614,0.554524,0.455527,3.0,1.0,111.0,0.0,1.0,-79812.0,-25961.0,14082.0,-79069.0,26350.0,13711.0,-0.95146,-0.189341,0.24264,-0.279111,0.198605,-0.939496,0.129696,-0.961616,-0.241812,-0.940543,0.182575,0.286436,0.32148,0.206178,0.924197,0.109679,0.961331,-0.252614,-0.95146,-0.189341,0.24264,-0.279111,0.198605,-0.939496,0.129696,-0.961616,-0.241812,-0.940543,0.182575,0.286436,0.32148,0.206178,0.924197,0.109679,0.961331,-0.252614,-79812.0,-25961.0,14082.0,-79069.0,26350.0,13711.0,17935.0,17297.0,-157769.0,0.0,-53996.0,-54141.0,-53662.0,-54249.0,-14925.0,-12563.0,153493.0,0.0,52825.0,52721.0,53028.0,52820.0,-20.0,214.0,99.0,0.0,750.0,838.0,529.0,-585.0,-1.0,-191.0,-129.0,0.0,-735.0,-675.0,758.0,-935.0,0.005571,-0.057946,-0.026974,0.0,0.027446,0.03068,-0.019359,-0.021435,-0.000468,-0.051757,-0.035037,0.0,-0.026921,-0.024732,-0.027749,-0.034218,4111.379883,11519.010742,51295.230469,0.0,-17620.380859,-17623.529297,17881.291016,-17357.041016,4114.529785,11506.950195,51372.542969,0.0,17646.300781,17649.0,-17382.330078,17902.710938,0.0,0.0,0.0,0.0,0.0,0.0,0.0,0.0,0.0,0.0,0.0,0.0,0.0,0.0,0.0,0.0,0.0,0.0,0.0,0.0,0.0,0.0,0.0,0.0,0.0,0.0,0.0,0.0,0.0,0.0,0.0,0.0,4115.009277,11516.337891,51280.332031,0.0,-17618.310547,-17616.25,17878.25,-17362.851562,4117.026855,11505.426758,51354.558594,0.0,17644.505859,17641.982422,-17390.302734,17899.617188,30.21382,90.372864,22.790834,0.0,3.112381,2.096754,25.992117,31.325426,30.228634,90.280907,22.825848,0.0,-3.18355,-2.190794,31.275604,25.365608,1.017,1.01,-63617.0,-145286.0,-412178.0,0.0,141786.0,141676.0,-145019.0,138607.0,-60642.0,-140418.0,-417313.0,0.0,-143245.0,-143379.0,140109.0,-146099.0,0.0,0.0,0.0,0.0,0.0,0.0,0.0,0.0,0.0,0.0,0.0,0.0,0.0,0.0,0.0,0.0,0.0,0.0,0.0,0.0,0.0,0.0,0.0,0.0
43,2.261960983276367,0.526866,1.577755,0.397896,0.0,0.047626,0.022636,0.46653,0.551035,0.527269,1.575965,0.398532,0.0,-0.050051,-0.02479,0.554612,0.455266,3.0,1.0,111.0,0.0,1.0,-79812.0,-25959.0,14083.0,-79068.0,26352.0,13710.0,-0.951518,-0.189257,0.242477,-0.278932,0.198622,-0.939546,0.129654,-0.961629,-0.241783,-0.94053,0.182491,0.286533,0.321592,0.206516,0.924083,0.109463,0.961274,-0.252922,-0.951518,-0.189257,0.242477,-0.278932,0.198622,-0.939546,0.129654,-0.961629,-0.241783,-0.94053,0.182491,0.286533,0.321592,0.206516,0.924083,0.109463,0.961274,-0.252922,-79812.0,-25959.0,14083.0,-79068.0,26352.0,13710.0,17935.0,17297.0,-157769.0,0.0,-53996.0,-54140.0,-53662.0,-54249.0,-14925.0,-12563.0,153493.0,0.0,52824.0,52720.0,53028.0,52819.0,-20.0,214.0,99.0,0.0,751.0,839.0,530.0,-588.0,-1.0,-191.0,-129.0,0.0,-732.0,-677.0,762.0,-934.0,0.005571,-0.057946,-0.026974,0.0,0.027482,0.030729,-0.019412,-0.021536,-0.000468,-0.051757,-0.035037,0.0,-0.026809,-0.024775,-0.027888,-0.034193,4111.379883,11519.010742,51295.230469,0.0,-17620.380859,-17623.441406,17881.291016,-17357.041016,4114.529785,11506.950195,51372.542969,0.0,17646.210938,17648.910156,-17382.330078,17902.621094,0.0,0.0,0.0,0.0,0.0,0.0,0.0,0.0,0.0,0.0,0.0,0.0,0.0,0.0,0.0,0.0,0.0,0.0,0.0,0.0,0.0,0.0,0.0,0.0,0.0,0.0,0.0,0.0,0.0,0.0,0.0,0.0,4115.009277,11516.337891,51280.332031,0.0,-17618.310547,-17616.25,17878.25,-17362.851562,4117.026855,11505.426758,51354.558594,0.0,17644.505859,17641.982422,-17390.302734,17899.617188,30.21382,90.372864,22.790834,0.0,3.112381,2.096754,25.992117,31.325426,30.228634,90.280907,22.825848,0.0,-3.18355,-2.190794,31.275604,25.365608,1.017,1.009,-63617.0,-145286.0,-412178.0,0.0,141786.0,141676.0,-145019.0,138607.0,-60642.0,-140418.0,-417313.0,0.0,-143245.0,-143379.0,140109.0,-146099.0,0.0,0.0,0.0,0.0,0.0,0.0,0.0,0.0,0.0,0.0,0.0,0.0,0.0,0.0,0.0,0.0,0.0,0.0,0.0,0.0,0.0,0.0,0.0,0.0
44,2.2830231189727783,0.526866,1.577755,0.397896,0.0,0.047626,0.022636,0.466353,0.550859,0.527269,1.575965,0.398532,0.0,-0.050051,-0.02479,0.554612,0.455089,3.0,1.0,111.0,0.0,1.0,-79812.0,-25959.0,14083.0,-79068.0,26352.0,13710.0,-0.951518,-0.189257,0.242477,-0.278932,0.198622,-0.939546,0.129654,-0.961629,-0.241783,-0.940546,0.182408,0.286533,0.321574,0.206545,0.924083,0.109378,0.961284,-0.252922,-0.951518,-0.189257,0.242477,-0.278932,0.198622,-0.939546,0.129654,-0.961629,-0.241783,-0.940546,0.182408,0.286533,0.321574,0.206545,0.924083,0.109378,0.961284,-0.252922,-79812.0,-25959.0,14083.0,-79068.0,26352.0,13710.0,17935.0,17297.0,-157769.0,0.0,-53996.0,-54140.0,-53661.0,-54250.0,-14925.0,-12563.0,153493.0,0.0,52824.0,52720.0,53028.0,52818.0,-20.0,214.0,99.0,0.0,752.0,843.0,529.0,-589.0,-1.0,-191.0,-129.0,0.0,-733.0,-680.0,766.0,-933.0,0.005571,-0.057946,-0.026974,0.0,0.02752,0.030861,-0.019388,-0.021562,-0.000468,-0.051757,-0.035037,0.0,-0.02684,-0.024902,-0.028035,-0.034168,4111.379883,11519.010742,51295.230469,0.0,-17620.380859,-17623.441406,17881.199219,-17357.130859,4114.529785,11506.950195,51372.542969,0.0,17646.210938,17648.910156,-17382.330078,17902.53125,0.0,0.0,0.0,0.0,0.0,0.0,0.0,0.0,0.0,0.0,0.0,0.0,0.0,0.0,0.0,0.0,0.0,0.0,0.0,0.0,0.0,0.0,0.0,0.0,0.0,0.0,0.0,0.0,0.0,0.0,0.0,0.0,4115.009277,11516.337891,51280.332031,0.0,-17618.310547,-17616.25,17878.25,-17362.851562,4117.026855,11505.426758,51354.558594,0.0,17644.505859,17641.982422,-17390.302734,17899.617188,30.21382,90.372864,22.790834,0.0,3.112381,2.096754,25.992117,31.325426,30.228634,90.280907,22.825848,0.0,-3.18355,-2.190794,31.275604,25.365608,1.017,1.009,-63617.0,-145286.0,-412178.0,0.0,141786.0,141676.0,-145019.0,138607.0,-60642.0,-140418.0,-417313.0,0.0,-143245.0,-143379.0,140109.0,-146099.0,0.0,0.0,0.0,0.0,0.0,0.0,0.0,0.0,0.0,0.0,0.0,0.0,0.0,0.0,0.0,0.0,0.0,0.0,0.0,0.0,0.0,0.0,0.0,0.0
45,2.3040261268615723,0.526866,1.577755,0.397896,0.0,0.04792,0.022813,0.466265,0.550774,0.527269,1.575965,0.398532,0.0,-0.050051,-0.024963,0.554525,0.455003,3.0,1.0,111.0,0.0,1.0,-79813.0,-25957.0,14084.0,-79067.0,26354.0,13710.0,-0.951563,-0.189331,0.242243,-0.278755,0.19889,-0.939542,0.129705,-0.961559,-0.242033,-0.940496,0.18241,0.286694,0.321734,0.206553,0.924026,0.109334,0.961282,-0.25295,-0.951563,-0.189331,0.242243,-0.278755,0.19889,-0.939542,0.129705,-0.961559,-0.242033,-0.940496,0.18241,0.286694,0.321734,0.206553,0.924026,0.109334,0.961282,-0.25295,-79813.0,-25957.0,14084.0,-79067.0,26354.0,13710.0,17935.0,17297.0,-157769.0,0.0,-53995.0,-54139.0,-53661.0,-54251.0,-14925.0,-12563.0,153493.0,0.0,52824.0,52719.0,53029.0,52818.0,-20.0,214.0,99.0,0.0,749.0,844.0,531.0,-589.0,-1.0,-191.0,-129.0,0.0,-734.0,-681.0,767.0,-935.0,0.005571,-0.057946,-0.026974,0.0,0.027414,0.030912,-0.019442,-0.021589,-0.000468,-0.051757,-0.035037,0.0,-0.026871,-0.024949,-0.028102,-0.034222,4111.379883,11519.010742,51295.230469,0.0,-17620.289062,-17623.349609,17881.199219,-17357.220703,4114.529785,11506.950195,51372.542969,0.0,17646.210938,17648.820312,-17382.419922,17902.53125,0.0,0.0,0.0,0.0,0.0,0.0,0.0,0.0,0.0,0.0,0.0,0.0,0.0,0.0,0.0,0.0,0.0,0.0,0.0,0.0,0.0,0.0,0.0,0.0,0.0,0.0,0.0,0.0,0.0,0.0,0.0,0.0,4115.009277,11516.337891,51280.332031,0.0,-17618.310547,-17616.25,17878.25,-17362.851562,4117.026855,11505.426758,51354.558594,0.0,17644.505859,17641.982422,-17390.302734,17899.617188,30.21382,90.372864,22.790834,0.0,3.112381,2.096754,25.992117,31.325426,30.228634,90.280907,22.825848,0.0,-3.18355,-2.190794,31.275604,25.365608,1.017,1.009,-63617.0,-145286.0,-412178.0,0.0,141786.0,141676.0,-145019.0,138607.0,-60642.0,-140418.0,-417313.0,0.0,-143245.0,-143379.0,140109.0,-146099.0,0.0,0.0,0.0,0.0,0.0,0.0,0.0,0.0,0.0,0.0,0.0,0.0,0.0,0.0,0.0,0.0,0.0,0.0,0.0,0.0,0.0,0.0,0.0,0.0
46,2.3240129947662354,0.526866,1.577755,0.397896,0.0,0.04792,0.022986,0.466005,0.55086,0.527269,1.575965,0.398532,0.0,-0.050051,-0.02514,0.554614,0.454741,3.0,1.0,111.0,0.0,1.0,-79813.0,-25954.0,14084.0,-79067.0,26356.0,13709.0,-0.951638,-0.189165,0.24208,-0.278558,0.198931,-0.939591,0.12958,-0.961584,-0.242004,-0.940478,0.182248,0.286858,0.321861,0.206617,0.923967,0.109122,0.961299,-0.252977,-0.951638,-0.189165,0.24208,-0.278558,0.198931,-0.939591,0.12958,-0.961584,-0.242004,-0.940478,0.182248,0.286858,0.321861,0.206617,0.923967,0.109122,0.961299,-0.252977,-79813.0,-25954.0,14084.0,-79067.0,26356.0,13709.0,17935.0,17297.0,-157769.0,0.0,-53995.0,-54138.0,-53660.0,-54251.0,-14925.0,-12563.0,153493.0,0.0,52824.0,52718.0,53029.0,52817.0,-20.0,214.0,99.0,0.0,750.0,845.0,530.0,-592.0,-1.0,-191.0,-129.0,0.0,-735.0,-682.0,771.0,-934.0,0.005571,-0.057946,-0.026974,0.0,0.027449,0.030957,-0.019415,-0.021687,-0.000468,-0.051757,-0.035037,0.0,-0.026901,-0.024989,-0.02824,-0.034194,4111.379883,11519.010742,51295.230469,0.0,-17620.289062,-17623.259766,17881.111328,-17357.220703,4114.529785,11506.950195,51372.542969,0.0,17646.210938,17648.730469,-17382.419922,17902.441406,0.0,0.0,0.0,0.0,0.0,0.0,-89.174942,0.0,0.0,0.0,0.0,0.0,0.0,0.0,0.0,0.0,0.0,0.0,0.0,0.0,0.0,0.0,-0.173088,0.0,0.0,0.0,0.0,0.0,0.0,0.0,0.0,0.0,4115.009277,11516.337891,51280.332031,0.0,-17618.310547,-17616.25,17878.25,-17362.851562,4117.026855,11505.426758,51354.558594,0.0,17644.505859,17641.982422,-17390.302734,17899.617188,30.21382,90.372864,22.790834,0.0,3.112381,2.096754,25.992117,31.325426,30.228634,90.280907,22.825848,0.0,-3.18355,-2.190794,31.275604,25.365608,1.016,1.009,-63617.0,-145286.0,-412178.0,0.0,141786.0,141676.0,-145019.0,138607.0,-60642.0,-140418.0,-417313.0,0.0,-143245.0,-143379.0,140109.0,-146099.0,0.0,0.0,0.0,0.0,0.0,-0.173088,0.0,0.0,0.0,0.0,0.0,0.0,0.0,0.0,0.0,0.0,0.0,-0.173088,0.0,0.0,0.0,0.0,0.0,0.0
47,2.3439879417419434,0.526866,1.577755,0.397896,0.0,0.04792,0.023163,0.465917,0.550772,0.527269,1.575965,0.398532,0.0,-0.050339,-0.02514,0.554614,0.454565,3.0,1.0,111.0,0.0,1.0,-79814.0,-25952.0,14085.0,-79067.0,26356.0,13709.0,-0.95168,-0.189163,0.241913,-0.278393,0.198924,-0.939642,0.129623,-0.961585,-0.241974,-0.940499,0.182241,0.286792,0.321828,0.206914,0.923912,0.109034,0.961236,-0.253253,-0.95168,-0.189163,0.241913,-0.278393,0.198924,-0.939642,0.129623,-0.961585,-0.241974,-0.940499,0.182241,0.286792,0.321828,0.206914,0.923912,0.109034,0.961236,-0.253253,-79814.0,-25952.0,14085.0,-79067.0,26356.0,13709.0,17935.0,17297.0,-157769.0,0.0,-53995.0,-54137.0,-53660.0,-54252.0,-14925.0,-12563.0,153493.0,0.0,52823.0,52718.0,53029.0,52816.0,-20.0,214.0,99.0,0.0,751.0,847.0,531.0,-593.0,-1.0,-191.0,-129.0,0.0,-732.0,-686.0,775.0,-933.0,0.005571,-0.057946,-0.026974,0.0,0.027483,0.031,-0.019465,-0.021705,-0.000468,-0.051757,-0.035037,0.0,-0.026789,-0.025107,-0.028377,-0.034163,4111.379883,11519.010742,51295.230469,0.0,-17620.289062,-17623.169922,17881.111328,-17357.310547,4114.529785,11506.950195,51372.542969,0.0,17646.121094,17648.730469,-17382.419922,17902.349609,0.0,0.0,0.0,0.0,0.0,0.0,0.0,0.0,0.0,0.0,0.0,0.0,0.0,0.0,0.0,0.0,0.0,0.0,0.0,0.0,0.0,0.0,0.0,0.0,0.0,0.0,0.0,0.0,0.0,0.0,0.0,0.0,4115.009277,11516.337891,51280.332031,0.0,-17618.310547,-17616.25,17878.25,-17362.851562,4117.026855,11505.426758,51354.558594,0.0,17644.505859,17641.982422,-17390.302734,17899.617188,30.21382,90.372864,22.790834,0.0,3.112381,2.096754,25.992117,31.325426,30.228634,90.280907,22.825848,0.0,-3.18355,-2.190794,31.275604,25.365608,1.016,1.009,-63617.0,-145286.0,-412178.0,0.0,141786.0,141676.0,-145019.0,138607.0,-60642.0,-140418.0,-417313.0,0.0,-143245.0,-143379.0,140109.0,-146099.0,0.0,0.0,0.0,0.0,0.0,0.0,0.0,0.0,0.0,0.0,0.0,0.0,0.0,0.0,0.0,0.0,0.0,0.0,0.0,0.0,0.0,0.0,0.0,0.0
48,2.365995168685913,0.526866,1.577755,0.397896,0.0,0.04792,0.023163,0.465917,0.550599,0.527269,1.575965,0.398532,0.0,-0.050339,-0.025313,0.554524,0.454305,3.0,1.0,111.0,0.0,1.0,-79814.0,-25952.0,14085.0,-79066.0,26358.0,13709.0,-0.951664,-0.189245,0.241913,-0.27841,0.1989,-0.939642,0.129706,-0.961574,-0.241974,-0.940465,0.182164,0.286953,0.32197,0.206949,0.923855,0.108908,0.961243,-0.25328,-0.951664,-0.189245,0.241913,-0.27841,0.1989,-0.939642,0.129706,-0.961574,-0.241974,-0.940465,0.182164,0.286953,0.32197,0.206949,0.923855,0.108908,0.961243,-0.25328,-79814.0,-25952.0,14085.0,-79066.0,26358.0,13709.0,17935.0,17297.0,-157769.0,0.0,-53995.0,-54137.0,-53660.0,-54253.0,-14925.0,-12563.0,153493.0,0.0,52823.0,52717.0,53030.0,52815.0,-20.0,214.0,99.0,0.0,752.0,850.0,533.0,-593.0,-1.0,-191.0,-129.0,0.0,-732.0,-687.0,777.0,-932.0,0.005571,-0.057946,-0.026974,0.0,0.027521,0.031132,-0.01952,-0.021733,-0.000468,-0.051757,-0.035037,0.0,-0.02682,-0.025157,-0.028448,-0.034137,4111.379883,11519.010742,51295.230469,0.0,-17620.289062,-17623.169922,17881.111328,-17357.400391,4114.529785,11506.950195,51372.542969,0.0,17646.121094,17648.640625,-17382.511719,17902.261719,0.0,0.0,0.0,0.0,0.0,0.0,0.0,0.0,0.0,0.0,0.0,0.0,0.0,0.0,0.0,0.0,0.0,0.0,0.0,0.0,0.0,0.0,0.0,0.0,0.0,0.0,0.0,0.0,0.0,0.0,0.0,0.0,4115.009277,11516.337891,51280.332031,0.0,-17618.310547,-17616.25,17878.25,-17362.851562,4117.026855,11505.426758,51354.558594,0.0,17644.505859,17641.982422,-17390.302734,17899.617188,30.21382,90.372864,22.790834,0.0,3.112381,2.096754,25.992117,31.325426,30.228634,90.280907,22.825848,0.0,-3.18355,-2.190794,31.275604,25.365608,1.016,1.008,-63617.0,-145286.0,-412178.0,0.0,141786.0,141676.0,-145019.0,138607.0,-60642.0,-140418.0,-417313.0,0.0,-143245.0,-143379.0,140109.0,-146099.0,0.0,0.0,0.0,0.0,0.0,0.0,0.0,0.0,0.0,0.0,0.0,0.0,0.0,0.0,0.0,0.0,0.0,0.0,0.0,0.0,0.0,0.0,0.0,0.0
49,2.38700008392334,0.526866,1.577755,0.397896,0.0,0.048209,0.023336,0.465831,0.550509,0.527269,1.575965,0.398532,0.0,-0.050339,-0.025489,0.554612,0.454041,3.0,1.0,111.0,0.0,1.0,-79814.0,-25950.0,14085.0,-79065.0,26360.0,13708.0,-0.951707,-0.189321,0.241684,-0.278238,0.199162,-0.939637,0.129759,-0.961505,-0.24222,-0.940447,0.182,0.287117,0.322096,0.207014,0.923796,0.108694,0.96126,-0.253307,-0.951707,-0.189321,0.241684,-0.278238,0.199162,-0.939637,0.129759,-0.961505,-0.24222,-0.940447,0.182,0.287117,0.322096,0.207014,0.923796,0.108694,0.96126,-0.253307,-79814.0,-25950.0,14085.0,-79065.0,26360.0,13708.0,17935.0,17297.0,-157769.0,0.0,-53994.0,-54136.0,-53660.0,-54254.0,-14925.0,-12563.0,153493.0,0.0,52823.0,52716.0,53030.0,52814.0,-20.0,214.0,99.0,0.0,749.0,852.0,534.0,-594.0,-1.0,-191.0,-129.0,0.0,-733.0,-688.0,781.0,-932.0,0.005571,-0.057946,-0.026974,0.0,0.027416,0.03118,-0.019572,-0.021753,-0.000468,-0.051757,-0.035037,0.0,-0.02685,-0.0252,-0.028591,-0.034105,4111.379883,11519.010742,51295.230469,0.0,-17620.201172,-17623.080078,17881.111328,-17357.492188,4114.529785,11506.950195,51372.542969,0.0,17646.121094,17648.548828,-17382.511719,17902.169922,0.0,0.0,0.0,0.0,0.0,0.0,0.0,0.0,0.0,0.0,0.0,0.0,0.0,-90.92347,0.0,0.0,0.0,0.0,0.0,0.0,0.0,0.0,0.0,0.0,0.0,0.0,0.0,0.0,0.0,-0.176481,0.088241,-0.088241,4115.009277,11516.337891,51280.332031,0.0,-17618.310547,-17616.25,17878.25,-17362.851562,4117.026855,11505.426758,51354.558594,0.0,17644.505859,17641.982422,-17390.302734,17899.617188,30.21382,90.372864,22.790834,0.0,3.112381,2.096754,25.992117,31.325426,30.228634,90.280907,22.825848,0.0,-3.18355,-2.190794,31.275604,25.365608,1.016,1.008,-63617.0,-145286.0,-412178.0,0.0,141786.0,141676.0,-145019.0,138607.0,-60642.0,-140418.0,-417313.0,0.0,-143245.0,-143379.0,140109.0,-146099.0,0.0,0.0,0.0,0.0,0.0,0.0,0.0,-0.176481,0.0,-0.092937,-0.150028,0.088241,0.0,0.0,0.0,0.0,0.0,0.0,0.0,-0.176481,0.0,-0.092937,-0.150028,0.088241
50,2.4069950580596924,0.526866,1.577755,0.397896,0.0,0.048209,0.023512,0.465566,0.550597,0.527269,1.575965,0.398532,0.0,-0.050339,-0.025489,0.554439,0.453691,3.0,1.0,111.0,0.0,1.0,-79815.0,-25948.0,14086.0,-79065.0,26360.0,13708.0,-0.951783,-0.189151,0.241517,-0.278037,0.199204,-0.939688,0.129632,-0.96153,-0.24219,-0.940463,0.181917,0.287117,0.322078,0.207043,0.923796,0.108609,0.96127,-0.253307,-0.951783,-0.189151,0.241517,-0.278037,0.199204,-0.939688,0.129632,-0.96153,-0.24219,-0.940463,0.181917,0.287117,0.322078,0.207043,0.923796,0.108609,0.96127,-0.253307,-79815.0,-25948.0,14086.0,-79065.0,26360.0,13708.0,17935.0,17297.0,-157769.0,0.0,-53994.0,-54135.0,-53659.0,-54254.0,-14925.0,-12563.0,153493.0,0.0,52823.0,52716.0,53031.0,52812.0,-20.0,214.0,99.0,0.0,750.0,853.0,534.0,-597.0,-1.0,-191.0,-129.0,0.0,-734.0,-691.0,782.0,-928.0,0.005571,-0.057946,-0.026974,0.0,0.027449,0.03122,-0.019543,-0.021847,-0.000468,-0.051757,-0.035037,0.0,-0.026878,-0.025314,-0.028648,-0.033991,4111.379883,11519.010742,51295.230469,0.0,-17620.201172,-17622.990234,17881.019531,-17357.492188,4114.529785,11506.950195,51372.542969,0.0,17646.121094,17648.548828,-17382.599609,17901.990234,0.0,0.0,0.0,0.0,0.0,0.0,0.0,0.0,0.0,0.0,0.0,0.0,0.0,0.0,0.0,0.0,0.0,0.0,0.0,0.0,0.0,0.0,0.0,0.0,0.0,0.0,0.0,0.0,0.0,0.0,0.0,0.0,4115.009277,11516.337891,51280.332031,0.0,-17618.310547,-17616.25,17878.25,-17362.851562,4117.026855,11505.426758,51354.558594,0.0,17644.505859,17641.982422,-17390.302734,17899.617188,30.21382,90.372864,22.790834,0.0,3.112381,2.096754,25.992117,31.325426,30.228634,90.280907,22.825848,0.0,-3.18355,-2.190794,31.275604,25.365608,1.016,1.008,-63617.0,-145286.0,-412178.0,0.0,141786.0,141676.0,-145019.0,138607.0,-60642.0,-140418.0,-417313.0,0.0,-143245.0,-143379.0,140109.0,-146099.0,0.0,0.0,0.0,0.0,0.0,0.0,0.0,0.0,0.0,0.0,0.0,0.0,0.0,0.0,0.0,0.0,0.0,0.0,0.0,0.0,0.0,0.0,0.0,0.0
