MHC-RobotSimulators-Research/Data_Analysis_MotionReplication/mai_plotter/raven_data/the_good_stuff/0arm_a2.csv
,time,jpos0,jpos1,jpos2,jpos3,jpos4,jpos5,jpos6,jpos7,jpos8,jpos9,jpos10,jpos11,jpos12,jpos13,jpos14,jpos15,runlevel,sublevel,last_seq,type0,type1,pos0,pos1,pos2,pos3,pos4,pos5,ori0,ori1,ori2,ori3,ori4,ori5,ori6,ori7,ori8,ori9,ori10,ori11,ori12,ori13,ori14,ori15,ori16,ori17,ori_d0,ori_d1,ori_d2,ori_d3,ori_d4,ori_d5,ori_d6,ori_d7,ori_d8,ori_d9,ori_d10,ori_d11,ori_d12,ori_d13,ori_d14,ori_d15,ori_d16,ori_d17,pos_d0,pos_d1,pos_d2,pos_d3,pos_d4,pos_d5,encVals0,encVals1,encVals2,encVals3,encVals4,encVals5,encVals6,encVals7,encVals8,encVals9,encVals10,encVals11,encVals12,encVals13,encVals14,encVals15,dac_vals0,dac_vals1,dac_vals2,dac_vals3,dac_vals4,dac_vals5,dac_vals6,dac_vals7,dac_vals8,dac_vals9,dac_vals10,dac_vals11,dac_vals12,dac_vals13,dac_vals14,dac_vals15,Tau0,Tau1,Tau2,Tau3,Tau4,Tau5,Tau6,Tau7,Tau8,Tau9,Tau10,Tau11,Tau12,Tau13,Tau14,Tau15,mpos0,mpos1,mpos2,mpos3,mpos4,mpos5,mpos6,mpos7,mpos8,mpos9,mpos10,mpos11,mpos12,mpos13,mpos14,mpos15,mvel0,mvel1,mvel2,mvel3,mvel4,mvel5,mvel6,mvel7,mvel8,mvel9,mvel10,mvel11,mvel12,mvel13,mvel14,mvel15,jvel0,jvel1,jvel2,jvel3,jvel4,jvel5,jvel6,jvel7,jvel8,jvel9,jvel10,jvel11,jvel12,jvel13,jvel14,jvel15,mpos_d0,mpos_d1,mpos_d2,mpos_d3,mpos_d4,mpos_d5,mpos_d6,mpos_d7,mpos_d8,mpos_d9,mpos_d10,mpos_d11,mpos_d12,mpos_d13,mpos_d14,mpos_d15,jpos_d0,jpos_d1,jpos_d2,jpos_d3,jpos_d4,jpos_d5,jpos_d6,jpos_d7,jpos_d8,jpos_d9,jpos_d10,jpos_d11,jpos_d12,jpos_d13,jpos_d14,jpos_d15,grasp_d0,grasp_d1,encoffsets0,encoffsets1,encoffsets2,encoffsets3,encoffsets4,encoffsets5,encoffsets6,encoffsets7,encoffsets8,encoffsets9,encoffsets10,encoffsets11,encoffsets12,encoffsets13,encoffsets14,encoffsets15,jac_vel0,jac_vel1,jac_vel2,jac_vel3,jac_vel4,jac_vel5,jac_vel6,jac_vel7,jac_vel8,jac_vel9,jac_vel10,jac_vel11,jac_f0,jac_f1,jac_f2,jac_f3,jac_f4,jac_f5,jac_f6,jac_f7,jac_f8,jac_f9,jac_f10,jac_f11
0,0.0,0.6108641624450684,1.5707969665527344,0.38999909818172457,0.0,-3.141592675445488,1.1232780258038319e-15,0.7852993607521057,0.7852993607521057,0.6108167171478271,1.5708081722259521,0.3899600049853325,0.0,-3.141738408801964,-0.0004195828805677593,0.7852993607521057,0.7852993607521057,,,,,,,,,,,,,,,,,,,,,,,,,,,,,,,,,,,,,,,,,,,,,,,,,,,,,,,,,,,,,,,,,,,,,,,,,,,,,,,,,,,,,,,,,,,,,,,,,,,,,,,,,,,,,,,,,,,,,,,,,,,,,,,,,,,,,,0.0,0.0,0.0,0.0,0.0,0.0,0.0,0.0,0.0,0.0,0.0,0.0,0.0,1.3877787807814457e-14,-1.1102230246251565e-13,0.0,,,,,,,,,,,,,,,,,,,,,,,,,,,,,,,,,,,,,,,,,,,,,,,,,,,,,,,,,,,,,,,,,,,,,,,,,,
1,1.115234136581421,0.6108040809631348,1.5708341598510742,0.3899488887190819,0.0,-3.141570204494408,2.209870672231773e-06,0.5334435701370239,0.5330225229263306,0.6077053546905518,1.5715664625167847,0.3873878633975983,0.0,-3.1426153719405443,-0.0028337312396615744,0.5290486812591553,0.5287042260169983,,,,,,,,,,,,,,,,,,,,,,,,,,,,,,,,,,,,,,,,,,,,,,,,,,,,,,,,,,,,,,,,,,,,,,,,,,,,,,,,,,,,,,,,,,,,,,,,,,,,,,,,,,,,,,,,,,,,,,,,,,,,,,,,,,,,,,2.2275198716670275e-06,-2.1128311345819384e-05,3.280805913163931e-06,0.0,0.014742301777005196,0.0014294132124632597,-0.33795031905174255,-0.3954567015171051,-2.8424965421436355e-05,3.630900027928874e-05,-4.54779619758483e-05,0.0,0.01086623314768076,0.044016193598508835,0.341855525970459,0.3899903893470764,,,,,,,,,,,,,,,,,,,,,,,,,,,,,,,,,,,,,,,,,,,,,,,,,,,,,,,,,,,,,,,,,,,,,,,,,,
2,1.1369450092315674,0.6108040809631348,1.5708342790603638,0.3899488589167595,0.0,-3.141591364143303,-3.9656850958635914e-07,0.5244413018226624,0.5241551399230957,0.6077053546905518,1.5715664625167847,0.3873878633975983,0.0,-3.1426153719405443,-0.0028337312396615744,0.5290486812591553,0.5287042260169983,,,,,,,,,,,,,,,,,,,,,,,,,,,,,,,,,,,,,,,,,,,,,,,,,,,,,,,,,,,,,,,,,,,,,,,,,,,,,,,,,,,,,,,,,,,,,,,,,,,,,,,,,,,,,,,,,,,,,,,,,,,,,,,,,,,,,,-1.271061819352326e-06,5.76552702113986e-06,-3.1815495731279952e-06,0.0,0.004003497306257486,0.00033942970912903547,-0.16831406950950623,-0.1468627154827118,-2.8424965421436355e-05,3.630900027928874e-05,-4.54779619758483e-05,0.0,0.01086623314768076,0.044016193598508835,0.341855525970459,0.3899903893470764,,,,,,,,,,,,,,,,,,,,,,,,,,,,,,,,,,,,,,,,,,,,,,,,,,,,,,,,,,,,,,,,,,,,,,,,,,
3,1.158304214477539,0.6108040809631348,1.5708342790603638,0.3899488589167595,0.0,-3.141591364143303,-3.9656850958635914e-07,0.5244413018226624,0.5241551399230957,0.6077043414115906,1.5715667009353638,0.38738630622625353,0.0,-3.142364913223198,-0.0021864399313926697,0.5224737524986267,0.5223440527915955,,,,,,,,,,,,,,,,,,,,,,,,,,,,,,,,,,,,,,,,,,,,,,,,,,,,,,,,,,,,,,,,,,,,,,,,,,,,,,,,,,,,,,,,,,,,,,,,,,,,,,,,,,,,,,,,,,,,,,,,,,,,,,,,,,,,,,-1.271061819352326e-06,5.76552702113986e-06,-3.1815495731279952e-06,0.0,0.004003497306257486,0.00033942970912903547,-0.16831406950950623,-0.1468627154827118,-2.6221785446978174e-05,6.582656624232186e-06,-3.9489183109253645e-05,0.0,0.004176671151071787,0.01103320624679327,0.11326036602258682,0.11192154139280319,,,,,,,,,,,,,,,,,,,,,,,,,,,,,,,,,,,,,,,,,,,,,,,,,,,,,,,,,,,,,,,,,,,,,,,,,,
4,1.1794636249542236,0.6108040809631348,1.5708342790603638,0.3899488440155983,0.0,-3.1415923178176195,-1.036261654263626e-08,0.5203556418418884,0.5202187895774841,0.6077043414115906,1.5715667009353638,0.38738630622625353,0.0,-3.142364913223198,-0.0021864399313926697,0.5224737524986267,0.5223440527915955,,,,,,,,,,,,,,,,,,,,,,,,,,,,,,,,,,,,,,,,,,,,,,,,,,,,,,,,,,,,,,,,,,,,,,,,,,,,,,,,,,,,,,,,,,,,,,,,,,,,,,,,,,,,,,,,,,,,,,,,,,,,,,,,,,,,,,-4.779961955136969e-07,2.962816552098957e-07,-3.860678248202021e-07,0.0,7.250237104017287e-07,-1.5932015458020032e-06,-0.10240454226732254,-0.10170347988605499,-2.6221785446978174e-05,6.582656624232186e-06,-3.9489183109253645e-05,0.0,0.004176671151071787,0.01103320624679327,0.11326036602258682,0.11192154139280319,,,,,,,,,,,,,,,,,,,,,,,,,,,,,,,,,,,,,,,,,,,,,,,,,,,,,,,,,,,,,,,,,,,,,,,,,,
5,1.2021918296813965,0.6108040809631348,1.5708342790603638,0.3899488440155983,0.0,-3.1415923178176195,-1.036261654263626e-08,0.5203556418418884,0.5202187895774841,0.607703447341919,1.5715669393539429,0.38738500982522966,0.0,-3.1422389686087877,-0.0018275794573128223,0.5187675952911377,0.5186607241630554,,,,,,,,,,,,,,,,,,,,,,,,,,,,,,,,,,,,,,,,,,,,,,,,,,,,,,,,,,,,,,,,,,,,,,,,,,,,,,,,,,,,,,,,,,,,,,,,,,,,,,,,,,,,,,,,,,,,,,,,,,,,,,,,,,,,,,-4.779961955136969e-07,2.962816552098957e-07,-3.860678248202021e-07,0.0,7.250237104017287e-07,-1.5932015458020032e-06,-0.10240454226732254,-0.10170347988605499,-2.1963245671940967e-05,5.378551122703357e-06,-3.302893310319632e-05,0.0,0.0032410372514277697,0.009193219244480133,0.09441900998353958,0.09383679181337357,,,,,,,,,,,,,,,,,,,,,,,,,,,,,,,,,,,,,,,,,,,,,,,,,,,,,,,,,,,,,,,,,,,,,,,,,,
6,1.2238318920135498,0.61080402135849,1.5708342790603638,0.3899488365650177,0.0,-3.1415923178176195,-2.1025972074539823e-08,0.5169987082481384,0.5168861150741577,0.6077027320861816,1.5715670585632324,0.3873839294910431,0.0,-3.14213215708535,-0.0015260194195434451,0.5156726837158203,0.5155848264694214,,,,,,,,,,,,,,,,,,,,,,,,,,,,,,,,,,,,,,,,,,,,,,,,,,,,,,,,,,,,,,,,,,,,,,,,,,,,,,,,,,,,,,,,,,,,,,,,,,,,,,,,,,,,,,,,,,,,,,,,,,,,,,,,,,,,,,-3.842192768388486e-07,2.2461365745130024e-07,-3.2280686923513713e-07,0.0,-2.4469766231050016e-06,2.6110652129318623e-07,-0.08552854508161545,-0.08490484207868576,-1.8337654182687402e-05,4.499964234128129e-06,-2.7575306376093067e-05,0.0,0.0027217906899750233,0.007683444302529097,0.07885090261697769,0.07836831361055374,,,,,,,,,,,,,,,,,,,,,,,,,,,,,,,,,,,,,,,,,,,,,,,,,,,,,,,,,,,,,,,,,,,,,,,,,,
7,1.2450792789459229,0.61080402135849,1.5708342790603638,0.3899488216638565,0.0,-3.1415923774222643,-1.270764826699633e-08,0.5140538215637207,0.5139625668525696,0.6077027320861816,1.5715670585632324,0.3873839294910431,0.0,-3.14213215708535,-0.0015260194195434451,0.5156726837158203,0.5155848264694214,,,,,,,,,,,,,,,,,,,,,,,,,,,,,,,,,,,,,,,,,,,,,,,,,,,,,,,,,,,,,,,,,,,,,,,,,,,,,,,,,,,,,,,,,,,,,,,,,,,,,,,,,,,,,,,,,,,,,,,,,,,,,,,,,,,,,,-3.1771173780725803e-07,1.8589419426007225e-07,-2.667163414571405e-07,0.0,-1.5513920743615017e-06,1.8173199123339145e-07,-0.07071171700954437,-0.0702044814825058,-1.8337654182687402e-05,4.499964234128129e-06,-2.7575306376093067e-05,0.0,0.0027217906899750233,0.007683444302529097,0.07885090261697769,0.07836831361055374,,,,,,,,,,,,,,,,,,,,,,,,,,,,,,,,,,,,,,,,,,,,,,,,,,,,,,,,,,,,,,,,,,,,,,,,,,
8,1.2667858600616455,0.61080402135849,1.5708342790603638,0.3899488216638565,0.0,-3.1415923774222643,-1.270764826699633e-08,0.5140538215637207,0.5139625668525696,0.6077021360397339,1.5715672969818115,0.3873829758167267,0.0,-3.1420384585837633,-0.001261489698663354,0.512957751750946,0.5128863453865051,,,,,,,,,,,,,,,,,,,,,,,,,,,,,,,,,,,,,,,,,,,,,,,,,,,,,,,,,,,,,,,,,,,,,,,,,,,,,,,,,,,,,,,,,,,,,,,,,,,,,,,,,,,,,,,,,,,,,,,,,,,,,,,,,,,,,,-3.1771173780725803e-07,1.8589419426007225e-07,-2.667163414571405e-07,0.0,-1.5513920743615017e-06,1.8173199123339145e-07,-0.07071171700954437,-0.0702044814825058,-1.516319844085956e-05,3.7237157357594697e-06,-2.2792661184212193e-05,0.0,0.002248592209070921,0.006351483054459095,0.06519170105457306,0.06479892134666443,,,,,,,,,,,,,,,,,,,,,,,,,,,,,,,,,,,,,,,,,,,,,,,,,,,,,,,,,,,,,,,,,,,,,,,,,,
9,1.2877061367034912,0.61080402135849,1.5708342790603638,0.38994881421327593,0.0,-3.141592437026909,-7.141130797805317e-09,0.5117360353469849,0.5116612911224365,0.6077021360397339,1.5715672969818115,0.3873829758167267,0.0,-3.1420384585837633,-0.001261489698663354,0.512957751750946,0.5128863453865051,,,,,,,,,,,,,,,,,,,,,,,,,,,,,,,,,,,,,,,,,,,,,,,,,,,,,,,,,,,,,,,,,,,,,,,,,,,,,,,,,,,,,,,,,,,,,,,,,,,,,,,,,,,,,,,,,,,,,,,,,,,,,,,,,,,,,,-2.6534081598583725e-07,1.5553369792087324e-07,-2.2258522847096174e-07,0.0,-1.3208403970565996e-06,1.32390212570499e-07,-0.05904992297291756,-0.05863349512219429,-1.516319844085956e-05,3.7237157357594697e-06,-2.2792661184212193e-05,0.0,0.002248592209070921,0.006351483054459095,0.06519170105457306,0.06479892134666443,,,,,,,,,,,,,,,,,,,,,,,,,,,,,,,,,,,,,,,,,,,,,,,,,,,,,,,,,,,,,,,,,,,,,,,,,,
10,1.3101794719696045,0.61080402135849,1.5708342790603638,0.38994881421327593,0.0,-3.141592437026909,-7.141130797805317e-09,0.5117360353469849,0.5116612911224365,0.6077015995979309,1.571567416191101,0.387382193505764,0.0,-3.141961091754845,-0.0010428141104057431,0.5107131004333496,0.5106551647186279,,,,,,,,,,,,,,,,,,,,,,,,,,,,,,,,,,,,,,,,,,,,,,,,,,,,,,,,,,,,,,,,,,,,,,,,,,,,,,,,,,,,,,,,,,,,,,,,,,,,,,,,,,,,,,,,,,,,,,,,,,,,,,,,,,,,,,-2.6534081598583725e-07,1.5553369792087324e-07,-2.2258522847096174e-07,0.0,-1.3208403970565996e-06,1.32390212570499e-07,-0.05904992297291756,-0.05863349512219429,-1.2538297596620396e-05,3.0812518616585294e-06,-1.8839520635083318e-05,0.0,0.0018581845797598362,0.005250514019280672,0.05389866605401039,0.05357920750975609,,,,,,,,,,,,,,,,,,,,,,,,,,,,,,,,,,,,,,,,,,,,,,,,,,,,,,,,,,,,,,,,,,,,,,,,,,
11,1.3318579196929932,0.61080402135849,1.5708342790603638,0.38994880676269533,0.0,-3.141592437026909,-2.9436795223602985e-09,0.5097029209136963,0.5096423029899597,0.6077011823654175,1.5715675354003906,0.38738160490989687,0.0,-3.1419032752494127,-0.0008794930763542652,0.5090364217758179,0.5089883208274841,,,,,,,,,,,,,,,,,,,,,,,,,,,,,,,,,,,,,,,,,,,,,,,,,,,,,,,,,,,,,,,,,,,,,,,,,,,,,,,,,,,,,,,,,,,,,,,,,,,,,,,,,,,,,,,,,,,,,,,,,,,,,,,,,,,,,,-2.193991122112493e-07,1.2881828581612353e-07,-1.839017187421632e-07,0.0,-1.0987492942149402e-06,9.258461375338811e-08,-0.04882011190056801,-0.04848208278417587,-1.0577334251138382e-05,2.6009679459093604e-06,-1.5887393601587974e-05,0.0,0.001566686318255961,0.004428225569427013,0.0454631969332695,0.04519771784543991,,,,,,,,,,,,,,,,,,,,,,,,,,,,,,,,,,,,,,,,,,,,,,,,,,,,,,,,,,,,,,,,,,,,,,,,,,
12,1.353276014328003,0.61080402135849,1.5708342790603638,0.38994879931211474,0.0,-3.141592496631554,-1.6865703278412525e-10,0.5081027150154114,0.5080530643463135,0.6077011823654175,1.5715675354003906,0.38738160490989687,0.0,-3.1419032752494127,-0.0008794930763542652,0.5090364217758179,0.5089883208274841,,,,,,,,,,,,,,,,,,,,,,,,,,,,,,,,,,,,,,,,,,,,,,,,,,,,,,,,,,,,,,,,,,,,,,,,,,,,,,,,,,,,,,,,,,,,,,,,,,,,,,,,,,,,,,,,,,,,,,,,,,,,,,,,,,,,,,-1.8323592598790128e-07,1.07745258048908e-07,-1.534775577738401e-07,0.0,-9.198756174555456e-07,6.449066347613552e-08,-0.04076867550611496,-0.04049134999513626,-1.0577334251138382e-05,2.6009679459093604e-06,-1.5887393601587974e-05,0.0,0.001566686318255961,0.004428225569427013,0.0454631969332695,0.04519771784543991,,,,,,,,,,,,,,,,,,,,,,,,,,,,,,,,,,,,,,,,,,,,,,,,,,,,,,,,,,,,,,,,,,,,,,,,,,
13,1.375058650970459,0.61080402135849,1.5708342790603638,0.38994879931211474,0.0,-3.141592496631554,-1.6865703278412525e-10,0.5081027150154114,0.5080530643463135,0.6077008247375488,1.5715675354003906,0.3873810610175133,0.0,-3.141849333045891,-0.000727033824659884,0.5074710845947266,0.5074320435523987,,,,,,,,,,,,,,,,,,,,,,,,,,,,,,,,,,,,,,,,,,,,,,,,,,,,,,,,,,,,,,,,,,,,,,,,,,,,,,,,,,,,,,,,,,,,,,,,,,,,,,,,,,,,,,,,,,,,,,,,,,,,,,,,,,,,,,-1.8323592598790128e-07,1.07745258048908e-07,-1.534775577738401e-07,0.0,-9.198756174555456e-07,6.449066347613552e-08,-0.04076867550611496,-0.04049134999513626,-8.746298590267543e-06,2.1522027964238077e-06,-1.3131902051100042e-05,0.0,0.0012946641072630882,0.0036606164649128914,0.03758769482374191,0.03737188130617142,,,,,,,,,,,,,,,,,,,,,,,,,,,,,,,,,,,,,,,,,,,,,,,,,,,,,,,,,,,,,,,,,,,,,,,,,,
14,1.3965582847595215,0.61080402135849,1.5708342790603638,0.38994879186153414,0.0,-3.1415925562361986,1.8207709784334725e-09,0.5066989660263062,0.5066588521003723,0.6077008247375488,1.5715675354003906,0.3873810610175133,0.0,-3.141849333045891,-0.000727033824659884,0.5074710845947266,0.5074320435523987,,,,,,,,,,,,,,,,,,,,,,,,,,,,,,,,,,,,,,,,,,,,,,,,,,,,,,,,,,,,,,,,,,,,,,,,,,,,,,,,,,,,,,,,,,,,,,,,,,,,,,,,,,,,,,,,,,,,,,,,,,,,,,,,,,,,,,-1.5151002230595623e-07,8.92229650162335e-08,-1.268075919824696e-07,0.0,-7.603230756103585e-07,4.2509196163109664e-08,-0.033705901354551315,-0.033480945974588394,-8.746298590267543e-06,2.1522027964238077e-06,-1.3131902051100042e-05,0.0,0.0012946641072630882,0.0036606164649128914,0.03758769482374191,0.03737188130617142,,,,,,,,,,,,,,,,,,,,,,,,,,,,,,,,,,,,,,,,,,,,,,,,,,,,,,,,,,,,,,,,,,,,,,,,,,
15,1.419266939163208,0.61080402135849,1.5708342790603638,0.38994879186153414,0.0,-3.1415925562361986,1.8207709784334725e-09,0.5066989660263062,0.5066588521003723,0.607700526714325,1.5715676546096802,0.3873806065320969,0.0,-3.1418048083762438,-0.0006010027136653662,0.5061768889427185,0.506145179271698,,,,,,,,,,,,,,,,,,,,,,,,,,,,,,,,,,,,,,,,,,,,,,,,,,,,,,,,,,,,,,,,,,,,,,,,,,,,,,,,,,,,,,,,,,,,,,,,,,,,,,,,,,,,,,,,,,,,,,,,,,,,,,,,,,,,,,-1.5151002230595623e-07,8.92229650162335e-08,-1.268075919824696e-07,0.0,-7.603230756103585e-07,4.2509196163109664e-08,-0.033705901354551315,-0.033480945974588394,-7.232234111143043e-06,1.7808603161029168e-06,-1.0854320862563327e-05,0.0,0.0010698732221499085,0.003026062622666359,0.031076449900865555,0.030901065096259117,,,,,,,,,,,,,,,,,,,,,,,,,,,,,,,,,,,,,,,,,,,,,,,,,,,,,,,,,,,,,,,,,,,,,,,,,,
16,1.440598487854004,0.6108039617538452,1.5708342790603638,0.38994879186153414,0.0,-3.1415925562361986,3.0463398470459424e-09,0.5055941939353943,0.505561351776123,0.6077002882957458,1.5715676546096802,0.38738027125597,0.0,-3.1417714893798143,-0.0005068750469945371,0.5052101612091064,0.5051838755607605,,,,,,,,,,,,,,,,,,,,,,,,,,,,,,,,,,,,,,,,,,,,,,,,,,,,,,,,,,,,,,,,,,,,,,,,,,,,,,,,,,,,,,,,,,,,,,,,,,,,,,,,,,,,,,,,,,,,,,,,,,,,,,,,,,,,,,-1.2653694625441858e-07,7.46175317090092e-08,-1.0583088538851371e-07,0.0,-6.33314641618199e-07,2.719968428266384e-08,-0.028147105127573013,-0.02796267345547676,-6.101131930336123e-06,1.5032584315122222e-06,-9.15346754482016e-06,0.0,0.000902040395885706,0.002552136080339551,0.026212796568870544,0.026067156344652176,,,,,,,,,,,,,,,,,,,,,,,,,,,,,,,,,,,,,,,,,,,,,,,,,,,,,,,,,,,,,,,,,,,,,,,,,,
17,1.4628756046295166,0.6108039617538452,1.5708342790603638,0.38994878441095354,0.0,-3.1415925562361986,3.801314374385356e-09,0.504671573638916,0.5046446919441223,0.6077002882957458,1.5715677738189697,0.38738024890422823,0.0,-3.141769701240471,-0.0005018216907046735,0.5051582455635071,0.505132257938385,,,,,,,,,,,,,,,,,,,,,,,,,,,,,,,,,,,,,,,,,,,,,,,,,,,,,,,,,,,,,,,,,,,,,,,,,,,,,,,,,,,,,,,,,,,,,,,,,,,,,,,,,,,,,,,,,,,,,,,,,,,,,,,,,,,,,,-1.0568012953626749e-07,6.24001970095378e-08,-8.832491715793367e-08,0.0,-5.265335971671448e-07,1.5954741527934857e-08,-0.023505067452788353,-0.02335391379892826,-6.0403986026358325e-06,1.4883478343108436e-06,-9.062159733730368e-06,0.0,0.0008930315379984677,0.002526692347601056,0.02595166675746441,0.025807609781622887,,,,,,,,,,,,,,,,,,,,,,,,,,,,,,,,,,,,,,,,,,,,,,,,,,,,,,,,,,,,,,,,,,,,,,,,,,
18,1.4838886260986328,0.6108039617538452,1.5708342790603638,0.38994878441095354,0.0,-3.1415925562361986,3.801314374385356e-09,0.504671573638916,0.5046446919441223,0.6077001094818115,1.5715677738189697,0.38737994343042376,0.0,-3.1417390048484117,-0.0004148304578848183,0.5042647123336792,0.5042436718940735,,,,,,,,,,,,,,,,,,,,,,,,,,,,,,,,,,,,,,,,,,,,,,,,,,,,,,,,,,,,,,,,,,,,,,,,,,,,,,,,,,,,,,,,,,,,,,,,,,,,,,,,,,,,,,,,,,,,,,,,,,,,,,,,,,,,,,-1.0568012953626749e-07,6.24001970095378e-08,-8.832491715793367e-08,0.0,-5.265335971671448e-07,1.5954741527934857e-08,-0.023505067452788353,-0.02335391379892826,-4.994752089260146e-06,1.2315404092078097e-06,-7.490431471524062e-06,0.0,0.0007379758753813803,0.002088694367557764,0.02145610935986042,0.021339107304811478,,,,,,,,,,,,,,,,,,,,,,,,,,,,,,,,,,,,,,,,,,,,,,,,,,,,,,,,,,,,,,,,,,,,,,,,,,
19,1.5052049160003662,0.6108039617538452,1.5708342790603638,0.38994878441095354,0.0,-3.1415926158408434,4.212709292517047e-09,0.5039011240005493,0.503879189491272,0.6077001094818115,1.5715677738189697,0.38737994343042376,0.0,-3.1417390048484117,-0.0004148304578848183,0.5042647123336792,0.5042436718940735,,,,,,,,,,,,,,,,,,,,,,,,,,,,,,,,,,,,,,,,,,,,,,,,,,,,,,,,,,,,,,,,,,,,,,,,,,,,,,,,,,,,,,,,,,,,,,,,,,,,,,,,,,,,,,,,,,,,,,,,,,,,,,,,,,,,,,-8.826134489936521e-08,5.218103638071625e-08,-7.371497190433729e-08,0.0,-4.3706316432690073e-07,7.798664825031665e-09,-0.01962859556078911,-0.019504761323332787,-4.994752089260146e-06,1.2315404092078097e-06,-7.490431471524062e-06,0.0,0.0007379758753813803,0.002088694367557764,0.02145610935986042,0.021339107304811478,,,,,,,,,,,,,,,,,,,,,,,,,,,,,,,,,,,,,,,,,,,,,,,,,,,,,,,,,,,,,,,,,,,,,,,,,,
20,1.527791976928711,0.6108039617538452,1.5708342790603638,0.38994878441095354,0.0,-3.1415926158408434,4.212709292517047e-09,0.5039011240005493,0.503879189491272,0.6076999306678772,1.5715677738189697,0.38737968266010286,0.0,-3.1417135536650926,-0.0003429190837778151,0.5035259127616882,0.5035088658332825,,,,,,,,,,,,,,,,,,,,,,,,,,,,,,,,,,,,,,,,,,,,,,,,,,,,,,,,,,,,,,,,,,,,,,,,,,,,,,,,,,,,,,,,,,,,,,,,,,,,,,,,,,,,,,,,,,,,,,,,,,,,,,,,,,,,,,-8.826134489936521e-08,5.218103638071625e-08,-7.371497190433729e-08,0.0,-4.3706316432690073e-07,7.798664825031665e-09,-0.01962859556078911,-0.019504761323332787,-4.130116849410115e-06,1.0190416332989116e-06,-6.191302418301348e-06,0.0,0.0006098423036746681,0.0017266209470108151,0.01773931086063385,0.017644312232732773,,,,,,,,,,,,,,,,,,,,,,,,,,,,,,,,,,,,,,,,,,,,,,,,,,,,,,,,,,,,,,,,,,,,,,,,,,
21,1.5495796203613281,0.6108039617538452,1.5708342790603638,0.38994878441095354,0.0,-3.1415926158408434,4.372927797646753e-09,0.5032905340194702,0.5032724142074585,0.6076999306678772,1.5715677738189697,0.38737968266010286,0.0,-3.1417135536650926,-0.0003429190837778151,0.5035259127616882,0.5035088658332825,,,,,,,,,,,,,,,,,,,,,,,,,,,,,,,,,,,,,,,,,,,,,,,,,,,,,,,,,,,,,,,,,,,,,,,,,,,,,,,,,,,,,,,,,,,,,,,,,,,,,,,,,,,,,,,,,,,,,,,,,,,,,,,,,,,,,,-7.445494532021257e-08,4.406997078376662e-08,-6.214310133145773e-08,0.0,-3.661136531718512e-07,2.254474162910469e-09,-0.016556382179260254,-0.016453834250569344,-4.130116849410115e-06,1.0190416332989116e-06,-6.191302418301348e-06,0.0,0.0006098423036746681,0.0017266209470108151,0.01773931086063385,0.017644312232732773,,,,,,,,,,,,,,,,,,,,,,,,,,,,,,,,,,,,,,,,,,,,,,,,,,,,,,,,,,,,,,,,,,,,,,,,,,
22,1.5713775157928467,0.6108039617538452,1.5708342790603638,0.38994877696037294,0.0,-3.1415926158408434,4.3708494601446546e-09,0.5027478933334351,0.502733051776886,0.6076997518539429,1.5715678930282593,0.38737946659326555,0.0,-3.1416925728301317,-0.00028347349143587053,0.5029151439666748,0.5029013156890869,,,,,,,,,,,,,,,,,,,,,,,,,,,,,,,,,,,,,,,,,,,,,,,,,,,,,,,,,,,,,,,,,,,,,,,,,,,,,,,,,,,,,,,,,,,,,,,,,,,,,,,,,,,,,,,,,,,,,,,,,,,,,,,,,,,,,,-6.218247960987355e-08,3.68499684100243e-08,-5.186448603922145e-08,0.0,-3.031585436019668e-07,-1.8831374237748832e-09,-0.01382589153945446,-0.013741941191256046,-3.4151578347518807e-06,8.432074878328422e-07,-5.117492491990561e-06,0.0,0.000503956398461014,0.0014273113338276744,0.014666364528238773,0.014589257538318634,,,,,,,,,,,,,,,,,,,,,,,,,,,,,,,,,,,,,,,,,,,,,,,,,,,,,,,,,,,,,,,,,,,,,,,,,,
23,1.5934481620788574,0.6108039617538452,1.5708342790603638,0.38994877696037294,0.0,-3.1415926158408434,4.3708494601446546e-09,0.5027478933334351,0.502733051776886,0.6076996922492981,1.5715678930282593,0.3873793026804924,0.0,-3.141676062343529,-0.00023669260554015636,0.5024344325065613,0.502423107624054,,,,,,,,,,,,,,,,,,,,,,,,,,,,,,,,,,,,,,,,,,,,,,,,,,,,,,,,,,,,,,,,,,,,,,,,,,,,,,,,,,,,,,,,,,,,,,,,,,,,,,,,,,,,,,,,,,,,,,,,,,,,,,,,,,,,,,-6.218247960987355e-08,3.68499684100243e-08,-5.186448603922145e-08,0.0,-3.031585436019668e-07,-1.8831374237748832e-09,-0.01382589153945446,-0.013741941191256046,-2.8523581931949593e-06,7.047018470984767e-07,-4.272542355465703e-06,0.0,0.00042065646266564727,0.0011917678639292717,0.012247750535607338,0.01218449417501688,,,,,,,,,,,,,,,,,,,,,,,,,,,,,,,,,,,,,,,,,,,,,,,,,,,,,,,,,,,,,,,,,,,,,,,,,,
24,1.6152915954589844,0.6108039617538452,1.5708342790603638,0.38994877696037294,0.0,-3.1415926158408434,4.236943684787775e-09,0.502271831035614,0.5022598505020142,0.6076996922492981,1.5715678930282593,0.3873793026804924,0.0,-3.141676062343529,-0.00023669260554015636,0.5024344325065613,0.502423107624054,,,,,,,,,,,,,,,,,,,,,,,,,,,,,,,,,,,,,,,,,,,,,,,,,,,,,,,,,,,,,,,,,,,,,,,,,,,,,,,,,,,,,,,,,,,,,,,,,,,,,,,,,,,,,,,,,,,,,,,,,,,,,,,,,,,,,,-5.141614778381154e-08,3.050793040415556e-08,-4.2853503856576936e-08,0.0,-2.4813905952214554e-07,-4.798967889740879e-09,-0.011430689133703709,-0.011362752877175808,-2.8523581931949593e-06,7.047018470984767e-07,-4.272542355465703e-06,0.0,0.00042065646266564727,0.0011917678639292717,0.012247750535607338,0.01218449417501688,,,,,,,,,,,,,,,,,,,,,,,,,,,,,,,,,,,,,,,,,,,,,,,,,,,,,,,,,,,,,,,,,,,,,,,,,,
25,1.6367290019989014,0.6108039617538452,1.5708342790603638,0.38994877696037294,0.0,-3.1415926158408434,4.236943684787775e-09,0.502271831035614,0.5022598505020142,0.6076995730400085,1.5715678930282593,0.3873791611194611,0.0,-3.141662293670586,-0.00019763177260756493,0.5020329356193542,0.5020236968994141,,,,,,,,,,,,,,,,,,,,,,,,,,,,,,,,,,,,,,,,,,,,,,,,,,,,,,,,,,,,,,,,,,,,,,,,,,,,,,,,,,,,,,,,,,,,,,,,,,,,,,,,,,,,,,,,,,,,,,,,,,,,,,,,,,,,,,-5.141614778381154e-08,3.050793040415556e-08,-4.2853503856576936e-08,0.0,-2.4813905952214554e-07,-4.798967889740879e-09,-0.011430689133703709,-0.011362752877175808,-2.382305183346034e-06,5.889465342079347e-07,-3.567102112356224e-06,0.0,0.0003511252871248871,0.000995094538666308,0.010227988474071026,0.01017611101269722,,,,,,,,,,,,,,,,,,,,,,,,,,,,,,,,,,,,,,,,,,,,,,,,,,,,,,,,,,,,,,,,,,,,,,,,,,
26,1.6578564643859863,0.6108039617538452,1.5708342790603638,0.38994877696037294,0.0,-3.1415926158408434,4.015288102010572e-09,0.5018782615661621,0.5018686056137085,0.6076995730400085,1.5715678930282593,0.3873791611194611,0.0,-3.141662293670586,-0.00019763177260756493,0.5020329356193542,0.5020236968994141,,,,,,,,,,,,,,,,,,,,,,,,,,,,,,,,,,,,,,,,,,,,,,,,,,,,,,,,,,,,,,,,,,,,,,,,,,,,,,,,,,,,,,,,,,,,,,,,,,,,,,,,,,,,,,,,,,,,,,,,,,,,,,,,,,,,,,-4.251365837149024e-08,2.5256131408468718e-08,-3.540816351232934e-08,0.0,-2.029066905606669e-07,-6.617198788916312e-09,-0.009450431913137436,-0.009395481087267399,-2.382305183346034e-06,5.889465342079347e-07,-3.567102112356224e-06,0.0,0.0003511252871248871,0.000995094538666308,0.010227988474071026,0.01017611101269722,,,,,,,,,,,,,,,,,,,,,,,,,,,,,,,,,,,,,,,,,,,,,,,,,,,,,,,,,,,,,,,,,,,,,,,,,,
27,1.679488182067871,0.6108039617538452,1.5708342790603638,0.38994877696037294,0.0,-3.1415926158408434,3.771756240666946e-09,0.5015842914581299,0.50157630443573,0.6076995134353638,1.5715678930282593,0.3873790493607521,0.0,-3.141651386020592,-0.00016667878662701696,0.5017147660255432,0.501707136631012,,,,,,,,,,,,,,,,,,,,,,,,,,,,,,,,,,,,,,,,,,,,,,,,,,,,,,,,,,,,,,,,,,,,,,,,,,,,,,,,,,,,,,,,,,,,,,,,,,,,,,,,,,,,,,,,,,,,,,,,,,,,,,,,,,,,,,-3.586358943152845e-08,2.1328494526073882e-08,-2.985010993938886e-08,0.0,-1.6934886559738516e-07,-7.562258375060082e-09,-0.00797127466648817,-0.007925842888653278,-2.0097202195756836e-06,4.971358862349007e-07,-3.008144403793267e-06,0.0,0.0002960436977446079,0.0008392442832700908,0.008627246133983135,0.00858424324542284,,,,,,,,,,,,,,,,,,,,,,,,,,,,,,,,,,,,,,,,,,,,,,,,,,,,,,,,,,,,,,,,,,,,,,,,,,
28,1.7016093730926514,0.6108039617538452,1.5708342790603638,0.38994877696037294,0.0,-3.1415926158408434,3.756552402478519e-09,0.5015684962272644,0.501560628414154,0.607699453830719,1.5715678930282593,0.38737895250320437,0.0,-3.1416416704634935,-0.0001391721161780879,0.5014320015907288,0.5014257431030273,,,,,,,,,,,,,,,,,,,,,,,,,,,,,,,,,,,,,,,,,,,,,,,,,,,,,,,,,,,,,,,,,,,,,,,,,,,,,,,,,,,,,,,,,,,,,,,,,,,,,,,,,,,,,,,,,,,,,,,,,,,,,,,,,,,,,,-3.550643157268496e-08,2.1117552151395103e-08,-2.9551749491929513e-08,0.0,-1.6755402043600043e-07,-7.601919982391792e-09,-0.00789185892790556,-0.007846932858228683,-1.6785290881671244e-06,4.1547477280801104e-07,-2.511469347155071e-06,0.0,0.00024711000151000917,0.0007007461972534657,0.007204537279903889,0.007169293239712715,,,,,,,,,,,,,,,,,,,,,,,,,,,,,,,,,,,,,,,,,,,,,,,,,,,,,,,,,,,,,,,,,,,,,,,,,,
29,1.7230138778686523,0.6108039617538452,1.5708342790603638,0.38994877696037294,0.0,-3.141592675445488,3.4565379447570876e-09,0.5012967586517334,0.5012904405593872,0.607699453830719,1.5715678930282593,0.38737895250320437,0.0,-3.1416416704634935,-0.0001391721161780879,0.5014320015907288,0.5014257431030273,,,,,,,,,,,,,,,,,,,,,,,,,,,,,,,,,,,,,,,,,,,,,,,,,,,,,,,,,,,,,,,,,,,,,,,,,,,,,,,,,,,,,,,,,,,,,,,,,,,,,,,,,,,,,,,,,,,,,,,,,,,,,,,,,,,,,,-2.9358904640730543e-08,1.7481905700833522e-08,-2.4417607491500348e-08,0.0,-1.3679635912922095e-07,-8.082907676509876e-09,-0.00652466993778944,-0.006488366983830929,-1.6785290881671244e-06,4.1547477280801104e-07,-2.511469347155071e-06,0.0,0.00024711000151000917,0.0007007461972534657,0.007204537279903889,0.007169293239712715,,,,,,,,,,,,,,,,,,,,,,,,,,,,,,,,,,,,,,,,,,,,,,,,,,,,,,,,,,,,,,,,,,,,,,,,,,
30,1.7446870803833008,0.6108039617538452,1.5708342790603638,0.38994877696037294,0.0,-3.141592675445488,3.4565379447570876e-09,0.5012967586517334,0.5012904405593872,0.6076993942260742,1.5715678930282593,0.3873788705468178,0.0,-3.141633564231804,-0.00011620479926932603,0.5011958479881287,0.501190721988678,,,,,,,,,,,,,,,,,,,,,,,,,,,,,,,,,,,,,,,,,,,,,,,,,,,,,,,,,,,,,,,,,,,,,,,,,,,,,,,,,,,,,,,,,,,,,,,,,,,,,,,,,,,,,,,,,,,,,,,,,,,,,,,,,,,,,,-2.9358904640730543e-08,1.7481905700833522e-08,-2.4417607491500348e-08,0.0,-1.3679635912922095e-07,-8.082907676509876e-09,-0.00652466993778944,-0.006488366983830929,-1.4019169611856341e-06,3.4722737041192886e-07,-2.096800471917959e-06,0.0,0.0002062646090053022,0.0005851038731634617,0.006016445346176624,0.005987570621073246,,,,,,,,,,,,,,,,,,,,,,,,,,,,,,,,,,,,,,,,,,,,,,,,,,,,,,,,,,,,,,,,,,,,,,,,,,
31,1.7661757469177246,0.6108039617538452,1.5708342790603638,0.38994877696037294,0.0,-3.141592675445488,3.1468141425960994e-09,0.501072108745575,0.501067042350769,0.6076993942260742,1.5715678930282593,0.3873788705468178,0.0,-3.141633564231804,-0.00011620479926932603,0.5011958479881287,0.501190721988678,,,,,,,,,,,,,,,,,,,,,,,,,,,,,,,,,,,,,,,,,,,,,,,,,,,,,,,,,,,,,,,,,,,,,,,,,,,,,,,,,,,,,,,,,,,,,,,,,,,,,,,,,,,,,,,,,,,,,,,,,,,,,,,,,,,,,,-2.4275470522638898e-08,1.4471868148291378e-08,-2.0175500381469647e-08,0.0,-1.116088910180224e-07,-8.15922351904419e-09,-0.005394333507865667,-0.005365013610571623,-1.4019169611856341e-06,3.4722737041192886e-07,-2.096800471917959e-06,0.0,0.0002062646090053022,0.0005851038731634617,0.006016445346176624,0.005987570621073246,,,,,,,,,,,,,,,,,,,,,,,,,,,,,,,,,,,,,,,,,,,,,,,,,,,,,,,,,,,,,,,,,,,,,,,,,,
32,1.7877402305603027,0.6108039617538452,1.5708342790603638,0.38994877696037294,0.0,-3.141592675445488,3.1468141425960994e-09,0.501072108745575,0.501067042350769,0.6076993346214294,1.5715680122375488,0.3873788034915924,0.0,-3.1416268289069444,-9.70277251326479e-05,0.5009986162185669,0.5009944438934326,,,,,,,,,,,,,,,,,,,,,,,,,,,,,,,,,,,,,,,,,,,,,,,,,,,,,,,,,,,,,,,,,,,,,,,,,,,,,,,,,,,,,,,,,,,,,,,,,,,,,,,,,,,,,,,,,,,,,,,,,,,,,,,,,,,,,,-2.4275470522638898e-08,1.4471868148291378e-08,-2.0175500381469647e-08,0.0,-1.116088910180224e-07,-8.15922351904419e-09,-0.005394333507865667,-0.005365013610571623,-1.1708888223438407e-06,2.9019008707109606e-07,-1.7505976757092867e-06,0.0,0.00017217063577845693,0.0004885455709882081,0.005024279933422804,0.005000632721930742,,,,,,,,,,,,,,,,,,,,,,,,,,,,,,,,,,,,,,,,,,,,,,,,,,,,,,,,,,,,,,,,,,,,,,,,,,
33,1.808852195739746,0.6108039617538452,1.5708342790603638,0.38994876950979235,0.0,-3.141592675445488,2.840055746133885e-09,0.5008863806724548,0.5008822679519653,0.6076992750167847,1.5715680122375488,0.38737874388694765,0.0,-3.141620868442467,-8.020768291316926e-05,0.5008256435394287,0.5008222460746765,,,,,,,,,,,,,,,,,,,,,,,,,,,,,,,,,,,,,,,,,,,,,,,,,,,,,,,,,,,,,,,,,,,,,,,,,,,,,,,,,,,,,,,,,,,,,,,,,,,,,,,,,,,,,,,,,,,,,,,,,,,,,,,,,,,,,,-2.0072443263075e-08,1.1979861547217752e-08,-1.6670325564405175e-08,0.0,-9.10031516809795e-08,-7.959696013415396e-09,-0.004459816496819258,-0.0044361501932144165,-9.681981509856996e-07,2.4011592358874623e-07,-1.4469770803771098e-06,0.0,0.00014227682549972087,0.00040385505417361856,0.004153934307396412,0.0041347891092300415,,,,,,,,,,,,,,,,,,,,,,,,,,,,,,,,,,,,,,,,,,,,,,,,,,,,,,,,,,,,,,,,,,,,,,,,,,
34,1.8299849033355713,0.6108039617538452,1.5708342790603638,0.38994876950979235,0.0,-3.141592675445488,2.575104796065375e-09,0.5007476210594177,0.5007442831993103,0.6076992750167847,1.5715680122375488,0.38737874388694765,0.0,-3.141620868442467,-8.020768291316926e-05,0.5008256435394287,0.5008222460746765,,,,,,,,,,,,,,,,,,,,,,,,,,,,,,,,,,,,,,,,,,,,,,,,,,,,,,,,,,,,,,,,,,,,,,,,,,,,,,,,,,,,,,,,,,,,,,,,,,,,,,,,,,,,,,,,,,,,,,,,,,,,,,,,,,,,,,-1.6932455437768112e-08,1.0116574244989351e-08,-1.4053632924060366e-08,0.0,-7.577688165838481e-08,-7.626170805963284e-09,-0.0037617776542901993,-0.003742248984053731,-9.681981509856996e-07,2.4011592358874623e-07,-1.4469770803771098e-06,0.0,0.00014227682549972087,0.00040385505417361856,0.004153934307396412,0.0041347891092300415,,,,,,,,,,,,,,,,,,,,,,,,,,,,,,,,,,,,,,,,,,,,,,,,,,,,,,,,,,,,,,,,,,,,,,,,,,
35,1.8521921634674072,0.6108039617538452,1.5708342790603638,0.38994876950979235,0.0,-3.141592675445488,2.559898293341689e-09,0.5007401704788208,0.5007368922233582,0.6076992750167847,1.5715680122375488,0.3873786917328835,0.0,-3.1416159808615953,-6.630344432778656e-05,0.5006826519966125,0.5006799101829529,,,,,,,,,,,,,,,,,,,,,,,,,,,,,,,,,,,,,,,,,,,,,,,,,,,,,,,,,,,,,,,,,,,,,,,,,,,,,,,,,,,,,,,,,,,,,,,,,,,,,,,,,,,,,,,,,,,,,,,,,,,,,,,,,,,,,,-1.6764035493110896e-08,1.0016099061260775e-08,-1.39132039223e-08,0.0,-7.496470288970158e-08,-7.603195406602481e-09,-0.003724300069734454,-0.003704991191625595,-8.00594989414094e-07,1.9868240030973539e-07,-1.1960158872170723e-06,0.0,0.00011757341417251155,0.0003338457609061152,0.0034343565348535776,0.0034188637509942055,,,,,,,,,,,,,,,,,,,,,,,,,,,,,,,,,,,,,,,,,,,,,,,,,,,,,,,,,,,,,,,,,,,,,,,,,,
36,1.8736891746520996,0.6108039617538452,1.5708342790603638,0.38994876950979235,0.0,-3.141592675445488,2.2946593514205915e-09,0.5006181001663208,0.5006154179573059,0.6076992750167847,1.5715680122375488,0.3873786917328835,0.0,-3.1416159808615953,-6.630344432778656e-05,0.5006826519966125,0.5006799101829529,,,,,,,,,,,,,,,,,,,,,,,,,,,,,,,,,,,,,,,,,,,,,,,,,,,,,,,,,,,,,,,,,,,,,,,,,,,,,,,,,,,,,,,,,,,,,,,,,,,,,,,,,,,,,,,,,,,,,,,,,,,,,,,,,,,,,,-1.4000911541245387e-08,8.374523297050018e-09,-1.1612162786889257e-08,0.0,-6.17230710986405e-08,-7.1448917893235375e-09,-0.003110085614025593,-0.0030943404417485,-8.00594989414094e-07,1.9868240030973539e-07,-1.1960158872170723e-06,0.0,0.00011757341417251155,0.0003338457609061152,0.0034343565348535776,0.0034188637509942055,,,,,,,,,,,,,,,,,,,,,,,,,,,,,,,,,,,,,,,,,,,,,,,,,,,,,,,,,,,,,,,,,,,,,,,,,,
37,1.8948051929473877,0.6108039617538452,1.5708342790603638,0.38994876950979235,0.0,-3.141592675445488,2.2946593514205915e-09,0.5006181001663208,0.5006154179573059,0.6076992154121399,1.5715680122375488,0.3873786544799805,0.0,-3.141612106559685,-5.536148091778159e-05,0.5005700588226318,0.5005678534507751,,,,,,,,,,,,,,,,,,,,,,,,,,,,,,,,,,,,,,,,,,,,,,,,,,,,,,,,,,,,,,,,,,,,,,,,,,,,,,,,,,,,,,,,,,,,,,,,,,,,,,,,,,,,,,,,,,,,,,,,,,,,,,,,,,,,,,-1.4000911541245387e-08,8.374523297050018e-09,-1.1612162786889257e-08,0.0,-6.17230710986405e-08,-7.1448917893235375e-09,-0.003110085614025593,-0.0030943404417485,-6.686615847684152e-07,1.6604539609943458e-07,-9.985417364077875e-07,0.0,9.813936776481569e-05,0.0002787518023978919,0.002868000650778413,0.0028553286101669073,,,,,,,,,,,,,,,,,,,,,,,,,,,,,,,,,,,,,,,,,,,,,,,,,,,,,,,,,,,,,,,,,,,,,,,,,,
38,1.9157350063323975,0.6108039617538452,1.5708342790603638,0.38994876950979235,0.0,-3.141592675445488,2.047119807002673e-09,0.5005161762237549,0.5005139708518982,0.6076992154121399,1.5715680122375488,0.3873786544799805,0.0,-3.141612106559685,-5.536148091778159e-05,0.5005700588226318,0.5005678534507751,,,,,,,,,,,,,,,,,,,,,,,,,,,,,,,,,,,,,,,,,,,,,,,,,,,,,,,,,,,,,,,,,,,,,,,,,,,,,,,,,,,,,,,,,,,,,,,,,,,,,,,,,,,,,,,,,,,,,,,,,,,,,,,,,,,,,,-1.1693201962259536e-08,7.001732527101012e-09,-9.691608404693852e-09,0.0,-5.0798643513871866e-08,-6.6292842326731716e-09,-0.002597167855128646,-0.002584336092695594,-6.686615847684152e-07,1.6604539609943458e-07,-9.985417364077875e-07,0.0,9.813936776481569e-05,0.0002787518023978919,0.002868000650778413,0.0028553286101669073,,,,,,,,,,,,,,,,,,,,,,,,,,,,,,,,,,,,,,,,,,,,,,,,,,,,,,,,,,,,,,,,,,,,,,,,,,
39,1.9375038146972656,0.6108039617538452,1.5708342790603638,0.38994876950979235,0.0,-3.141592675445488,1.8308881077899741e-09,0.5004354119300842,0.5004335641860962,0.6076992154121399,1.5715680122375488,0.3873786172270775,0.0,-3.1416087686995775,-4.576439459924586e-05,0.500471293926239,0.5004695057868958,,,,,,,,,,,,,,,,,,,,,,,,,,,,,,,,,,,,,,,,,,,,,,,,,,,,,,,,,,,,,,,,,,,,,,,,,,,,,,,,,,,,,,,,,,,,,,,,,,,,,,,,,,,,,,,,,,,,,,,,,,,,,,,,,,,,,,-9.863998506887128e-09,5.912492717641271e-09,-8.170346177394094e-09,0.0,-4.2246984577332114e-08,-6.118526130194368e-09,-0.0021906658075749874,-0.0021800948306918144,-5.529103646040312e-07,1.3739298765358399e-07,-8.253564374172129e-07,0.0,8.10994824860245e-05,0.00023042940301820636,0.0023711826652288437,0.002360937651246786,,,,,,,,,,,,,,,,,,,,,,,,,,,,,,,,,,,,,,,,,,,,,,,,,,,,,,,,,,,,,,,,,,,,,,,,,,
40,1.9592769145965576,0.6108039617538452,1.5708342790603638,0.38994876950979235,0.0,-3.141592675445488,1.81871229187891e-09,0.5004310607910156,0.5004292726516724,0.6076992154121399,1.5715680122375488,0.3873785874247551,0.0,-3.141605967281273,-3.7830988731002435e-05,0.5003896355628967,0.5003882050514221,,,,,,,,,,,,,,,,,,,,,,,,,,,,,,,,,,,,,,,,,,,,,,,,,,,,,,,,,,,,,,,,,,,,,,,,,,,,,,,,,,,,,,,,,,,,,,,,,,,,,,,,,,,,,,,,,,,,,,,,,,,,,,,,,,,,,,-9.765799724448243e-09,5.853539875033675e-09,-8.08864086820904e-09,0.0,-4.1790737981273196e-08,-6.087897741480219e-09,-0.002168840728700161,-0.0021583898924291134,-4.5719710328739893e-07,1.1368472740969082e-07,-6.822080536039721e-07,0.0,6.701820529997349e-05,0.000190483799087815,0.00196042750030756,0.0019521487411111593,,,,,,,,,,,,,,,,,,,,,,,,,,,,,,,,,,,,,,,,,,,,,,,,,,,,,,,,,,,,,,,,,,,,,,,,,,
41,1.9801123142242432,0.6108039617538452,1.5708342790603638,0.38994876950979235,0.0,-3.141592675445488,1.620985234929151e-09,0.5003635883331299,0.5003620982170105,0.6076992154121399,1.5715680122375488,0.3873785874247551,0.0,-3.141605967281273,-3.7830988731002435e-05,0.5003896355628967,0.5003882050514221,,,,,,,,,,,,,,,,,,,,,,,,,,,,,,,,,,,,,,,,,,,,,,,,,,,,,,,,,,,,,,,,,,,,,,,,,,,,,,,,,,,,,,,,,,,,,,,,,,,,,,,,,,,,,,,,,,,,,,,,,,,,,,,,,,,,,,-8.238187909626049e-09,4.942934950236122e-09,-6.8190524338263e-09,0.0,-3.474237431078109e-08,-5.574171790811988e-09,-0.0018293794710189104,-0.0018207750981673598,-4.5719710328739893e-07,1.1368472740969082e-07,-6.822080536039721e-07,0.0,6.701820529997349e-05,0.000190483799087815,0.00196042750030756,0.0019521487411111593,,,,,,,,,,,,,,,,,,,,,,,,,,,,,,,,,,,,,,,,,,,,,,,,,,,,,,,,,,,,,,,,,,,,,,,,,,
42,2.0020031929016113,0.6108039617538452,1.5708342790603638,0.38994876950979235,0.0,-3.141592675445488,1.620985234929151e-09,0.5003635883331299,0.5003620982170105,0.6076991558074951,1.5715680122375488,0.3873785650730133,0.0,-3.141603642700127,-3.127286254311912e-05,0.500322163105011,0.5003209710121155,,,,,,,,,,,,,,,,,,,,,,,,,,,,,,,,,,,,,,,,,,,,,,,,,,,,,,,,,,,,,,,,,,,,,,,,,,,,,,,,,,,,,,,,,,,,,,,,,,,,,,,,,,,,,,,,,,,,,,,,,,,,,,,,,,,,,,-8.238187909626049e-09,4.942934950236122e-09,-6.8190524338263e-09,0.0,-3.474237431078109e-08,-5.574171790811988e-09,-0.0018293794710189104,-0.0018207750981673598,-3.780524764351867e-07,9.406742407236379e-08,-5.638871698465664e-07,0.0,5.5381842685164884e-05,0.00015746286953799427,0.001620826660655439,0.001614140346646309,,,,,,,,,,,,,,,,,,,,,,,,,,,,,,,,,,,,,,,,,,,,,,,,,,,,,,,,,,,,,,,,,,,,,,,,,,
43,2.023566722869873,0.6108039617538452,1.5708342790603638,0.38994876950979235,0.0,-3.141592675445488,1.4304765150185972e-09,0.5003036260604858,0.5003024339675903,0.6076991558074951,1.5715680122375488,0.3873785650730133,0.0,-3.141603642700127,-3.127286254311912e-05,0.500322163105011,0.5003209710121155,,,,,,,,,,,,,,,,,,,,,,,,,,,,,,,,,,,,,,,,,,,,,,,,,,,,,,,,,,,,,,,,,,,,,,,,,,,,,,,,,,,,,,,,,,,,,,,,,,,,,,,,,,,,,,,,,,,,,,,,,,,,,,,,,,,,,,-6.880052083602095e-09,4.132472142259758e-09,-5.691301652177572e-09,0.0,-2.8559266951333484e-08,-5.042174677782896e-09,-0.0015276767080649734,-0.0015206777025014162,-3.780524764351867e-07,9.406742407236379e-08,-5.638871698465664e-07,0.0,5.5381842685164884e-05,0.00015746286953799427,0.001620826660655439,0.001614140346646309,,,,,,,,,,,,,,,,,,,,,,,,,,,,,,,,,,,,,,,,,,,,,,,,,,,,,,,,,,,,,,,,,,,,,,,,,,
44,2.045269250869751,0.6108039617538452,1.5708342790603638,0.38994876950979235,0.0,-3.141592675445488,1.258690818239927e-09,0.5002535581588745,0.5002526044845581,0.6076991558074951,1.5715680122375488,0.38737855017185213,0.0,-3.1416018545607836,-2.611194213386625e-05,0.5002690553665161,0.5002681016921997,,,,,,,,,,,,,,,,,,,,,,,,,,,,,,,,,,,,,,,,,,,,,,,,,,,,,,,,,,,,,,,,,,,,,,,,,,,,,,,,,,,,,,,,,,,,,,,,,,,,,,,,,,,,,,,,,,,,,,,,,,,,,,,,,,,,,,-5.746403353157348e-09,3.455014052633487e-09,-4.749985293983627e-09,0.0,-2.3468228249612366e-08,-4.533903918968463e-09,-0.0012757310178130865,-0.001270041917450726,-3.1575157777297136e-07,7.86151161946691e-08,-4.7078378884179983e-07,0.0,4.622757842298597e-05,0.00013147700519766659,0.0013535380130633712,0.0013480797642841935,,,,,,,,,,,,,,,,,,,,,,,,,,,,,,,,,,,,,,,,,,,,,,,,,,,,,,,,,,,,,,,,,,,,,,,,,,
45,2.066484212875366,0.6108039617538452,1.5708342790603638,0.38994876950979235,0.0,-3.141592675445488,1.2496779167037175e-09,0.5002509951591492,0.5002501010894775,0.6076991558074951,1.5715680122375488,0.38737853527069094,0.0,-3.141600424049309,-2.202227733505424e-05,0.5002269148826599,0.5002261400222778,,,,,,,,,,,,,,,,,,,,,,,,,,,,,,,,,,,,,,,,,,,,,,,,,,,,,,,,,,,,,,,,,,,,,,,,,,,,,,,,,,,,,,,,,,,,,,,,,,,,,,,,,,,,,,,,,,,,,,,,,,,,,,,,,,,,,,-5.688893800481765e-09,3.420930205777495e-09,-4.702523259680902e-09,0.0,-2.3212987088072623e-08,-4.506417905503213e-09,-0.001263021258637309,-0.0012573973508551717,-2.66369028167901e-07,6.635947613631288e-08,-3.970129682784318e-07,0.0,3.8975711504463106e-05,0.00011088504106737673,0.0011417012428864837,0.0011371970176696777,,,,,,,,,,,,,,,,,,,,,,,,,,,,,,,,,,,,,,,,,,,,,,,,,,,,,,,,,,,,,,,,,,,,,,,,,,
46,2.0872931480407715,0.6108039617538452,1.5708342790603638,0.38994876950979235,0.0,-3.141592675445488,1.088576340180225e-09,0.5002075433731079,0.5002067685127258,0.6076991558074951,1.5715680122375488,0.38737852782011034,0.0,-3.1416003048400194,-2.1802718038088642e-05,0.5002246499061584,0.5002238750457764,,,,,,,,,,,,,,,,,,,,,,,,,,,,,,,,,,,,,,,,,,,,,,,,,,,,,,,,,,,,,,,,,,,,,,,,,,,,,,,,,,,,,,,,,,,,,,,,,,,,,,,,,,,,,,,,,,,,,,,,,,,,,,,,,,,,,,-4.704125977639251e-09,2.8318458689113868e-09,-3.8855656470104805e-09,0.0,-1.8859857675579406e-08,-4.004872433682749e-09,-0.0010442148195579648,-0.0010396996513009071,-2.6371753847342916e-07,6.570088828539156e-08,-3.930526872863993e-07,0.0,3.858644777210429e-05,0.0001097795320674777,0.001130327582359314,0.0011258741142228246,,,,,,,,,,,,,,,,,,,,,,,,,,,,,,,,,,,,,,,,,,,,,,,,,,,,,,,,,,,,,,,,,,,,,,,,,,
47,2.109285593032837,0.6108039617538452,1.5708342790603638,0.38994876950979235,0.0,-3.141592675445488,1.088576340180225e-09,0.5002075433731079,0.5002067685127258,0.6076991558074951,1.5715680122375488,0.38737852036952974,0.0,-3.141599112747124,-1.838796742958948e-05,0.500189483165741,0.5001888871192932,,,,,,,,,,,,,,,,,,,,,,,,,,,,,,,,,,,,,,,,,,,,,,,,,,,,,,,,,,,,,,,,,,,,,,,,,,,,,,,,,,,,,,,,,,,,,,,,,,,,,,,,,,,,,,,,,,,,,,,,,,,,,,,,,,,,,,-4.704125977639251e-09,2.8318458689113868e-09,-3.8855656470104805e-09,0.0,-1.8859857675579406e-08,-4.004872433682749e-09,-0.0010442148195579648,-0.0010396996513009071,-2.224729342970022e-07,5.545841474940971e-08,-3.3146213240797806e-07,0.0,3.2533262128708884e-05,9.258583304472268e-05,0.0009534246055409312,0.0009497514693066478,,,,,,,,,,,,,,,,,,,,,,,,,,,,,,,,,,,,,,,,,,,,,,,,,,,,,,,,,,,,,,,,,,,,,,,,,,
48,2.130770683288574,0.6108039617538452,1.5708342790603638,0.38994876950979235,0.0,-3.141592675445488,9.528642319622804e-10,0.5001733303070068,0.5001726746559143,0.6076991558074951,1.5715680122375488,0.38737852036952974,0.0,-3.141599112747124,-1.838796742958948e-05,0.500189483165741,0.5001888871192932,,,,,,,,,,,,,,,,,,,,,,,,,,,,,,,,,,,,,,,,,,,,,,,,,,,,,,,,,,,,,,,,,,,,,,,,,,,,,,,,,,,,,,,,,,,,,,,,,,,,,,,,,,,,,,,,,,,,,,,,,,,,,,,,,,,,,,-3.928801728392273e-09,2.3675506000131463e-09,-3.2429614549300823e-09,0.0,-1.548572470255749e-08,-3.564916806197971e-09,-0.0008720020996406674,-0.0008683379273861647,-2.224729342970022e-07,5.545841474940971e-08,-3.3146213240797806e-07,0.0,3.2533262128708884e-05,9.258583304472268e-05,0.0009534246055409312,0.0009497514693066478,,,,,,,,,,,,,,,,,,,,,,,,,,,,,,,,,,,,,,,,,,,,,,,,,,,,,,,,,,,,,,,,,,,,,,,,,,
49,2.1520321369171143,0.6108039617538452,1.5708342790603638,0.38994876950979235,0.0,-3.141592675445488,9.528642319622804e-10,0.5001733303070068,0.5001726746559143,0.6076991558074951,1.5715680122375488,0.38737850546836855,0.0,-3.141598039863518,-1.535342016723007e-05,0.5001582503318787,0.5001577138900757,,,,,,,,,,,,,,,,,,,,,,,,,,,,,,,,,,,,,,,,,,,,,,,,,,,,,,,,,,,,,,,,,,,,,,,,,,,,,,,,,,,,,,,,,,,,,,,,,,,,,,,,,,,,,,,,,,,,,,,,,,,,,,,,,,,,,,-3.928801728392273e-09,2.3675506000131463e-09,-3.2429614549300823e-09,0.0,-1.548572470255749e-08,-3.564916806197971e-09,-0.0008720020996406674,-0.0008683379273861647,-1.8581064864520158e-07,4.6348258564421485e-08,-2.767344824405882e-07,0.0,2.7155705538461916e-05,7.730651122983545e-05,0.0007961964583955705,0.00079320278018713,,,,,,,,,,,,,,,,,,,,,,,,,,,,,,,,,,,,,,,,,,,,,,,,,,,,,,,,,,,,,,,,,,,,,,,,,,
50,2.1735920906066895,0.6108039617538452,1.5708342790603638,0.38994876950979235,0.0,-3.141592675445488,8.260266359805257e-10,0.50014328956604,0.5001428127288818,0.6076991558074951,1.5715680122375488,0.38737849801778795,0.0,-3.141597205398491,-1.2948759831488132e-05,0.5001335144042969,0.5001330375671387,,,,,,,,,,,,,,,,,,,,,,,,,,,,,,,,,,,,,,,,,,,,,,,,,,,,,,,,,,,,,,,,,,,,,,,,,,,,,,,,,,,,,,,,,,,,,,,,,,,,,,,,,,,,,,,,,,,,,,,,,,,,,,,,,,,,,,-3.2485680812044393e-09,1.959876705370789e-09,-2.6795372587429256e-09,0.0,-1.257205450855281e-08,-3.1399043365354373e-09,-0.0007209359901025891,-0.0007179994718171656,-1.56750772362102e-07,3.912259316507516e-08,-2.333707556090303e-07,0.0,2.289568874402903e-05,6.51987356832251e-05,0.0006715869531035423,0.000669120519887656,,,,,,,,,,,,,,,,,,,,,,,,,,,,,,,,,,,,,,,,,,,,,,,,,,,,,,,,,,,,,,,,,,,,,,,,,,
51,2.1947853565216064,0.6108039617538452,1.5708342790603638,0.38994876950979235,0.0,-3.141592675445488,7.200492979642092e-10,0.5001196265220642,0.5001192688941956,0.6076991558074951,1.5715680122375488,0.38737849801778795,0.0,-3.1415971457938463,-1.2819662515539676e-05,0.500132143497467,0.5001317262649536,,,,,,,,,,,,,,,,,,,,,,,,,,,,,,,,,,,,,,,,,,,,,,,,,,,,,,,,,,,,,,,,,,,,,,,,,,,,,,,,,,,,,,,,,,,,,,,,,,,,,,,,,,,,,,,,,,,,,,,,,,,,,,,,,,,,,,-2.713052005276495e-09,1.6383561174393435e-09,-2.2363499940780684e-09,0.0,-1.0314582965520458e-08,-2.7741919872426024e-09,-0.0006020386354066432,-0.0005996598629280925,-1.551900226104408e-07,3.8734459195666204e-08,-2.3104286128727836e-07,0.0,2.2667019948130473e-05,6.454871618188918e-05,0.0006648966227658093,0.0006624581874348223,,,,,,,,,,,,,,,,,,,,,,,,,,,,,,,,,,,,,,,,,,,,,,,,,,,,,,,,,,,,,,,,,,,,,,,,,,
52,2.2157938480377197,0.6108039617538452,1.5708342790603638,0.38994876950979235,0.0,-3.141592675445488,7.145392055818434e-10,0.5001184344291687,0.5001180768013,0.6076990962028503,1.5715680122375488,0.38737849056720736,0.0,-3.141596430538109,-1.070404687197879e-05,0.500110387802124,0.5001100301742554,,,,,,,,,,,,,,,,,,,,,,,,,,,,,,,,,,,,,,,,,,,,,,,,,,,,,,,,,,,,,,,,,,,,,,,,,,,,,,,,,,,,,,,,,,,,,,,,,,,,,,,,,,,,,,,,,,,,,,,,,,,,,,,,,,,,,,-2.6859625634756412e-09,1.6220358389773537e-09,-2.214069150241471e-09,0.0,-1.0202061417885488e-08,-2.755029537837572e-09,-0.0005960406851954758,-0.00059368961956352,-1.2961560003077466e-07,3.2371438862810464e-08,-1.9289535657662782e-07,0.0,1.892028740257956e-05,5.389631769503467e-05,0.0005552492802962661,0.0005532643990591168,,,,,,,,,,,,,,,,,,,,,,,,,,,,,,,,,,,,,,,,,,,,,,,,,,,,,,,,,,,,,,,,,,,,,,,,,,
53,2.2375385761260986,0.6108039617538452,1.5708342790603638,0.38994876950979235,0.0,-3.141592675445488,6.217108494688262e-10,0.5000989437103271,0.5000985860824585,0.6076990962028503,1.5715680122375488,0.38737849056720736,0.0,-3.141596430538109,-1.070404687197879e-05,0.500110387802124,0.5001100301742554,,,,,,,,,,,,,,,,,,,,,,,,,,,,,,,,,,,,,,,,,,,,,,,,,,,,,,,,,,,,,,,,,,,,,,,,,,,,,,,,,,,,,,,,,,,,,,,,,,,,,,,,,,,,,,,,,,,,,,,,,,,,,,,,,,,,,,-2.24326113240636e-09,1.3560264022771662e-09,-1.8477858132470715e-09,0.0,-8.366585646513158e-09,-2.426397083254983e-09,-0.0004977411590516567,-0.0004958385252393782,-1.2961560003077466e-07,3.2371438862810464e-08,-1.9289535657662782e-07,0.0,1.892028740257956e-05,5.389631769503467e-05,0.0005552492802962661,0.0005532643990591168,,,,,,,,,,,,,,,,,,,,,,,,,,,,,,,,,,,,,,,,,,,,,,,,,,,,,,,,,,,,,,,,,,,,,,,,,,
54,2.259982109069824,0.6108039617538452,1.5708342790603638,0.38994876950979235,0.0,-3.141592675445488,6.217108494688262e-10,0.5000989437103271,0.5000985860824585,0.6076990962028503,1.5715680122375488,0.38737848311662676,0.0,-3.1415957748870165,-8.848463039612398e-06,0.5000912547111511,0.5000909566879272,,,,,,,,,,,,,,,,,,,,,,,,,,,,,,,,,,,,,,,,,,,,,,,,,,,,,,,,,,,,,,,,,,,,,,,,,,,,,,,,,,,,,,,,,,,,,,,,,,,,,,,,,,,,,,,,,,,,,,,,,,,,,,,,,,,,,,-2.24326113240636e-09,1.3560264022771662e-09,-1.8477858132470715e-09,0.0,-8.366585646513158e-09,-2.426397083254983e-09,-0.0004977411590516567,-0.0004958385252393782,-1.0717810283722429e-07,2.6785574647192334e-08,-1.594399208215691e-07,0.0,1.563513433211483e-05,4.455320959095843e-05,0.00045906458399258554,0.0004574683553073555,,,,,,,,,,,,,,,,,,,,,,,,,,,,,,,,,,,,,,,,,,,,,,,,,,,,,,,,,,,,,,,,,,,,,,,,,,
55,2.282036304473877,0.6108039617538452,1.5708342790603638,0.38994876950979235,0.0,-3.141592675445488,5.400689895296296e-10,0.5000826120376587,0.5000823736190796,0.6076990962028503,1.5715680122375488,0.38737848311662676,0.0,-3.1415957748870165,-8.848463039612398e-06,0.5000912547111511,0.5000909566879272,,,,,,,,,,,,,,,,,,,,,,,,,,,,,,,,,,,,,,,,,,,,,,,,,,,,,,,,,,,,,,,,,,,,,,,,,,,,,,,,,,,,,,,,,,,,,,,,,,,,,,,,,,,,,,,,,,,,,,,,,,,,,,,,,,,,,,-1.8737233986598767e-09,1.1337597527472099e-09,-1.5422594312752835e-09,0.0,-6.858902334982986e-09,-2.1311019615666282e-09,-0.00041565331048332155,-0.0004141151439398527,-1.0717810283722429e-07,2.6785574647192334e-08,-1.594399208215691e-07,0.0,1.563513433211483e-05,4.455320959095843e-05,0.00045906458399258554,0.0004574683553073555,,,,,,,,,,,,,,,,,,,,,,,,,,,,,,,,,,,,,,,,,,,,,,,,,,,,,,,,,,,,,,,,,,,,,,,,,,
56,2.3041787147521973,0.6108039617538452,1.5708342790603638,0.38994876950979235,0.0,-3.141592675445488,4.721850133115879e-10,0.5000696778297424,0.5000694990158081,0.6076990962028503,1.5715680122375488,0.38737848311662676,0.0,-3.1415952384452135,-7.3145502028637566e-06,0.5000754594802856,0.5000752210617065,,,,,,,,,,,,,,,,,,,,,,,,,,,,,,,,,,,,,,,,,,,,,,,,,,,,,,,,,,,,,,,,,,,,,,,,,,,,,,,,,,,,,,,,,,,,,,,,,,,,,,,,,,,,,,,,,,,,,,,,,,,,,,,,,,,,,,-1.5805134978563729e-09,9.575673587391975e-10,-1.300189178543576e-09,0.0,-5.683620241114795e-09,-1.881348854482212e-09,-0.000350596325006336,-0.0003493393014650792,-8.862466671644142e-08,2.2163272106467957e-08,-1.3178694757698395e-07,0.0,1.2920382687298115e-05,3.682975875562988e-05,0.00037954177241772413,0.0003782591375056654,,,,,,,,,,,,,,,,,,,,,,,,,,,,,,,,,,,,,,,,,,,,,,,,,,,,,,,,,,,,,,,,,,,,,,,,,,
57,2.3255438804626465,0.6108039617538452,1.5708342790603638,0.38994876950979235,0.0,-3.141592675445488,4.721850133115879e-10,0.5000696778297424,0.5000694990158081,0.6076990962028503,1.5715680122375488,0.38737847566604616,0.0,-3.1415948212127,-6.107437002356164e-06,0.5000630021095276,0.5000628232955933,,,,,,,,,,,,,,,,,,,,,,,,,,,,,,,,,,,,,,,,,,,,,,,,,,,,,,,,,,,,,,,,,,,,,,,,,,,,,,,,,,,,,,,,,,,,,,,,,,,,,,,,,,,,,,,,,,,,,,,,,,,,,,,,,,,,,,-1.5805134978563729e-09,9.575673587391975e-10,-1.300189178543576e-09,0.0,-5.683620241114795e-09,-1.881348854482212e-09,-0.000350596325006336,-0.0003493393014650792,-7.401990131938874e-08,1.8522738898241187e-08,-1.1002759947587037e-07,0.0,1.0784708138089627e-05,3.075178392464295e-05,0.0003169519768562168,0.000315910205245018,,,,,,,,,,,,,,,,,,,,,,,,,,,,,,,,,,,,,,,,,,,,,,,,,,,,,,,,,,,,,,,,,,,,,,,,,,
58,2.346459150314331,0.6108039617538452,1.5708342790603638,0.38994876950979235,0.0,-3.141592675445488,4.090348337815186e-10,0.5000581741333008,0.5000580549240112,0.6076990962028503,1.5715680122375488,0.38737847566604616,0.0,-3.1415948212127,-6.107437002356164e-06,0.5000630021095276,0.5000628232955933,,,,,,,,,,,,,,,,,,,,,,,,,,,,,,,,,,,,,,,,,,,,,,,,,,,,,,,,,,,,,,,,,,,,,,,,,,,,,,,,,,,,,,,,,,,,,,,,,,,,,,,,,,,,,,,,,,,,,,,,,,,,,,,,,,,,,,-1.3198886428256174e-09,8.004708007547379e-10,-1.0851251008858753e-09,0.0,-4.656108831824213e-09,-1.6450258932820816e-09,-0.0002927756868302822,-0.00029176168027333915,-7.401990131938874e-08,1.8522738898241187e-08,-1.1002759947587037e-07,0.0,1.0784708138089627e-05,3.075178392464295e-05,0.0003169519768562168,0.000315910205245018,,,,,,,,,,,,,,,,,,,,,,,,,,,,,,,,,,,,,,,,,,,,,,,,,,,,,,,,,,,,,,,,,,,,,,,,,,
59,2.3688859939575195,0.6108039617538452,1.5708342790603638,0.38994876950979235,0.0,-3.141592675445488,4.090348337815186e-10,0.5000581741333008,0.5000580549240112,0.6076990962028503,1.5715680122375488,0.38737846821546557,0.0,-3.1415944635848314,-5.048691036790842e-06,0.5000520944595337,0.5000519752502441,,,,,,,,,,,,,,,,,,,,,,,,,,,,,,,,,,,,,,,,,,,,,,,,,,,,,,,,,,,,,,,,,,,,,,,,,,,,,,,,,,,,,,,,,,,,,,,,,,,,,,,,,,,,,,,,,,,,,,,,,,,,,,,,,,,,,,-1.3198886428256174e-09,8.004708007547379e-10,-1.0851251008858753e-09,0.0,-4.656108831824213e-09,-1.6450258932820816e-09,-0.0002927756868302822,-0.00029176168027333915,-6.120648521346084e-08,1.5326074631616393e-08,-9.094461717040758e-08,0.0,8.912139492167626e-06,2.5420855308766477e-05,0.0002620470186229795,0.00026121133123524487,,,,,,,,,,,,,,,,,,,,,,,,,,,,,,,,,,,,,,,,,,,,,,,,,,,,,,,,,,,,,,,,,,,,,,,,,,
60,2.3903777599334717,0.6108039617538452,1.5708342790603638,0.38994876950979235,0.0,-3.141592675445488,3.5387309749168594e-10,0.5000485777854919,0.5000484585762024,0.6076990962028503,1.5715680122375488,0.38737846821546557,0.0,-3.1415944635848314,-5.048691036790842e-06,0.5000520944595337,0.5000519752502441,,,,,,,,,,,,,,,,,,,,,,,,,,,,,,,,,,,,,,,,,,,,,,,,,,,,,,,,,,,,,,,,,,,,,,,,,,,,,,,,,,,,,,,,,,,,,,,,,,,,,,,,,,,,,,,,,,,,,,,,,,,,,,,,,,,,,,-1.1024514634527804e-09,6.694644838489694e-10,-9.057130045952988e-10,0.0,-3.812894444621406e-09,-1.4355295840928761e-09,-0.0002444908895995468,-0.00024367393052671105,-6.120648521346084e-08,1.5326074631616393e-08,-9.094461717040758e-08,0.0,8.912139492167626e-06,2.5420855308766477e-05,0.0002620470186229795,0.00026121133123524487,,,,,,,,,,,,,,,,,,,,,,,,,,,,,,,,,,,,,,,,,,,,,,,,,,,,,,,,,,,,,,,,,,,,,,,,,,
61,2.411445140838623,0.6108039617538452,1.5708342790603638,0.38994876950979235,0.0,-3.141592675445488,3.0578459209174014e-10,0.500040590763092,0.5000404715538025,0.6076990962028503,1.5715680122375488,0.38737846821546557,0.0,-3.1415941059569628,-4.173482011537999e-06,0.5000430345535278,0.5000429749488831,,,,,,,,,,,,,,,,,,,,,,,,,,,,,,,,,,,,,,,,,,,,,,,,,,,,,,,,,,,,,,,,,,,,,,,,,,,,,,,,,,,,,,,,,,,,,,,,,,,,,,,,,,,,,,,,,,,,,,,,,,,,,,,,,,,,,,-9.206524431704111e-10,5.596634267135414e-10,-7.558675907404222e-10,0.0,-3.1204483441626962e-09,-1.2503649227113556e-09,-0.0002041692496277392,-0.00020351192506495863,-5.06111277331911e-08,1.268152249878085e-08,-7.517134292811534e-08,0.0,7.364705652435077e-06,2.1014062440372072e-05,0.00021665314852725714,0.00021598338207695633,,,,,,,,,,,,,,,,,,,,,,,,,,,,,,,,,,,,,,,,,,,,,,,,,,,,,,,,,,,,,,,,,,,,,,,,,,
62,2.4333810806274414,0.6108039617538452,1.5708342790603638,0.38994876950979235,0.0,-3.141592675445488,3.0578459209174014e-10,0.500040590763092,0.5000404715538025,0.6076990962028503,1.5715680122375488,0.38737846821546557,0.0,-3.1415939271430284,-3.519828396747471e-06,0.5000362992286682,0.5000362396240234,,,,,,,,,,,,,,,,,,,,,,,,,,,,,,,,,,,,,,,,,,,,,,,,,,,,,,,,,,,,,,,,,,,,,,,,,,,,,,,,,,,,,,,,,,,,,,,,,,,,,,,,,,,,,,,,,,,,,,,,,,,,,,,,,,,,,,-9.206524431704111e-10,5.596634267135414e-10,-7.558675907404222e-10,0.0,-3.1204483441626962e-09,-1.2503649227113556e-09,-0.0002041692496277392,-0.00020351192506495863,-4.269595876849053e-08,1.0704437336528372e-08,-6.339217151207777e-08,0.0,6.209367711562663e-06,1.7722826669341885e-05,0.00018274564354214817,0.0001821966579882428,,,,,,,,,,,,,,,,,,,,,,,,,,,,,,,,,,,,,,,,,,,,,,,,,,,,,,,,,,,,,,,,,,,,,,,,,,
63,2.4549999237060547,0.6108039617538452,1.5708342790603638,0.38994876950979235,0.0,-3.141592675445488,2.617774330637701e-10,0.5000335574150085,0.500033438205719,0.6076990962028503,1.5715680122375488,0.38737846821546557,0.0,-3.1415938675383837,-3.4847359984269133e-06,0.5000359416007996,0.5000358819961548,,,,,,,,,,,,,,,,,,,,,,,,,,,,,,,,,,,,,,,,,,,,,,,,,,,,,,,,,,,,,,,,,,,,,,,,,,,,,,,,,,,,,,,,,,,,,,,,,,,,,,,,,,,,,,,,,,,,,,,,,,,,,,,,,,,,,,-7.614464614391636e-10,4.632960681760778e-10,-6.245004513516506e-10,0.0,-2.525091247207456e-09,-1.0787206683460226e-09,-0.00016879886970855296,-0.00016827715444378555,-4.227057459615935e-08,1.0598188993071744e-08,-6.275983821524278e-08,0.0,6.147351541585522e-06,1.7546131857670844e-05,0.00018092514073941857,0.00018038255802821368,,,,,,,,,,,,,,,,,,,,,,,,,,,,,,,,,,,,,,,,,,,,,,,,,,,,,,,,,,,,,,,,,,,,,,,,,,
64,2.476613759994507,0.6108039617538452,1.5708342790603638,0.38994876950979235,0.0,-3.141592675445488,2.617774330637701e-10,0.5000335574150085,0.500033438205719,0.6076990962028503,1.5715680122375488,0.38737846076488497,0.0,-3.1415936887244493,-2.9096531761751976e-06,0.5000300407409668,0.500029981136322,,,,,,,,,,,,,,,,,,,,,,,,,,,,,,,,,,,,,,,,,,,,,,,,,,,,,,,,,,,,,,,,,,,,,,,,,,,,,,,,,,,,,,,,,,,,,,,,,,,,,,,,,,,,,,,,,,,,,,,,,,,,,,,,,,,,,,-7.614464614391636e-10,4.632960681760778e-10,-6.245004513516506e-10,0.0,-2.525091247207456e-09,-1.0787206683460226e-09,-0.00016879886970855296,-0.00016827715444378555,-3.530464809387013e-08,8.857137245854574e-09,-5.239757072672546e-08,0.0,5.1312194955244195e-06,1.4650511729996651e-05,0.0001510889851488173,0.0001506498665548861,,,,,,,,,,,,,,,,,,,,,,,,,,,,,,,,,,,,,,,,,,,,,,,,,,,,,,,,,,,,,,,,,,,,,,,,,,
65,2.4980010986328125,0.6108039617538452,1.5708342790603638,0.38994876950979235,0.0,-3.141592675445488,2.2384433195909992e-10,0.5000277161598206,0.5000276565551758,0.6076990962028503,1.5715680122375488,0.38737846076488497,0.0,-3.1415936887244493,-2.9096531761751976e-06,0.5000300407409668,0.500029981136322,,,,,,,,,,,,,,,,,,,,,,,,,,,,,,,,,,,,,,,,,,,,,,,,,,,,,,,,,,,,,,,,,,,,,,,,,,,,,,,,,,,,,,,,,,,,,,,,,,,,,,,,,,,,,,,,,,,,,,,,,,,,,,,,,,,,,,-6.292744103575387e-10,3.8336001040306655e-10,-5.159969673762532e-10,0.0,-2.0420332091930504e-09,-9.289173319437793e-10,-0.00013955606846138835,-0.00013914269220549613,-3.530464809387013e-08,8.857137245854574e-09,-5.239757072672546e-08,0.0,5.1312194955244195e-06,1.4650511729996651e-05,0.0001510889851488173,0.0001506498665548861,,,,,,,,,,,,,,,,,,,,,,,,,,,,,,,,,,,,,,,,,,,,,,,,,,,,,,,,,,,,,,,,,,,,,,,,,,
66,2.520376205444336,0.6108039617538452,1.5708342790603638,0.38994876950979235,0.0,-3.141592675445488,2.2384433195909992e-10,0.5000277161598206,0.5000276565551758,0.6076990962028503,1.5715680122375488,0.38737846076488497,0.0,-3.141593509910515,-2.453941078783828e-06,0.5000253319740295,0.5000252723693848,,,,,,,,,,,,,,,,,,,,,,,,,,,,,,,,,,,,,,,,,,,,,,,,,,,,,,,,,,,,,,,,,,,,,,,,,,,,,,,,,,,,,,,,,,,,,,,,,,,,,,,,,,,,,,,,,,,,,,,,,,,,,,,,,,,,,,-6.292744103575387e-10,3.8336001040306655e-10,-5.159969673762532e-10,0.0,-2.0420332091930504e-09,-9.289173319437793e-10,-0.00013955606846138835,-0.00013914269220549613,-2.9783231880742278e-08,7.476352870128267e-09,-4.418698651420527e-08,0.0,4.326257112552412e-06,1.2355939361441415e-05,0.00012744266132358462,0.00012708338908851147,,,,,,,,,,,,,,,,,,,,,,,,,,,,,,,,,,,,,,,,,,,,,,,,,,,,,,,,,,,,,,,,,,,,,,,,,,
67,2.542479991912842,0.6108039617538452,1.5708342790603638,0.38994876950979235,0.0,-3.141592675445488,1.9279713936448672e-10,0.5000231862068176,0.5000231266021729,0.6076990962028503,1.5715680122375488,0.38737846076488497,0.0,-3.1415933907012255,-2.0696029423561413e-06,0.5000213384628296,0.5000213384628296,,,,,,,,,,,,,,,,,,,,,,,,,,,,,,,,,,,,,,,,,,,,,,,,,,,,,,,,,,,,,,,,,,,,,,,,,,,,,,,,,,,,,,,,,,,,,,,,,,,,,,,,,,,,,,,,,,,,,,,,,,,,,,,,,,,,,,-5.258016244624741e-10,3.206324095117452e-10,-4.3075959466065683e-10,0.0,-1.6689982729189978e-09,-8.053221978165936e-10,-0.00011654036643449217,-0.00011620938312262297,-2.5125235225686993e-08,6.310840738876777e-09,-3.7262964269757504e-08,0.0,3.647573294074391e-06,1.0420743819850031e-05,0.00010749712237156928,0.00010720347927417606,,,,,,,,,,,,,,,,,,,,,,,,,,,,,,,,,,,,,,,,,,,,,,,,,,,,,,,,,,,,,,,,,,,,,,,,,,
68,2.5634706020355225,0.6108039617538452,1.5708342790603638,0.38994876950979235,0.0,-3.141592675445488,1.6452093853924765e-10,0.5000191330909729,0.5000191330909729,0.6076990962028503,1.5715680122375488,0.38737846076488497,0.0,-3.1415933907012255,-2.0696029423561413e-06,0.5000213384628296,0.5000213384628296,,,,,,,,,,,,,,,,,,,,,,,,,,,,,,,,,,,,,,,,,,,,,,,,,,,,,,,,,,,,,,,,,,,,,,,,,,,,,,,,,,,,,,,,,,,,,,,,,,,,,,,,,,,,,,,,,,,,,,,,,,,,,,,,,,,,,,-4.347633364432113e-10,2.651212582804874e-10,-3.5592362390701737e-10,0.0,-1.34825484110479e-09,-6.916525685518593e-10,-9.635085734771565e-05,-9.608961408957839e-05,-2.5125235225686993e-08,6.310840738876777e-09,-3.7262964269757504e-08,0.0,3.647573294074391e-06,1.0420743819850031e-05,0.00010749712237156928,0.00010720347927417606,,,,,,,,,,,,,,,,,,,,,,,,,,,,,,,,,,,,,,,,,,,,,,,,,,,,,,,,,,,,,,,,,,,,,,,,,,
69,2.5851924419403076,0.6108039617538452,1.5708342790603638,0.38994876950979235,0.0,-3.141592675445488,1.6452093853924765e-10,0.5000191330909729,0.5000191330909729,0.6076990962028503,1.5715680122375488,0.38737846076488497,0.0,-3.141593271491936,-1.7108295651269145e-06,0.5000176429748535,0.5000176429748535,,,,,,,,,,,,,,,,,,,,,,,,,,,,,,,,,,,,,,,,,,,,,,,,,,,,,,,,,,,,,,,,,,,,,,,,,,,,,,,,,,,,,,,,,,,,,,,,,,,,,,,,,,,,,,,,,,,,,,,,,,,,,,,,,,,,,,-4.347633364432113e-10,2.651212582804874e-10,-3.5592362390701737e-10,0.0,-1.34825484110479e-09,-6.916525685518593e-10,-9.635085734771565e-05,-9.608961408957839e-05,-2.077582550441548e-08,5.221822974021961e-09,-3.0800126893382185e-08,0.0,3.0142339255689876e-06,8.614269972895272e-06,8.887561125447974e-05,8.864152187015861e-05,,,,,,,,,,,,,,,,,,,,,,,,,,,,,,,,,,,,,,,,,,,,,,,,,,,,,,,,,,,,,,,,,,,,,,,,,,
70,2.606278419494629,0.6108039617538452,1.5708342790603638,0.38994876950979235,0.0,-3.141592675445488,1.4144301008212068e-10,0.5000159740447998,0.5000159740447998,0.6076990962028503,1.5715680122375488,0.38737846076488497,0.0,-3.141593271491936,-1.7108295651269145e-06,0.5000176429748535,0.5000176429748535,,,,,,,,,,,,,,,,,,,,,,,,,,,,,,,,,,,,,,,,,,,,,,,,,,,,,,,,,,,,,,,,,,,,,,,,,,,,,,,,,,,,,,,,,,,,,,,,,,,,,,,,,,,,,,,,,,,,,,,,,,,,,,,,,,,,,,-3.631539513548887e-10,2.2215562722749382e-10,-2.970054757689411e-10,0.0,-1.1009526623695365e-09,-5.980151929207977e-10,-8.046059519983828e-05,-8.025224815355614e-05,-2.077582550441548e-08,5.221822974021961e-09,-3.0800126893382185e-08,0.0,3.0142339255689876e-06,8.614269972895272e-06,8.887561125447974e-05,8.864152187015861e-05,,,,,,,,,,,,,,,,,,,,,,,,,,,,,,,,,,,,,,,,,,,,,,,,,,,,,,,,,,,,,,,,,,,,,,,,,,
71,2.6274123191833496,0.6108039617538452,1.5708342790603638,0.38994876950979235,0.0,-3.141592675445488,1.4144301008212068e-10,0.5000159740447998,0.5000159740447998,0.6076990962028503,1.5715680122375488,0.38737846076488497,0.0,-3.1415931522826464,-1.4142508462100523e-06,0.50001460313797,0.50001460313797,,,,,,,,,,,,,,,,,,,,,,,,,,,,,,,,,,,,,,,,,,,,,,,,,,,,,,,,,,,,,,,,,,,,,,,,,,,,,,,,,,,,,,,,,,,,,,,,,,,,,,,,,,,,,,,,,,,,,,,,,,,,,,,,,,,,,,-3.631539513548887e-10,2.2215562722749382e-10,-2.970054757689411e-10,0.0,-1.1009526623695365e-09,-5.980151929207977e-10,-8.046059519983828e-05,-8.025224815355614e-05,-1.717942410550677e-08,4.320654944933722e-09,-2.545817778809578e-08,0.0,2.4908624709496507e-06,7.120955160644371e-06,7.347987411776558e-05,7.329350773943588e-05,,,,,,,,,,,,,,,,,,,,,,,,,,,,,,,,,,,,,,,,,,,,,,,,,,,,,,,,,,,,,,,,,,,,,,,,,,
72,2.6489109992980957,0.6108039617538452,1.5708342790603638,0.38994876950979235,0.0,-3.141592675445488,1.204803479204486e-10,0.5000132322311401,0.5000131726264954,0.6076990962028503,1.5715680122375488,0.38737846076488497,0.0,-3.1415930926780016,-1.1927496643693303e-06,0.5000123381614685,0.5000122785568237,,,,,,,,,,,,,,,,,,,,,,,,,,,,,,,,,,,,,,,,,,,,,,,,,,,,,,,,,,,,,,,,,,,,,,,,,,,,,,,,,,,,,,,,,,,,,,,,,,,,,,,,,,,,,,,,,,,,,,,,,,,,,,,,,,,,,,-3.0020430585864233e-10,1.837419105754634e-10,-2.4549112742633383e-10,0.0,-8.887335312124378e-10,-5.121844615096904e-10,-6.652156298514456e-05,-6.635786849074066e-05,-1.4492574251789847e-08,3.646860591288714e-09,-2.146897948307469e-08,0.0,2.1001055756642018e-06,6.005665909469826e-06,6.19798302068375e-05,6.182804645504802e-05,,,,,,,,,,,,,,,,,,,,,,,,,,,,,,,,,,,,,,,,,,,,,,,,,,,,,,,,,,,,,,,,,,,,,,,,,,
73,2.6702158451080322,0.6108039617538452,1.5708342790603638,0.38994876950979235,0.0,-3.141592675445488,1.0429602320671805e-10,0.500011146068573,0.500011146068573,0.6076990962028503,1.5715680122375488,0.38737846076488497,0.0,-3.1415930926780016,-1.180858134830487e-06,0.500012218952179,0.5000121593475342,,,,,,,,,,,,,,,,,,,,,,,,,,,,,,,,,,,,,,,,,,,,,,,,,,,,,,,,,,,,,,,,,,,,,,,,,,,,,,,,,,,,,,,,,,,,,,,,,,,,,,,,,,,,,,,,,,,,,,,,,,,,,,,,,,,,,,-2.533528942194607e-10,1.5509815654013437e-10,-2.0688312174499401e-10,0.0,-7.326361739501408e-10,-4.455755764354308e-10,-5.610978041659109e-05,-5.5978169257286936e-05,-1.4348467303193502e-08,3.610889365290859e-09,-2.1254789928093487e-08,0.0,2.0791308088519145e-06,5.945790235273307e-06,6.13623924436979e-05,6.121243495726958e-05,,,,,,,,,,,,,,,,,,,,,,,,,,,,,,,,,,,,,,,,,,,,,,,,,,,,,,,,,,,,,,,,,,,,,,,,,,
74,2.6913678646087646,0.6108039617538452,1.5708342790603638,0.38994876950979235,0.0,-3.141592675445488,1.0429602320671805e-10,0.500011146068573,0.500011146068573,0.6076990962028503,1.5715680122375488,0.38737845331430437,0.0,-3.141593033073357,-9.761519095263793e-07,0.500010073184967,0.500010073184967,,,,,,,,,,,,,,,,,,,,,,,,,,,,,,,,,,,,,,,,,,,,,,,,,,,,,,,,,,,,,,,,,,,,,,,,,,,,,,,,,,,,,,,,,,,,,,,,,,,,,,,,,,,,,,,,,,,,,,,,,,,,,,,,,,,,,,-2.533528942194607e-10,1.5509815654013437e-10,-2.0688312174499401e-10,0.0,-7.326361739501408e-10,-4.455755764354308e-10,-5.610978041659109e-05,-5.5978169257286936e-05,-1.1864287330354273e-08,2.9876101592662963e-09,-1.7568439147908066e-08,0.0,1.7181233715746203e-06,4.915065346722258e-06,5.073270949651487e-05,5.061368574388325e-05,,,,,,,,,,,,,,,,,,,,,,,,,,,,,,,,,,,,,,,,,,,,,,,,,,,,,,,,,,,,,,,,,,,,,,,,,,
75,2.713193893432617,0.6108039617538452,1.5708342790603638,0.38994876950979235,0.0,-3.141592675445488,8.945989088404716e-11,0.500009298324585,0.500009298324585,0.6076990962028503,1.5715680122375488,0.38737845331430437,0.0,-3.141593033073357,-9.761519095263793e-07,0.500010073184967,0.500010073184967,,,,,,,,,,,,,,,,,,,,,,,,,,,,,,,,,,,,,,,,,,,,,,,,,,,,,,,,,,,,,,,,,,,,,,,,,,,,,,,,,,,,,,,,,,,,,,,,,,,,,,,,,,,,,,,,,,,,,,,,,,,,,,,,,,,,,,-2.1155299734232358e-10,1.2967404927621828e-10,-1.7262580254140403e-10,0.0,-5.976330541557218e-10,-3.836435336079802e-10,-4.68561083835084e-05,-4.675191667047329e-05,-1.1864287330354273e-08,2.9876101592662963e-09,-1.7568439147908066e-08,0.0,1.7181233715746203e-06,4.915065346722258e-06,5.073270949651487e-05,5.061368574388325e-05,,,,,,,,,,,,,,,,,,,,,,,,,,,,,,,,,,,,,,,,,,,,,,,,,,,,,,,,,,,,,,,,,,,,,,,,,,
76,2.735558271408081,0.6108039617538452,1.5708342790603638,0.38994876950979235,0.0,-3.141592675445488,8.945989088404716e-11,0.500009298324585,0.500009298324585,0.6076990962028503,1.5715680122375488,0.38737845331430437,0.0,-3.141592973468712,-8.069321779657912e-07,0.5000083446502686,0.5000083446502686,,,,,,,,,,,,,,,,,,,,,,,,,,,,,,,,,,,,,,,,,,,,,,,,,,,,,,,,,,,,,,,,,,,,,,,,,,,,,,,,,,,,,,,,,,,,,,,,,,,,,,,,,,,,,,,,,,,,,,,,,,,,,,,,,,,,,,-2.1155299734232358e-10,1.2967404927621828e-10,-1.7262580254140403e-10,0.0,-5.976330541557218e-10,-3.836435336079802e-10,-4.68561083835084e-05,-4.675191667047329e-05,-9.810763756945562e-09,2.472133608932836e-09,-1.452141162872067e-08,0.0,1.4197987638908671e-06,4.0630206967762206e-06,4.194438588456251e-05,4.185007492196746e-05,,,,,,,,,,,,,,,,,,,,,,,,,,,,,,,,,,,,,,,,,,,,,,,,,,,,,,,,,,,,,,,,,,,,,,,,,,
77,2.7569029331207275,0.6108039617538452,1.5708342790603638,0.38994876950979235,0.0,-3.141592675445488,7.668238960478746e-11,0.5000077486038208,0.5000077486038208,0.6076990962028503,1.5715680122375488,0.38737845331430437,0.0,-3.141592973468712,-8.069321779657912e-07,0.5000083446502686,0.5000083446502686,,,,,,,,,,,,,,,,,,,,,,,,,,,,,,,,,,,,,,,,,,,,,,,,,,,,,,,,,,,,,,,,,,,,,,,,,,,,,,,,,,,,,,,,,,,,,,,,,,,,,,,,,,,,,,,,,,,,,,,,,,,,,,,,,,,,,,-1.766364832178624e-10,1.084687895058778e-10,-1.4410694859634532e-10,0.0,-4.867217739956686e-10,-3.3039498914533283e-10,-3.9128561184043065e-05,-3.9046324673108757e-05,-9.810763756945562e-09,2.472133608932836e-09,-1.452141162872067e-08,0.0,1.4197987638908671e-06,4.0630206967762206e-06,4.194438588456251e-05,4.185007492196746e-05,,,,,,,,,,,,,,,,,,,,,,,,,,,,,,,,,,,,,,,,,,,,,,,,,,,,,,,,,,,,,,,,,,,,,,,,,,
78,2.7780559062957764,0.6108039617538452,1.5708342790603638,0.38994876950979235,0.0,-3.141592675445488,6.625459209042006e-11,0.5000065565109253,0.5000065565109253,0.6076990962028503,1.5715680122375488,0.38737845331430437,0.0,-3.1415929138640672,-6.737647595400631e-07,0.5000069737434387,0.5000069737434387,,,,,,,,,,,,,,,,,,,,,,,,,,,,,,,,,,,,,,,,,,,,,,,,,,,,,,,,,,,,,,,,,,,,,,,,,,,,,,,,,,,,,,,,,,,,,,,,,,,,,,,,,,,,,,,,,,,,,,,,,,,,,,,,,,,,,,-1.4893641875346475e-10,9.137135492665038e-11,-1.2146533778789603e-10,0.0,-4.007905118896815e-10,-2.866902548692707e-10,-3.300426033092663e-05,-3.293869303888641e-05,-8.193778988641043e-09,2.066014026524954e-09,-1.2123746451209172e-08,0.0,1.1851097951876e-06,3.3925036859727697e-06,3.502738763927482e-05,3.495187047519721e-05,,,,,,,,,,,,,,,,,,,,,,,,,,,,,,,,,,,,,,,,,,,,,,,,,,,,,,,,,,,,,,,,,,,,,,,,,,
79,2.7991747856140137,0.6108039617538452,1.5708342790603638,0.38994876950979235,0.0,-3.141592675445488,6.625459209042006e-11,0.5000065565109253,0.5000065565109253,0.6076990962028503,1.5715680122375488,0.38737845331430437,0.0,-3.1415928542594225,-5.625738594972063e-07,0.500005841255188,0.5000057816505432,,,,,,,,,,,,,,,,,,,,,,,,,,,,,,,,,,,,,,,,,,,,,,,,,,,,,,,,,,,,,,,,,,,,,,,,,,,,,,,,,,,,,,,,,,,,,,,,,,,,,,,,,,,,,,,,,,,,,,,,,,,,,,,,,,,,,,-1.4893641875346475e-10,9.137135492665038e-11,-1.2146533778789603e-10,0.0,-4.007905118896815e-10,-2.866902548692707e-10,-3.300426033092663e-05,-3.293869303888641e-05,-6.843581257243159e-09,1.7266188478970435e-09,-1.01220001269553e-08,0.0,9.892141861200798e-07,2.8326414849288994e-06,2.9251063097035512e-05,2.919070357165765e-05,,,,,,,,,,,,,,,,,,,,,,,,,,,,,,,,,,,,,,,,,,,,,,,,,,,,,,,,,,,,,,,,,,,,,,,,,,
80,2.820559024810791,0.6108039617538452,1.5708342790603638,0.38994876950979235,0.0,-3.141592675445488,5.6721446983765134e-11,0.5000054836273193,0.5000054836273193,0.6076990962028503,1.5715680122375488,0.38737845331430437,0.0,-3.1415928542594225,-5.569650625147915e-07,0.5000057816505432,0.5000057220458984,,,,,,,,,,,,,,,,,,,,,,,,,,,,,,,,,,,,,,,,,,,,,,,,,,,,,,,,,,,,,,,,,,,,,,,,,,,,,,,,,,,,,,,,,,,,,,,,,,,,,,,,,,,,,,,,,,,,,,,,,,,,,,,,,,,,,,-1.2445600106048005e-10,7.649436639667329e-11,-1.0137723993608461e-10,0.0,-3.262945469373335e-10,-2.4614846272363877e-10,-2.7561171009438112e-05,-2.7509777282830328e-05,-6.775413563531174e-09,1.7096324356202786e-09,-1.0021032892382209e-08,0.0,9.793342314878828e-07,2.804400537570473e-06,2.8959664632566273e-05,2.8900056349812075e-05,,,,,,,,,,,,,,,,,,,,,,,,,,,,,,,,,,,,,,,,,,,,,,,,,,,,,,,,,,,,,,,,,,,,,,,,,,
81,2.8416693210601807,0.6108039617538452,1.5708342790603638,0.38994876950979235,0.0,-3.141592675445488,5.6721446983765134e-11,0.5000054836273193,0.5000054836273193,0.6076990962028503,1.5715680122375488,0.38737845331430437,0.0,-3.1415928542594225,-4.650494815905404e-07,0.5000048279762268,0.5000048279762268,,,,,,,,,,,,,,,,,,,,,,,,,,,,,,,,,,,,,,,,,,,,,,,,,,,,,,,,,,,,,,,,,,,,,,,,,,,,,,,,,,,,,,,,,,,,,,,,,,,,,,,,,,,,,,,,,,,,,,,,,,,,,,,,,,,,,,-1.2445600106048005e-10,7.649436639667329e-11,-1.0137723993608461e-10,0.0,-3.262945469373335e-10,-2.4614846272363877e-10,-2.7561171009438112e-05,-2.7509777282830328e-05,-5.658973289968117e-09,1.428746010390114e-09,-8.366474624210696e-09,0.0,8.174520189641044e-07,2.3415925625158707e-06,2.418396070424933e-05,2.4136417778208852e-05,,,,,,,,,,,,,,,,,,,,,,,,,,,,,,,,,,,,,,,,,,,,,,,,,,,,,,,,,,,,,,,,,,,,,,,,,,
82,2.8631041049957275,0.6108039617538452,1.5708342790603638,0.38994876950979235,0.0,-3.141592675445488,4.8530162527482545e-11,0.5000045895576477,0.5000045895576477,0.6076990962028503,1.5715680122375488,0.38737845331430437,0.0,-3.1415928542594225,-4.650494815905404e-07,0.5000048279762268,0.5000048279762268,,,,,,,,,,,,,,,,,,,,,,,,,,,,,,,,,,,,,,,,,,,,,,,,,,,,,,,,,,,,,,,,,,,,,,,,,,,,,,,,,,,,,,,,,,,,,,,,,,,,,,,,,,,,,,,,,,,,,,,,,,,,,,,,,,,,,,-1.0380585280245214e-10,6.394884621840902e-11,-8.459205558253302e-11,0.0,-2.6567636979279996e-10,-2.1155739660105866e-10,-2.3015760234557092e-05,-2.2975649699219503e-05,-5.658973289968117e-09,1.428746010390114e-09,-8.366474624210696e-09,0.0,8.174520189641044e-07,2.3415925625158707e-06,2.418396070424933e-05,2.4136417778208852e-05,,,,,,,,,,,,,,,,,,,,,,,,,,,,,,,,,,,,,,,,,,,,,,,,,,,,,,,,,,,,,,,,,,,,,,,,,,
83,2.884098768234253,0.6108039617538452,1.5708342790603638,0.38994876950979235,0.0,-3.141592675445488,4.149883214843442e-11,0.5000038146972656,0.5000038146972656,0.6076990962028503,1.5715680122375488,0.38737845331430437,0.0,-3.1415927946547777,-3.883026806761336e-07,0.5000039935112,0.5000039935112,,,,,,,,,,,,,,,,,,,,,,,,,,,,,,,,,,,,,,,,,,,,,,,,,,,,,,,,,,,,,,,,,,,,,,,,,,,,,,,,,,,,,,,,,,,,,,,,,,,,,,,,,,,,,,,,,,,,,,,,,,,,,,,,,,,,,,-8.676392937445598e-11,5.3179682879545e-11,-7.059630657835214e-11,0.0,-2.1554980023097414e-10,-1.8168941351426326e-10,-1.9219982277718373e-05,-1.9188830265193246e-05,-4.726385949282985e-09,1.1939338406818933e-09,-6.9850445427732666e-09,0.0,6.823287321822136e-07,1.9551612240320537e-06,2.019581188505981e-05,2.015797872445546e-05,,,,,,,,,,,,,,,,,,,,,,,,,,,,,,,,,,,,,,,,,,,,,,,,,,,,,,,,,,,,,,,,,,,,,,,,,,
84,2.9049015045166016,0.6108039617538452,1.5708342790603638,0.38994876950979235,0.0,-3.141592675445488,4.113930723859127e-11,0.5000037550926208,0.5000037550926208,0.6076990962028503,1.5715680122375488,0.38737845331430437,0.0,-3.1415927946547777,-3.883026806761336e-07,0.5000039935112,0.5000039935112,,,,,,,,,,,,,,,,,,,,,,,,,,,,,,,,,,,,,,,,,,,,,,,,,,,,,,,,,,,,,,,,,,,,,,,,,,,,,,,,,,,,,,,,,,,,,,,,,,,,,,,,,,,,,,,,,,,,,,,,,,,,,,,,,,,,,,-8.609779555968089e-11,5.3179682879545e-11,-6.999956170261612e-11,0.0,-2.1255219806448622e-10,-1.7976257982166288e-10,-1.9028499082196504e-05,-1.8997785446117632e-05,-4.726385949282985e-09,1.1939338406818933e-09,-6.9850445427732666e-09,0.0,6.823287321822136e-07,1.9551612240320537e-06,2.019581188505981e-05,2.015797872445546e-05,,,,,,,,,,,,,,,,,,,,,,,,,,,,,,,,,,,,,,,,,,,,,,,,,,,,,,,,,,,,,,,,,,,,,,,,,,
85,2.927528142929077,0.6108039617538452,1.5708342790603638,0.38994876950979235,0.0,-3.141592675445488,3.485168750816392e-11,0.5000030994415283,0.5000030994415283,0.6076990962028503,1.5715680122375488,0.38737845331430437,0.0,-3.1415927946547777,-3.2422133244836004e-07,0.5000033378601074,0.5000033378601074,,,,,,,,,,,,,,,,,,,,,,,,,,,,,,,,,,,,,,,,,,,,,,,,,,,,,,,,,,,,,,,,,,,,,,,,,,,,,,,,,,,,,,,,,,,,,,,,,,,,,,,,,,,,,,,,,,,,,,,,,,,,,,,,,,,,,,-7.099876242477876e-11,4.3853809472693683e-11,-5.7773230643931583e-11,0.0,-1.7108536809473662e-10,-1.5321389990052836e-10,-1.573199187987484e-05,-1.5708623323007487e-05,-3.947453475205975e-09,9.978684545330907e-10,-5.831779503751022e-09,0.0,5.695409868167189e-07,1.6325025171681773e-06,1.686534596956335e-05,1.6835308997542597e-05,,,,,,,,,,,,,,,,,,,,,,,,,,,,,,,,,,,,,,,,,,,,,,,,,,,,,,,,,,,,,,,,,,,,,,,,,,
86,2.948892116546631,0.6108039617538452,1.5708342790603638,0.38994876950979235,0.0,-3.141592675445488,3.485168750816392e-11,0.5000030994415283,0.5000030994415283,0.6076990962028503,1.5715680122375488,0.38737845331430437,0.0,-3.1415927946547777,-2.707153043957078e-07,0.5000028014183044,0.5000028014183044,,,,,,,,,,,,,,,,,,,,,,,,,,,,,,,,,,,,,,,,,,,,,,,,,,,,,,,,,,,,,,,,,,,,,,,,,,,,,,,,,,,,,,,,,,,,,,,,,,,,,,,,,,,,,,,,,,,,,,,,,,,,,,,,,,,,,,-7.099876242477876e-11,4.3853809472693683e-11,-5.7773230643931583e-11,0.0,-1.7108536809473662e-10,-1.5321389990052836e-10,-1.573199187987484e-05,-1.5708623323007487e-05,-3.2968627827756336e-09,8.3366646919103e-10,-4.868890179920982e-09,0.0,4.7539677439090156e-07,1.363091769235325e-06,1.4084101167100016e-05,1.4060321518627461e-05,,,,,,,,,,,,,,,,,,,,,,,,,,,,,,,,,,,,,,,,,,,,,,,,,,,,,,,,,,,,,,,,,,,,,,,,,,
87,2.969899892807007,0.6108039617538452,1.5708342790603638,0.38994876950979235,0.0,-3.141592675445488,2.950941227486403e-11,0.5000025629997253,0.5000025629997253,0.6076990962028503,1.5715680122375488,0.38737845331430437,0.0,-3.1415927946547777,-2.707153043957078e-07,0.5000028014183044,0.5000028014183044,,,,,,,,,,,,,,,,,,,,,,,,,,,,,,,,,,,,,,,,,,,,,,,,,,,,,,,,,,,,,,,,,,,,,,,,,,,,,,,,,,,,,,,,,,,,,,,,,,,,,,,,,,,,,,,,,,,,,,,,,,,,,,,,,,,,,,-5.867528685143952e-11,3.630429290524262e-11,-4.771877337717001e-11,0.0,-1.3761214390228815e-10,-1.3006243304580778e-10,-1.3006573681195732e-05,-1.2988927664991934e-05,-3.2968627827756336e-09,8.3366646919103e-10,-4.868890179920982e-09,0.0,4.7539677439090156e-07,1.363091769235325e-06,1.4084101167100016e-05,1.4060321518627461e-05,,,,,,,,,,,,,,,,,,,,,,,,,,,,,,,,,,,,,,,,,,,,,,,,,,,,,,,,,,,,,,,,,,,,,,,,,,
88,2.9914333820343018,0.6108039617538452,1.5708342790603638,0.38994876950979235,0.0,-3.141592675445488,2.950941227486403e-11,0.5000025629997253,0.5000025629997253,0.6076990962028503,1.5715680122375488,0.38737845331430437,0.0,-3.141592735050133,-2.2603931881803874e-07,0.5000023245811462,0.5000023245811462,,,,,,,,,,,,,,,,,,,,,,,,,,,,,,,,,,,,,,,,,,,,,,,,,,,,,,,,,,,,,,,,,,,,,,,,,,,,,,,,,,,,,,,,,,,,,,,,,,,,,,,,,,,,,,,,,,,,,,,,,,,,,,,,,,,,,,-5.867528685143952e-11,3.630429290524262e-11,-4.771877337717001e-11,0.0,-1.3761214390228815e-10,-1.3006243304580778e-10,-1.3006573681195732e-05,-1.2988927664991934e-05,-2.7536861679777758e-09,6.969980148596733e-10,-4.064928837976822e-09,0.0,3.968139594690001e-07,1.1381418971723178e-06,1.1761509085772559e-05,1.1742738024622668e-05,,,,,,,,,,,,,,,,,,,,,,,,,,,,,,,,,,,,,,,,,,,,,,,,,,,,,,,,,,,,,,,,,,,,,,,,,,
89,3.0126163959503174,0.6108039617538452,1.5708342790603638,0.38994876950979235,0.0,-3.141592675445488,2.4972890075303233e-11,0.5000021457672119,0.5000021457672119,0.6076990962028503,1.5715680122375488,0.38737845331430437,0.0,-3.141592735050133,-2.2603931881803874e-07,0.5000023245811462,0.5000023245811462,,,,,,,,,,,,,,,,,,,,,,,,,,,,,,,,,,,,,,,,,,,,,,,,,,,,,,,,,,,,,,,,,,,,,,,,,,,,,,,,,,,,,,,,,,,,,,,,,,,,,,,,,,,,,,,,,,,,,,,,,,,,,,,,,,,,,,-4.8405723873656825e-11,2.986499936241671e-11,-3.938516179857743e-11,0.0,-1.0980105713542798e-10,-1.1037669389590832e-10,-1.0753308743005618e-05,-1.0740102879935876e-05,-2.7536861679777758e-09,6.969980148596733e-10,-4.064928837976822e-09,0.0,3.968139594690001e-07,1.1381418971723178e-06,1.1761509085772559e-05,1.1742738024622668e-05,,,,,,,,,,,,,,,,,,,,,,,,,,,,,,,,,,,,,,,,,,,,,,,,,,,,,,,,,,,,,,,,,,,,,,,,,,
90,3.0340418815612793,0.6108039617538452,1.5708342790603638,0.38994876950979235,0.0,-3.141592675445488,2.4972890075303233e-11,0.5000021457672119,0.5000021457672119,0.6076990962028503,1.5715680122375488,0.38737845331430437,0.0,-3.141592735050133,-1.8873618046200136e-07,0.5000019669532776,0.5000019669532776,,,,,,,,,,,,,,,,,,,,,,,,,,,,,,,,,,,,,,,,,,,,,,,,,,,,,,,,,,,,,,,,,,,,,,,,,,,,,,,,,,,,,,,,,,,,,,,,,,,,,,,,,,,,,,,,,,,,,,,,,,,,,,,,,,,,,,-4.8405723873656825e-11,2.986499936241671e-11,-3.938516179857743e-11,0.0,-1.0980105713542798e-10,-1.1037669389590832e-10,-1.0753308743005618e-05,-1.0740102879935876e-05,-2.300049040115937e-09,5.824229987183571e-10,-3.3938269972111357e-09,0.0,3.3122094578175165e-07,9.503150977252517e-07,9.821932508202735e-06,9.807165042730048e-06,,,,,,,,,,,,,,,,,,,,,,,,,,,,,,,,,,,,,,,,,,,,,,,,,,,,,,,,,,,,,,,,,,,,,,,,,,
91,3.055354356765747,0.6108039617538452,1.5708342790603638,0.38994876950979235,0.0,-3.141592675445488,2.1122246313121096e-11,0.5000017881393433,0.5000017881393433,0.6076990962028503,1.5715680122375488,0.38737845331430437,0.0,-3.141592735050133,-1.5758915594688006e-07,0.5000016093254089,0.5000016093254089,,,,,,,,,,,,,,,,,,,,,,,,,,,,,,,,,,,,,,,,,,,,,,,,,,,,,,,,,,,,,,,,,,,,,,,,,,,,,,,,,,,,,,,,,,,,,,,,,,,,,,,,,,,,,,,,,,,,,,,,,,,,,,,,,,,,,,-4.0190073491430667e-11,2.475797344914099e-11,-3.252259572761318e-11,0.0,-8.798517470154366e-11,-9.361154212905731e-11,-8.890399840311147e-06,-8.880626410245895e-06,-1.920741343752752e-09,4.867217739956686e-10,-2.833497436682819e-09,0.0,2.764705016033986e-07,7.93485071426403e-07,8.20220975583652e-06,8.190635526261758e-06,,,,,,,,,,,,,,,,,,,,,,,,,,,,,,,,,,,,,,,,,,,,,,,,,,,,,,,,,,,,,,,,,,,,,,,,,,
92,3.0776591300964355,0.6108039617538452,1.5708342790603638,0.38994876950979235,0.0,-3.141592675445488,1.8014468389226934e-11,0.5000014901161194,0.5000014901161194,0.6076990962028503,1.5715680122375488,0.38737845331430437,0.0,-3.141592735050133,-1.5758915594688006e-07,0.5000016093254089,0.5000016093254089,,,,,,,,,,,,,,,,,,,,,,,,,,,,,,,,,,,,,,,,,,,,,,,,,,,,,,,,,,,,,,,,,,,,,,,,,,,,,,,,,,,,,,,,,,,,,,,,,,,,,,,,,,,,,,,,,,,,,,,,,,,,,,,,,,,,,,-3.375077994860476e-11,2.098321516541546e-11,-2.7200464103316335e-11,0.0,-7.088774012231625e-11,-8.010669905189616e-11,-7.424188879667781e-06,-7.4169306572002824e-06,-1.920741343752752e-09,4.867217739956686e-10,-2.833497436682819e-09,0.0,2.764705016033986e-07,7.93485071426403e-07,8.20220975583652e-06,8.190635526261758e-06,,,,,,,,,,,,,,,,,,,,,,,,,,,,,,,,,,,,,,,,,,,,,,,,,,,,,,,,,,,,,,,,,,,,,,,,,,
93,3.0990357398986816,0.6108039617538452,1.5708342790603638,0.38994876950979235,0.0,-3.141592675445488,1.8014468389226934e-11,0.5000014901161194,0.5000014901161194,0.6076990962028503,1.5715680122375488,0.38737845331430437,0.0,-3.141592735050133,-1.3027045042690588e-07,0.5000013709068298,0.5000013709068298,,,,,,,,,,,,,,,,,,,,,,,,,,,,,,,,,,,,,,,,,,,,,,,,,,,,,,,,,,,,,,,,,,,,,,,,,,,,,,,,,,,,,,,,,,,,,,,,,,,,,,,,,,,,,,,,,,,,,,,,,,,,,,,,,,,,,,-3.375077994860476e-11,2.098321516541546e-11,-2.7200464103316335e-11,0.0,-7.088774012231625e-11,-8.010669905189616e-11,-7.424188879667781e-06,-7.4169306572002824e-06,-1.5882295478775177e-09,4.028999356364693e-10,-2.3419945982539048e-09,0.0,2.28465196983052e-07,6.559312737408618e-07,6.781358024454676e-06,6.772449978598161e-06,,,,,,,,,,,,,,,,,,,,,,,,,,,,,,,,,,,,,,,,,,,,,,,,,,,,,,,,,,,,,,,,,,,,,,,,,,
94,3.1203534603118896,0.6108039617538452,1.5708342790603638,0.38994876950979235,0.0,-3.141592675445488,1.5358317048685954e-11,0.5000012516975403,0.5000012516975403,0.6076990962028503,1.5715680122375488,0.38737845331430437,0.0,-3.141592735050133,-1.3027045042690588e-07,0.5000013709068298,0.5000013709068298,,,,,,,,,,,,,,,,,,,,,,,,,,,,,,,,,,,,,,,,,,,,,,,,,,,,,,,,,,,,,,,,,,,,,,,,,,,,,,,,,,,,,,,,,,,,,,,,,,,,,,,,,,,,,,,,,,,,,,,,,,,,,,,,,,,,,,-2.8033131371785203e-11,1.7208456881689926e-11,-2.2697121959680544e-11,0.0,-5.728750807065808e-11,-6.85604975569909e-11,-6.199785275384784e-06,-6.194480192789342e-06,-1.5882295478775177e-09,4.028999356364693e-10,-2.3419945982539048e-09,0.0,2.28465196983052e-07,6.559312737408618e-07,6.781358024454676e-06,6.772449978598161e-06,,,,,,,,,,,,,,,,,,,,,,,,,,,,,,,,,,,,,,,,,,,,,,,,,,,,,,,,,,,,,,,,,,,,,,,,,,
95,3.141662359237671,0.6108039617538452,1.5708342790603638,0.38994876950979235,0.0,-3.141592675445488,1.3322700581630542e-11,0.500001072883606,0.500001072883606,0.6076990962028503,1.5715680122375488,0.38737845331430437,0.0,-3.141592735050133,-1.076875406624822e-07,0.5000011324882507,0.5000011324882507,,,,,,,,,,,,,,,,,,,,,,,,,,,,,,,,,,,,,,,,,,,,,,,,,,,,,,,,,,,,,,,,,,,,,,,,,,,,,,,,,,,,,,,,,,,,,,,,,,,,,,,,,,,,,,,,,,,,,,,,,,,,,,,,,,,,,,-2.3869795029440866e-11,1.509903313490213e-11,-1.935257509799726e-11,0.0,-4.723998969780041e-11,-5.992428775414282e-11,-5.28203372596181e-06,-5.278087428450817e-06,-1.3133938381315602e-09,3.3306690738754696e-10,-1.9358334935049015e-09,0.0,1.8879525498505245e-07,5.422228355200787e-07,5.606636932498077e-06,5.599819814960938e-06,,,,,,,,,,,,,,,,,,,,,,,,,,,,,,,,,,,,,,,,,,,,,,,,,,,,,,,,,,,,,,,,,,,,,,,,,,
96,3.1627612113952637,0.6108039617538452,1.5708342790603638,0.38994876950979235,0.0,-3.141592675445488,1.3204641373387727e-11,0.5000010132789612,0.5000010132789612,0.6076990962028503,1.5715680122375488,0.38737845331430437,0.0,-3.141592735050133,-9.082140195459942e-08,0.5000009536743164,0.5000009536743164,,,,,,,,,,,,,,,,,,,,,,,,,,,,,,,,,,,,,,,,,,,,,,,,,,,,,,,,,,,,,,,,,,,,,,,,,,,,,,,,,,,,,,,,,,,,,,,,,,,,,,,,,,,,,,,,,,,,,,,,,,,,,,,,,,,,,,-2.3869795029440866e-11,1.454392162258955e-11,-1.91027749174566e-11,0.0,-4.718447854656915e-11,-5.902928146284125e-11,-5.229410817264579e-06,-5.225538643571781e-06,-1.1080025785759062e-09,2.814415367424772e-10,-1.6325135687722536e-09,0.0,1.5917750317839818e-07,4.5729959197160497e-07,4.729164629679872e-06,4.723827714769868e-06,,,,,,,,,,,,,,,,,,,,,,,,,,,,,,,,,,,,,,,,,,,,,,,,,,,,,,,,,,,,,,,,,,,,,,,,,,
97,3.1841299533843994,0.6108039617538452,1.5708342790603638,0.38994876950979235,0.0,-3.141592675445488,1.1250010471808292e-11,0.5000008940696716,0.5000008940696716,0.6076990962028503,1.5715680122375488,0.38737845331430437,0.0,-3.141592735050133,-8.991592181928354e-08,0.5000009536743164,0.5000009536743164,,,,,,,,,,,,,,,,,,,,,,,,,,,,,,,,,,,,,,,,,,,,,,,,,,,,,,,,,,,,,,,,,,,,,,,,,,,,,,,,,,,,,,,,,,,,,,,,,,,,,,,,,,,,,,,,,,,,,,,,,,,,,,,,,,,,,,-1.970645868709653e-11,1.2212453270876722e-11,-1.5959455978986625e-11,0.0,-3.7914116290949096e-11,-5.01471433822509e-11,-4.3669724618666805e-06,-4.364270807855064e-06,-1.0969003483296547e-09,2.7844393457598926e-10,-1.6162071680980716e-09,0.0,1.5758777749397268e-07,4.5274026660990785e-07,4.682053258875385e-06,4.67679274152033e-06,,,,,,,,,,,,,,,,,,,,,,,,,,,,,,,,,,,,,,,,,,,,,,,,,,,,,,,,,,,,,,,,,,,,,,,,,,
98,3.205382823944092,0.6108039617538452,1.5708342790603638,0.38994876950979235,0.0,-3.141592675445488,1.1250010471808292e-11,0.5000008940696716,0.5000008940696716,0.6076990962028503,1.5715680122375488,0.38737845331430437,0.0,-3.141592675445488,-7.432862503264914e-08,0.5000007748603821,0.5000007748603821,,,,,,,,,,,,,,,,,,,,,,,,,,,,,,,,,,,,,,,,,,,,,,,,,,,,,,,,,,,,,,,,,,,,,,,,,,,,,,,,,,,,,,,,,,,,,,,,,,,,,,,,,,,,,,,,,,,,,,,,,,,,,,,,,,,,,,-1.970645868709653e-11,1.2212453270876722e-11,-1.5959455978986625e-11,0.0,-3.7914116290949096e-11,-5.01471433822509e-11,-4.3669724618666805e-06,-4.364270807855064e-06,-9.071077222699842e-10,2.304822999121825e-10,-1.3358897321680274e-09,0.0,1.3022449252275692e-07,3.742561602848582e-07,3.870990440191235e-06,3.867019131575944e-06,,,,,,,,,,,,,,,,,,,,,,,,,,,,,,,,,,,,,,,,,,,,,,,,,,,,,,,,,,,,,,,,,,,,,,,,,,
99,3.226588010787964,0.6108039617538452,1.5708342790603638,0.38994876950979235,0.0,-3.141592675445488,9.579724166708381e-12,0.5000007152557373,0.5000007152557373,0.6076990962028503,1.5715680122375488,0.38737845331430437,0.0,-3.141592675445488,-7.432862503264914e-08,0.5000007748603821,0.5000007748603821,,,,,,,,,,,,,,,,,,,,,,,,,,,,,,,,,,,,,,,,,,,,,,,,,,,,,,,,,,,,,,,,,,,,,,,,,,,,,,,,,,,,,,,,,,,,,,,,,,,,,,,,,,,,,,,,,,,,,,,,,,,,,,,,,,,,,,-1.659783421814609e-11,1.021405182655144e-11,-1.3329615189405786e-11,0.0,-3.036459972349803e-11,-4.3235377084061e-11,-3.6467670270212693e-06,-3.6449562230700394e-06,-9.071077222699842e-10,2.304822999121825e-10,-1.3358897321680274e-09,0.0,1.3022449252275692e-07,3.742561602848582e-07,3.870990440191235e-06,3.867019131575944e-06,,,,,,,,,,,,,,,,,,,,,,,,,,,,,,,,,,,,,,,,,,,,,,,,,,,,,,,,,,,,,,,,,,,,,,,,,,
100,3.2474212646484375,0.6108039617538452,1.5708342790603638,0.38994876950979235,0.0,-3.141592675445488,9.579724166708381e-12,0.5000007152557373,0.5000007152557373,0.6076990962028503,1.5715680122375488,0.38737845331430437,0.0,-3.141592675445488,-6.144345832126419e-08,0.5000006556510925,0.5000006556510925,,,,,,,,,,,,,,,,,,,,,,,,,,,,,,,,,,,,,,,,,,,,,,,,,,,,,,,,,,,,,,,,,,,,,,,,,,,,,,,,,,,,,,,,,,,,,,,,,,,,,,,,,,,,,,,,,,,,,,,,,,,,,,,,,,,,,,-1.659783421814609e-11,1.021405182655144e-11,-1.3329615189405786e-11,0.0,-3.036459972349803e-11,-4.3235377084061e-11,-3.6467670270212693e-06,-3.6449562230700394e-06,-7.498446308318307e-10,1.9062529332813938e-10,-1.104200064716565e-09,0.0,1.0761258550928687e-07,3.0937727046875807e-07,3.200427045157994e-06,3.197456180714653e-06,,,,,,,,,,,,,,,,,,,,,,,,,,,,,,,,,,,,,,,,,,,,,,,,,,,,,,,,,,,,,,,,,,,,,,,,,,
101,3.2706964015960693,0.6108039617538452,1.5708342790603638,0.38994876950979235,0.0,-3.141592675445488,8.154924652226114e-12,0.5000005960464478,0.5000005960464478,0.6076990962028503,1.5715680122375488,0.38737845331430437,0.0,-3.141592675445488,-6.144345832126419e-08,0.5000006556510925,0.5000006556510925,,,,,,,,,,,,,,,,,,,,,,,,,,,,,,,,,,,,,,,,,,,,,,,,,,,,,,,,,,,,,,,,,,,,,,,,,,,,,,,,,,,,,,,,,,,,,,,,,,,,,,,,,,,,,,,,,,,,,,,,,,,,,,,,,,,,,,-1.3933298959045715e-11,8.881784197001252e-12,-1.1088352458443751e-11,0.0,-2.4091839634365897e-11,-3.676207602221204e-11,-3.0453395538643235e-06,-3.044197910639923e-06,-7.498446308318307e-10,1.9062529332813938e-10,-1.104200064716565e-09,0.0,1.0761258550928687e-07,3.0937727046875807e-07,3.200427045157994e-06,3.197456180714653e-06,,,,,,,,,,,,,,,,,,,,,,,,,,,,,,,,,,,,,,,,,,,,,,,,,,,,,,,,,,,,,,,,,,,,,,,,,,
102,3.2932021617889404,0.6108039617538452,1.5708342790603638,0.38994876950979235,0.0,-3.141592675445488,6.9398761910755e-12,0.5000004768371582,0.5000004768371582,0.6076990962028503,1.5715680122375488,0.38737845331430437,0.0,-3.141592675445488,-5.13034699167747e-08,0.500000536441803,0.500000536441803,,,,,,,,,,,,,,,,,,,,,,,,,,,,,,,,,,,,,,,,,,,,,,,,,,,,,,,,,,,,,,,,,,,,,,,,,,,,,,,,,,,,,,,,,,,,,,,,,,,,,,,,,,,,,,,,,,,,,,,,,,,,,,,,,,,,,,-1.1546319456101628e-11,7.2164496600635175e-12,-9.235667786100521e-12,0.0,-1.9373391779708982e-11,-3.128087719406203e-11,-2.5431002086406806e-06,-2.542456513765501e-06,-6.263878304935133e-10,1.5909495942878493e-10,-9.218806273914026e-10,0.0,8.982420496295163e-08,2.583208811302029e-07,2.672648861334892e-06,2.670414232852636e-06,,,,,,,,,,,,,,,,,,,,,,,,,,,,,,,,,,,,,,,,,,,,,,,,,,,,,,,,,,,,,,,,,,,,,,,,,,
103,3.314776659011841,0.6108039617538452,1.5708342790603638,0.38994876950979235,0.0,-3.141592675445488,6.9398761910755e-12,0.5000004768371582,0.5000004768371582,0.6076990962028503,1.5715680122375488,0.38737845331430437,0.0,-3.141592675445488,-4.283688426198751e-08,0.5000004172325134,0.5000004172325134,,,,,,,,,,,,,,,,,,,,,,,,,,,,,,,,,,,,,,,,,,,,,,,,,,,,,,,,,,,,,,,,,,,,,,,,,,,,,,,,,,,,,,,,,,,,,,,,,,,,,,,,,,,,,,,,,,,,,,,,,,,,,,,,,,,,,,-1.1546319456101628e-11,7.2164496600635175e-12,-9.235667786100521e-12,0.0,-1.9373391779708982e-11,-3.128087719406203e-11,-2.5431002086406806e-06,-2.542456513765501e-06,-5.230815780521425e-10,1.3300471835009375e-10,-7.69641295139678e-10,0.0,7.49769668573208e-08,2.1569033492596645e-07,2.2319050003716256e-06,2.2302458546619164e-06,,,,,,,,,,,,,,,,,,,,,,,,,,,,,,,,,,,,,,,,,,,,,,,,,,,,,,,,,,,,,,,,,,,,,,,,,,
104,3.3375415802001953,0.6108039617538452,1.5708342790603638,0.38994876950979235,0.0,-3.141592675445488,5.850492833248122e-12,0.5000004172325134,0.5000004172325134,0.6076990962028503,1.5715680122375488,0.38737845331430437,0.0,-3.141592675445488,-4.283688426198751e-08,0.5000004172325134,0.5000004172325134,,,,,,,,,,,,,,,,,,,,,,,,,,,,,,,,,,,,,,,,,,,,,,,,,,,,,,,,,,,,,,,,,,,,,,,,,,,,,,,,,,,,,,,,,,,,,,,,,,,,,,,,,,,,,,,,,,,,,,,,,,,,,,,,,,,,,,-9.492406860545088e-12,6.106226635438361e-12,-7.681355551625302e-12,0.0,-1.5376588891058418e-11,-2.6734416763707358e-11,-2.1025318801548565e-06,-2.1022708551754477e-06,-5.230815780521425e-10,1.3300471835009375e-10,-7.69641295139678e-10,0.0,7.49769668573208e-08,2.1569033492596645e-07,2.2319050003716256e-06,2.2302458546619164e-06,,,,,,,,,,,,,,,,,,,,,,,,,,,,,,,,,,,,,,,,,,,,,,,,,,,,,,,,,,,,,,,,,,,,,,,,,,
105,3.360751152038574,0.6108039617538452,1.5708342790603638,0.38994876950979235,0.0,-3.141592675445488,4.9756535697165205e-12,0.5000003576278687,0.5000003576278687,0.6076990962028503,1.5715680122375488,0.38737845331430437,0.0,-3.141592675445488,-3.5767531159081045e-08,0.5000003576278687,0.5000003576278687,,,,,,,,,,,,,,,,,,,,,,,,,,,,,,,,,,,,,,,,,,,,,,,,,,,,,,,,,,,,,,,,,,,,,,,,,,,,,,,,,,,,,,,,,,,,,,,,,,,,,,,,,,,,,,,,,,,,,,,,,,,,,,,,,,,,,,-7.882583474838611e-12,4.884981308350689e-12,-6.38378239159465e-12,0.0,-1.2434497875801753e-11,-2.266618663593345e-11,-1.7557804312673397e-06,-1.755776679601695e-06,-4.3703929364369287e-10,1.113553693699032e-10,-6.426040255469445e-10,0.0,6.258304807715831e-08,1.8009514235473034e-07,1.863844204308407e-06,1.8626305973157287e-06,,,,,,,,,,,,,,,,,,,,,,,,,,,,,,,,,,,,,,,,,,,,,,,,,,,,,,,,,,,,,,,,,,,,,,,,,,
106,3.3826093673706055,0.6108039617538452,1.5708342790603638,0.38994876950979235,0.0,-3.141592675445488,4.9307832122869044e-12,0.5000003576278687,0.5000003576278687,0.6076990962028503,1.5715680122375488,0.38737845331430437,0.0,-3.141592675445488,-3.016557670321163e-08,0.5000002980232239,0.5000002980232239,,,,,,,,,,,,,,,,,,,,,,,,,,,,,,,,,,,,,,,,,,,,,,,,,,,,,,,,,,,,,,,,,,,,,,,,,,,,,,,,,,,,,,,,,,,,,,,,,,,,,,,,,,,,,,,,,,,,,,,,,,,,,,,,,,,,,,-7.827072323607354e-12,4.9960036108132044e-12,-6.404599073306372e-12,0.0,-1.199040866595169e-11,-2.2435244634300133e-11,-1.7382878922944656e-06,-1.7382956229994306e-06,-3.68816088780477e-10,9.403589018575076e-11,-5.418721027439233e-10,0.0,5.276484671412618e-08,1.5188838631274848e-07,1.5721415138614248e-06,1.5712555523350602e-06,,,,,,,,,,,,,,,,,,,,,,,,,,,,,,,,,,,,,,,,,,,,,,,,,,,,,,,,,,,,,,,,,,,,,,,,,,
107,3.404334783554077,0.6108039617538452,1.5708342790603638,0.38994876950979235,0.0,-3.141592675445488,4.155337098715739e-12,0.5000002980232239,0.5000002980232239,0.6076990962028503,1.5715680122375488,0.38737845331430437,0.0,-3.141592675445488,-2.986482883216013e-08,0.5000002980232239,0.5000002980232239,,,,,,,,,,,,,,,,,,,,,,,,,,,,,,,,,,,,,,,,,,,,,,,,,,,,,,,,,,,,,,,,,,,,,,,,,,,,,,,,,,,,,,,,,,,,,,,,,,,,,,,,,,,,,,,,,,,,,,,,,,,,,,,,,,,,,,-6.439293542825908e-12,3.9968028886505635e-12,-5.2111093218343285e-12,0.0,-9.658940314238862e-12,-1.8727120548733822e-11,-1.4371463521456462e-06,-1.4373373460330185e-06,-3.6493030819428895e-10,9.314771176605063e-11,-5.36508337756203e-10,0.0,5.2237826508871876e-08,1.503741202668607e-07,1.5564802424705704e-06,1.5556103107883246e-06,,,,,,,,,,,,,,,,,,,,,,,,,,,,,,,,,,,,,,,,,,,,,,,,,,,,,,,,,,,,,,,,,,,,,,,,,,
108,3.4256036281585693,0.6108039617538452,1.5708342790603638,0.38994876950979235,0.0,-3.141592675445488,4.155337098715739e-12,0.5000002980232239,0.5000002980232239,0.6076990962028503,1.5715680122375488,0.38737845331430437,0.0,-3.141592675445488,-2.49362486215432e-08,0.5000002384185791,0.5000002384185791,,,,,,,,,,,,,,,,,,,,,,,,,,,,,,,,,,,,,,,,,,,,,,,,,,,,,,,,,,,,,,,,,,,,,,,,,,,,,,,,,,,,,,,,,,,,,,,,,,,,,,,,,,,,,,,,,,,,,,,,,,,,,,,,,,,,,,-6.439293542825908e-12,3.9968028886505635e-12,-5.2111093218343285e-12,0.0,-9.658940314238862e-12,-1.8727120548733822e-11,-1.4371463521456462e-06,-1.4373373460330185e-06,-3.049782648645305e-10,7.760458942129844e-11,-4.4794029596673113e-10,0.0,4.360295591254726e-08,1.2555788941881474e-07,1.2998024203625391e-06,1.299196469517483e-06,,,,,,,,,,,,,,,,,,,,,,,,,,,,,,,,,,,,,,,,,,,,,,,,,,,,,,,,,,,,,,,,,,,,,,,,,,
109,3.4472274780273438,0.6108039617538452,1.5708342790603638,0.38994876950979235,0.0,-3.141592675445488,3.4992427792174263e-12,0.5000002384185791,0.5000002384185791,0.6076990962028503,1.5715680122375488,0.38737845331430437,0.0,-3.141592675445488,-2.49362486215432e-08,0.5000002384185791,0.5000002384185791,,,,,,,,,,,,,,,,,,,,,,,,,,,,,,,,,,,,,,,,,,,,,,,,,,,,,,,,,,,,,,,,,,,,,,,,,,,,,,,,,,,,,,,,,,,,,,,,,,,,,,,,,,,,,,,,,,,,,,,,,,,,,,,,,,,,,,-5.440092820663267e-12,3.3306690738754696e-12,-4.3021142204224816e-12,0.0,-7.549516567451064e-12,-1.5693633892421843e-11,-1.1881742238983861e-06,-1.188485043712717e-06,-3.049782648645305e-10,7.760458942129844e-11,-4.4794029596673113e-10,0.0,4.360295591254726e-08,1.2555788941881474e-07,1.2998024203625391e-06,1.299196469517483e-06,,,,,,,,,,,,,,,,,,,,,,,,,,,,,,,,,,,,,,,,,,,,,,,,,,,,,,,,,,,,,,,,,,,,,,,,,,
110,3.4697916507720947,0.6108039617538452,1.5708342790603638,0.38994876950979235,0.0,-3.141592675445488,3.4992427792174263e-12,0.5000002384185791,0.5000002384185791,0.6076990962028503,1.5715680122375488,0.38737845331430437,0.0,-3.141592675445488,-2.0821028456907698e-08,0.5000002384185791,0.5000002384185791,,,,,,,,,,,,,,,,,,,,,,,,,,,,,,,,,,,,,,,,,,,,,,,,,,,,,,,,,,,,,,,,,,,,,,,,,,,,,,,,,,,,,,,,,,,,,,,,,,,,,,,,,,,,,,,,,,,,,,,,,,,,,,,,,,,,,,-5.440092820663267e-12,3.3306690738754696e-12,-4.3021142204224816e-12,0.0,-7.549516567451064e-12,-1.5693633892421843e-11,-1.1881742238983861e-06,-1.188485043712717e-06,-2.5451862839531714e-10,6.494804694057166e-11,-3.7396474805717617e-10,0.0,3.6395555014223646e-08,1.0483726242682678e-07,1.0854537322302349e-06,1.0850478702195687e-06,,,,,,,,,,,,,,,,,,,,,,,,,,,,,,,,,,,,,,,,,,,,,,,,,,,,,,,,,,,,,,,,,,,,,,,,,,
111,3.4917666912078857,0.6108039617538452,1.5708342790603638,0.38994876950979235,0.0,-3.141592675445488,2.9470820315374846e-12,0.5000001788139343,0.5000001788139343,0.6076990962028503,1.5715680122375488,0.38737845331430437,0.0,-3.141592675445488,-1.756001388741879e-08,0.5000001788139343,0.5000001788139343,,,,,,,,,,,,,,,,,,,,,,,,,,,,,,,,,,,,,,,,,,,,,,,,,,,,,,,,,,,,,,,,,,,,,,,,,,,,,,,,,,,,,,,,,,,,,,,,,,,,,,,,,,,,,,,,,,,,,,,,,,,,,,,,,,,,,,-4.440892098500626e-12,2.6645352591003757e-12,-3.5041414214731503e-12,0.0,-5.995204332975845e-12,-1.3248903710239013e-11,-9.823344271353562e-07,-9.827178928389912e-07,-2.1471713296250527e-10,5.473399511402022e-11,-3.1539354461429525e-10,0.0,3.068584319976253e-08,8.841745113841171e-08,9.155734232990653e-07,9.153114888249547e-07,,,,,,,,,,,,,,,,,,,,,,,,,,,,,,,,,,,,,,,,,,,,,,,,,,,,,,,,,,,,,,,,,,,,,,,,,,
112,3.5130014419555664,0.6108039617538452,1.5708342790603638,0.38994876950979235,0.0,-3.141592675445488,2.5022982817757278e-12,0.5000001788139343,0.5000001788139343,0.6076990962028503,1.5715680122375488,0.38737845331430437,0.0,-3.141592675445488,-1.738494148639802e-08,0.5000001788139343,0.5000001788139343,,,,,,,,,,,,,,,,,,,,,,,,,,,,,,,,,,,,,,,,,,,,,,,,,,,,,,,,,,,,,,,,,,,,,,,,,,,,,,,,,,,,,,,,,,,,,,,,,,,,,,,,,,,,,,,,,,,,,,,,,,,,,,,,,,,,,,-3.885780586188048e-12,2.4424906541753444e-12,-2.9559688030644793e-12,0.0,-4.829470157119431e-12,-1.1421647481968389e-11,-8.203269317164086e-07,-8.207470614252088e-07,-2.1277424266941125e-10,5.4289905904170155e-11,-3.121808367367862e-10,0.0,3.037864360067033e-08,8.753587366072679e-08,9.064528967428487e-07,9.061977266355825e-07,,,,,,,,,,,,,,,,,,,,,,,,,,,,,,,,,,,,,,,,,,,,,,,,,,,,,,,,,,,,,,,,,,,,,,,,,,
113,3.5339488983154297,0.6108039617538452,1.5708342790603638,0.38994876950979235,0.0,-3.141592675445488,2.5022982817757278e-12,0.5000001788139343,0.5000001788139343,0.6076990962028503,1.5715680122375488,0.38737845331430437,0.0,-3.141592675445488,-1.437118868352627e-08,0.5000001192092896,0.5000001192092896,,,,,,,,,,,,,,,,,,,,,,,,,,,,,,,,,,,,,,,,,,,,,,,,,,,,,,,,,,,,,,,,,,,,,,,,,,,,,,,,,,,,,,,,,,,,,,,,,,,,,,,,,,,,,,,,,,,,,,,,,,,,,,,,,,,,,,-3.885780586188048e-12,2.4424906541753444e-12,-2.9559688030644793e-12,0.0,-4.829470157119431e-12,-1.1421647481968389e-11,-8.203269317164086e-07,-8.207470614252088e-07,-1.7580381594939354e-10,4.474198789239381e-11,-2.580297087106942e-10,0.0,2.5104030854095072e-08,7.236126009502186e-08,7.494297733501298e-07,7.492922122764867e-07,,,,,,,,,,,,,,,,,,,,,,,,,,,,,,,,,,,,,,,,,,,,,,,,,,,,,,,,,,,,,,,,,,,,,,,,,,
114,3.555302619934082,0.6108039617538452,1.5708342790603638,0.38994876950979235,0.0,-3.141592675445488,2.1248454384892312e-12,0.5000001192092896,0.5000001192092896,0.6076990962028503,1.5715680122375488,0.38737845331430437,0.0,-3.141592675445488,-1.437118868352627e-08,0.5000001192092896,0.5000001192092896,,,,,,,,,,,,,,,,,,,,,,,,,,,,,,,,,,,,,,,,,,,,,,,,,,,,,,,,,,,,,,,,,,,,,,,,,,,,,,,,,,,,,,,,,,,,,,,,,,,,,,,,,,,,,,,,,,,,,,,,,,,,,,,,,,,,,,-3.0531133177191805e-12,1.887379141862766e-12,-2.55351295663786e-12,0.0,-3.885780586188048e-12,-9.80004532386003e-12,-6.850381168987951e-07,-6.854723437754728e-07,-1.7580381594939354e-10,4.474198789239381e-11,-2.580297087106942e-10,0.0,2.5104030854095072e-08,7.236126009502186e-08,7.494297733501298e-07,7.492922122764867e-07,,,,,,,,,,,,,,,,,,,,,,,,,,,,,,,,,,,,,,,,,,,,,,,,,,,,,,,,,,,,,,,,,,,,,,,,,,
115,3.5778372287750244,0.6108039617538452,1.5708342790603638,0.38994876950979235,0.0,-3.141592675445488,2.1248454384892312e-12,0.5000001192092896,0.5000001192092896,0.6076990962028503,1.5715680122375488,0.38737845331430437,0.0,-3.141592675445488,-1.1879882855225787e-08,0.5000001192092896,0.5000001192092896,,,,,,,,,,,,,,,,,,,,,,,,,,,,,,,,,,,,,,,,,,,,,,,,,,,,,,,,,,,,,,,,,,,,,,,,,,,,,,,,,,,,,,,,,,,,,,,,,,,,,,,,,,,,,,,,,,,,,,,,,,,,,,,,,,,,,,-3.0531133177191805e-12,1.887379141862766e-12,-2.55351295663786e-12,0.0,-3.885780586188048e-12,-9.80004532386003e-12,-6.850381168987951e-07,-6.854723437754728e-07,-1.4521717162097048e-10,3.697042672001771e-11,-2.133015986061082e-10,0.0,2.07449613043309e-08,5.981679152000652e-08,6.19607703811198e-07,6.1955421415405e-07,,,,,,,,,,,,,,,,,,,,,,,,,,,,,,,,,,,,,,,,,,,,,,,,,,,,,,,,,,,,,,,,,,,,,,,,,,
116,3.600707530975342,0.6108039617538452,1.5708342790603638,0.38994876950979235,0.0,-3.141592675445488,1.820777686609154e-12,0.5000001192092896,0.5000001192092896,0.6076990962028503,1.5715680122375488,0.38737845331430437,0.0,-3.141592675445488,-1.1879882855225787e-08,0.5000001192092896,0.5000001192092896,,,,,,,,,,,,,,,,,,,,,,,,,,,,,,,,,,,,,,,,,,,,,,,,,,,,,,,,,,,,,,,,,,,,,,,,,,,,,,,,,,,,,,,,,,,,,,,,,,,,,,,,,,,,,,,,,,,,,,,,,,,,,,,,,,,,,,-2.7755575615628914e-12,1.7763568394002505e-12,-2.123301534595612e-12,0.0,-3.164135620181696e-12,-8.402112339211953e-12,-5.778179001936223e-07,-5.782503080808965e-07,-1.4521717162097048e-10,3.697042672001771e-11,-2.133015986061082e-10,0.0,2.07449613043309e-08,5.981679152000652e-08,6.19607703811198e-07,6.1955421415405e-07,,,,,,,,,,,,,,,,,,,,,,,,,,,,,,,,,,,,,,,,,,,,,,,,,,,,,,,,,,,,,,,,,,,,,,,,,,
