MHC-RobotSimulators-Research/Data_Analysis_MotionReplication/mai_plotter/raven_data/the_good_stuff/1arm_a1.csv
,time,jpos0,jpos1,jpos2,jpos3,jpos4,jpos5,jpos6,jpos7,jpos8,jpos9,jpos10,jpos11,jpos12,jpos13,jpos14,jpos15,runlevel,sublevel,last_seq,type0,type1,pos0,pos1,pos2,pos3,pos4,pos5,ori0,ori1,ori2,ori3,ori4,ori5,ori6,ori7,ori8,ori9,ori10,ori11,ori12,ori13,ori14,ori15,ori16,ori17,ori_d0,ori_d1,ori_d2,ori_d3,ori_d4,ori_d5,ori_d6,ori_d7,ori_d8,ori_d9,ori_d10,ori_d11,ori_d12,ori_d13,ori_d14,ori_d15,ori_d16,ori_d17,pos_d0,pos_d1,pos_d2,pos_d3,pos_d4,pos_d5,encVals0,encVals1,encVals2,encVals3,encVals4,encVals5,encVals6,encVals7,encVals8,encVals9,encVals10,encVals11,encVals12,encVals13,encVals14,encVals15,dac_vals0,dac_vals1,dac_vals2,dac_vals3,dac_vals4,dac_vals5,dac_vals6,dac_vals7,dac_vals8,dac_vals9,dac_vals10,dac_vals11,dac_vals12,dac_vals13,dac_vals14,dac_vals15,Tau0,Tau1,Tau2,Tau3,Tau4,Tau5,Tau6,Tau7,Tau8,Tau9,Tau10,Tau11,Tau12,Tau13,Tau14,Tau15,mpos0,mpos1,mpos2,mpos3,mpos4,mpos5,mpos6,mpos7,mpos8,mpos9,mpos10,mpos11,mpos12,mpos13,mpos14,mpos15,mvel0,mvel1,mvel2,mvel3,mvel4,mvel5,mvel6,mvel7,mvel8,mvel9,mvel10,mvel11,mvel12,mvel13,mvel14,mvel15,jvel0,jvel1,jvel2,jvel3,jvel4,jvel5,jvel6,jvel7,jvel8,jvel9,jvel10,jvel11,jvel12,jvel13,jvel14,jvel15,mpos_d0,mpos_d1,mpos_d2,mpos_d3,mpos_d4,mpos_d5,mpos_d6,mpos_d7,mpos_d8,mpos_d9,mpos_d10,mpos_d11,mpos_d12,mpos_d13,mpos_d14,mpos_d15,jpos_d0,jpos_d1,jpos_d2,jpos_d3,jpos_d4,jpos_d5,jpos_d6,jpos_d7,jpos_d8,jpos_d9,jpos_d10,jpos_d11,jpos_d12,jpos_d13,jpos_d14,jpos_d15,grasp_d0,grasp_d1,encoffsets0,encoffsets1,encoffsets2,encoffsets3,encoffsets4,encoffsets5,encoffsets6,encoffsets7,encoffsets8,encoffsets9,encoffsets10,encoffsets11,encoffsets12,encoffsets13,encoffsets14,encoffsets15,jac_vel0,jac_vel1,jac_vel2,jac_vel3,jac_vel4,jac_vel5,jac_vel6,jac_vel7,jac_vel8,jac_vel9,jac_vel10,jac_vel11,jac_f0,jac_f1,jac_f2,jac_f3,jac_f4,jac_f5,jac_f6,jac_f7,jac_f8,jac_f9,jac_f10,jac_f11
0,0.0,0.6108177304267883,1.5708262920379639,0.3899600049853325,0.0,-3.1418024837950975,-0.0002629918744787574,0.7853029370307922,0.7853029370307922,0.610866129398346,1.570797324180603,0.3899992024898529,0.0,-3.141592675445488,2.4420554909986925e-15,0.7853029370307922,0.7853029370307922,,,,,,,,,,,,,,,,,,,,,,,,,,,,,,,,,,,,,,,,,,,,,,,,,,,,,,,,,,,,,,,,,,,,,,,,,,,,,,,,,,,,,,,,,,,,,,,,,,,,,,,,,,,,,,,,,,,,,,,,,,,,,,,,,,,,,,0.0,0.0,0.0,0.0,0.0,0.0,0.0,0.0,0.0,0.0,0.0,0.0,0.0,0.0,0.0,0.0,,,,,,,,,,,,,,,,,,,,,,,,,,,,,,,,,,,,,,,,,,,,,,,,,,,,,,,,,,,,,,,,,,,,,,,,,,
1,1.1182050704956055,0.6077772974967957,1.572728157043457,0.3874132549762726,0.0,-3.143028134105614,-0.0018275469774380326,0.5311211943626404,0.5307208299636841,0.6109126210212708,1.5708492994308472,0.3899583062529564,0.0,-3.1416425049285204,-4.6664114051964134e-05,0.5347042679786682,0.5343824028968811,,,,,,,,,,,,,,,,,,,,,,,,,,,,,,,,,,,,,,,,,,,,,,,,,,,,,,,,,,,,,,,,,,,,,,,,,,,,,,,,,,,,,,,,,,,,,,,,,,,,,,,,,,,,,,,,,,,,,,,,,,,,,,,,,,,,,,-2.893677810789086e-05,-7.403561994578922e-07,-4.515173350227997e-05,0.0,0.05843877047300339,0.03575652837753296,-0.33595725893974304,-0.3937777578830719,1.7059527408491704e-06,1.9513865481712855e-05,-1.1058114068873692e-06,0.0,0.012111774645745754,0.0074028074741363525,0.3104109466075897,0.32136979699134827,,,,,,,,,,,,,,,,,,,,,,,,,,,,,,,,,,,,,,,,,,,,,,,,,,,,,,,,,,,,,,,,,,,,,,,,,,
2,1.1406121253967285,0.6077762842178345,1.5727288722991943,0.38741172760725023,0.0,-3.1427313029746324,-0.0014048907905817032,0.5236493945121765,0.5234724879264832,0.6109126210212708,1.5708491802215576,0.3899582913517952,0.0,-3.141628319023064,-3.185038440278731e-05,0.52552330493927,0.5253357291221619,,,,,,,,,,,,,,,,,,,,,,,,,,,,,,,,,,,,,,,,,,,,,,,,,,,,,,,,,,,,,,,,,,,,,,,,,,,,,,,,,,,,,,,,,,,,,,,,,,,,,,,,,,,,,,,,,,,,,,,,,,,,,,,,,,,,,,-2.7430052796262316e-05,1.534807961434126e-05,-4.196058580419049e-05,0.0,0.004333621356636286,0.007392712403088808,-0.12221812456846237,-0.11150296777486801,1.1832195241368026e-06,-2.61804007095634e-06,1.1657559184641286e-07,0.0,0.0009896584087982774,0.0023909374140203,0.13336478173732758,0.11371804773807526,,,,,,,,,,,,,,,,,,,,,,,,,,,,,,,,,,,,,,,,,,,,,,,,,,,,,,,,,,,,,,,,,,,,,,,,,,
3,1.1618115901947021,0.6077762246131897,1.5727288722991943,0.38741164565086367,0.0,-3.1427156865577013,-0.0013903748476877809,0.5234104990959167,0.523248016834259,0.6109126210212708,1.5708491802215576,0.3899582913517952,0.0,-3.141628319023064,-3.185038440278731e-05,0.52552330493927,0.5253357291221619,,,,,,,,,,,,,,,,,,,,,,,,,,,,,,,,,,,,,,,,,,,,,,,,,,,,,,,,,,,,,,,,,,,,,,,,,,,,,,,,,,,,,,,,,,,,,,,,,,,,,,,,,,,,,,,,,,,,,,,,,,,,,,,,,,,,,,-2.735857015068177e-05,1.5370978871942498e-05,-4.131522655370645e-05,0.0,0.007824952714145184,0.007257955148816109,-0.11943784356117249,-0.11224785447120667,1.1832195241368026e-06,-2.61804007095634e-06,1.1657559184641286e-07,0.0,0.0009896584087982774,0.0023909374140203,0.13336478173732758,0.11371804773807526,,,,,,,,,,,,,,,,,,,,,,,,,,,,,,,,,,,,,,,,,,,,,,,,,,,,,,,,,,,,,,,,,,,,,,,,,,
4,1.1841542720794678,0.6077753901481628,1.572729468345642,0.3874102970957756,0.0,-3.142532879112175,-0.0011620009317994118,0.5195465683937073,0.5194276571273804,0.6109126806259155,1.5708491802215576,0.389958276450634,0.0,-3.1416111528853685,-1.671961581450887e-05,0.5208646655082703,0.520762026309967,,,,,,,,,,,,,,,,,,,,,,,,,,,,,,,,,,,,,,,,,,,,,,,,,,,,,,,,,,,,,,,,,,,,,,,,,,,,,,,,,,,,,,,,,,,,,,,,,,,,,,,,,,,,,,,,,,,,,,,,,,,,,,,,,,,,,,-2.238518572994508e-05,1.3949805179436225e-05,-3.42076709785033e-05,0.0,0.004719514399766922,0.005840988829731941,-0.09834211319684982,-0.09770608693361282,3.452213377386215e-07,2.540679986395844e-07,-3.148399230212817e-07,0.0,5.05713360325899e-05,5.836365380673669e-05,0.10495307296514511,0.10445984452962875,,,,,,,,,,,,,,,,,,,,,,,,,,,,,,,,,,,,,,,,,,,,,,,,,,,,,,,,,,,,,,,,,,,,,,,,,,
5,1.2057151794433594,0.6077753901481628,1.572729468345642,0.3874102970957756,0.0,-3.142532879112175,-0.0011620009317994118,0.5195465683937073,0.5194276571273804,0.6109126806259155,1.5708492994308472,0.3899582690000534,0.0,-3.141608589885643,-1.3996461348142475e-05,0.5174241065979004,0.5173394680023193,,,,,,,,,,,,,,,,,,,,,,,,,,,,,,,,,,,,,,,,,,,,,,,,,,,,,,,,,,,,,,,,,,,,,,,,,,,,,,,,,,,,,,,,,,,,,,,,,,,,,,,,,,,,,,,,,,,,,,,,,,,,,,,,,,,,,,-2.238518572994508e-05,1.3949805179436225e-05,-3.42076709785033e-05,0.0,0.004719514399766922,0.005840988829731941,-0.09834211319684982,-0.09770608693361282,3.102134087384911e-07,2.5501023515062116e-07,-2.6477422920834215e-07,0.0,8.842235547490418e-05,7.752014062134549e-05,0.08766026049852371,0.08719132095575333,,,,,,,,,,,,,,,,,,,,,,,,,,,,,,,,,,,,,,,,,,,,,,,,,,,,,,,,,,,,,,,,,,,,,,,,,,
6,1.2280166149139404,0.6077746152877808,1.5727299451828003,0.3874091199040413,0.0,-3.142370039222649,-0.0009607633692212403,0.5161603689193726,0.5160639882087708,0.6109126806259155,1.5708492994308472,0.3899582690000534,0.0,-3.141608589885643,-1.3996461348142475e-05,0.5174241065979004,0.5173394680023193,,,,,,,,,,,,,,,,,,,,,,,,,,,,,,,,,,,,,,,,,,,,,,,,,,,,,,,,,,,,,,,,,,,,,,,,,,,,,,,,,,,,,,,,,,,,,,,,,,,,,,,,,,,,,,,,,,,,,,,,,,,,,,,,,,,,,,-1.8509825167711824e-05,1.1522001841512974e-05,-2.8276373996050097e-05,0.0,0.003910181578248739,0.0048330738209187984,-0.08131098002195358,-0.08077026158571243,3.102134087384911e-07,2.5501023515062116e-07,-2.6477422920834215e-07,0.0,8.842235547490418e-05,7.752014062134549e-05,0.08766026049852371,0.08719132095575333,,,,,,,,,,,,,,,,,,,,,,,,,,,,,,,,,,,,,,,,,,,,,,,,,,,,,,,,,,,,,,,,,,,,,,,,,,
7,1.2497246265411377,0.607774019241333,1.572730302810669,0.3874082407355309,0.0,-3.142248445747307,-0.0008104136795736849,0.5136309862136841,0.5135512948036194,0.6109126806259155,1.5708492994308472,0.38995826154947283,0.0,-3.141605669258049,-1.1468592674646061e-05,0.5145507454872131,0.5144813656806946,,,,,,,,,,,,,,,,,,,,,,,,,,,,,,,,,,,,,,,,,,,,,,,,,,,,,,,,,,,,,,,,,,,,,,,,,,,,,,,,,,,,,,,,,,,,,,,,,,,,,,,,,,,,,,,,,,,,,,,,,,,,,,,,,,,,,,-1.5614452422596514e-05,9.722128197608981e-06,-2.3845432224334218e-05,0.0,0.003298126859590411,0.004076831974089146,-0.0685843899846077,-0.06813625246286392,2.595440662389592e-07,2.1505263703147648e-07,-2.2098073770848714e-07,0.0,7.252792420331389e-05,6.379530532285571e-05,0.07320493459701538,0.07281914353370667,,,,,,,,,,,,,,,,,,,,,,,,,,,,,,,,,,,,,,,,,,,,,,,,,,,,,,,,,,,,,,,,,,,,,,,,,,
8,1.2712244987487793,0.607774019241333,1.572730302810669,0.3874081960320473,0.0,-3.1422418892363817,-0.0008023412665352225,0.513495147228241,0.5134163498878479,0.6109126806259155,1.5708492994308472,0.38995825409889223,0.0,-3.1416034638861925,-9.500628038949799e-06,0.5122734904289246,0.5122160315513611,,,,,,,,,,,,,,,,,,,,,,,,,,,,,,,,,,,,,,,,,,,,,,,,,,,,,,,,,,,,,,,,,,,,,,,,,,,,,,,,,,,,,,,,,,,,,,,,,,,,,,,,,,,,,,,,,,,,,,,,,,,,,,,,,,,,,,-1.5458987036254257e-05,9.625470738683362e-06,-2.3607562980032526e-05,0.0,0.003265281207859516,0.0040362244471907616,-0.06790110468864441,-0.0674578920006752,2.1887896650696348e-07,1.8237112442420766e-07,-1.8630777276484878e-07,0.0,6.0134243540233e-05,5.2948951633879915e-05,0.061748117208480835,0.06142791733145714,,,,,,,,,,,,,,,,,,,,,,,,,,,,,,,,,,,,,,,,,,,,,,,,,,,,,,,,,,,,,,,,,,,,,,,,,,
9,1.2930324077606201,0.60777348279953,1.5727306604385376,0.3874073839187622,0.0,-3.1421294748763353,-0.0006633664015680552,0.5111572742462158,0.5110935568809509,0.6109126806259155,1.5708492994308472,0.38995825409889223,0.0,-3.141603344676903,-9.395884262630716e-06,0.5121512413024902,0.5120943784713745,,,,,,,,,,,,,,,,,,,,,,,,,,,,,,,,,,,,,,,,,,,,,,,,,,,,,,,,,,,,,,,,,,,,,,,,,,,,,,,,,,,,,,,,,,,,,,,,,,,,,,,,,,,,,,,,,,,,,,,,,,,,,,,,,,,,,,-1.2782405065081548e-05,7.961086339491885e-06,-1.951303238456603e-05,0.0,0.0026997835375368595,0.0033371220342814922,-0.05613786727190018,-0.05577874928712845,2.1669588079475943e-07,1.8061085427234502e-07,-1.8444671923134592e-07,0.0,5.9478079492691904e-05,5.237180448602885e-05,0.061132997274398804,0.060816291719675064,,,,,,,,,,,,,,,,,,,,,,,,,,,,,,,,,,,,,,,,,,,,,,,,,,,,,,,,,,,,,,,,,,,,,,,,,,
10,1.3154304027557373,0.60777348279953,1.5727306604385376,0.3874073839187622,0.0,-3.1421294748763353,-0.0006633664015680552,0.5111572742462158,0.5110935568809509,0.6109126806259155,1.5708492994308472,0.38995824664831163,0.0,-3.14160143732827,-7.694357009313535e-06,0.5101474523544312,0.5101009011268616,,,,,,,,,,,,,,,,,,,,,,,,,,,,,,,,,,,,,,,,,,,,,,,,,,,,,,,,,,,,,,,,,,,,,,,,,,,,,,,,,,,,,,,,,,,,,,,,,,,,,,,,,,,,,,,,,,,,,,,,,,,,,,,,,,,,,,-1.2782405065081548e-05,7.961086339491885e-06,-1.951303238456603e-05,0.0,0.0026997835375368595,0.0033371220342814922,-0.05613786727190018,-0.05577874928712845,1.8091816400556127e-07,1.5167633193868824e-07,-1.5395657726458012e-07,0.0,4.8799600335769355e-05,4.2983399907825515e-05,0.051051799207925797,0.0507919080555439,,,,,,,,,,,,,,,,,,,,,,,,,,,,,,,,,,,,,,,,,,,,,,,,,,,,,,,,,,,,,,,,,,,,,,,,,,
11,1.336719274520874,0.6077730059623718,1.5727308988571167,0.3874067133665085,0.0,-3.1420364916304857,-0.0005484630819410086,0.5092243552207947,0.5091729164123535,0.6109126806259155,1.5708492994308472,0.38995824664831163,0.0,-3.14160143732827,-7.694357009313535e-06,0.5101474523544312,0.5101009011268616,,,,,,,,,,,,,,,,,,,,,,,,,,,,,,,,,,,,,,,,,,,,,,,,,,,,,,,,,,,,,,,,,,,,,,,,,,,,,,,,,,,,,,,,,,,,,,,,,,,,,,,,,,,,,,,,,,,,,,,,,,,,,,,,,,,,,,-1.0569247933744919e-05,6.584475613635732e-06,-1.6128664356074296e-05,0.0,0.0022322232834994793,0.0027591038960963488,-0.046412501484155655,-0.046121641993522644,1.8091816400556127e-07,1.5167633193868824e-07,-1.5395657726458012e-07,0.0,4.8799600335769355e-05,4.2983399907825515e-05,0.051051799207925797,0.0507919080555439,,,,,,,,,,,,,,,,,,,,,,,,,,,,,,,,,,,,,,,,,,,,,,,,,,,,,,,,,,,,,,,,,,,,,,,,,,
12,1.3576850891113281,0.6077730059623718,1.5727308988571167,0.3874067133665085,0.0,-3.1420364916304857,-0.0005484630819410086,0.5092243552207947,0.5091729164123535,0.6109126806259155,1.5708492994308472,0.38995823919773104,0.0,-3.141599887607506,-6.368683898472227e-06,0.5085593461990356,0.508520781993866,,,,,,,,,,,,,,,,,,,,,,,,,,,,,,,,,,,,,,,,,,,,,,,,,,,,,,,,,,,,,,,,,,,,,,,,,,,,,,,,,,,,,,,,,,,,,,,,,,,,,,,,,,,,,,,,,,,,,,,,,,,,,,,,,,,,,,-1.0569247933744919e-05,6.584475613635732e-06,-1.6128664356074296e-05,0.0,0.0022322232834994793,0.0027591038960963488,-0.046412501484155655,-0.046121641993522644,1.5256767937898985e-07,1.2860645881573873e-07,-1.298055991583169e-07,0.0,4.046760659548454e-05,3.565366569091566e-05,0.04306202009320259,0.04284646362066269,,,,,,,,,,,,,,,,,,,,,,,,,,,,,,,,,,,,,,,,,,,,,,,,,,,,,,,,,,,,,,,,,,,,,,,,,,
13,1.3792665004730225,0.6077726483345032,1.5727311372756958,0.38740615457296373,0.0,-3.1419596612433702,-0.00045346206752583385,0.5076263546943665,0.5075847506523132,0.6109127402305603,1.5708492994308472,0.38995823919773104,0.0,-3.141598576305321,-5.2107970986980945e-06,0.5071478486061096,0.5071163177490234,,,,,,,,,,,,,,,,,,,,,,,,,,,,,,,,,,,,,,,,,,,,,,,,,,,,,,,,,,,,,,,,,,,,,,,,,,,,,,,,,,,,,,,,,,,,,,,,,,,,,,,,,,,,,,,,,,,,,,,,,,,,,,,,,,,,,,-8.739277291169856e-06,5.445894203148782e-06,-1.3331288755580317e-05,0.0,0.0018456431571394205,0.0022811999078840017,-0.038371965289115906,-0.03813648968935013,1.273757703756928e-07,1.0798184746363404e-07,-1.0835187680413583e-07,0.0,3.3180425816681236e-05,2.9238861316116527e-05,0.03596083074808121,0.03578405827283859,,,,,,,,,,,,,,,,,,,,,,,,,,,,,,,,,,,,,,,,,,,,,,,,,,,,,,,,,,,,,,,,,,,,,,,,,,
14,1.400994062423706,0.6077724099159241,1.5727312564849854,0.3874057447910309,0.0,-3.1419022023658068,-0.0003824984887614846,0.5064326524734497,0.5063983798027039,0.6109127402305603,1.5708492994308472,0.38995823919773104,0.0,-3.141598516700676,-5.152960966370301e-06,0.507076621055603,0.5070454478263855,,,,,,,,,,,,,,,,,,,,,,,,,,,,,,,,,,,,,,,,,,,,,,,,,,,,,,,,,,,,,,,,,,,,,,,,,,,,,,,,,,,,,,,,,,,,,,,,,,,,,,,,,,,,,,,,,,,,,,,,,,,,,,,,,,,,,,-7.372220352408476e-06,4.595107839122647e-06,-1.1242268556088675e-05,0.0,0.0015568704111501575,0.0019242139533162117,-0.0323660746216774,-0.03217122331261635,1.2610485100594815e-07,1.0693812413364867e-07,-1.0726993338039392e-07,0.0,3.281613680883311e-05,2.891808435379062e-05,0.035602595657110214,0.0354277640581131,,,,,,,,,,,,,,,,,,,,,,,,,,,,,,,,,,,,,,,,,,,,,,,,,,,,,,,,,,,,,,,,,,,,,,,,,,
15,1.4221670627593994,0.6077723503112793,1.5727312564849854,0.3874057224392891,0.0,-3.141899162528923,-0.0003786883899010718,0.5063685774803162,0.506334662437439,0.6109127402305603,1.5708492994308472,0.38995823174715044,0.0,-3.1415973842124254,-4.167136012256378e-06,0.5058507919311523,0.5058255195617676,,,,,,,,,,,,,,,,,,,,,,,,,,,,,,,,,,,,,,,,,,,,,,,,,,,,,,,,,,,,,,,,,,,,,,,,,,,,,,,,,,,,,,,,,,,,,,,,,,,,,,,,,,,,,,,,,,,,,,,,,,,,,,,,,,,,,,-7.298819127754541e-06,4.549420737021137e-06,-1.1130122402391862e-05,0.0,0.001541365752927959,0.0019050469854846597,-0.03204362094402313,-0.03185093030333519,1.0423106999724041e-07,8.891220915074882e-08,-8.864810752129415e-08,0.0,2.6601479476084933e-05,2.3444317776011303e-05,0.029435331001877785,0.02929358370602131,,,,,,,,,,,,,,,,,,,,,,,,,,,,,,,,,,,,,,,,,,,,,,,,,,,,,,,,,,,,,,,,,,,,,,,,,,
16,1.4439818859100342,0.6077721118927002,1.5727314949035645,0.38740535736083986,0.0,-3.1418486177901537,-0.00031624434632249177,0.505318284034729,0.5052906274795532,0.6109127402305603,1.5708492994308472,0.38995823174715044,0.0,-3.1415973842124254,-4.167136012256378e-06,0.5058507919311523,0.5058255195617676,,,,,,,,,,,,,,,,,,,,,,,,,,,,,,,,,,,,,,,,,,,,,,,,,,,,,,,,,,,,,,,,,,,,,,,,,,,,,,,,,,,,,,,,,,,,,,,,,,,,,,,,,,,,,,,,,,,,,,,,,,,,,,,,,,,,,,-6.0957850109844e-06,3.800514605245553e-06,-9.292397407989483e-06,0.0,0.001287254854105413,0.0015909172361716628,-0.0267589520663023,-0.026601338759064674,1.0423106999724041e-07,8.891220915074882e-08,-8.864810752129415e-08,0.0,2.6601479476084933e-05,2.3444317776011303e-05,0.029435331001877785,0.02929358370602131,,,,,,,,,,,,,,,,,,,,,,,,,,,,,,,,,,,,,,,,,,,,,,,,,,,,,,,,,,,,,,,,,,,,,,,,,,
17,1.4655628204345703,0.6077721118927002,1.5727314949035645,0.38740535736083986,0.0,-3.1418486177901537,-0.00031624434632249177,0.505318284034729,0.5052906274795532,0.6109127402305603,1.5708492994308472,0.38995823174715044,0.0,-3.1415965497473985,-3.40609540216974e-06,0.5048859715461731,0.5048653483390808,,,,,,,,,,,,,,,,,,,,,,,,,,,,,,,,,,,,,,,,,,,,,,,,,,,,,,,,,,,,,,,,,,,,,,,,,,,,,,,,,,,,,,,,,,,,,,,,,,,,,,,,,,,,,,,,,,,,,,,,,,,,,,,,,,,,,,-6.0957850109844e-06,3.800514605245553e-06,-9.292397407989483e-06,0.0,0.001287254854105413,0.0015909172361716628,-0.0267589520663023,-0.026601338759064674,8.701916698328205e-08,7.464051776651104e-08,-7.39987910947093e-08,0.0,2.179552939196583e-05,1.9209584934287705e-05,0.024581264704465866,0.024465106427669525,,,,,,,,,,,,,,,,,,,,,,,,,,,,,,,,,,,,,,,,,,,,,,,,,,,,,,,,,,,,,,,,,,,,,,,,,,
18,1.4867334365844727,0.6077719330787659,1.572731614112854,0.3874050518870354,0.0,-3.1418064177016527,-0.00026409694692119956,0.5044412016868591,0.5044186115264893,0.6109127402305603,1.5708492994308472,0.38995823174715044,0.0,-3.1415965497473985,-3.40609540216974e-06,0.5048859715461731,0.5048653483390808,,,,,,,,,,,,,,,,,,,,,,,,,,,,,,,,,,,,,,,,,,,,,,,,,,,,,,,,,,,,,,,,,,,,,,,,,,,,,,,,,,,,,,,,,,,,,,,,,,,,,,,,,,,,,,,,,,,,,,,,,,,,,,,,,,,,,,-5.091041657578899e-06,3.1748870696901577e-06,-7.758104402455501e-06,0.0,0.0010750386863946915,0.0013285843888297677,-0.022345837205648422,-0.02221697010099888,8.701916698328205e-08,7.464051776651104e-08,-7.39987910947093e-08,0.0,2.179552939196583e-05,1.9209584934287705e-05,0.024581264704465866,0.024465106427669525,,,,,,,,,,,,,,,,,,,,,,,,,,,,,,,,,,,,,,,,,,,,,,,,,,,,,,,,,,,,,,,,,,,,,,,,,,
19,1.508286476135254,0.6077717542648315,1.5727317333221436,0.3874048060178757,0.0,-3.1417729794959337,-0.00022276738309301436,0.5037460327148438,0.5037274360656738,0.6109127402305603,1.5708492994308472,0.38995823174715044,0.0,-3.1415957748870165,-2.7515357032825705e-06,0.5040395855903625,0.5040228962898254,,,,,,,,,,,,,,,,,,,,,,,,,,,,,,,,,,,,,,,,,,,,,,,,,,,,,,,,,,,,,,,,,,,,,,,,,,,,,,,,,,,,,,,,,,,,,,,,,,,,,,,,,,,,,,,,,,,,,,,,,,,,,,,,,,,,,,-4.294665814086329e-06,2.678881628526142e-06,-6.542406026710523e-06,0.0,0.0009068403742276132,0.001120670814998448,-0.018848318606615067,-0.01874181628227234,7.192424078539261e-08,6.204925284691853e-08,-6.115422479524568e-08,0.0,1.765427259670105e-05,1.5559440726065077e-05,0.020323170349001884,0.020229067653417587,,,,,,,,,,,,,,,,,,,,,,,,,,,,,,,,,,,,,,,,,,,,,,,,,,,,,,,,,,,,,,,,,,,,,,,,,,
20,1.529780626296997,0.6077717542648315,1.5727317333221436,0.3874047985672951,0.0,-3.1417711913565904,-0.00022054837609175593,0.5037087202072144,0.5036903619766235,0.6109127402305603,1.5708492994308472,0.38995822429656984,0.0,-3.1415952384452135,-2.2466754217020934e-06,0.5033734440803528,0.5033597946166992,,,,,,,,,,,,,,,,,,,,,,,,,,,,,,,,,,,,,,,,,,,,,,,,,,,,,,,,,,,,,,,,,,,,,,,,,,,,,,,,,,,,,,,,,,,,,,,,,,,,,,,,,,,,,,,,,,,,,,,,,,,,,,,,,,,,,,-4.251905920682475e-06,2.6522459393163444e-06,-6.477142960648052e-06,0.0,0.0008978095138445497,0.0011095077497884631,-0.018660536035895348,-0.01855522207915783,6.004658104075133e-08,5.2082892665339386e-08,-5.104924127863342e-08,0.0,1.4453709809458815e-05,1.2737833458231762e-05,0.016971753910183907,0.01689470000565052,,,,,,,,,,,,,,,,,,,,,,,,,,,,,,,,,,,,,,,,,,,,,,,,,,,,,,,,,,,,,,,,,,,,,,,,,,
21,1.5518741607666016,0.607771635055542,1.5727317333221436,0.3874045825004578,0.0,-3.1417417466620714,-0.00018418073887005448,0.5030970573425293,0.5030820965766907,0.6109127402305603,1.5708492994308472,0.38995822429656984,0.0,-3.1415951788405687,-2.221481736341957e-06,0.5033398270606995,0.5033263564109802,,,,,,,,,,,,,,,,,,,,,,,,,,,,,,,,,,,,,,,,,,,,,,,,,,,,,,,,,,,,,,,,,,,,,,,,,,,,,,,,,,,,,,,,,,,,,,,,,,,,,,,,,,,,,,,,,,,,,,,,,,,,,,,,,,,,,,-3.5510811358108185e-06,2.215638232883066e-06,-5.4076854212326e-06,0.0,0.0007497989572584629,0.0009265553089790046,-0.015583020634949207,-0.01549699530005455,5.944750114394992e-08,5.1578407322949715e-08,-5.0539600948695806e-08,0.0,1.4293816093413625e-05,1.2596859960467555e-05,0.01680268533527851,0.016726482659578323,,,,,,,,,,,,,,,,,,,,,,,,,,,,,,,,,,,,,,,,,,,,,,,,,,,,,,,,,,,,,,,,,,,,,,,,,,
22,1.5737602710723877,0.607771635055542,1.5727317333221436,0.3874045825004578,0.0,-3.1417417466620714,-0.00018418073887005448,0.5030970573425293,0.5030820965766907,0.6109127402305603,1.5708492994308472,0.38995822429656984,0.0,-3.1415947616080553,-1.812845539461705e-06,0.5027890801429749,0.5027780532836914,,,,,,,,,,,,,,,,,,,,,,,,,,,,,,,,,,,,,,,,,,,,,,,,,,,,,,,,,,,,,,,,,,,,,,,,,,,,,,,,,,,,,,,,,,,,,,,,,,,,,,,,,,,,,,,,,,,,,,,,,,,,,,,,,,,,,,-3.5510811358108185e-06,2.215638232883066e-06,-5.4076854212326e-06,0.0,0.0007497989572584629,0.0009265553089790046,-0.015583020634949207,-0.01549699530005455,4.963013466863231e-08,4.329170266714755e-08,-4.2188869286974295e-08,0.0,1.1697571608237922e-05,1.0307706361345481e-05,0.014031818136572838,0.013969448395073414,,,,,,,,,,,,,,,,,,,,,,,,,,,,,,,,,,,,,,,,,,,,,,,,,,,,,,,,,,,,,,,,,,,,,,,,,,
23,1.596163034439087,0.6077715158462524,1.572731852531433,0.38740440368652346,0.0,-3.141717189548424,-0.00015380994591396302,0.502586305141449,0.5025741457939148,0.6109127402305603,1.5708492994308472,0.38995822429656984,0.0,-3.1415947616080553,-1.812845539461705e-06,0.5027890801429749,0.5027780532836914,,,,,,,,,,,,,,,,,,,,,,,,,,,,,,,,,,,,,,,,,,,,,,,,,,,,,,,,,,,,,,,,,,,,,,,,,,,,,,,,,,,,,,,,,,,,,,,,,,,,,,,,,,,,,,,,,,,,,,,,,,,,,,,,,,,,,,-2.9657705908903154e-06,1.8509035726310685e-06,-4.514808551903116e-06,0.0,0.0006261895759962499,0.0007737703854218125,-0.013013051822781563,-0.012942816130816936,4.963013466863231e-08,4.329170266714755e-08,-4.2188869286974295e-08,0.0,1.1697571608237922e-05,1.0307706361345481e-05,0.014031818136572838,0.013969448395073414,,,,,,,,,,,,,,,,,,,,,,,,,,,,,,,,,,,,,,,,,,,,,,,,,,,,,,,,,,,,,,,,,,,,,,,,,,
24,1.61795973777771,0.6077713966369629,1.572731852531433,0.3874042546749115,0.0,-3.141696685550621,-0.00012844718003179878,0.5021597743034363,0.5021498799324036,0.6109127402305603,1.5708492994308472,0.38995822429656984,0.0,-3.141594344375542,-1.4785455277888104e-06,0.5023291110992432,0.5023201704025269,,,,,,,,,,,,,,,,,,,,,,,,,,,,,,,,,,,,,,,,,,,,,,,,,,,,,,,,,,,,,,,,,,,,,,,,,,,,,,,,,,,,,,,,,,,,,,,,,,,,,,,,,,,,,,,,,,,,,,,,,,,,,,,,,,,,,,-2.4769344690867e-06,1.5462096598639619e-06,-3.769357135752216e-06,0.0,0.0005229584639891982,0.0006461787852458656,-0.010866925120353699,-0.010809611529111862,4.143402421163955e-08,3.633449097151242e-08,-3.5218175042928124e-08,0.0,9.568923815095332e-06,8.43072120915167e-06,0.011717884801328182,0.011666856706142426,,,,,,,,,,,,,,,,,,,,,,,,,,,,,,,,,,,,,,,,,,,,,,,,,,,,,,,,,,,,,,,,,,,,,,,,,,
25,1.6405987739562988,0.6077713966369629,1.572731852531433,0.3874042546749115,0.0,-3.141696685550621,-0.00012844718003179878,0.5021597743034363,0.5021498799324036,0.6109127402305603,1.5708492994308472,0.38995822429656984,0.0,-3.141594046352318,-1.2051851854266715e-06,0.5019450187683105,0.501937747001648,,,,,,,,,,,,,,,,,,,,,,,,,,,,,,,,,,,,,,,,,,,,,,,,,,,,,,,,,,,,,,,,,,,,,,,,,,,,,,,,,,,,,,,,,,,,,,,,,,,,,,,,,,,,,,,,,,,,,,,,,,,,,,,,,,,,,,-2.4769344690867e-06,1.5462096598639619e-06,-3.769357135752216e-06,0.0,0.0005229584639891982,0.0006461787852458656,-0.010866925120353699,-0.010809611529111862,3.459116371118398e-08,3.0494049951812485e-08,-2.9399302547972184e-08,0.0,7.824246495147236e-06,6.892298188176937e-06,0.00978553295135498,0.00974380224943161,,,,,,,,,,,,,,,,,,,,,,,,,,,,,,,,,,,,,,,,,,,,,,,,,,,,,,,,,,,,,,,,,,,,,,,,,,
26,1.662238597869873,0.6077713370323181,1.5727319717407227,0.38740412801504137,0.0,-3.1416786253432543,-0.00010619813110679388,0.5017856359481812,0.5017776489257812,0.6109127402305603,1.5708492994308472,0.38995822429656984,0.0,-3.141594046352318,-1.1915541335838498e-06,0.5019256472587585,0.5019184350967407,,,,,,,,,,,,,,,,,,,,,,,,,,,,,,,,,,,,,,,,,,,,,,,,,,,,,,,,,,,,,,,,,,,,,,,,,,,,,,,,,,,,,,,,,,,,,,,,,,,,,,,,,,,,,,,,,,,,,,,,,,,,,,,,,,,,,,-2.0480742932704743e-06,1.2788304957211949e-06,-3.1155966553342296e-06,0.0,0.00043239659862592816,0.0005342510412447155,-0.008984330110251904,-0.00893811322748661,3.424610639513048e-08,3.0198400224890065e-08,-2.9105850174460102e-08,0.0,7.737135092611425e-06,6.815485903644003e-06,0.009688051417469978,0.009646785445511341,,,,,,,,,,,,,,,,,,,,,,,,,,,,,,,,,,,,,,,,,,,,,,,,,,,,,,,,,,,,,,,,,,,,,,,,,,
27,1.6836562156677246,0.6077713370323181,1.5727319717407227,0.38740412801504137,0.0,-3.1416786253432543,-0.00010619813110679388,0.5017856359481812,0.5017776489257812,0.6109127402305603,1.5708492994308472,0.38995822429656984,0.0,-3.141593807933739,-9.706241144158412e-07,0.50160813331604,0.5016022324562073,,,,,,,,,,,,,,,,,,,,,,,,,,,,,,,,,,,,,,,,,,,,,,,,,,,,,,,,,,,,,,,,,,,,,,,,,,,,,,,,,,,,,,,,,,,,,,,,,,,,,,,,,,,,,,,,,,,,,,,,,,,,,,,,,,,,,,-2.0480742932704743e-06,1.2788304957211949e-06,-3.1155966553342296e-06,0.0,0.00043239659862592816,0.0005342510412447155,-0.008984330110251904,-0.00893811322748661,2.8590296352604128e-08,2.5343393161847416e-08,-2.42970301655987e-08,0.0,6.323421530396445e-06,5.568954748014221e-06,0.008090431801974773,0.008056700229644775,,,,,,,,,,,,,,,,,,,,,,,,,,,,,,,,,,,,,,,,,,,,,,,,,,,,,,,,,,,,,,,,,,,,,,,,,,
28,1.7050459384918213,0.6077712774276733,1.5727319717407227,0.387404023706913,0.0,-3.141663783786705,-8.780295320320874e-05,0.5014762878417969,0.5014699101448059,0.6109127402305603,1.5708492994308472,0.38995822429656984,0.0,-3.141593807933739,-9.706241144158412e-07,0.50160813331604,0.5016022324562073,,,,,,,,,,,,,,,,,,,,,,,,,,,,,,,,,,,,,,,,,,,,,,,,,,,,,,,,,,,,,,,,,,,,,,,,,,,,,,,,,,,,,,,,,,,,,,,,,,,,,,,,,,,,,,,,,,,,,,,,,,,,,,,,,,,,,,-1.6934676523305825e-06,1.0576876547929714e-06,-2.5752251531230286e-06,0.0,0.00035751773975789547,0.0004417107265908271,-0.007427877746522427,-0.007390633225440979,2.8590296352604128e-08,2.5343393161847416e-08,-2.42970301655987e-08,0.0,6.323421530396445e-06,5.568954748014221e-06,0.008090431801974773,0.008056700229644775,,,,,,,,,,,,,,,,,,,,,,,,,,,,,,,,,,,,,,,,,,,,,,,,,,,,,,,,,,,,,,,,,,,,,,,,,,
29,1.726733684539795,0.6077712774276733,1.5727319717407227,0.387404023706913,0.0,-3.141663783786705,-8.780295320320874e-05,0.5014762878417969,0.5014699101448059,0.6109127402305603,1.5708492994308472,0.38995822429656984,0.0,-3.14159356951516,-7.901477374616661e-07,0.5013429522514343,0.5013381242752075,,,,,,,,,,,,,,,,,,,,,,,,,,,,,,,,,,,,,,,,,,,,,,,,,,,,,,,,,,,,,,,,,,,,,,,,,,,,,,,,,,,,,,,,,,,,,,,,,,,,,,,,,,,,,,,,,,,,,,,,,,,,,,,,,,,,,,-1.6934676523305825e-06,1.0576876547929714e-06,-2.5752251531230286e-06,0.0,0.00035751773975789547,0.0004417107265908271,-0.007427877746522427,-0.007390633225440979,2.3868739873478262e-08,2.126787634892935e-08,-2.0282726609366364e-08,0.0,5.1655729293997865e-06,4.548117431113496e-06,0.006756269372999668,0.006728710141032934,,,,,,,,,,,,,,,,,,,,,,,,,,,,,,,,,,,,,,,,,,,,,,,,,,,,,,,,,,,,,,,,,,,,,,,,,,
30,1.7481951713562012,0.6077712178230286,1.5727320909500122,0.38740393429994585,0.0,-3.1416514456252367,-7.259409176185727e-05,0.5012205243110657,0.501215398311615,0.6109127402305603,1.5708492994308472,0.38995821684598925,0.0,-3.1415933907012255,-6.50218339615094e-07,0.5011327266693115,0.5011287927627563,,,,,,,,,,,,,,,,,,,,,,,,,,,,,,,,,,,,,,,,,,,,,,,,,,,,,,,,,,,,,,,,,,,,,,,,,,,,,,,,,,,,,,,,,,,,,,,,,,,,,,,,,,,,,,,,,,,,,,,,,,,,,,,,,,,,,,-1.4002579291627626e-06,8.747855986257491e-07,-2.1285759430611506e-06,0.0,0.0002956059470307082,0.0003651996667031199,-0.006141066085547209,-0.006111071910709143,2.012751032509641e-08,1.802202831413524e-08,-1.710247232722395e-08,0.0,4.265472398401471e-06,3.7546237763308454e-06,0.005698889493942261,0.00567612936720252,,,,,,,,,,,,,,,,,,,,,,,,,,,,,,,,,,,,,,,,,,,,,,,,,,,,,,,,,,,,,,,,,,,,,,,,,,
31,1.770136833190918,0.6077711582183838,1.5727320909500122,0.3874038672447205,0.0,-3.1416422665099413,-6.123348430264741e-05,0.5010294914245605,0.5010252594947815,0.6109127402305603,1.5708492994308472,0.38995821684598925,0.0,-3.1415933907012255,-6.427934522434953e-07,0.501121461391449,0.5011175870895386,,,,,,,,,,,,,,,,,,,,,,,,,,,,,,,,,,,,,,,,,,,,,,,,,,,,,,,,,,,,,,,,,,,,,,,,,,,,,,,,,,,,,,,,,,,,,,,,,,,,,,,,,,,,,,,,,,,,,,,,,,,,,,,,,,,,,,-1.1812196589744417e-06,7.38117137188965e-07,-1.795027856132947e-06,0.0,0.0002493572246748954,0.0003080479218624532,-0.005179880652576685,-0.005155183374881744,1.9926559957639256e-08,1.784716729957836e-08,-1.69317200260366e-08,0.0,4.217641617287882e-06,3.712461875693407e-06,0.005642118398100138,0.005619612988084555,,,,,,,,,,,,,,,,,,,,,,,,,,,,,,,,,,,,,,,,,,,,,,,,,,,,,,,,,,,,,,,,,,,,,,,,,,
32,1.7926380634307861,0.6077711582183838,1.5727320909500122,0.3874038672447205,0.0,-3.1416422665099413,-6.123348430264741e-05,0.5010294914245605,0.5010252594947815,0.6109127402305603,1.5708492994308472,0.38995821684598925,0.0,-3.141593271491936,-5.22546883985342e-07,0.5009365081787109,0.5009333491325378,,,,,,,,,,,,,,,,,,,,,,,,,,,,,,,,,,,,,,,,,,,,,,,,,,,,,,,,,,,,,,,,,,,,,,,,,,,,,,,,,,,,,,,,,,,,,,,,,,,,,,,,,,,,,,,,,,,,,,,,,,,,,,,,,,,,,,-1.1812196589744417e-06,7.38117137188965e-07,-1.795027856132947e-06,0.0,0.0002493572246748954,0.0003080479218624532,-0.005179880652576685,-0.005155183374881744,1.663569193510739e-08,1.497635260250263e-08,-1.4134457160253078e-08,0.0,3.441880153332022e-06,3.02869125334837e-06,0.004711698275059462,0.004693329334259033,,,,,,,,,,,,,,,,,,,,,,,,,,,,,,,,,,,,,,,,,,,,,,,,,,,,,,,,,,,,,,,,,,,,,,,,,,
33,1.8141400814056396,0.607771098613739,1.5727320909500122,0.3874038076400757,0.0,-3.1416336834410936,-5.062686977908015e-05,0.5008511543273926,0.5008477568626404,0.6109127402305603,1.5708492994308472,0.38995821684598925,0.0,-3.141593271491936,-5.22546883985342e-07,0.5009365081787109,0.5009333491325378,,,,,,,,,,,,,,,,,,,,,,,,,,,,,,,,,,,,,,,,,,,,,,,,,,,,,,,,,,,,,,,,,,,,,,,,,,,,,,,,,,,,,,,,,,,,,,,,,,,,,,,,,,,,,,,,,,,,,,,,,,,,,,,,,,,,,,-9.767015853867633e-07,6.104770022830053e-07,-1.4836967920928146e-06,0.0,0.00020617585687432438,0.00025468922103755176,-0.004282514099031687,-0.0042626517824828625,1.663569193510739e-08,1.497635260250263e-08,-1.4134457160253078e-08,0.0,3.441880153332022e-06,3.02869125334837e-06,0.004711698275059462,0.004693329334259033,,,,,,,,,,,,,,,,,,,,,,,,,,,,,,,,,,,,,,,,,,,,,,,,,,,,,,,,,,,,,,,,,,,,,,,,,,
34,1.83579683303833,0.607771098613739,1.5727320909500122,0.3874038076400757,0.0,-3.1416336834410936,-5.062686977908015e-05,0.5008511543273926,0.5008477568626404,0.6109127402305603,1.5708492994308472,0.38995821684598925,0.0,-3.1415931522826464,-4.244759566063294e-07,0.5007820725440979,0.5007795095443726,,,,,,,,,,,,,,,,,,,,,,,,,,,,,,,,,,,,,,,,,,,,,,,,,,,,,,,,,,,,,,,,,,,,,,,,,,,,,,,,,,,,,,,,,,,,,,,,,,,,,,,,,,,,,,,,,,,,,,,,,,,,,,,,,,,,,,-9.767015853867633e-07,6.104770022830053e-07,-1.4836967920928146e-06,0.0,0.00020617585687432438,0.00025468922103755176,-0.004282514099031687,-0.0042626517824828625,1.3888223904245933e-08,1.256672543803461e-08,-1.1799207833007586e-08,0.0,2.807281134664663e-06,2.4694500098121352e-06,0.003934709820896387,0.003919724840670824,,,,,,,,,,,,,,,,,,,,,,,,,,,,,,,,,,,,,,,,,,,,,,,,,,,,,,,,,,,,,,,,,,,,,,,,,,
35,1.8573968410491943,0.607771098613739,1.5727320909500122,0.3874037554860115,0.0,-3.1416265904883653,-4.185748548479751e-05,0.5007036924362183,0.5007010102272034,0.6109127402305603,1.5708492994308472,0.38995821684598925,0.0,-3.1415930926780016,-3.4453782404852973e-07,0.5006531476974487,0.5006510019302368,,,,,,,,,,,,,,,,,,,,,,,,,,,,,,,,,,,,,,,,,,,,,,,,,,,,,,,,,,,,,,,,,,,,,,,,,,,,,,,,,,,,,,,,,,,,,,,,,,,,,,,,,,,,,,,,,,,,,,,,,,,,,,,,,,,,,,-8.075941195784253e-07,5.049089963904407e-07,-1.2263633379916428e-06,0.0,0.00017047229630406946,0.00021057305275462568,-0.0035406078677624464,-0.0035246466286480427,1.1594558202432381e-08,1.0545120332494662e-08,-9.849898674474389e-09,0.0,2.28838234761497e-06,2.0122706700931303e-06,0.0032858517952263355,0.003273634472861886,,,,,,,,,,,,,,,,,,,,,,,,,,,,,,,,,,,,,,,,,,,,,,,,,,,,,,,,,,,,,,,,,,,,,,,,,,
36,1.8789737224578857,0.6077710390090942,1.5727320909500122,0.38740371078252794,0.0,-3.1416209876517565,-3.4955293813254684e-05,0.5005876421928406,0.5005854368209839,0.6109127402305603,1.5708492994308472,0.38995821684598925,0.0,-3.1415930926780016,-3.4453782404852973e-07,0.5006531476974487,0.5006510019302368,,,,,,,,,,,,,,,,,,,,,,,,,,,,,,,,,,,,,,,,,,,,,,,,,,,,,,,,,,,,,,,,,,,,,,,,,,,,,,,,,,,,,,,,,,,,,,,,,,,,,,,,,,,,,,,,,,,,,,,,,,,,,,,,,,,,,,-6.744813845216413e-07,4.217900482217374e-07,-1.0238753702651593e-06,0.0,0.00014236931747291237,0.0001758501457516104,-0.00295668700709939,-0.002943722065538168,1.1594558202432381e-08,1.0545120332494662e-08,-9.849898674474389e-09,0.0,2.28838234761497e-06,2.0122706700931303e-06,0.0032858517952263355,0.003273634472861886,,,,,,,,,,,,,,,,,,,,,,,,,,,,,,,,,,,,,,,,,,,,,,,,,,,,,,,,,,,,,,,,,,,,,,,,,,
37,1.900984764099121,0.6077710390090942,1.5727320909500122,0.38740371078252794,0.0,-3.1416209876517565,-3.4955293813254684e-05,0.5005876421928406,0.5005854368209839,0.6109127402305603,1.5708492994308472,0.38995821684598925,0.0,-3.141592973468712,-2.761794348771218e-07,0.5005399584770203,0.5005382895469666,,,,,,,,,,,,,,,,,,,,,,,,,,,,,,,,,,,,,,,,,,,,,,,,,,,,,,,,,,,,,,,,,,,,,,,,,,,,,,,,,,,,,,,,,,,,,,,,,,,,,,,,,,,,,,,,,,,,,,,,,,,,,,,,,,,,,,-6.744813845216413e-07,4.217900482217374e-07,-1.0238753702651593e-06,0.0,0.00014236931747291237,0.0001758501457516104,-0.00295668700709939,-0.002943722065538168,9.583001059354501e-09,8.76210215494666e-09,-8.14047407260432e-09,0.0,1.843139216362033e-06,1.6200856407522224e-06,0.0027166593354195356,0.0027068171184509993,,,,,,,,,,,,,,,,,,,,,,,,,,,,,,,,,,,,,,,,,,,,,,,,,,,,,,,,,,,,,,,,,,,,,,,,,,
38,1.9226622581481934,0.6077710390090942,1.5727320909500122,0.38740368098020556,0.0,-3.141616338489464,-2.9191254725446925e-05,0.5004907250404358,0.5004889369010925,0.6109127402305603,1.5708492994308472,0.38995821684598925,0.0,-3.141592973468712,-2.761794348771218e-07,0.5005399584770203,0.5005382895469666,,,,,,,,,,,,,,,,,,,,,,,,,,,,,,,,,,,,,,,,,,,,,,,,,,,,,,,,,,,,,,,,,,,,,,,,,,,,,,,,,,,,,,,,,,,,,,,,,,,,,,,,,,,,,,,,,,,,,,,,,,,,,,,,,,,,,,-5.633092428070086e-07,3.5235436257607944e-07,-8.548210530534561e-07,0.0,0.00011889924644492567,0.00014685293717775494,-0.0024690667632967234,-0.0024585439823567867,9.583001059354501e-09,8.76210215494666e-09,-8.14047407260432e-09,0.0,1.843139216362033e-06,1.6200856407522224e-06,0.0027166593354195356,0.0027068171184509993,,,,,,,,,,,,,,,,,,,,,,,,,,,,,,,,,,,,,,,,,,,,,,,,,,,,,,,,,,,,,,,,,,,,,,,,,,
39,1.9436790943145752,0.6077710390090942,1.5727320909500122,0.38740368098020556,0.0,-3.141616338489464,-2.9191254725446925e-05,0.5004907250404358,0.5004889369010925,0.6109127402305603,1.5708492994308472,0.38995821684598925,0.0,-3.1415929138640672,-2.2116421405371511e-07,0.5004464387893677,0.5004450678825378,,,,,,,,,,,,,,,,,,,,,,,,,,,,,,,,,,,,,,,,,,,,,,,,,,,,,,,,,,,,,,,,,,,,,,,,,,,,,,,,,,,,,,,,,,,,,,,,,,,,,,,,,,,,,,,,,,,,,,,,,,,,,,,,,,,,,,-5.633092428070086e-07,3.5235436257607944e-07,-8.548210530534561e-07,0.0,0.00011889924644492567,0.00014685293717775494,-0.0024690667632967234,-0.0024585439823567867,7.920386124737888e-09,7.2803985062819265e-09,-6.727805867967618e-09,0.0,1.4834839703325997e-06,1.3033804862061515e-06,0.0022460652980953455,0.0022381418384611607,,,,,,,,,,,,,,,,,,,,,,,,,,,,,,,,,,,,,,,,,,,,,,,,,,,,,,,,,,,,,,,,,,,,,,,,,,
40,1.9644849300384521,0.6077710390090942,1.5727322101593018,0.38740365117788317,0.0,-3.141612404582909,-2.4377690351684578e-05,0.5004097819328308,0.5004083514213562,0.6109127402305603,1.5708492994308472,0.38995821684598925,0.0,-3.1415929138640672,-2.2116421405371511e-07,0.5004464387893677,0.5004450678825378,,,,,,,,,,,,,,,,,,,,,,,,,,,,,,,,,,,,,,,,,,,,,,,,,,,,,,,,,,,,,,,,,,,,,,,,,,,,,,,,,,,,,,,,,,,,,,,,,,,,,,,,,,,,,,,,,,,,,,,,,,,,,,,,,,,,,,-4.70460889800961e-07,2.943493200291414e-07,-7.136794692996773e-07,0.0,9.929830412147567e-05,0.00012263728422112763,-0.0020618655253201723,-0.0020533320493996143,7.920386124737888e-09,7.2803985062819265e-09,-6.727805867967618e-09,0.0,1.4834839703325997e-06,1.3033804862061515e-06,0.0022460652980953455,0.0022381418384611607,,,,,,,,,,,,,,,,,,,,,,,,,,,,,,,,,,,,,,,,,,,,,,,,,,,,,,,,,,,,,,,,,,,,,,,,,,
41,1.9859604835510254,0.6077709794044495,1.5727322101593018,0.3874036288261414,0.0,-3.141609185932091,-2.035786928900052e-05,0.5003421902656555,0.5003410577774048,0.6109127402305603,1.5708492994308472,0.38995821684598925,0.0,-3.1415928542594225,-1.7692096321297868e-07,0.500369131565094,0.5003679990768433,,,,,,,,,,,,,,,,,,,,,,,,,,,,,,,,,,,,,,,,,,,,,,,,,,,,,,,,,,,,,,,,,,,,,,,,,,,,,,,,,,,,,,,,,,,,,,,,,,,,,,,,,,,,,,,,,,,,,,,,,,,,,,,,,,,,,,-3.9291691678045026e-07,2.458935171034682e-07,-5.958421525065205e-07,0.0,8.292865823023021e-05,0.00010241471318295226,-0.0017218204447999597,-0.0017149060731753707,6.5464300647022355e-09,6.049161171972628e-09,-5.560281568506298e-09,0.0,1.1931228982575703e-06,1.0477765499672387e-06,0.0018569901585578918,0.0018506160704419017,,,,,,,,,,,,,,,,,,,,,,,,,,,,,,,,,,,,,,,,,,,,,,,,,,,,,,,,,,,,,,,,,,,,,,,,,,
42,2.0082285404205322,0.6077709794044495,1.5727322101593018,0.3874036288261414,0.0,-3.141609185932091,-2.035786928900052e-05,0.5003421902656555,0.5003410577774048,0.6109127402305603,1.5708492994308472,0.38995821684598925,0.0,-3.1415928542594225,-1.4305203421827173e-07,0.5003082156181335,0.5003073811531067,,,,,,,,,,,,,,,,,,,,,,,,,,,,,,,,,,,,,,,,,,,,,,,,,,,,,,,,,,,,,,,,,,,,,,,,,,,,,,,,,,,,,,,,,,,,,,,,,,,,,,,,,,,,,,,,,,,,,,,,,,,,,,,,,,,,,,-3.9291691678045026e-07,2.458935171034682e-07,-5.958421525065205e-07,0.0,8.292865823023021e-05,0.00010241471318295226,-0.0017218204447999597,-0.0017149060731753707,5.465350394473489e-09,5.075495579376366e-09,-4.641668827076728e-09,0.0,9.699580232336302e-07,8.513904390383686e-07,0.00155076093506068,0.0015455778921023011,,,,,,,,,,,,,,,,,,,,,,,,,,,,,,,,,,,,,,,,,,,,,,,,,,,,,,,,,,,,,,,,,,,,,,,,,,
43,2.0289604663848877,0.6077709794044495,1.5727322101593018,0.3874036064743996,0.0,-3.1416064441184313,-1.7000906154862605e-05,0.5002857446670532,0.5002848505973816,0.6109127402305603,1.5708492994308472,0.38995821684598925,0.0,-3.1415928542594225,-1.4305203421827173e-07,0.5003082156181335,0.5003073811531067,,,,,,,,,,,,,,,,,,,,,,,,,,,,,,,,,,,,,,,,,,,,,,,,,,,,,,,,,,,,,,,,,,,,,,,,,,,,,,,,,,,,,,,,,,,,,,,,,,,,,,,,,,,,,,,,,,,,,,,,,,,,,,,,,,,,,,-3.2815395911711676e-07,2.0541391165807e-07,-4.974611442776222e-07,0.0,6.925760681042448e-05,8.55267935548909e-05,-0.0014378558844327927,-0.0014322588685899973,5.465350394473489e-09,5.075495579376366e-09,-4.641668827076728e-09,0.0,9.699580232336302e-07,8.513904390383686e-07,0.00155076093506068,0.0015455778921023011,,,,,,,,,,,,,,,,,,,,,,,,,,,,,,,,,,,,,,,,,,,,,,,,,,,,,,,,,,,,,,,,,,,,,,,,,,
44,2.0509042739868164,0.6077709794044495,1.5727322101593018,0.3874036064743996,0.0,-3.1416064441184313,-1.7000906154862605e-05,0.5002857446670532,0.5002848505973816,0.6109127402305603,1.5708492994308472,0.38995821684598925,0.0,-3.1415927946547777,-1.1554196532870264e-07,0.5002574324607849,0.5002567172050476,,,,,,,,,,,,,,,,,,,,,,,,,,,,,,,,,,,,,,,,,,,,,,,,,,,,,,,,,,,,,,,,,,,,,,,,,,,,,,,,,,,,,,,,,,,,,,,,,,,,,,,,,,,,,,,,,,,,,,,,,,,,,,,,,,,,,,-3.2815395911711676e-07,2.0541391165807e-07,-4.974611442776222e-07,0.0,6.925760681042448e-05,8.55267935548909e-05,-0.0014378558844327927,-0.0014322588685899973,4.562683564302006e-09,4.258149388647325e-09,-3.8748586561609955e-09,0.0,7.879493182372244e-07,6.912785011081723e-07,0.001295030815526843,0.00129081925842911,,,,,,,,,,,,,,,,,,,,,,,,,,,,,,,,,,,,,,,,,,,,,,,,,,,,,,,,,,,,,,,,,,,,,,,,,,
45,2.072126626968384,0.6077709794044495,1.5727322101593018,0.3874035915732384,0.0,-3.14160417914193,-1.4197498785506468e-05,0.5002386569976807,0.5002378821372986,0.6109127402305603,1.5708492994308472,0.38995821684598925,0.0,-3.1415927946547777,-1.1554196532870264e-07,0.5002574324607849,0.5002567172050476,,,,,,,,,,,,,,,,,,,,,,,,,,,,,,,,,,,,,,,,,,,,,,,,,,,,,,,,,,,,,,,,,,,,,,,,,,,,,,,,,,,,,,,,,,,,,,,,,,,,,,,,,,,,,,,,,,,,,,,,,,,,,,,,,,,,,,-2.740656555033638e-07,1.7159828757939977e-07,-4.1532416616973933e-07,0.0,5.7840275985654444e-05,7.142363756429404e-05,-0.0012007231125608087,-0.0011961968848481774,4.562683564302006e-09,4.258149388647325e-09,-3.8748586561609955e-09,0.0,7.879493182372244e-07,6.912785011081723e-07,0.001295030815526843,0.00129081925842911,,,,,,,,,,,,,,,,,,,,,,,,,,,,,,,,,,,,,,,,,,,,,,,,,,,,,,,,,,,,,,,,,,,,,,,,,,
46,2.092957019805908,0.6077709794044495,1.5727322101593018,0.3874035766720772,0.0,-3.1416023910025865,-1.1975657798757311e-05,0.5002012848854065,0.5002006888389587,0.6109127402305603,1.5708492994308472,0.38995821684598925,0.0,-3.1415927946547777,-9.210600637743482e-08,0.5002128481864929,0.5002122521400452,,,,,,,,,,,,,,,,,,,,,,,,,,,,,,,,,,,,,,,,,,,,,,,,,,,,,,,,,,,,,,,,,,,,,,,,,,,,,,,,,,,,,,,,,,,,,,,,,,,,,,,,,,,,,,,,,,,,,,,,,,,,,,,,,,,,,,-2.311942353117047e-07,1.447889559358373e-07,-3.5024277167394757e-07,0.0,4.8791007429827005e-05,6.024618778610602e-05,-0.0010127887362614274,-0.00100908859167248,3.771205570046732e-09,3.537836690270524e-09,-3.2024451979140167e-09,0.0,6.32207104445115e-07,5.54325879420503e-07,0.0010706987231969833,0.0010673187207430601,,,,,,,,,,,,,,,,,,,,,,,,,,,,,,,,,,,,,,,,,,,,,,,,,,,,,,,,,,,,,,,,,,,,,,,,,,
47,2.113753318786621,0.6077709794044495,1.5727322101593018,0.3874035766720772,0.0,-3.141602212188652,-1.1738261491700541e-05,0.5001972913742065,0.5001966953277588,0.6109127402305603,1.5708492994308472,0.38995821684598925,0.0,-3.1415927946547777,-9.210600637743482e-08,0.5002128481864929,0.5002122521400452,,,,,,,,,,,,,,,,,,,,,,,,,,,,,,,,,,,,,,,,,,,,,,,,,,,,,,,,,,,,,,,,,,,,,,,,,,,,,,,,,,,,,,,,,,,,,,,,,,,,,,,,,,,,,,,,,,,,,,,,,,,,,,,,,,,,,,-2.2661350840280647e-07,1.419243602640563e-07,-3.4328999731769727e-07,0.0,4.782409450854175e-05,5.905191574129276e-05,-0.0009927088394761086,-0.0009890957735478878,3.771205570046732e-09,3.537836690270524e-09,-3.2024451979140167e-09,0.0,6.32207104445115e-07,5.54325879420503e-07,0.0010706987231969833,0.0010673187207430601,,,,,,,,,,,,,,,,,,,,,,,,,,,,,,,,,,,,,,,,,,,,,,,,,,,,,,,,,,,,,,,,,,,,,,,,,,
48,2.135342597961426,0.6077709794044495,1.5727322101593018,0.3874035692214966,0.0,-3.1416005432585985,-9.705004231364e-06,0.5001631379127502,0.500162661075592,0.6109127402305603,1.5708492994308472,0.38995821684598925,0.0,-3.141592735050133,-7.421035519428187e-08,0.5001777410507202,0.500177264213562,,,,,,,,,,,,,,,,,,,,,,,,,,,,,,,,,,,,,,,,,,,,,,,,,,,,,,,,,,,,,,,,,,,,,,,,,,,,,,,,,,,,,,,,,,,,,,,,,,,,,,,,,,,,,,,,,,,,,,,,,,,,,,,,,,,,,,-1.8737705431703944e-07,1.1738121230564502e-07,-2.8374947191878164e-07,0.0,3.954241765313782e-05,4.8823167162481695e-05,-0.0008207312203012407,-0.0008178505813702941,3.148370453232019e-09,2.968181256335356e-09,-2.6733615321461457e-09,0.0,5.127224085299531e-07,4.493005292260932e-07,0.0008941338746808469,0.0008913919446058571,,,,,,,,,,,,,,,,,,,,,,,,,,,,,,,,,,,,,,,,,,,,,,,,,,,,,,,,,,,,,,,,,,,,,,,,,,
49,2.156035900115967,0.6077709794044495,1.5727322101593018,0.3874035692214966,0.0,-3.1416005432585985,-9.705004231364e-06,0.5001631379127502,0.500162661075592,0.6109127402305603,1.5708492994308472,0.38995821684598925,0.0,-3.141592735050133,-5.8992881690755894e-08,0.5001469254493713,0.5001465678215027,,,,,,,,,,,,,,,,,,,,,,,,,,,,,,,,,,,,,,,,,,,,,,,,,,,,,,,,,,,,,,,,,,,,,,,,,,,,,,,,,,,,,,,,,,,,,,,,,,,,,,,,,,,,,,,,,,,,,,,,,,,,,,,,,,,,,,-1.8737705431703944e-07,1.1738121230564502e-07,-2.8374947191878164e-07,0.0,3.954241765313782e-05,4.8823167162481695e-05,-0.0008207312203012407,-0.0008178505813702941,2.6020297028139794e-09,2.4658053376924727e-09,-2.2094479579237714e-09,0.0,4.1061454680857423e-07,3.595881139517587e-07,0.0007392473053187132,0.0007370507228188217,,,,,,,,,,,,,,,,,,,,,,,,,,,,,,,,,,,,,,,,,,,,,,,,,,,,,,,,,,,,,,,,,,,,,,,,,,
50,2.1773841381073,0.6077709794044495,1.5727322101593018,0.3874035543203354,0.0,-3.141599291561058,-8.186217201000545e-06,0.5001375675201416,0.500137209892273,0.6109127402305603,1.5708492994308472,0.38995821684598925,0.0,-3.141592735050133,-5.8992881690755894e-08,0.5001469254493713,0.5001465678215027,,,,,,,,,,,,,,,,,,,,,,,,,,,,,,,,,,,,,,,,,,,,,,,,,,,,,,,,,,,,,,,,,,,,,,,,,,,,,,,,,,,,,,,,,,,,,,,,,,,,,,,,,,,,,,,,,,,,,,,,,,,,,,,,,,,,,,-1.5806634223736182e-07,9.904243825076264e-08,-2.39285981251669e-07,0.0,3.33559000864625e-05,4.1182578570442274e-05,-0.0006922722677700222,-0.0006899229483678937,2.6020297028139794e-09,2.4658053376924727e-09,-2.2094479579237714e-09,0.0,4.1061454680857423e-07,3.595881139517587e-07,0.0007392473053187132,0.0007370507228188217,,,,,,,,,,,,,,,,,,,,,,,,,,,,,,,,,,,,,,,,,,,,,,,,,,,,,,,,,,,,,,,,,,,,,,,,,,
51,2.199737548828125,0.6077709794044495,1.5727322101593018,0.3874035543203354,0.0,-3.141599291561058,-8.186217201000545e-06,0.5001375675201416,0.500137209892273,0.6109127402305603,1.5708492994308472,0.38995821684598925,0.0,-3.141592735050133,-4.739553816079933e-08,0.5001227259635925,0.5001224279403687,,,,,,,,,,,,,,,,,,,,,,,,,,,,,,,,,,,,,,,,,,,,,,,,,,,,,,,,,,,,,,,,,,,,,,,,,,,,,,,,,,,,,,,,,,,,,,,,,,,,,,,,,,,,,,,,,,,,,,,,,,,,,,,,,,,,,,-1.5806634223736182e-07,9.904243825076264e-08,-2.39285981251669e-07,0.0,3.33559000864625e-05,4.1182578570442274e-05,-0.0006922722677700222,-0.0006899229483678937,2.1724844145865063e-09,2.0685675394815917e-09,-1.844385755234157e-09,0.0,3.3238589480788505e-07,2.908887779540237e-07,0.0006173408473841846,0.0006155621376819909,,,,,,,,,,,,,,,,,,,,,,,,,,,,,,,,,,,,,,,,,,,,,,,,,,,,,,,,,,,,,,,,,,,,,,,,,,
52,2.2211649417877197,0.6077709197998047,1.5727322101593018,0.3874035468697548,0.0,-3.1415981590728075,-6.768231287423987e-06,0.5001137256622314,0.5001134872436523,0.6109127402305603,1.5708492994308472,0.38995821684598925,0.0,-3.141592735050133,-4.739553816079933e-08,0.5001227259635925,0.5001224279403687,,,,,,,,,,,,,,,,,,,,,,,,,,,,,,,,,,,,,,,,,,,,,,,,,,,,,,,,,,,,,,,,,,,,,,,,,,,,,,,,,,,,,,,,,,,,,,,,,,,,,,,,,,,,,,,,,,,,,,,,,,,,,,,,,,,,,,-1.3069856663605606e-07,8.191503297894087e-08,-1.9778401849634974e-07,0.0,2.7579675588640384e-05,3.404908784432337e-05,-0.000572342483792454,-0.000570474483538419,2.1724844145865063e-09,2.0685675394815917e-09,-1.844385755234157e-09,0.0,3.3238589480788505e-07,2.908887779540237e-07,0.0006173408473841846,0.0006155621376819909,,,,,,,,,,,,,,,,,,,,,,,,,,,,,,,,,,,,,,,,,,,,,,,,,,,,,,,,,,,,,,,,,,,,,,,,,,
53,2.2427186965942383,0.6077709197998047,1.5727322101593018,0.3874035394191742,0.0,-3.141597265003136,-5.652165782521479e-06,0.500095009803772,0.5000947713851929,0.6109127402305603,1.5708492994308472,0.38995821684598925,0.0,-3.141592735050133,-3.801882897391806e-08,0.5001024603843689,0.5001022219657898,,,,,,,,,,,,,,,,,,,,,,,,,,,,,,,,,,,,,,,,,,,,,,,,,,,,,,,,,,,,,,,,,,,,,,,,,,,,,,,,,,,,,,,,,,,,,,,,,,,,,,,,,,,,,,,,,,,,,,,,,,,,,,,,,,,,,,-1.0915584880422102e-07,6.842982003263387e-08,-1.6512737488483253e-07,0.0,2.303308792761527e-05,2.8434475098038092e-05,-0.0004779511073138565,-0.00047645001905038953,1.8136603330276557e-09,1.7353896097915822e-09,-1.5397613184475745e-09,0.0,2.687913820409449e-07,2.350685264218555e-07,0.0005155375110916793,0.0005140986177138984,,,,,,,,,,,,,,,,,,,,,,,,,,,,,,,,,,,,,,,,,,,,,,,,,,,,,,,,,,,,,,,,,,,,,,,,,,
54,2.2643232345581055,0.6077709197998047,1.5727322101593018,0.3874035394191742,0.0,-3.141597205398491,-5.595863513008226e-06,0.5000940561294556,0.5000938177108765,0.6109127402305603,1.5708492994308472,0.38995821684598925,0.0,-3.141592735050133,-3.044575791477655e-08,0.5000855922698975,0.5000854134559631,,,,,,,,,,,,,,,,,,,,,,,,,,,,,,,,,,,,,,,,,,,,,,,,,,,,,,,,,,,,,,,,,,,,,,,,,,,,,,,,,,,,,,,,,,,,,,,,,,,,,,,,,,,,,,,,,,,,,,,,,,,,,,,,,,,,,,-1.0806905237359388e-07,6.774969563139166e-08,-1.6348029419077648e-07,0.0,2.2803718820796348e-05,2.8151232982054353e-05,-0.0004731894005089998,-0.00047170647303573787,1.5140666498325572e-09,1.4557244298885053e-09,-1.2853745845475828e-09,0.0,2.1713148612434452e-07,1.8974699855789368e-07,0.00043052216642536223,0.0004293594101909548,,,,,,,,,,,,,,,,,,,,,,,,,,,,,,,,,,,,,,,,,,,,,,,,,,,,,,,,,,,,,,,,,,,,,,,,,,
55,2.286109447479248,0.6077709197998047,1.5727322101593018,0.3874035394191742,0.0,-3.141596430538109,-4.6265690798463766e-06,0.5000777244567871,0.5000775456428528,0.6109127402305603,1.5708492994308472,0.38995821684598925,0.0,-3.141592735050133,-3.044575791477655e-08,0.5000855922698975,0.5000854134559631,,,,,,,,,,,,,,,,,,,,,,,,,,,,,,,,,,,,,,,,,,,,,,,,,,,,,,,,,,,,,,,,,,,,,,,,,,,,,,,,,,,,,,,,,,,,,,,,,,,,,,,,,,,,,,,,,,,,,,,,,,,,,,,,,,,,,,-8.935796813602792e-08,5.6034064499499436e-08,-1.3512617158539797e-07,0.0,1.8854811060009524e-05,2.327498259546701e-05,-0.00039121368899941444,-0.00039003847632557154,1.5140666498325572e-09,1.4557244298885053e-09,-1.2853745845475828e-09,0.0,2.1713148612434452e-07,1.8974699855789368e-07,0.00043052216642536223,0.0004293594101909548,,,,,,,,,,,,,,,,,,,,,,,,,,,,,,,,,,,,,,,,,,,,,,,,,,,,,,,,,,,,,,,,,,,,,,,,,,
56,2.3077752590179443,0.6077709197998047,1.5727322101593018,0.3874035394191742,0.0,-3.141596430538109,-4.6265690798463766e-06,0.5000777244567871,0.5000775456428528,0.6109127402305603,1.5708492994308472,0.38995821684598925,0.0,-3.141592675445488,-2.4642426765808523e-08,0.500072181224823,0.5000720024108887,,,,,,,,,,,,,,,,,,,,,,,,,,,,,,,,,,,,,,,,,,,,,,,,,,,,,,,,,,,,,,,,,,,,,,,,,,,,,,,,,,,,,,,,,,,,,,,,,,,,,,,,,,,,,,,,,,,,,,,,,,,,,,,,,,,,,,-8.935796813602792e-08,5.6034064499499436e-08,-1.3512617158539797e-07,0.0,1.8854811060009524e-05,2.327498259546701e-05,-0.00039121368899941444,-0.00039003847632557154,1.2767009671676988e-09,1.2332357357536239e-09,-1.0838413500025013e-09,0.0,1.77307057924736e-07,1.5482709159186925e-07,0.00036314394674263895,0.00036219408502802253,,,,,,,,,,,,,,,,,,,,,,,,,,,,,,,,,,,,,,,,,,,,,,,,,,,,,,,,,,,,,,,,,,,,,,,,,,
57,2.329134225845337,0.6077709197998047,1.5727322101593018,0.3874035319685936,0.0,-3.1415957748870165,-3.825171916105319e-06,0.5000642538070679,0.5000641345977783,0.6109127402305603,1.5708492994308472,0.38995821684598925,0.0,-3.141592675445488,-2.4642426765808523e-08,0.500072181224823,0.5000720024108887,,,,,,,,,,,,,,,,,,,,,,,,,,,,,,,,,,,,,,,,,,,,,,,,,,,,,,,,,,,,,,,,,,,,,,,,,,,,,,,,,,,,,,,,,,,,,,,,,,,,,,,,,,,,,,,,,,,,,,,,,,,,,,,,,,,,,,-7.388622691451019e-08,4.6343817672322984e-08,-1.1168980762477076e-07,0.0,1.5589732356602326e-05,1.924337811942678e-05,-0.0003234395117033273,-0.00032250990625470877,1.2767009671676988e-09,1.2332357357536239e-09,-1.0838413500025013e-09,0.0,1.77307057924736e-07,1.5482709159186925e-07,0.00036314394674263895,0.00036219408502802253,,,,,,,,,,,,,,,,,,,,,,,,,,,,,,,,,,,,,,,,,,,,,,,,,,,,,,,,,,,,,,,,,,,,,,,,,,
58,2.350360870361328,0.6077709197998047,1.5727322101593018,0.3874035319685936,0.0,-3.1415957748870165,-3.825171916105319e-06,0.5000642538070679,0.5000641345977783,0.6109127402305603,1.5708492994308472,0.38995821684598925,0.0,-3.141592675445488,-1.9414127194750108e-08,0.5000596642494202,0.5000595450401306,,,,,,,,,,,,,,,,,,,,,,,,,,,,,,,,,,,,,,,,,,,,,,,,,,,,,,,,,,,,,,,,,,,,,,,,,,,,,,,,,,,,,,,,,,,,,,,,,,,,,,,,,,,,,,,,,,,,,,,,,,,,,,,,,,,,,,-7.388622691451019e-08,4.6343817672322984e-08,-1.1168980762477076e-07,0.0,1.5589732356602326e-05,1.924337811942678e-05,-0.0003234395117033273,-0.00032250990625470877,1.0553780072086738e-09,1.024402784821632e-09,-8.957834474188076e-10,0.0,1.4119395075340435e-07,1.2317997288846527e-07,0.0003002382582053542,0.0002994815004058182,,,,,,,,,,,,,,,,,,,,,,,,,,,,,,,,,,,,,,,,,,,,,,,,,,,,,,,,,,,,,,,,,,,,,,,,,,
59,2.3715107440948486,0.6077709197998047,1.5727322101593018,0.387403524518013,0.0,-3.1415952384452135,-3.19441005558474e-06,0.5000537037849426,0.5000535845756531,0.6109127402305603,1.5708492994308472,0.38995821684598925,0.0,-3.141592675445488,-1.545341454800564e-08,0.5000498294830322,0.5000497698783875,,,,,,,,,,,,,,,,,,,,,,,,,,,,,,,,,,,,,,,,,,,,,,,,,,,,,,,,,,,,,,,,,,,,,,,,,,,,,,,,,,,,,,,,,,,,,,,,,,,,,,,,,,,,,,,,,,,,,,,,,,,,,,,,,,,,,,-6.170791522208674e-08,3.8714699002184716e-08,-9.324836724999841e-08,0.0,1.3019722246099263e-05,1.607019112270791e-05,-0.000270097516477108,-0.0002693544374778867,8.809619700400617e-10,8.592015987574086e-10,-7.477837793423703e-10,0.0,1.1363854213186642e-07,9.904766784529784e-08,0.00025072708376683295,0.00025011776597239077,,,,,,,,,,,,,,,,,,,,,,,,,,,,,,,,,,,,,,,,,,,,,,,,,,,,,,,,,,,,,,,,,,,,,,,,,,
60,2.3932435512542725,0.6077709197998047,1.5727322101593018,0.387403524518013,0.0,-3.1415948212127,-2.6676593734009657e-06,0.5000448226928711,0.5000447630882263,0.6109127402305603,1.5708492994308472,0.38995821684598925,0.0,-3.141592675445488,-1.5257711538652075e-08,0.500049352645874,0.5000492334365845,,,,,,,,,,,,,,,,,,,,,,,,,,,,,,,,,,,,,,,,,,,,,,,,,,,,,,,,,,,,,,,,,,,,,,,,,,,,,,,,,,,,,,,,,,,,,,,,,,,,,,,,,,,,,,,,,,,,,,,,,,,,,,,,,,,,,,-5.153671978064267e-08,3.23413509306647e-08,-7.785195776932596e-08,0.0,1.087338478100719e-05,1.3420253708318342e-05,-0.00022555272153113037,-0.00022495996381621808,8.721356969942917e-10,8.51096970677645e-10,-7.402897739261505e-10,0.0,1.1227119500745175e-07,9.785077992319202e-08,0.00024822939303703606,0.0002476273803040385,,,,,,,,,,,,,,,,,,,,,,,,,,,,,,,,,,,,,,,,,,,,,,,,,,,,,,,,,,,,,,,,,,,,,,,,,,
61,2.4139575958251953,0.6077709197998047,1.5727322101593018,0.387403524518013,0.0,-3.1415948212127,-2.6676593734009657e-06,0.5000448226928711,0.5000447630882263,0.6109127402305603,1.5708492994308472,0.38995821684598925,0.0,-3.141592675445488,-1.195871845993679e-08,0.5000407695770264,0.5000407099723816,,,,,,,,,,,,,,,,,,,,,,,,,,,,,,,,,,,,,,,,,,,,,,,,,,,,,,,,,,,,,,,,,,,,,,,,,,,,,,,,,,,,,,,,,,,,,,,,,,,,,,,,,,,,,,,,,,,,,,,,,,,,,,,,,,,,,,-5.153671978064267e-08,3.23413509306647e-08,-7.785195776932596e-08,0.0,1.087338478100719e-05,1.3420253708318342e-05,-0.00022555272153113037,-0.00022495996381621808,7.209788321915767e-10,7.067679774763747e-10,-6.118092144014042e-10,0.0,8.913170290725247e-08,7.760077380680741e-08,0.0002052298077614978,0.0002047516027232632,,,,,,,,,,,,,,,,,,,,,,,,,,,,,,,,,,,,,,,,,,,,,,,,,,,,,,,,,,,,,,,,,,,,,,,,,,
62,2.4354281425476074,0.6077709197998047,1.5727322101593018,0.387403524518013,0.0,-3.1415944635848314,-2.2277686184679624e-06,0.500037431716919,0.5000373721122742,0.6109127402305603,1.5708492994308472,0.38995821684598925,0.0,-3.141592675445488,-1.195871845993679e-08,0.5000407695770264,0.5000407099723816,,,,,,,,,,,,,,,,,,,,,,,,,,,,,,,,,,,,,,,,,,,,,,,,,,,,,,,,,,,,,,,,,,,,,,,,,,,,,,,,,,,,,,,,,,,,,,,,,,,,,,,,,,,,,,,,,,,,,,,,,,,,,,,,,,,,,,-4.3042234665335855e-08,2.7017277304253184e-08,-6.499763571810036e-08,0.0,9.080877134692855e-06,1.1207285751879681e-05,-0.0001883543300209567,-0.0001878824841696769,7.209788321915767e-10,7.067679774763747e-10,-6.118092144014042e-10,0.0,8.913170290725247e-08,7.760077380680741e-08,0.0002052298077614978,0.0002047516027232632,,,,,,,,,,,,,,,,,,,,,,,,,,,,,,,,,,,,,,,,,,,,,,,,,,,,,,,,,,,,,,,,,,,,,,,,,,
63,2.456231117248535,0.6077709197998047,1.5727322101593018,0.387403524518013,0.0,-3.1415944635848314,-2.2277686184679624e-06,0.500037431716919,0.5000373721122742,0.6109127402305603,1.5708492994308472,0.38995821684598925,0.0,-3.141592675445488,-9.467673756091699e-09,0.5000340938568115,0.5000340342521667,,,,,,,,,,,,,,,,,,,,,,,,,,,,,,,,,,,,,,,,,,,,,,,,,,,,,,,,,,,,,,,,,,,,,,,,,,,,,,,,,,,,,,,,,,,,,,,,,,,,,,,,,,,,,,,,,,,,,,,,,,,,,,,,,,,,,,-4.3042234665335855e-08,2.7017277304253184e-08,-6.499763571810036e-08,0.0,9.080877134692855e-06,1.1207285751879681e-05,-0.0001883543300209567,-0.0001878824841696769,6.018519016492974e-10,5.931921620572211e-10,-5.107234080092837e-10,0.0,7.151307102049032e-08,6.219334380830333e-08,0.00017138614202849567,0.00017100224795285612,,,,,,,,,,,,,,,,,,,,,,,,,,,,,,,,,,,,,,,,,,,,,,,,,,,,,,,,,,,,,,,,,,,,,,,,,,
64,2.4784135818481445,0.6077709197998047,1.5727322101593018,0.3874035170674324,0.0,-3.1415941655616075,-1.8604147271616966e-06,0.5000312328338623,0.5000312328338623,0.6109127402305603,1.5708492994308472,0.38995821684598925,0.0,-3.141592675445488,-9.467673756091699e-09,0.5000340938568115,0.5000340342521667,,,,,,,,,,,,,,,,,,,,,,,,,,,,,,,,,,,,,,,,,,,,,,,,,,,,,,,,,,,,,,,,,,,,,,,,,,,,,,,,,,,,,,,,,,,,,,,,,,,,,,,,,,,,,,,,,,,,,,,,,,,,,,,,,,,,,,-3.594774611315188e-08,2.2569279778394957e-08,-5.426569060773545e-08,0.0,7.583869773952756e-06,9.359231626149267e-06,-0.00015729072038084269,-0.00015691605221945792,6.018519016492974e-10,5.931921620572211e-10,-5.107234080092837e-10,0.0,7.151307102049032e-08,6.219334380830333e-08,0.00017138614202849567,0.00017100224795285612,,,,,,,,,,,,,,,,,,,,,,,,,,,,,,,,,,,,,,,,,,,,,,,,,,,,,,,,,,,,,,,,,,,,,,,,,,
65,2.5004067420959473,0.6077709197998047,1.5727322101593018,0.3874035170674324,0.0,-3.1415939271430284,-1.5536367072854773e-06,0.5000261068344116,0.5000260472297668,0.6109127402305603,1.5708492994308472,0.38995821684598925,0.0,-3.141592675445488,-7.47299644388022e-09,0.5000284314155579,0.5000283718109131,,,,,,,,,,,,,,,,,,,,,,,,,,,,,,,,,,,,,,,,,,,,,,,,,,,,,,,,,,,,,,,,,,,,,,,,,,,,,,,,,,,,,,,,,,,,,,,,,,,,,,,,,,,,,,,,,,,,,,,,,,,,,,,,,,,,,,-3.002254089778944e-08,1.8854139582913376e-08,-4.5305753815227945e-08,0.0,6.3336478888231795e-06,7.815916433173697e-06,-0.0001313501561526209,-0.0001310534426011145,5.023204074916521e-10,4.971578704271451e-10,-4.26408908182907e-10,0.0,5.728201202259697e-08,4.975680312213626e-08,0.00014312349958345294,0.00014281581388786435,,,,,,,,,,,,,,,,,,,,,,,,,,,,,,,,,,,,,,,,,,,,,,,,,,,,,,,,,,,,,,,,,,,,,,,,,,
66,2.521752119064331,0.6077709197998047,1.5727322101593018,0.3874035170674324,0.0,-3.1415939271430284,-1.5381606317532714e-06,0.5000258684158325,0.5000258088111877,0.6109127402305603,1.5708492994308472,0.38995821684598925,0.0,-3.141592675445488,-5.800248281673248e-09,0.5000235438346863,0.5000234842300415,,,,,,,,,,,,,,,,,,,,,,,,,,,,,,,,,,,,,,,,,,,,,,,,,,,,,,,,,,,,,,,,,,,,,,,,,,,,,,,,,,,,,,,,,,,,,,,,,,,,,,,,,,,,,,,,,,,,,,,,,,,,,,,,,,,,,,-2.972372392662237e-08,1.8666511891751725e-08,-4.48538024500067e-08,0.0,6.27057579549728e-06,7.738060048723128e-06,-0.00013004154607187957,-0.00012974867422599345,4.152789223610398e-10,4.1322500976548326e-10,-3.523917269099286e-10,0.0,4.523059615735292e-08,3.923516800341531e-08,0.00011833089956780896,0.00011808777344413102,,,,,,,,,,,,,,,,,,,,,,,,,,,,,,,,,,,,,,,,,,,,,,,,,,,,,,,,,,,,,,,,,,,,,,,,,,
67,2.542956590652466,0.6077709197998047,1.5727322101593018,0.3874035170674324,0.0,-3.141593748329094,-1.29744569221657e-06,0.5000218152999878,0.500021755695343,0.6109127402305603,1.5708492994308472,0.38995821684598925,0.0,-3.141592675445488,-5.800248281673248e-09,0.5000235438346863,0.5000234842300415,,,,,,,,,,,,,,,,,,,,,,,,,,,,,,,,,,,,,,,,,,,,,,,,,,,,,,,,,,,,,,,,,,,,,,,,,,,,,,,,,,,,,,,,,,,,,,,,,,,,,,,,,,,,,,,,,,,,,,,,,,,,,,,,,,,,,,-2.5074164966554235e-08,1.5750289961147246e-08,-3.782524160556022e-08,0.0,5.28952841705177e-06,6.527090135932667e-06,-0.00010968774586217478,-0.00010945345275104046,4.152789223610398e-10,4.1322500976548326e-10,-3.523917269099286e-10,0.0,4.523059615735292e-08,3.923516800341531e-08,0.00011833089956780896,0.00011808777344413102,,,,,,,,,,,,,,,,,,,,,,,,,,,,,,,,,,,,,,,,,,,,,,,,,,,,,,,,,,,,,,,,,,,,,,,,,,
68,2.5642807483673096,0.6077709197998047,1.5727322101593018,0.3874035170674324,0.0,-3.141593748329094,-1.29744569221657e-06,0.5000218152999878,0.500021755695343,0.6109127402305603,1.5708492994308472,0.38995821684598925,0.0,-3.141592675445488,-4.4827803691305235e-09,0.5000194311141968,0.5000194311141968,,,,,,,,,,,,,,,,,,,,,,,,,,,,,,,,,,,,,,,,,,,,,,,,,,,,,,,,,,,,,,,,,,,,,,,,,,,,,,,,,,,,,,,,,,,,,,,,,,,,,,,,,,,,,,,,,,,,,,,,,,,,,,,,,,,,,,-2.5074164966554235e-08,1.5750289961147246e-08,-3.782524160556022e-08,0.0,5.28952841705177e-06,6.527090135932667e-06,-0.00010968774586217478,-0.00010945345275104046,3.431699369116359e-10,3.4305891460917337e-10,-2.9121843825308247e-10,0.0,3.563577166687537e-08,3.08649958924434e-08,9.783299901755527e-05,9.764129936229438e-05,,,,,,,,,,,,,,,,,,,,,,,,,,,,,,,,,,,,,,,,,,,,,,,,,,,,,,,,,,,,,,,,,,,,,,,,,,
69,2.5863442420959473,0.6077709197998047,1.5727322101593018,0.3874035170674324,0.0,-3.14159356951516,-1.0727069366112119e-06,0.5000180006027222,0.5000180006027222,0.6109127402305603,1.5708492994308472,0.38995821684598925,0.0,-3.141592675445488,-4.4827803691305235e-09,0.5000194311141968,0.5000194311141968,,,,,,,,,,,,,,,,,,,,,,,,,,,,,,,,,,,,,,,,,,,,,,,,,,,,,,,,,,,,,,,,,,,,,,,,,,,,,,,,,,,,,,,,,,,,,,,,,,,,,,,,,,,,,,,,,,,,,,,,,,,,,,,,,,,,,,-2.0732693783998002e-08,1.3026357770229424e-08,-3.1264782762718824e-08,0.0,4.373544015834341e-06,5.3964918151905295e-06,-9.068535291589797e-05,-9.050342487171292e-05,3.431699369116359e-10,3.4305891460917337e-10,-2.9121843825308247e-10,0.0,3.563577166687537e-08,3.08649958924434e-08,9.783299901755527e-05,9.764129936229438e-05,,,,,,,,,,,,,,,,,,,,,,,,,,,,,,,,,,,,,,,,,,,,,,,,,,,,,,,,,,,,,,,,,,,,,,,,,,
70,2.6096677780151367,0.6077709197998047,1.5727322101593018,0.3874035170674324,0.0,-3.1415933907012255,-8.958200510278402e-07,0.5000150799751282,0.5000150203704834,0.6109127402305603,1.5708492994308472,0.38995821684598925,0.0,-3.141592675445488,-3.4961342709749488e-09,0.5000162124633789,0.5000162124633789,,,,,,,,,,,,,,,,,,,,,,,,,,,,,,,,,,,,,,,,,,,,,,,,,,,,,,,,,,,,,,,,,,,,,,,,,,,,,,,,,,,,,,,,,,,,,,,,,,,,,,,,,,,,,,,,,,,,,,,,,,,,,,,,,,,,,,-1.731537047078291e-08,1.0882073020468397e-08,-2.610258498236817e-08,0.0,3.6525532323139487e-06,4.506622644839808e-06,-7.572942558908835e-05,-7.558681681985036e-05,2.8660407380698416e-10,2.877698079828406e-10,-2.43083331241678e-10,0.0,2.836669743544462e-08,2.453056957563149e-08,8.16997344372794e-05,8.154700481100008e-05,,,,,,,,,,,,,,,,,,,,,,,,,,,,,,,,,,,,,,,,,,,,,,,,,,,,,,,,,,,,,,,,,,,,,,,,,,
71,2.6312332153320312,0.6077709197998047,1.5727322101593018,0.3874035170674324,0.0,-3.1415933907012255,-8.86896600604814e-07,0.5000149011611938,0.5000149011611938,0.6109127402305603,1.5708492994308472,0.38995821684598925,0.0,-3.141592675445488,-2.7129891666533013e-09,0.5000135898590088,0.500013530254364,,,,,,,,,,,,,,,,,,,,,,,,,,,,,,,,,,,,,,,,,,,,,,,,,,,,,,,,,,,,,,,,,,,,,,,,,,,,,,,,,,,,,,,,,,,,,,,,,,,,,,,,,,,,,,,,,,,,,,,,,,,,,,,,,,,,,,-1.714323083490399e-08,1.0774048320172369e-08,-2.5842176398782613e-08,0.0,3.6161804928269703e-06,4.461730895854998e-06,-7.497495244024321e-05,-7.483427179977298e-05,2.3919755065549e-10,2.4136248555350903e-10,-2.0294876890147862e-10,0.0,2.2526258192101523e-08,1.9445996812805788e-08,6.822693831054494e-05,6.81055462337099e-05,,,,,,,,,,,,,,,,,,,,,,,,,,,,,,,,,,,,,,,,,,,,,,,,,,,,,,,,,,,,,,,,,,,,,,,,,,
72,2.6531317234039307,0.6077709197998047,1.5727322101593018,0.3874035170674324,0.0,-3.141593271491936,-7.481013994947716e-07,0.5000125765800476,0.5000125765800476,0.6109127402305603,1.5708492994308472,0.38995821684598925,0.0,-3.141592675445488,-2.674598764684788e-09,0.5000134110450745,0.5000134110450745,,,,,,,,,,,,,,,,,,,,,,,,,,,,,,,,,,,,,,,,,,,,,,,,,,,,,,,,,,,,,,,,,,,,,,,,,,,,,,,,,,,,,,,,,,,,,,,,,,,,,,,,,,,,,,,,,,,,,,,,,,,,,,,,,,,,,,-1.4461265074316998e-08,9.090506125630782e-09,-2.17927347279101e-08,0.0,3.0504202186421026e-06,3.763491122299456e-06,-6.324004789348692e-05,-6.312873301794752e-05,2.369215934550084e-10,2.390310172017962e-10,-2.009156729876338e-10,0.0,2.223793416078479e-08,1.919524095228553e-08,6.754727655788884e-05,6.742743426002562e-05,,,,,,,,,,,,,,,,,,,,,,,,,,,,,,,,,,,,,,,,,,,,,,,,,,,,,,,,,,,,,,,,,,,,,,,,,,
73,2.674272060394287,0.6077709197998047,1.5727322101593018,0.3874035170674324,0.0,-3.141593271491936,-7.481013994947716e-07,0.5000125765800476,0.5000125765800476,0.6109127402305603,1.5708492994308472,0.38995821684598925,0.0,-3.141592675445488,-2.062719328677076e-09,0.5000112056732178,0.5000112056732178,,,,,,,,,,,,,,,,,,,,,,,,,,,,,,,,,,,,,,,,,,,,,,,,,,,,,,,,,,,,,,,,,,,,,,,,,,,,,,,,,,,,,,,,,,,,,,,,,,,,,,,,,,,,,,,,,,,,,,,,,,,,,,,,,,,,,,-1.4461265074316998e-08,9.090506125630782e-09,-2.17927347279101e-08,0.0,3.0504202186421026e-06,3.763491122299456e-06,-6.324004789348692e-05,-6.312873301794752e-05,1.9767520953450912e-10,2.0050627824730327e-10,-1.6773388233914943e-10,0.0,1.7609080416036704e-08,1.5170215306170576e-08,5.640831295750104e-05,5.631331805489026e-05,,,,,,,,,,,,,,,,,,,,,,,,,,,,,,,,,,,,,,,,,,,,,,,,,,,,,,,,,,,,,,,,,,,,,,,,,,
74,2.6959874629974365,0.6077709197998047,1.5727322101593018,0.3874035096168518,0.0,-3.1415931522826464,-6.185180723150552e-07,0.5000103712081909,0.5000103712081909,0.6109127402305603,1.5708492994308472,0.38995821684598925,0.0,-3.141592675445488,-2.062719328677076e-09,0.5000112056732178,0.5000112056732178,,,,,,,,,,,,,,,,,,,,,,,,,,,,,,,,,,,,,,,,,,,,,,,,,,,,,,,,,,,,,,,,,,,,,,,,,,,,,,,,,,,,,,,,,,,,,,,,,,,,,,,,,,,,,,,,,,,,,,,,,,,,,,,,,,,,,,-1.1957601131484807e-08,7.51887441197141e-09,-1.8012960012470103e-08,0.0,2.5221804662578506e-06,3.111593059657025e-06,-5.228428926784545e-05,-5.2199047786416486e-05,1.9767520953450912e-10,2.0050627824730327e-10,-1.6773388233914943e-10,0.0,1.7609080416036704e-08,1.5170215306170576e-08,5.640831295750104e-05,5.631331805489026e-05,,,,,,,,,,,,,,,,,,,,,,,,,,,,,,,,,,,,,,,,,,,,,,,,,,,,,,,,,,,,,,,,,,,,,,,,,,
75,2.717766284942627,0.6077709197998047,1.5727322101593018,0.3874035096168518,0.0,-3.1415931522826464,-6.185180723150552e-07,0.5000103712081909,0.5000103712081909,0.6109127402305603,1.5708492994308472,0.38995821684598925,0.0,-3.141592675445488,-1.5799104247093965e-09,0.5000093579292297,0.5000093579292297,,,,,,,,,,,,,,,,,,,,,,,,,,,,,,,,,,,,,,,,,,,,,,,,,,,,,,,,,,,,,,,,,,,,,,,,,,,,,,,,,,,,,,,,,,,,,,,,,,,,,,,,,,,,,,,,,,,,,,,,,,,,,,,,,,,,,,-1.1957601131484807e-08,7.51887441197141e-09,-1.8012960012470103e-08,0.0,2.5221804662578506e-06,3.111593059657025e-06,-5.228428926784545e-05,-5.2199047786416486e-05,1.64923630308067e-10,1.6797674362578618e-10,-1.4000606229913615e-10,0.0,1.3902267781418232e-08,1.1951030387535866e-08,4.7106230340432376e-05,4.703114609583281e-05,,,,,,,,,,,,,,,,,,,,,,,,,,,,,,,,,,,,,,,,,,,,,,,,,,,,,,,,,,,,,,,,,,,,,,,,,,
76,2.7391645908355713,0.6077709197998047,1.5727322101593018,0.3874035096168518,0.0,-3.1415930926780016,-5.113806196277437e-07,0.5000085830688477,0.5000085830688477,0.6109127402305603,1.5708492994308472,0.38995821684598925,0.0,-3.141592675445488,-1.219005230090886e-09,0.5000079274177551,0.5000078678131104,,,,,,,,,,,,,,,,,,,,,,,,,,,,,,,,,,,,,,,,,,,,,,,,,,,,,,,,,,,,,,,,,,,,,,,,,,,,,,,,,,,,,,,,,,,,,,,,,,,,,,,,,,,,,,,,,,,,,,,,,,,,,,,,,,,,,,-9.887313190404257e-09,6.218359160925502e-09,-1.4888777322141777e-08,0.0,2.085416781483218e-06,2.572614675955265e-06,-4.322651875554584e-05,-4.3161653593415394e-05,1.392774784392259e-10,1.4221956945448255e-10,-1.180722186688854e-10,0.0,1.1087186280178685e-08,9.508798193280654e-09,3.973394268541597e-05,3.9673992432653904e-05,,,,,,,,,,,,,,,,,,,,,,,,,,,,,,,,,,,,,,,,,,,,,,,,,,,,,,,,,,,,,,,,,,,,,,,,,,
77,2.760364055633545,0.6077709197998047,1.5727322101593018,0.3874035096168518,0.0,-3.141593033073357,-4.22801150534724e-07,0.5000070929527283,0.5000070929527283,0.6109127402305603,1.5708492994308472,0.38995821684598925,0.0,-3.141592675445488,-1.219005230090886e-09,0.5000079274177551,0.5000078678131104,,,,,,,,,,,,,,,,,,,,,,,,,,,,,,,,,,,,,,,,,,,,,,,,,,,,,,,,,,,,,,,,,,,,,,,,,,,,,,,,,,,,,,,,,,,,,,,,,,,,,,,,,,,,,,,,,,,,,,,,,,,,,,,,,,,,,,-8.175404353494287e-09,5.143330206180963e-09,-1.2306523800020841e-08,0.0,1.7242861076738336e-06,2.12699569601682e-06,-3.57379212800879e-05,-3.568893589545041e-05,1.392774784392259e-10,1.4221956945448255e-10,-1.180722186688854e-10,0.0,1.1087186280178685e-08,9.508798193280654e-09,3.973394268541597e-05,3.9673992432653904e-05,,,,,,,,,,,,,,,,,,,,,,,,,,,,,,,,,,,,,,,,,,,,,,,,,,,,,,,,,,,,,,,,,,,,,,,,,,
78,2.7818946838378906,0.6077709197998047,1.5727322101593018,0.3874035096168518,0.0,-3.141593033073357,-4.22801150534724e-07,0.5000070929527283,0.5000070929527283,0.6109127402305603,1.5708492994308472,0.38995821684598925,0.0,-3.141592675445488,-9.174968007563677e-10,0.5000066161155701,0.5000066161155701,,,,,,,,,,,,,,,,,,,,,,,,,,,,,,,,,,,,,,,,,,,,,,,,,,,,,,,,,,,,,,,,,,,,,,,,,,,,,,,,,,,,,,,,,,,,,,,,,,,,,,,,,,,,,,,,,,,,,,,,,,,,,,,,,,,,,,-8.175404353494287e-09,5.143330206180963e-09,-1.2306523800020841e-08,0.0,1.7242861076738336e-06,2.12699569601682e-06,-3.57379212800879e-05,-3.568893589545041e-05,1.1607381722456012e-10,1.1945999744966684e-10,-9.85878045867139e-11,0.0,8.693434416784385e-09,7.435289273161061e-09,3.318156814202666e-05,3.3134492696262896e-05,,,,,,,,,,,,,,,,,,,,,,,,,,,,,,,,,,,,,,,,,,,,,,,,,,,,,,,,,,,,,,,,,,,,,,,,,,
79,2.8039026260375977,0.6077709197998047,1.5727322101593018,0.3874035096168518,0.0,-3.141592973468712,-3.4956511285599845e-07,0.5000059008598328,0.500005841255188,0.6109127402305603,1.5708492994308472,0.38995821684598925,0.0,-3.141592675445488,-9.174968007563677e-10,0.5000066161155701,0.5000066161155701,,,,,,,,,,,,,,,,,,,,,,,,,,,,,,,,,,,,,,,,,,,,,,,,,,,,,,,,,,,,,,,,,,,,,,,,,,,,,,,,,,,,,,,,,,,,,,,,,,,,,,,,,,,,,,,,,,,,,,,,,,,,,,,,,,,,,,-6.759648396581497e-09,4.253375429641437e-09,-1.0172016118303873e-08,0.0,1.4256924032451934e-06,1.7585654177310062e-06,-2.9546654332079925e-05,-2.9509990781662054e-05,1.1607381722456012e-10,1.1945999744966684e-10,-9.85878045867139e-11,0.0,8.693434416784385e-09,7.435289273161061e-09,3.318156814202666e-05,3.3134492696262896e-05,,,,,,,,,,,,,,,,,,,,,,,,,,,,,,,,,,,,,,,,,,,,,,,,,,,,,,,,,,,,,,,,,,,,,,,,,,
80,2.8258113861083984,0.6077709197998047,1.5727322101593018,0.3874035096168518,0.0,-3.141592973468712,-3.4956511285599845e-07,0.5000059008598328,0.500005841255188,0.6109127402305603,1.5708492994308472,0.38995821684598925,0.0,-3.141592675445488,-6.822802323114274e-10,0.5000054836273193,0.5000054836273193,,,,,,,,,,,,,,,,,,,,,,,,,,,,,,,,,,,,,,,,,,,,,,,,,,,,,,,,,,,,,,,,,,,,,,,,,,,,,,,,,,,,,,,,,,,,,,,,,,,,,,,,,,,,,,,,,,,,,,,,,,,,,,,,,,,,,,-6.759648396581497e-09,4.253375429641437e-09,-1.0172016118303873e-08,0.0,1.4256924032451934e-06,1.7585654177310062e-06,-2.9546654332079925e-05,-2.9509990781662054e-05,9.71445146547012e-11,1.0025313912365164e-10,-8.227446501862801e-11,0.0,6.787459483348357e-09,5.786928269913005e-09,2.7709722417057492e-05,2.7672907890519127e-05,,,,,,,,,,,,,,,,,,,,,,,,,,,,,,,,,,,,,,,,,,,,,,,,,,,,,,,,,,,,,,,,,,,,,,,,,,
81,2.8471059799194336,0.6077709197998047,1.5727322101593018,0.3874035096168518,0.0,-3.1415929138640672,-2.919226176345546e-07,0.5000048875808716,0.5000048875808716,0.610164225101471,1.5709530115127563,0.3899799129366875,0.0,-3.141591066120079,0.0001742941967677325,0.4999757707118988,0.5000140070915222,,,,,,,,,,,,,,,,,,,,,,,,,,,,,,,,,,,,,,,,,,,,,,,,,,,,,,,,,,,,,,,,,,,,,,,,,,,,,,,,,,,,,,,,,,,,,,,,,,,,,,,,,,,,,,,,,,,,,,,,,,,,,,,,,,,,,,-5.645539591370152e-09,3.5534908349177385e-09,-8.492421876837852e-09,0.0,1.190663397210301e-06,1.4685821270177257e-06,-2.4673787265783176e-05,-2.464620592945721e-05,-0.10032644122838974,0.017976153641939163,0.0036871577613055706,0.0,-0.0009571481496095657,0.04852953180670738,0.008416182361543179,0.0027569630183279514,,,,,,,,,,,,,,,,,,,,,,,,,,,,,,,,,,,,,,,,,,,,,,,,,,,,,,,,,,,,,,,,,,,,,,,,,,
82,2.868969678878784,0.6077709197998047,1.5727322101593018,0.3874035096168518,0.0,-3.1415928542594225,-2.462381019086024e-07,0.5000041127204895,0.5000041127204895,0.6101751923561096,1.5709279775619507,0.3899833402037621,0.0,-3.141587966678551,0.00018518813885748386,0.49995940923690796,0.5000481009483337,,,,,,,,,,,,,,,,,,,,,,,,,,,,,,,,,,,,,,,,,,,,,,,,,,,,,,,,,,,,,,,,,,,,,,,,,,,,,,,,,,,,,,,,,,,,,,,,,,,,,,,,,,,,,,,,,,,,,,,,,,,,,,,,,,,,,,-4.7624126864320715e-09,2.9982683003026978e-09,-7.161750303907866e-09,0.0,1.004381033453683e-06,1.2387556580506498e-06,-2.0811903596040793e-05,-2.0791056158486754e-05,0.005488419905304909,-0.01250587310642004,0.0017134734662249684,0.0,0.001559521071612835,0.005446977447718382,0.008179932832717896,-0.017048807814717293,,,,,,,,,,,,,,,,,,,,,,,,,,,,,,,,,,,,,,,,,,,,,,,,,,,,,,,,,,,,,,,,,,,,,,,,,,
83,2.891822576522827,0.6077709197998047,1.5727322101593018,0.3874035096168518,0.0,-3.1415928542594225,-2.437852515413397e-07,0.5000041127204895,0.5000041127204895,0.6092151403427124,1.570986032485962,0.3900060346722603,0.0,-3.141589218376091,8.000474917935207e-05,0.4999878406524658,0.5000281929969788,,,,,,,,,,,,,,,,,,,,,,,,,,,,,,,,,,,,,,,,,,,,,,,,,,,,,,,,,,,,,,,,,,,,,,,,,,,,,,,,,,,,,,,,,,,,,,,,,,,,,,,,,,,,,,,,,,,,,,,,,,,,,,,,,,,,,,-4.715228207885502e-09,2.968403300940281e-09,-7.090265707887511e-09,0.0,9.94379320218286e-07,1.2264165434316965e-06,-2.0604560631909408e-05,-2.0584060621331446e-05,-0.006861322093755007,-0.0002990701177623123,1.5973981135175563e-05,0.0,-0.0009957337751984596,-0.01468275859951973,-0.0053566801361739635,0.0065554240718483925,,,,,,,,,,,,,,,,,,,,,,,,,,,,,,,,,,,,,,,,,,,,,,,,,,,,,,,,,,,,,,,,,,,,,,,,,,
84,2.913419246673584,0.6077709197998047,1.5727322101593018,0.3874035096168518,0.0,-3.1415928542594225,-2.0563400937589904e-07,0.500003457069397,0.500003457069397,0.6092151403427124,1.570986032485962,0.3900060346722603,0.0,-3.141589218376091,8.000474917935207e-05,0.4999878406524658,0.5000281929969788,,,,,,,,,,,,,,,,,,,,,,,,,,,,,,,,,,,,,,,,,,,,,,,,,,,,,,,,,,,,,,,,,,,,,,,,,,,,,,,,,,,,,,,,,,,,,,,,,,,,,,,,,,,,,,,,,,,,,,,,,,,,,,,,,,,,,,-3.9774294968708546e-09,2.5045521212518906e-09,-5.979244654952254e-09,0.0,8.388062155972875e-07,1.0344880365664721e-06,-1.7379581549903378e-05,-1.7364309314871207e-05,-0.006861322093755007,-0.0002990701177623123,1.5973981135175563e-05,0.0,-0.0009957337751984596,-0.01468275859951973,-0.0053566801361739635,0.0065554240718483925,,,,,,,,,,,,,,,,,,,,,,,,,,,,,,,,,,,,,,,,,,,,,,,,,,,,,,,,,,,,,,,,,,,,,,,,,,
85,2.9343528747558594,0.6077709197998047,1.5727322101593018,0.3874035096168518,0.0,-3.1415928542594225,-2.0563400937589904e-07,0.500003457069397,0.500003457069397,0.6080470085144043,1.5709784030914307,0.3900440102815628,0.0,-3.1415893375853807,0.00016197764489334077,0.4999465346336365,0.5000667572021484,,,,,,,,,,,,,,,,,,,,,,,,,,,,,,,,,,,,,,,,,,,,,,,,,,,,,,,,,,,,,,,,,,,,,,,,,,,,,,,,,,,,,,,,,,,,,,,,,,,,,,,,,,,,,,,,,,,,,,,,,,,,,,,,,,,,,,-3.9774294968708546e-09,2.5045521212518906e-09,-5.979244654952254e-09,0.0,8.388062155972875e-07,1.0344880365664721e-06,-1.7379581549903378e-05,-1.7364309314871207e-05,-0.0026821265928447247,-0.01051261369138956,0.0016933348961174488,0.0,0.0044149067252874374,0.0062461309134960175,0.007019418757408857,-0.012454929761588573,,,,,,,,,,,,,,,,,,,,,,,,,,,,,,,,,,,,,,,,,,,,,,,,,,,,,,,,,,,,,,,,,,,,,,,,,,
86,2.9554786682128906,0.6077709197998047,1.5727322101593018,0.3874035096168518,0.0,-3.1415927946547777,-1.7172543209653668e-07,0.5000028610229492,0.5000028610229492,0.6080470085144043,1.5709784030914307,0.3900440102815628,0.0,-3.1415893375853807,0.00016197764489334077,0.4999465346336365,0.5000667572021484,,,,,,,,,,,,,,,,,,,,,,,,,,,,,,,,,,,,,,,,,,,,,,,,,,,,,,,,,,,,,,,,,,,,,,,,,,,,,,,,,,,,,,,,,,,,,,,,,,,,,,,,,,,,,,,,,,,,,,,,,,,,,,,,,,,,,,-3.3218428008296996e-09,2.09232631220857e-09,-4.99193042458046e-09,0.0,7.005266979831504e-07,8.639033239887794e-07,-1.4513322639686521e-05,-1.4502352314593736e-05,-0.0026821265928447247,-0.01051261369138956,0.0016933348961174488,0.0,0.0044149067252874374,0.0062461309134960175,0.007019418757408857,-0.012454929761588573,,,,,,,,,,,,,,,,,,,,,,,,,,,,,,,,,,,,,,,,,,,,,,,,,,,,,,,,,,,,,,,,,,,,,,,,,,
87,2.9769744873046875,0.6077709197998047,1.5727322101593018,0.3874035096168518,0.0,-3.1415927946547777,-1.4340831455683656e-07,0.500002384185791,0.500002384185791,0.6077317595481873,1.5709904432296753,0.3900503358244896,0.0,-3.141591900585106,3.3196363801835105e-05,0.4999946057796478,0.5000113844871521,,,,,,,,,,,,,,,,,,,,,,,,,,,,,,,,,,,,,,,,,,,,,,,,,,,,,,,,,,,,,,,,,,,,,,,,,,,,,,,,,,,,,,,,,,,,,,,,,,,,,,,,,,,,,,,,,,,,,,,,,,,,,,,,,,,,,,-2.774225293933341e-09,1.748046152272309e-09,-4.167735490057112e-09,0.0,5.850430966347631e-07,7.214476909211953e-07,-1.2119769053242635e-05,-1.2112098374927882e-05,-0.007489929441362619,0.00023320960463024676,0.0002106602769345045,0.0,-9.129301361099351e-06,-7.443950016750023e-05,-1.8553702830104157e-05,6.508274509542389e-06,,,,,,,,,,,,,,,,,,,,,,,,,,,,,,,,,,,,,,,,,,,,,,,,,,,,,,,,,,,,,,,,,,,,,,,,,,
88,2.9982616901397705,0.6077709197998047,1.5727322101593018,0.3874035096168518,0.0,-3.1415927946547777,-1.419797825974456e-07,0.500002384185791,0.500002384185791,0.6074859499931335,1.5709978342056274,0.3900574362277985,0.0,-3.1415920197943956,2.7648837203742005e-05,0.49999549984931946,0.5000098347663879,,,,,,,,,,,,,,,,,,,,,,,,,,,,,,,,,,,,,,,,,,,,,,,,,,,,,,,,,,,,,,,,,,,,,,,,,,,,,,,,,,,,,,,,,,,,,,,,,,,,,,,,,,,,,,,,,,,,,,,,,,,,,,,,,,,,,,-2.746858296376331e-09,1.7305046284832315e-09,-4.1260812544408054e-09,0.0,5.792166462015302e-07,7.142611480048799e-07,-1.1999022717645857e-05,-1.1991511200903915e-05,-0.006265902891755104,0.00019045064982492477,0.0001808654487831518,0.0,-3.5780008147412445e-06,-0.00015255884500220418,-2.589152063592337e-05,5.251600668998435e-05,,,,,,,,,,,,,,,,,,,,,,,,,,,,,,,,,,,,,,,,,,,,,,,,,,,,,,,,,,,,,,,,,,,,,,,,,,
89,3.020521640777588,0.6077709197998047,1.5727322101593018,0.3874035096168518,0.0,-3.1415927946547777,-1.1856764814410781e-07,0.5000019669532776,0.5000019669532776,0.6074859499931335,1.5709978342056274,0.3900574362277985,0.0,-3.1415920197943956,2.7648837203742005e-05,0.49999549984931946,0.5000098347663879,,,,,,,,,,,,,,,,,,,,,,,,,,,,,,,,,,,,,,,,,,,,,,,,,,,,,,,,,,,,,,,,,,,,,,,,,,,,,,,,,,,,,,,,,,,,,,,,,,,,,,,,,,,,,,,,,,,,,,,,,,,,,,,,,,,,,,-2.2939983246317297e-09,1.4457324226668788e-09,-3.444855511958167e-09,0.0,4.837319806938467e-07,5.964811293779348e-07,-1.0020130503107794e-05,-1.0015090083470568e-05,-0.006265902891755104,0.00019045064982492477,0.0001808654487831518,0.0,-3.5780008147412445e-06,-0.00015255884500220418,-2.589152063592337e-05,5.251600668998435e-05,,,,,,,,,,,,,,,,,,,,,,,,,,,,,,,,,,,,,,,,,,,,,,,,,,,,,,,,,,,,,,,,,,,,,,,,,,
90,3.042203426361084,0.6077709197998047,1.5727322101593018,0.3874035096168518,0.0,-3.1415927946547777,-1.1856764814410781e-07,0.5000019669532776,0.5000019669532776,0.6072805523872375,1.5710041522979736,0.39006336688995363,0.0,-3.141592139003685,2.2700656700180843e-05,0.4999963343143463,0.5000081062316895,,,,,,,,,,,,,,,,,,,,,,,,,,,,,,,,,,,,,,,,,,,,,,,,,,,,,,,,,,,,,,,,,,,,,,,,,,,,,,,,,,,,,,,,,,,,,,,,,,,,,,,,,,,,,,,,,,,,,,,,,,,,,,,,,,,,,,-2.2939983246317297e-09,1.4457324226668788e-09,-3.444855511958167e-09,0.0,4.837319806938467e-07,5.964811293779348e-07,-1.0020130503107794e-05,-1.0015090083470568e-05,-0.005233525764197111,0.00015908012574072927,0.00015099985466804355,0.0,-2.9347620511543937e-06,-0.00012492304085753858,-2.102324469888117e-05,4.3785003072116524e-05,,,,,,,,,,,,,,,,,,,,,,,,,,,,,,,,,,,,,,,,,,,,,,,,,,,,,,,,,,,,,,,,,,,,,,,,,,
91,3.063434362411499,0.6077709197998047,1.5727322101593018,0.3874035096168518,0.0,-3.141592735050133,-9.802979406003942e-08,0.5000016689300537,0.5000016689300537,0.6072805523872375,1.5710041522979736,0.39006336688995363,0.0,-3.141592139003685,2.2700656700180843e-05,0.4999963343143463,0.5000081062316895,,,,,,,,,,,,,,,,,,,,,,,,,,,,,,,,,,,,,,,,,,,,,,,,,,,,,,,,,,,,,,,,,,,,,,,,,,,,,,,,,,,,,,,,,,,,,,,,,,,,,,,,,,,,,,,,,,,,,,,,,,,,,,,,,,,,,,-1.8969825710257737e-09,1.1960432644286811e-09,-2.847347246870413e-09,0.0,3.9996379541662463e-07,4.931606554237078e-07,-8.284235264000017e-06,-8.28114298201399e-06,-0.005233525764197111,0.00015908012574072927,0.00015099985466804355,0.0,-2.9347620511543937e-06,-0.00012492304085753858,-2.102324469888117e-05,4.3785003072116524e-05,,,,,,,,,,,,,,,,,,,,,,,,,,,,,,,,,,,,,,,,,,,,,,,,,,,,,,,,,,,,,,,,,,,,,,,,,,
92,3.0849244594573975,0.6077709197998047,1.5727322101593018,0.3874035096168518,0.0,-3.141592735050133,-8.352055402838232e-08,0.5000014305114746,0.5000014305114746,0.6071089506149292,1.5710093975067139,0.39006831407547,0.0,-3.1415922582129747,1.8639339032233693e-05,0.49999701976776123,0.5000066757202148,,,,,,,,,,,,,,,,,,,,,,,,,,,,,,,,,,,,,,,,,,,,,,,,,,,,,,,,,,,,,,,,,,,,,,,,,,,,,,,,,,,,,,,,,,,,,,,,,,,,,,,,,,,,,,,,,,,,,,,,,,,,,,,,,,,,,,-1.6161516569468404e-09,1.0189626920009687e-09,-2.42541409178898e-09,0.0,3.40781838303883e-07,4.2016870338557055e-07,-7.057922175590647e-06,-7.0560590756940655e-06,-0.00437098927795887,0.00013293378287926316,0.00012606884411070496,0.0,-2.406195108051179e-06,-0.00010268186451867223,-1.7163158190669492e-05,3.612596992752515e-05,,,,,,,,,,,,,,,,,,,,,,,,,,,,,,,,,,,,,,,,,,,,,,,,,,,,,,,,,,,,,,,,,,,,,,,,,,
93,3.107370138168335,0.6077709197998047,1.5727322101593018,0.3874035096168518,0.0,-3.141592735050133,-8.268858664450818e-08,0.5000013709068298,0.5000013709068298,0.6069657206535339,1.5710136890411377,0.3900724491477013,0.0,-3.1415923178176195,1.5300573068088852e-05,0.4999975860118866,0.5000054836273193,,,,,,,,,,,,,,,,,,,,,,,,,,,,,,,,,,,,,,,,,,,,,,,,,,,,,,,,,,,,,,,,,,,,,,,,,,,,,,,,,,,,,,,,,,,,,,,,,,,,,,,,,,,,,,,,,,,,,,,,,,,,,,,,,,,,,,-1.5999979119385443e-09,1.0088596624768797e-09,-2.4011903576592886e-09,0.0,3.373888830537908e-07,4.159834645633964e-07,-6.987605956965126e-06,-6.985808795434423e-06,-0.0036505996249616146,0.00011108470062026754,0.00010525419202167541,0.0,-1.9757571863010526e-06,-8.441152021987364e-05,-1.4006131095811725e-05,2.978325392177794e-05,,,,,,,,,,,,,,,,,,,,,,,,,,,,,,,,,,,,,,,,,,,,,,,,,,,,,,,,,,,,,,,,,,,,,,,,,,
94,3.129047393798828,0.6077709197998047,1.5727322101593018,0.3874035096168518,0.0,-3.141592735050133,-6.836557275846644e-08,0.5000011324882507,0.5000011324882507,0.6069657206535339,1.5710136890411377,0.3900724491477013,0.0,-3.1415923178176195,1.5300573068088852e-05,0.4999975860118866,0.5000054836273193,,,,,,,,,,,,,,,,,,,,,,,,,,,,,,,,,,,,,,,,,,,,,,,,,,,,,,,,,,,,,,,,,,,,,,,,,,,,,,,,,,,,,,,,,,,,,,,,,,,,,,,,,,,,,,,,,,,,,,,,,,,,,,,,,,,,,,-1.3229972672945678e-09,8.343326030058051e-10,-1.984711062164024e-09,0.0,2.789635118460865e-07,3.4392843417663244e-07,-5.777067599410657e-06,-5.776330908702221e-06,-0.0036505996249616146,0.00011108470062026754,0.00010525419202167541,0.0,-1.9757571863010526e-06,-8.441152021987364e-05,-1.4006131095811725e-05,2.978325392177794e-05,,,,,,,,,,,,,,,,,,,,,,,,,,,,,,,,,,,,,,,,,,,,,,,,,,,,,,,,,,,,,,,,,,,,,,,,,,
95,3.1502809524536133,0.6077709197998047,1.5727322101593018,0.3874035096168518,0.0,-3.141592735050133,-6.836557275846644e-08,0.5000011324882507,0.5000011324882507,0.606846034526825,1.5710173845291138,0.39007589876651766,0.0,-3.1415923774222643,1.2556185538414866e-05,0.4999980330467224,0.5000045299530029,,,,,,,,,,,,,,,,,,,,,,,,,,,,,,,,,,,,,,,,,,,,,,,,,,,,,,,,,,,,,,,,,,,,,,,,,,,,,,,,,,,,,,,,,,,,,,,,,,,,,,,,,,,,,,,,,,,,,,,,,,,,,,,,,,,,,,-1.3229972672945678e-09,8.343326030058051e-10,-1.984711062164024e-09,0.0,2.789635118460865e-07,3.4392843417663244e-07,-5.777067599410657e-06,-5.776330908702221e-06,-0.0030489384662359953,9.282649989472702e-05,8.787609840510413e-05,0.0,-1.6219642020587344e-06,-6.937637226656079e-05,-1.142392648034729e-05,2.455085086694453e-05,,,,,,,,,,,,,,,,,,,,,,,,,,,,,,,,,,,,,,,,,,,,,,,,,,,,,,,,,,,,,,,,,,,,,,,,,,
96,3.1721441745758057,0.6077709197998047,1.5727322101593018,0.3874035096168518,0.0,-3.141592735050133,-5.6523539626596175e-08,0.5000009536743164,0.5000009536743164,0.606846034526825,1.5710173845291138,0.39007589876651766,0.0,-3.1415923774222643,1.2556185538414866e-05,0.4999980330467224,0.5000045299530029,,,,,,,,,,,,,,,,,,,,,,,,,,,,,,,,,,,,,,,,,,,,,,,,,,,,,,,,,,,,,,,,,,,,,,,,,,,,,,,,,,,,,,,,,,,,,,,,,,,,,,,,,,,,,,,,,,,,,,,,,,,,,,,,,,,,,,-1.0940137684656293e-09,6.900036098045348e-10,-1.6405210523373626e-09,0.0,2.3065527443577594e-07,2.843542574737512e-07,-4.776243713422446e-06,-4.776255082106218e-06,-0.0030489384662359953,9.282649989472702e-05,8.787609840510413e-05,0.0,-1.6219642020587344e-06,-6.937637226656079e-05,-1.142392648034729e-05,2.455085086694453e-05,,,,,,,,,,,,,,,,,,,,,,,,,,,,,,,,,,,,,,,,,,,,,,,,,,,,,,,,,,,,,,,,,,,,,,,,,,
97,3.1946756839752197,0.6077709197998047,1.5727322101593018,0.3874035096168518,0.0,-3.141592735050133,-5.6523539626596175e-08,0.5000009536743164,0.5000009536743164,0.6067460775375366,1.5710203647613525,0.39007877469062807,0.0,-3.141592437026909,1.030090334097622e-05,0.49999839067459106,0.5000037550926208,,,,,,,,,,,,,,,,,,,,,,,,,,,,,,,,,,,,,,,,,,,,,,,,,,,,,,,,,,,,,,,,,,,,,,,,,,,,,,,,,,,,,,,,,,,,,,,,,,,,,,,,,,,,,,,,,,,,,,,,,,,,,,,,,,,,,,-1.0940137684656293e-09,6.900036098045348e-10,-1.6405210523373626e-09,0.0,2.3065527443577594e-07,2.843542574737512e-07,-4.776243713422446e-06,-4.776255082106218e-06,-0.00254643801599741,7.756912236800417e-05,7.33671840862371e-05,0.0,-1.3313318731889012e-06,-5.7005207054317e-05,-9.312785550719127e-06,2.0235320334904827e-05,,,,,,,,,,,,,,,,,,,,,,,,,,,,,,,,,,,,,,,,,,,,,,,,,,,,,,,,,,,,,,,,,,,,,,,,,,
98,3.217733383178711,0.6077709197998047,1.5727322101593018,0.3874035096168518,0.0,-3.141592735050133,-4.720293489413052e-08,0.5000007748603821,0.5000007748603821,0.606658399105072,1.5710231065750122,0.39008130043745043,0.0,-3.141592496631554,8.355385034519713e-06,0.49999871850013733,0.5000030398368835,,,,,,,,,,,,,,,,,,,,,,,,,,,,,,,,,,,,,,,,,,,,,,,,,,,,,,,,,,,,,,,,,,,,,,,,,,,,,,,,,,,,,,,,,,,,,,,,,,,,,,,,,,,,,,,,,,,,,,,,,,,,,,,,,,,,,,-9.137690604177351e-10,5.763167720829188e-10,-1.36965438990444e-09,0.0,1.9263130468516465e-07,2.374650875935913e-07,-3.988540356658632e-06,-3.989040123997256e-06,-0.002105582505464554,6.417599797714502e-05,6.0642752941930667e-05,0.0,-1.0806452337419614e-06,-4.6318840759340674e-05,-7.501471827708883e-06,1.6497922842972912e-05,,,,,,,,,,,,,,,,,,,,,,,,,,,,,,,,,,,,,,,,,,,,,,,,,,,,,,,,,,,,,,,,,,,,,,,,,,
99,3.2398970127105713,0.6077709197998047,1.5727322101593018,0.3874035096168518,0.0,-3.141592735050133,-3.9026616605042364e-08,0.5000006556510925,0.5000006556510925,0.606658399105072,1.5710231065750122,0.39008130043745043,0.0,-3.141592496631554,8.355385034519713e-06,0.49999871850013733,0.5000030398368835,,,,,,,,,,,,,,,,,,,,,,,,,,,,,,,,,,,,,,,,,,,,,,,,,,,,,,,,,,,,,,,,,,,,,,,,,,,,,,,,,,,,,,,,,,,,,,,,,,,,,,,,,,,,,,,,,,,,,,,,,,,,,,,,,,,,,,-7.556177905598815e-10,4.769518113789672e-10,-1.1320527848468487e-09,0.0,1.5927298591122963e-07,1.96332322843773e-07,-3.2975624435493955e-06,-3.298403953522211e-06,-0.002105582505464554,6.417599797714502e-05,6.0642752941930667e-05,0.0,-1.0806452337419614e-06,-4.6318840759340674e-05,-7.501471827708883e-06,1.6497922842972912e-05,,,,,,,,,,,,,,,,,,,,,,,,,,,,,,,,,,,,,,,,,,,,,,,,,,,,,,,,,,,,,,,,,,,,,,,,,,
100,3.2617411613464355,0.6077709197998047,1.5727322101593018,0.3874035096168518,0.0,-3.141592735050133,-3.9026616605042364e-08,0.5000006556510925,0.5000006556510925,0.6065928936004639,1.571025013923645,0.39008319288492205,0.0,-3.141592496631554,6.926145488250768e-06,0.49999895691871643,0.5000025033950806,,,,,,,,,,,,,,,,,,,,,,,,,,,,,,,,,,,,,,,,,,,,,,,,,,,,,,,,,,,,,,,,,,,,,,,,,,,,,,,,,,,,,,,,,,,,,,,,,,,,,,,,,,,,,,,,,,,,,,,,,,,,,,,,,,,,,,-7.556177905598815e-10,4.769518113789672e-10,-1.1320527848468487e-09,0.0,1.5927298591122963e-07,1.96332322843773e-07,-3.2975624435493955e-06,-3.298403953522211e-06,-0.0017762415809556842,5.416523708845489e-05,5.1140323193976656e-05,0.0,-8.964659627963556e-07,-3.8457528717117384e-05,-6.178097009978956e-06,1.374126713926671e-05,,,,,,,,,,,,,,,,,,,,,,,,,,,,,,,,,,,,,,,,,,,,,,,,,,,,,,,,,,,,,,,,,,,,,,,,,,
101,3.2832465171813965,0.6077709197998047,1.5727322101593018,0.3874035096168518,0.0,-3.141592675445488,-3.259121683640842e-08,0.500000536441803,0.500000536441803,0.6065928936004639,1.571025013923645,0.39008319288492205,0.0,-3.141592496631554,6.926145488250768e-06,0.49999895691871643,0.5000025033950806,,,,,,,,,,,,,,,,,,,,,,,,,,,,,,,,,,,,,,,,,,,,,,,,,,,,,,,,,,,,,,,,,,,,,,,,,,,,,,,,,,,,,,,,,,,,,,,,,,,,,,,,,,,,,,,,,,,,,,,,,,,,,,,,,,,,,,-6.309952560457077e-10,3.9834802123550617e-10,-9.452230109729953e-10,0.0,1.3301703916113183e-07,1.6395740942698467e-07,-2.753724402282387e-06,-2.7547660010895925e-06,-0.0017762415809556842,5.416523708845489e-05,5.1140323193976656e-05,0.0,-8.964659627963556e-07,-3.8457528717117384e-05,-6.178097009978956e-06,1.374126713926671e-05,,,,,,,,,,,,,,,,,,,,,,,,,,,,,,,,,,,,,,,,,,,,,,,,,,,,,,,,,,,,,,,,,,,,,,,,,,
102,3.3056490421295166,0.6077709197998047,1.5727322101593018,0.3874035096168518,0.0,-3.141592675445488,-2.7490843379496255e-08,0.5000004768371582,0.5000004768371582,0.6065317392349243,1.5710269212722778,0.3900849512219429,0.0,-3.1415925562361986,5.614019755739719e-06,0.49999916553497314,0.5000020861625671,,,,,,,,,,,,,,,,,,,,,,,,,,,,,,,,,,,,,,,,,,,,,,,,,,,,,,,,,,,,,,,,,,,,,,,,,,,,,,,,,,,,,,,,,,,,,,,,,,,,,,,,,,,,,,,,,,,,,,,,,,,,,,,,,,,,,,-5.324629626102251e-10,3.362865541589599e-10,-7.970846205296311e-10,0.0,1.122061306091382e-07,1.3829890121996868e-07,-2.3227185010910034e-06,-2.32386582865729e-06,-0.0014687273651361465,4.481291398406029e-05,4.227077079121955e-05,0.0,-7.273349638126092e-07,-3.1230174499796703e-05,-4.9699815463100094e-06,1.1199922482774127e-05,,,,,,,,,,,,,,,,,,,,,,,,,,,,,,,,,,,,,,,,,,,,,,,,,,,,,,,,,,,,,,,,,,,,,,,,,,
103,3.327329158782959,0.6077709197998047,1.5727322101593018,0.3874035096168518,0.0,-3.141592675445488,-2.7217000209134312e-08,0.5000004768371582,0.5000004768371582,0.60648113489151,1.571028470993042,0.3900864040851593,0.0,-3.1415925562361986,4.548656306724297e-06,0.4999993145465851,0.5000016689300537,,,,,,,,,,,,,,,,,,,,,,,,,,,,,,,,,,,,,,,,,,,,,,,,,,,,,,,,,,,,,,,,,,,,,,,,,,,,,,,,,,,,,,,,,,,,,,,,,,,,,,,,,,,,,,,,,,,,,,,,,,,,,,,,,,,,,,-5.268008251846368e-10,3.3284486278262193e-10,-7.890979536462339e-10,0.0,1.1108846820206963e-07,1.3692117306618456e-07,-2.2995770905254176e-06,-2.3007296476862393e-06,-0.001214451971463859,3.707534779096022e-05,3.4939504985231906e-05,0.0,-5.899503889850166e-07,-2.535289058869239e-05,-3.995112820120994e-06,9.126983968599234e-06,,,,,,,,,,,,,,,,,,,,,,,,,,,,,,,,,,,,,,,,,,,,,,,,,,,,,,,,,,,,,,,,,,,,,,,,,,
104,3.349949359893799,0.6077709197998047,1.5727322101593018,0.3874035096168518,0.0,-3.141592675445488,-2.2957665990475107e-08,0.5000003576278687,0.5000003576278687,0.60648113489151,1.571028470993042,0.3900864040851593,0.0,-3.1415925562361986,4.548656306724297e-06,0.4999993145465851,0.5000016689300537,,,,,,,,,,,,,,,,,,,,,,,,,,,,,,,,,,,,,,,,,,,,,,,,,,,,,,,,,,,,,,,,,,,,,,,,,,,,,,,,,,,,,,,,,,,,,,,,,,,,,,,,,,,,,,,,,,,,,,,,,,,,,,,,,,,,,,-4.446443213623752e-10,2.809974475326271e-10,-6.654468642786071e-10,0.0,9.370864972879644e-08,1.1549384026920961e-07,-1.939653202498448e-06,-1.940849870152306e-06,-0.001214451971463859,3.707534779096022e-05,3.4939504985231906e-05,0.0,-5.899503889850166e-07,-2.535289058869239e-05,-3.995112820120994e-06,9.126983968599234e-06,,,,,,,,,,,,,,,,,,,,,,,,,,,,,,,,,,,,,,,,,,,,,,,,,,,,,,,,,,,,,,,,,,,,,,,,,,
105,3.3717100620269775,0.6077709197998047,1.5727322101593018,0.3874035096168518,0.0,-3.141592675445488,-2.2957665990475107e-08,0.5000003576278687,0.5000003576278687,0.6064393520355225,1.571029782295227,0.390087611079216,0.0,-3.1415926158408434,3.6839328458881937e-06,0.499999463558197,0.5000013709068298,,,,,,,,,,,,,,,,,,,,,,,,,,,,,,,,,,,,,,,,,,,,,,,,,,,,,,,,,,,,,,,,,,,,,,,,,,,,,,,,,,,,,,,,,,,,,,,,,,,,,,,,,,,,,,,,,,,,,,,,,,,,,,,,,,,,,,-4.446443213623752e-10,2.809974475326271e-10,-6.654468642786071e-10,0.0,9.370864972879644e-08,1.1549384026920961e-07,-1.939653202498448e-06,-1.940849870152306e-06,-0.001004198333248496,3.0673745641252026e-05,2.8879736419185065e-05,0.0,-4.783727831636497e-07,-2.057476194750052e-05,-3.208908765373053e-06,7.436339274136117e-06,,,,,,,,,,,,,,,,,,,,,,,,,,,,,,,,,,,,,,,,,,,,,,,,,,,,,,,,,,,,,,,,,,,,,,,,,,
106,3.3939883708953857,0.6077709197998047,1.5727322101593018,0.3874035096168518,0.0,-3.141592675445488,-1.9171999099398818e-08,0.5000002980232239,0.5000002980232239,0.6064393520355225,1.571029782295227,0.390087611079216,0.0,-3.1415926158408434,3.6839328458881937e-06,0.499999463558197,0.5000013709068298,,,,,,,,,,,,,,,,,,,,,,,,,,,,,,,,,,,,,,,,,,,,,,,,,,,,,,,,,,,,,,,,,,,,,,,,,,,,,,,,,,,,,,,,,,,,,,,,,,,,,,,,,,,,,,,,,,,,,,,,,,,,,,,,,,,,,,-3.7136960173711486e-10,2.348121697082206e-10,-5.555902959919479e-10,0.0,7.826061931837103e-08,9.64489359489562e-08,-1.6197631111936062e-06,-1.6209622799578938e-06,-0.001004198333248496,3.0673745641252026e-05,2.8879736419185065e-05,0.0,-4.783727831636497e-07,-2.057476194750052e-05,-3.208908765373053e-06,7.436339274136117e-06,,,,,,,,,,,,,,,,,,,,,,,,,,,,,,,,,,,,,,,,,,,,,,,,,,,,,,,,,,,,,,,,,,,,,,,,,,
107,3.416332244873047,0.6077709197998047,1.5727322101593018,0.3874035096168518,0.0,-3.141592675445488,-1.585109465906953e-08,0.5000002384185791,0.5000002384185791,0.6064064502716064,1.5710307359695435,0.39008855730295183,0.0,-3.1415926158408434,3.0156861612340435e-06,0.4999995529651642,0.5000011324882507,,,,,,,,,,,,,,,,,,,,,,,,,,,,,,,,,,,,,,,,,,,,,,,,,,,,,,,,,,,,,,,,,,,,,,,,,,,,,,,,,,,,,,,,,,,,,,,,,,,,,,,,,,,,,,,,,,,,,,,,,,,,,,,,,,,,,,-3.0714319976254956e-10,1.9406698470447736e-10,-4.5921599856058037e-10,0.0,6.470840219208185e-08,7.974246329922607e-08,-1.339154550805688e-06,-1.3403190450844704e-06,-0.0008386948029510677,2.5631889002397656e-05,2.41114594246028e-05,0.0,-3.9208529756251664e-07,-1.6876234440132976e-05,-2.6052903194795363e-06,6.123444109107368e-06,,,,,,,,,,,,,,,,,,,,,,,,,,,,,,,,,,,,,,,,,,,,,,,,,,,,,,,,,,,,,,,,,,,,,,,,,,
108,3.4375576972961426,0.6077709197998047,1.5727322101593018,0.3874035096168518,0.0,-3.141592675445488,-1.585109465906953e-08,0.5000002384185791,0.5000002384185791,0.6063789129257202,1.5710315704345703,0.3900893470644951,0.0,-3.1415926158408434,2.46765443989716e-06,0.49999964237213135,0.5000008940696716,,,,,,,,,,,,,,,,,,,,,,,,,,,,,,,,,,,,,,,,,,,,,,,,,,,,,,,,,,,,,,,,,,,,,,,,,,,,,,,,,,,,,,,,,,,,,,,,,,,,,,,,,,,,,,,,,,,,,,,,,,,,,,,,,,,,,,-3.0714319976254956e-10,1.9406698470447736e-10,-4.5921599856058037e-10,0.0,6.470840219208185e-08,7.974246329922607e-08,-1.339154550805688e-06,-1.3403190450844704e-06,-0.0007004681974649429,2.1418747564894147e-05,2.0130459233769216e-05,0.0,-3.2126362725648505e-07,-1.3838044651492964e-05,-2.1135133465577383e-06,5.041420536144869e-06,,,,,,,,,,,,,,,,,,,,,,,,,,,,,,,,,,,,,,,,,,,,,,,,,,,,,,,,,,,,,,,,,,,,,,,,,,
109,3.4600305557250977,0.6077709197998047,1.5727322101593018,0.3874035096168518,0.0,-3.141592675445488,-1.3105425189507969e-08,0.5000002384185791,0.5000002384185791,0.6063789129257202,1.5710315704345703,0.3900893470644951,0.0,-3.1415926158408434,2.46765443989716e-06,0.49999964237213135,0.5000008940696716,,,,,,,,,,,,,,,,,,,,,,,,,,,,,,,,,,,,,,,,,,,,,,,,,,,,,,,,,,,,,,,,,,,,,,,,,,,,,,,,,,,,,,,,,,,,,,,,,,,,,,,,,,,,,,,,,,,,,,,,,,,,,,,,,,,,,,-2.5385249458054204e-10,1.6053824936079764e-10,-3.795505576498215e-10,0.0,5.350225862343905e-08,6.592998857968269e-08,-1.107158368540695e-06,-1.108264655158564e-06,-0.0007004681974649429,2.1418747564894147e-05,2.0130459233769216e-05,0.0,-3.2126362725648505e-07,-1.3838044651492964e-05,-2.1135133465577383e-06,5.041420536144869e-06,,,,,,,,,,,,,,,,,,,,,,,,,,,,,,,,,,,,,,,,,,,,,,,,,,,,,,,,,,,,,,,,,,,,,,,,,,
110,3.4821109771728516,0.6077709197998047,1.5727322101593018,0.3874035096168518,0.0,-3.141592675445488,-1.3105425189507969e-08,0.5000002384185791,0.5000002384185791,0.6063559651374817,1.5710322856903076,0.39009000271558764,0.0,-3.1415926158408434,2.0183608739898773e-06,0.4999997317790985,0.5000007748603821,,,,,,,,,,,,,,,,,,,,,,,,,,,,,,,,,,,,,,,,,,,,,,,,,,,,,,,,,,,,,,,,,,,,,,,,,,,,,,,,,,,,,,,,,,,,,,,,,,,,,,,,,,,,,,,,,,,,,,,,,,,,,,,,,,,,,,-2.5385249458054204e-10,1.6053824936079764e-10,-3.795505576498215e-10,0.0,5.350225862343905e-08,6.592998857968269e-08,-1.107158368540695e-06,-1.108264655158564e-06,-0.000585022964514792,1.7898115402203985e-05,1.680675268289633e-05,0.0,-2.6314793899473443e-07,-1.1342972356942482e-05,-1.7130997775893775e-06,4.149801952735288e-06,,,,,,,,,,,,,,,,,,,,,,,,,,,,,,,,,,,,,,,,,,,,,,,,,,,,,,,,,,,,,,,,,,,,,,,,,,
111,3.5035064220428467,0.6077709197998047,1.5727322101593018,0.3874035096168518,0.0,-3.141592675445488,-1.0835351282878491e-08,0.5000001788139343,0.5000001788139343,0.6063559651374817,1.5710322856903076,0.39009000271558764,0.0,-3.1415926158408434,2.0183608739898773e-06,0.4999997317790985,0.5000007748603821,,,,,,,,,,,,,,,,,,,,,,,,,,,,,,,,,,,,,,,,,,,,,,,,,,,,,,,,,,,,,,,,,,,,,,,,,,,,,,,,,,,,,,,,,,,,,,,,,,,,,,,,,,,,,,,,,,,,,,,,,,,,,,,,,,,,,,-2.096656182004608e-10,1.325606291402437e-10,-3.137837212285888e-10,0.0,4.423788979579513e-08,5.4509737168473293e-08,-9.153528708338854e-07,-9.163870799966389e-07,-0.000585022964514792,1.7898115402203985e-05,1.680675268289633e-05,0.0,-2.6314793899473443e-07,-1.1342972356942482e-05,-1.7130997775893775e-06,4.149801952735288e-06,,,,,,,,,,,,,,,,,,,,,,,,,,,,,,,,,,,,,,,,,,,,,,,,,,,,,,,,,,,,,,,,,,,,,,,,,,
112,3.524357557296753,0.6077709197998047,1.5727322101593018,0.3874035096168518,0.0,-3.141592675445488,-9.231627018380095e-09,0.5000001788139343,0.5000001788139343,0.606336772441864,1.5710328817367554,0.3900905540585518,0.0,-3.1415926158408434,1.6501431900906027e-06,0.4999997615814209,0.5000005960464478,,,,,,,,,,,,,,,,,,,,,,,,,,,,,,,,,,,,,,,,,,,,,,,,,,,,,,,,,,,,,,,,,,,,,,,,,,,,,,,,,,,,,,,,,,,,,,,,,,,,,,,,,,,,,,,,,,,,,,,,,,,,,,,,,,,,,,-1.790234627208065e-10,1.1324274851176597e-10,-2.6720986534556346e-10,0.0,3.76918478650623e-08,4.644169848688762e-08,-7.798538490533247e-07,-7.808195618963509e-07,-0.0004886043607257307,1.495616561442148e-05,1.4031816135684494e-05,0.0,-2.1547053563608642e-07,-9.294501069234684e-06,-1.3872850104235113e-06,3.415196943024057e-06,,,,,,,,,,,,,,,,,,,,,,,,,,,,,,,,,,,,,,,,,,,,,,,,,,,,,,,,,,,,,,,,,,,,,,,,,,
113,3.5464823246002197,0.6077709197998047,1.5727322101593018,0.3874035096168518,0.0,-3.141592675445488,-9.139668577518023e-09,0.5000001788139343,0.5000001788139343,0.6063207983970642,1.5710333585739136,0.3900910159945488,0.0,-3.1415926158408434,1.348479486296128e-06,0.4999998211860657,0.500000536441803,,,,,,,,,,,,,,,,,,,,,,,,,,,,,,,,,,,,,,,,,,,,,,,,,,,,,,,,,,,,,,,,,,,,,,,,,,,,,,,,,,,,,,,,,,,,,,,,,,,,,,,,,,,,,,,,,,,,,,,,,,,,,,,,,,,,,,-1.770250612764812e-10,1.1179945857975326e-10,-2.645383911925592e-10,0.0,3.7316592482739e-08,4.597914937676251e-08,-7.720843768765917e-07,-7.730455422461091e-07,-0.0004080767394043505,1.2497783245635219e-05,1.1715043910953682e-05,0.0,-1.7636803306686488e-07,-7.6131832429382484e-06,-1.1223502269785968e-06,2.810054866131395e-06,,,,,,,,,,,,,,,,,,,,,,,,,,,,,,,,,,,,,,,,,,,,,,,,,,,,,,,,,,,,,,,,,,,,,,,,,,
114,3.5679843425750732,0.6077709197998047,1.5727322101593018,0.3874035096168518,0.0,-3.141592675445488,-7.556527847896177e-09,0.5000001192092896,0.5000001192092896,0.6063207983970642,1.5710333585739136,0.3900910159945488,0.0,-3.1415926158408434,1.348479486296128e-06,0.4999998211860657,0.500000536441803,,,,,,,,,,,,,,,,,,,,,,,,,,,,,,,,,,,,,,,,,,,,,,,,,,,,,,,,,,,,,,,,,,,,,,,,,,,,,,,,,,,,,,,,,,,,,,,,,,,,,,,,,,,,,,,,,,,,,,,,,,,,,,,,,,,,,,-1.464939280992894e-10,9.281464485866309e-11,-2.1873475253286756e-10,0.0,3.085476407704846e-08,3.801477532761055e-08,-6.383275490406959e-07,-6.392054956450011e-07,-0.0004080767394043505,1.2497783245635219e-05,1.1715043910953682e-05,0.0,-1.7636803306686488e-07,-7.6131832429382484e-06,-1.1223502269785968e-06,2.810054866131395e-06,,,,,,,,,,,,,,,,,,,,,,,,,,,,,,,,,,,,,,,,,,,,,,,,,,,,,,,,,,,,,,,,,,,,,,,,,,
115,3.5894553661346436,0.6077709197998047,1.5727322101593018,0.3874035096168518,0.0,-3.141592675445488,-7.556527847896177e-09,0.5000001192092896,0.5000001192092896,0.6063073873519897,1.5710338354110718,0.39009139597415926,0.0,-3.141592675445488,1.1014327583325212e-06,0.49999985098838806,0.5000004172325134,,,,,,,,,,,,,,,,,,,,,,,,,,,,,,,,,,,,,,,,,,,,,,,,,,,,,,,,,,,,,,,,,,,,,,,,,,,,,,,,,,,,,,,,,,,,,,,,,,,,,,,,,,,,,,,,,,,,,,,,,,,,,,,,,,,,,,-1.464939280992894e-10,9.281464485866309e-11,-2.1873475253286756e-10,0.0,3.085476407704846e-08,3.801477532761055e-08,-6.383275490406959e-07,-6.392054956450011e-07,-0.0003408209595363587,1.0443487553857267e-05,9.780789696378633e-06,0.0,-1.4430578687552043e-07,-6.233629846974509e-06,-9.070747637451859e-07,2.3116456304705935e-06,,,,,,,,,,,,,,,,,,,,,,,,,,,,,,,,,,,,,,,,,,,,,,,,,,,,,,,,,,,,,,,,,,,,,,,,,,
116,3.610276222229004,0.6077709197998047,1.5727322101593018,0.3874035096168518,0.0,-3.141592675445488,-6.247612205356745e-09,0.5000001192092896,0.5000001192092896,0.6063073873519897,1.5710338354110718,0.39009139597415926,0.0,-3.141592675445488,1.1014327583325212e-06,0.49999985098838806,0.5000004172325134,,,,,,,,,,,,,,,,,,,,,,,,,,,,,,,,,,,,,,,,,,,,,,,,,,,,,,,,,,,,,,,,,,,,,,,,,,,,,,,,,,,,,,,,,,,,,,,,,,,,,,,,,,,,,,,,,,,,,,,,,,,,,,,,,,,,,,-1.2129186544029835e-10,7.671641100159832e-11,-1.8074430840897548e-10,0.0,2.551164790531857e-08,3.1430200664317454e-08,-5.277431682770839e-07,-5.285374982122448e-07,-0.0003408209595363587,1.0443487553857267e-05,9.780789696378633e-06,0.0,-1.4430578687552043e-07,-6.233629846974509e-06,-9.070747637451859e-07,2.3116456304705935e-06,,,,,,,,,,,,,,,,,,,,,,,,,,,,,,,,,,,,,,,,,,,,,,,,,,,,,,,,,,,,,,,,,,,,,,,,,,
