MHC-RobotSimulators-Research/Data_Analysis_MotionReplication/mai_plotter/raven_data/the_good_stuff/1arm_a2.csv
,time,jpos0,jpos1,jpos2,jpos3,jpos4,jpos5,jpos6,jpos7,jpos8,jpos9,jpos10,jpos11,jpos12,jpos13,jpos14,jpos15,runlevel,sublevel,last_seq,type0,type1,pos0,pos1,pos2,pos3,pos4,pos5,ori0,ori1,ori2,ori3,ori4,ori5,ori6,ori7,ori8,ori9,ori10,ori11,ori12,ori13,ori14,ori15,ori16,ori17,ori_d0,ori_d1,ori_d2,ori_d3,ori_d4,ori_d5,ori_d6,ori_d7,ori_d8,ori_d9,ori_d10,ori_d11,ori_d12,ori_d13,ori_d14,ori_d15,ori_d16,ori_d17,pos_d0,pos_d1,pos_d2,pos_d3,pos_d4,pos_d5,encVals0,encVals1,encVals2,encVals3,encVals4,encVals5,encVals6,encVals7,encVals8,encVals9,encVals10,encVals11,encVals12,encVals13,encVals14,encVals15,dac_vals0,dac_vals1,dac_vals2,dac_vals3,dac_vals4,dac_vals5,dac_vals6,dac_vals7,dac_vals8,dac_vals9,dac_vals10,dac_vals11,dac_vals12,dac_vals13,dac_vals14,dac_vals15,Tau0,Tau1,Tau2,Tau3,Tau4,Tau5,Tau6,Tau7,Tau8,Tau9,Tau10,Tau11,Tau12,Tau13,Tau14,Tau15,mpos0,mpos1,mpos2,mpos3,mpos4,mpos5,mpos6,mpos7,mpos8,mpos9,mpos10,mpos11,mpos12,mpos13,mpos14,mpos15,mvel0,mvel1,mvel2,mvel3,mvel4,mvel5,mvel6,mvel7,mvel8,mvel9,mvel10,mvel11,mvel12,mvel13,mvel14,mvel15,jvel0,jvel1,jvel2,jvel3,jvel4,jvel5,jvel6,jvel7,jvel8,jvel9,jvel10,jvel11,jvel12,jvel13,jvel14,jvel15,mpos_d0,mpos_d1,mpos_d2,mpos_d3,mpos_d4,mpos_d5,mpos_d6,mpos_d7,mpos_d8,mpos_d9,mpos_d10,mpos_d11,mpos_d12,mpos_d13,mpos_d14,mpos_d15,jpos_d0,jpos_d1,jpos_d2,jpos_d3,jpos_d4,jpos_d5,jpos_d6,jpos_d7,jpos_d8,jpos_d9,jpos_d10,jpos_d11,jpos_d12,jpos_d13,jpos_d14,jpos_d15,grasp_d0,grasp_d1,encoffsets0,encoffsets1,encoffsets2,encoffsets3,encoffsets4,encoffsets5,encoffsets6,encoffsets7,encoffsets8,encoffsets9,encoffsets10,encoffsets11,encoffsets12,encoffsets13,encoffsets14,encoffsets15,jac_vel0,jac_vel1,jac_vel2,jac_vel3,jac_vel4,jac_vel5,jac_vel6,jac_vel7,jac_vel8,jac_vel9,jac_vel10,jac_vel11,jac_f0,jac_f1,jac_f2,jac_f3,jac_f4,jac_f5,jac_f6,jac_f7,jac_f8,jac_f9,jac_f10,jac_f11
0,0.0,0.6108168959617615,1.5708260536193848,0.3899600124359131,0.0,-3.1418027222136766,-0.0002632554096635431,0.7853028178215027,0.7853028178215027,0.6108652353286743,1.5707963705062866,0.389999977350235,0.0,-3.141592675445488,-1.0759699439744346e-14,0.7853028178215027,0.7853028178215027,,,,,,,,,,,,,,,,,,,,,,,,,,,,,,,,,,,,,,,,,,,,,,,,,,,,,,,,,,,,,,,,,,,,,,,,,,,,,,,,,,,,,,,,,,,,,,,,,,,,,,,,,,,,,,,,,,,,,,,,,,,,,,,,,,,,,,0.0,0.0,0.0,0.0,0.0,0.0,0.0,0.0,0.0,0.0,0.0,0.0,0.0,0.0,0.0,0.0,,,,,,,,,,,,,,,,,,,,,,,,,,,,,,,,,,,,,,,,,,,,,,,,,,,,,,,,,,,,,,,,,,,,,,,,,,
1,1.1163480281829834,0.6077635884284973,1.5726865530014038,0.3874481311440468,0.0,-3.1432003915290148,-0.0019953115843236446,0.5338220596313477,0.5334690809249878,0.6108640432357788,1.5707966089248657,0.3899990385770798,0.0,-3.141668313739708,-6.364204455167055e-05,0.5286300778388977,0.5283234715461731,,,,,,,,,,,,,,,,,,,,,,,,,,,,,,,,,,,,,,,,,,,,,,,,,,,,,,,,,,,,,,,,,,,,,,,,,,,,,,,,,,,,,,,,,,,,,,,,,,,,,,,,,,,,,,,,,,,,,,,,,,,,,,,,,,,,,,-3.508508234517649e-05,3.446654591243714e-05,-5.500414044945501e-05,0.0,0.02688055858016014,0.015321150422096252,-0.2130008339881897,-0.18232935667037964,3.7192680792941246e-06,2.6942208933178335e-05,1.8713254803515156e-06,0.0,-0.019136490300297737,-0.013359255157411098,0.35198697447776794,0.39233577251434326,,,,,,,,,,,,,,,,,,,,,,,,,,,,,,,,,,,,,,,,,,,,,,,,,,,,,,,,,,,,,,,,,,,,,,,,,,
2,1.1376621723175049,0.6077624559402466,1.5726872682571411,0.3874464026093483,0.0,-3.142769151924065,-0.001452790223993361,0.5247772336006165,0.5244536995887756,0.6108640432357788,1.5707966089248657,0.3899990385770798,0.0,-3.141668313739708,-6.364204455167055e-05,0.5286300778388977,0.5283234715461731,,,,,,,,,,,,,,,,,,,,,,,,,,,,,,,,,,,,,,,,,,,,,,,,,,,,,,,,,,,,,,,,,,,,,,,,,,,,,,,,,,,,,,,,,,,,,,,,,,,,,,,,,,,,,,,,,,,,,,,,,,,,,,,,,,,,,,-2.577615305199288e-05,1.3906566891819239e-05,-4.2155705159530044e-05,0.0,0.008429281413555145,0.015068418346345425,-0.2069902867078781,-0.19661785662174225,3.7192680792941246e-06,2.6942208933178335e-05,1.8713254803515156e-06,0.0,-0.019136490300297737,-0.013359255157411098,0.35198697447776794,0.39233577251434326,,,,,,,,,,,,,,,,,,,,,,,,,,,,,,,,,,,,,,,,,,,,,,,,,,,,,,,,,,,,,,,,,,,,,,,,,,
3,1.1583647727966309,0.6077624559402466,1.5726872682571411,0.3874464026093483,0.0,-3.142769151924065,-0.001452790223993361,0.5247772336006165,0.5244536995887756,0.6108640432357788,1.5707966089248657,0.3899990311264992,0.0,-3.1416135370711595,-1.8478023775969632e-05,0.522572934627533,0.5224595665931702,,,,,,,,,,,,,,,,,,,,,,,,,,,,,,,,,,,,,,,,,,,,,,,,,,,,,,,,,,,,,,,,,,,,,,,,,,,,,,,,,,,,,,,,,,,,,,,,,,,,,,,,,,,,,,,,,,,,,,,,,,,,,,,,,,,,,,-2.577615305199288e-05,1.3906566891819239e-05,-4.2155705159530044e-05,0.0,0.008429281413555145,0.015068418346345425,-0.2069902867078781,-0.19661785662174225,1.2424322903825669e-07,2.741697926467168e-07,-6.063801549771597e-08,0.0,0.0003437603882048279,0.0003099533496424556,0.11385146528482437,0.11216418445110321,,,,,,,,,,,,,,,,,,,,,,,,,,,,,,,,,,,,,,,,,,,,,,,,,,,,,,,,,,,,,,,,,,,,,,,,,,
4,1.1803867816925049,0.6077615022659302,1.5726878643035889,0.3874450391530991,0.0,-3.1425675094107897,-0.001204931759275496,0.5205135345458984,0.520388662815094,0.6108640432357788,1.5707966089248657,0.3899990311264992,0.0,-3.1416135370711595,-1.8478023775969632e-05,0.522572934627533,0.5224595665931702,,,,,,,,,,,,,,,,,,,,,,,,,,,,,,,,,,,,,,,,,,,,,,,,,,,,,,,,,,,,,,,,,,,,,,,,,,,,,,,,,,,,,,,,,,,,,,,,,,,,,,,,,,,,,,,,,,,,,,,,,,,,,,,,,,,,,,-2.3174343368737027e-05,1.4093936442804988e-05,-3.4714219509623945e-05,0.0,0.0048376163467764854,0.0060494146309792995,-0.10319264233112335,-0.1025800034403801,1.2424322903825669e-07,2.741697926467168e-07,-6.063801549771597e-08,0.0,0.0003437603882048279,0.0003099533496424556,0.11385146528482437,0.11216418445110321,,,,,,,,,,,,,,,,,,,,,,,,,,,,,,,,,,,,,,,,,,,,,,,,,,,,,,,,,,,,,,,,,,,,,,,,,,
5,1.2017698287963867,0.6077615022659302,1.5726878643035889,0.3874450391530991,0.0,-3.1425675094107897,-0.001204931759275496,0.5205135345458984,0.520388662815094,0.6108640432357788,1.5707966089248657,0.3899990311264992,0.0,-3.141609722373894,-1.539681397844106e-05,0.5186625123023987,0.5185710787773132,,,,,,,,,,,,,,,,,,,,,,,,,,,,,,,,,,,,,,,,,,,,,,,,,,,,,,,,,,,,,,,,,,,,,,,,,,,,,,,,,,,,,,,,,,,,,,,,,,,,,,,,,,,,,,,,,,,,,,,,,,,,,,,,,,,,,,-2.3174343368737027e-05,1.4093936442804988e-05,-3.4714219509623945e-05,0.0,0.0048376163467764854,0.0060494146309792995,-0.10319264233112335,-0.1025800034403801,-3.80245834818993e-09,-9.133027845109609e-08,-8.776396498433314e-09,0.0,7.999733497854322e-05,8.089761104201898e-05,0.09388895332813263,0.09338680654764175,,,,,,,,,,,,,,,,,,,,,,,,,,,,,,,,,,,,,,,,,,,,,,,,,,,,,,,,,,,,,,,,,,,,,,,,,,
6,1.2240495681762695,0.6077607274055481,1.572688341140747,0.38744384706020357,0.0,-3.142398947475365,-0.0009963217889890075,0.5169599056243896,0.5168582797050476,0.6108640432357788,1.5707966089248657,0.3899990311264992,0.0,-3.1416066825370104,-1.2640412933251355e-05,0.5155849456787109,0.5155100226402283,,,,,,,,,,,,,,,,,,,,,,,,,,,,,,,,,,,,,,,,,,,,,,,,,,,,,,,,,,,,,,,,,,,,,,,,,,,,,,,,,,,,,,,,,,,,,,,,,,,,,,,,,,,,,,,,,,,,,,,,,,,,,,,,,,,,,,-1.9156464986735955e-05,1.1614965842454694e-05,-2.8703119824058376e-05,0.0,0.004056018777191639,0.005011770408600569,-0.08533379435539246,-0.08476413786411285,-1.1057821325266559e-10,-7.108747013262473e-08,-7.323204709308584e-09,0.0,7.853388524381444e-05,7.020848715910688e-05,0.07840803265571594,0.07799167186021805,,,,,,,,,,,,,,,,,,,,,,,,,,,,,,,,,,,,,,,,,,,,,,,,,,,,,,,,,,,,,,,,,,,,,,,,,,
7,1.2451984882354736,0.6077601313591003,1.5726886987686157,0.38744295299053194,0.0,-3.1422727644423754,-0.0008404090185649693,0.5143053531646729,0.5142213106155396,0.6108640432357788,1.5707966089248657,0.3899990311264992,0.0,-3.1416066825370104,-1.2640412933251355e-05,0.5155849456787109,0.5155100226402283,,,,,,,,,,,,,,,,,,,,,,,,,,,,,,,,,,,,,,,,,,,,,,,,,,,,,,,,,,,,,,,,,,,,,,,,,,,,,,,,,,,,,,,,,,,,,,,,,,,,,,,,,,,,,,,,,,,,,,,,,,,,,,,,,,,,,,-1.6160041923285462e-05,9.80034292297205e-06,-2.4205288355005905e-05,0.0,0.0034205426927655935,0.0042277174070477486,-0.0719776451587677,-0.07150514423847198,-1.1057821325266559e-10,-7.108747013262473e-08,-7.323204709308584e-09,0.0,7.853388524381444e-05,7.020848715910688e-05,0.07840803265571594,0.07799167186021805,,,,,,,,,,,,,,,,,,,,,,,,,,,,,,,,,,,,,,,,,,,,,,,,,,,,,,,,,,,,,,,,,,,,,,,,,,
8,1.2665276527404785,0.6077601313591003,1.5726886987686157,0.38744295299053194,0.0,-3.1422727644423754,-0.0008404090185649693,0.5143053531646729,0.5142213106155396,0.6108640432357788,1.5707966089248657,0.3899990311264992,0.0,-3.1416040599326402,-1.0247428690490779e-05,0.5128852725028992,0.5128244757652283,,,,,,,,,,,,,,,,,,,,,,,,,,,,,,,,,,,,,,,,,,,,,,,,,,,,,,,,,,,,,,,,,,,,,,,,,,,,,,,,,,,,,,,,,,,,,,,,,,,,,,,,,,,,,,,,,,,,,,,,,,,,,,,,,,,,,,-1.6160041923285462e-05,9.80034292297205e-06,-2.4205288355005905e-05,0.0,0.0034205426927655935,0.0042277174070477486,-0.0719776451587677,-0.07150514423847198,-1.6298074001497298e-10,-5.757861032407163e-08,-5.997015328773614e-09,0.0,6.331715121632442e-05,5.695518120774068e-05,0.06482580304145813,0.06448757648468018,,,,,,,,,,,,,,,,,,,,,,,,,,,,,,,,,,,,,,,,,,,,,,,,,,,,,,,,,,,,,,,,,,,,,,,,,,
9,1.2877273559570312,0.6077595949172974,1.5726889371871948,0.38744215577840807,0.0,-3.142160648105553,-0.0007018314790911973,0.5119461417198181,0.5118773579597473,0.6108640432357788,1.5707966089248657,0.3899990311264992,0.0,-3.1416040599326402,-1.0247428690490779e-05,0.5128852725028992,0.5128244757652283,,,,,,,,,,,,,,,,,,,,,,,,,,,,,,,,,,,,,,,,,,,,,,,,,,,,,,,,,,,,,,,,,,,,,,,,,,,,,,,,,,,,,,,,,,,,,,,,,,,,,,,,,,,,,,,,,,,,,,,,,,,,,,,,,,,,,,-1.3496452993422281e-05,8.187174898921512e-06,-2.020867214014288e-05,0.0,0.0028566138353198767,0.00353061780333519,-0.060107022523880005,-0.05971985310316086,-1.6298074001497298e-10,-5.757861032407163e-08,-5.997015328773614e-09,0.0,6.331715121632442e-05,5.695518120774068e-05,0.06482580304145813,0.06448757648468018,,,,,,,,,,,,,,,,,,,,,,,,,,,,,,,,,,,,,,,,,,,,,,,,,,,,,,,,,,,,,,,,,,,,,,,,,,
10,1.309643268585205,0.6077591776847839,1.572689175605774,0.38744152992963793,0.0,-3.1420717775801927,-0.0005920007824897766,0.5100763440132141,0.5100195407867432,0.6108640432357788,1.5707966089248657,0.3899990311264992,0.0,-3.1416018545607836,-8.303972208523192e-06,0.5106531977653503,0.5106039643287659,,,,,,,,,,,,,,,,,,,,,,,,,,,,,,,,,,,,,,,,,,,,,,,,,,,,,,,,,,,,,,,,,,,,,,,,,,,,,,,,,,,,,,,,,,,,,,,,,,,,,,,,,,,,,,,,,,,,,,,,,,,,,,,,,,,,,,-1.138524658017559e-05,6.9081866058695596e-06,-1.704195346974302e-05,0.0,0.002409646986052394,0.0029781197663396597,-0.05069921538233757,-0.050378549844026566,-2.036149027162537e-10,-4.66948719690663e-08,-4.915436058183786e-09,0.0,5.1392165914876387e-05,4.625927977031097e-05,0.05359635129570961,0.05332179740071297,,,,,,,,,,,,,,,,,,,,,,,,,,,,,,,,,,,,,,,,,,,,,,,,,,,,,,,,,,,,,,,,,,,,,,,,,,
11,1.3315620422363281,0.6077591776847839,1.572689175605774,0.38744152992963793,0.0,-3.1420717775801927,-0.0005920007824897766,0.5100763440132141,0.5100195407867432,0.6108640432357788,1.5707966089248657,0.3899990311264992,0.0,-3.1416018545607836,-8.303972208523192e-06,0.5106531977653503,0.5106039643287659,,,,,,,,,,,,,,,,,,,,,,,,,,,,,,,,,,,,,,,,,,,,,,,,,,,,,,,,,,,,,,,,,,,,,,,,,,,,,,,,,,,,,,,,,,,,,,,,,,,,,,,,,,,,,,,,,,,,,,,,,,,,,,,,,,,,,,-1.138524658017559e-05,6.9081866058695596e-06,-1.704195346974302e-05,0.0,0.002409646986052394,0.0029781197663396597,-0.05069921538233757,-0.050378549844026566,-2.036149027162537e-10,-4.66948719690663e-08,-4.915436058183786e-09,0.0,5.1392165914876387e-05,4.625927977031097e-05,0.05359635129570961,0.05332179740071297,,,,,,,,,,,,,,,,,,,,,,,,,,,,,,,,,,,,,,,,,,,,,,,,,,,,,,,,,,,,,,,,,,,,,,,,,,
12,1.353119134902954,0.6077587604522705,1.572689414024353,0.38744094133377077,0.0,-3.1419888079146654,-0.0004894586163572967,0.5083307027816772,0.5082848072052002,0.6108640432357788,1.5707966089248657,0.3899990311264992,0.0,-3.14160018563073,-6.801008112233831e-06,0.5088964104652405,0.5088561177253723,,,,,,,,,,,,,,,,,,,,,,,,,,,,,,,,,,,,,,,,,,,,,,,,,,,,,,,,,,,,,,,,,,,,,,,,,,,,,,,,,,,,,,,,,,,,,,,,,,,,,,,,,,,,,,,,,,,,,,,,,,,,,,,,,,,,,,-9.413990483153611e-06,5.713658083550399e-06,-1.4086172996030655e-05,0.0,0.00199233740568161,0.0024622816126793623,-0.04191604629158974,-0.04165638983249664,-2.2687407508215074e-10,-3.8281712022580905e-08,-4.0741161555502e-09,0.0,4.2152489186264575e-05,3.7968486140016466e-05,0.044757988303899765,0.044532738626003265,,,,,,,,,,,,,,,,,,,,,,,,,,,,,,,,,,,,,,,,,,,,,,,,,,,,,,,,,,,,,,,,,,,,,,,,,,
13,1.3740620613098145,0.6077587604522705,1.572689414024353,0.38744094133377077,0.0,-3.1419888079146654,-0.0004894586163572967,0.5083307027816772,0.5082848072052002,0.6108640432357788,1.5707966089248657,0.3899990311264992,0.0,-3.1415988147239,-5.567657808569493e-06,0.5074293613433838,0.5073963403701782,,,,,,,,,,,,,,,,,,,,,,,,,,,,,,,,,,,,,,,,,,,,,,,,,,,,,,,,,,,,,,,,,,,,,,,,,,,,,,,,,,,,,,,,,,,,,,,,,,,,,,,,,,,,,,,,,,,,,,,,,,,,,,,,,,,,,,-9.413990483153611e-06,5.713658083550399e-06,-1.4086172996030655e-05,0.0,0.00199233740568161,0.0024622816126793623,-0.04191604629158974,-0.04165638983249664,-2.3803181647963356e-10,-3.138145387993063e-08,-3.3786515807321393e-09,0.0,3.4563196095405146e-05,3.11514813802205e-05,0.03737712278962135,0.03719238191843033,,,,,,,,,,,,,,,,,,,,,,,,,,,,,,,,,,,,,,,,,,,,,,,,,,,,,,,,,,,,,,,,,,,,,,,,,,
14,1.3949718475341797,0.6077584624290466,1.5726896524429321,0.38744045704603197,0.0,-3.141920202968529,-0.0004046778194606304,0.5068874955177307,0.5068504810333252,0.6108640432357788,1.5707966089248657,0.3899990311264992,0.0,-3.1415988147239,-5.567657808569493e-06,0.5074293613433838,0.5073963403701782,,,,,,,,,,,,,,,,,,,,,,,,,,,,,,,,,,,,,,,,,,,,,,,,,,,,,,,,,,,,,,,,,,,,,,,,,,,,,,,,,,,,,,,,,,,,,,,,,,,,,,,,,,,,,,,,,,,,,,,,,,,,,,,,,,,,,,-7.784039553371258e-06,4.7256726247724146e-06,-1.1643048310361337e-05,0.0,0.001647303462959826,0.002035788493230939,-0.03465447947382927,-0.03444431349635124,-2.3803181647963356e-10,-3.138145387993063e-08,-3.3786515807321393e-09,0.0,3.4563196095405146e-05,3.11514813802205e-05,0.03737712278962135,0.03719238191843033,,,,,,,,,,,,,,,,,,,,,,,,,,,,,,,,,,,,,,,,,,,,,,,,,,,,,,,,,,,,,,,,,,,,,,,,,,
15,1.4164268970489502,0.6077584624290466,1.5726896524429321,0.38744045704603197,0.0,-3.141920202968529,-0.0004046778194606304,0.5068874955177307,0.5068504810333252,0.6108640432357788,1.5707966089248657,0.3899990311264992,0.0,-3.141597741840294,-4.555949999485165e-06,0.5062041878700256,0.5061772465705872,,,,,,,,,,,,,,,,,,,,,,,,,,,,,,,,,,,,,,,,,,,,,,,,,,,,,,,,,,,,,,,,,,,,,,,,,,,,,,,,,,,,,,,,,,,,,,,,,,,,,,,,,,,,,,,,,,,,,,,,,,,,,,,,,,,,,,-7.784039553371258e-06,4.7256726247724146e-06,-1.1643048310361337e-05,0.0,0.001647303462959826,0.002035788493230939,-0.03465447947382927,-0.03444431349635124,-2.403632848313464e-10,-2.5721647034515627e-08,-2.8030910925735952e-09,0.0,2.8330912755336612e-05,2.5548421035637148e-05,0.03121340647339821,0.031061943620443344,,,,,,,,,,,,,,,,,,,,,,,,,,,,,,,,,,,,,,,,,,,,,,,,,,,,,,,,,,,,,,,,,,,,,,,,,,
16,1.4378933906555176,0.6077581644058228,1.5726897716522217,0.38744005471467974,0.0,-3.1418635189513475,-0.0003345819714013487,0.5056942701339722,0.5056644082069397,0.6108640432357788,1.5707966089248657,0.3899990311264992,0.0,-3.141597741840294,-4.555949999485165e-06,0.5062041878700256,0.5061772465705872,,,,,,,,,,,,,,,,,,,,,,,,,,,,,,,,,,,,,,,,,,,,,,,,,,,,,,,,,,,,,,,,,,,,,,,,,,,,,,,,,,,,,,,,,,,,,,,,,,,,,,,,,,,,,,,,,,,,,,,,,,,,,,,,,,,,,,-6.436298917833483e-06,3.9085198295651935e-06,-9.623663572710939e-06,0.0,0.0013620259705930948,0.0016831663670018315,-0.028650909662246704,-0.028480883687734604,-2.403632848313464e-10,-2.5721647034515627e-08,-2.8030910925735952e-09,0.0,2.8330912755336612e-05,2.5548421035637148e-05,0.03121340647339821,0.031061943620443344,,,,,,,,,,,,,,,,,,,,,,,,,,,,,,,,,,,,,,,,,,,,,,,,,,,,,,,,,,,,,,,,,,,,,,,,,,
17,1.4585585594177246,0.6077579855918884,1.5726898908615112,0.38743975669145586,0.0,-3.141821140048912,-0.00028222205583006144,0.5048030614852905,0.5047783851623535,0.6108640432357788,1.5707966089248657,0.3899990311264992,0.0,-3.141596728561333,-3.6849505704594776e-06,0.5051294565200806,0.5051076412200928,,,,,,,,,,,,,,,,,,,,,,,,,,,,,,,,,,,,,,,,,,,,,,,,,,,,,,,,,,,,,,,,,,,,,,,,,,,,,,,,,,,,,,,,,,,,,,,,,,,,,,,,,,,,,,,,,,,,,,,,,,,,,,,,,,,,,,-5.4294873734761495e-06,3.2979160096147098e-06,-8.115629498206545e-06,0.0,0.001148924115113914,0.0014197647105902433,-0.024166537448763847,-0.024025933817029,-2.3542279237176444e-10,-2.0847213733077297e-08,-2.3026234252654376e-09,0.0,2.295867852808442e-05,2.0714724087156355e-05,0.025806458666920662,0.02568368799984455,,,,,,,,,,,,,,,,,,,,,,,,,,,,,,,,,,,,,,,,,,,,,,,,,,,,,,,,,,,,,,,,,,,,,,,,,,
18,1.4809789657592773,0.6077579855918884,1.5726898908615112,0.38743975669145586,0.0,-3.141821140048912,-0.00028222205583006144,0.5048030614852905,0.5047783851623535,0.6108640432357788,1.5707966089248657,0.3899990311264992,0.0,-3.1415960133055956,-3.0124783734208904e-06,0.504283607006073,0.5042657852172852,,,,,,,,,,,,,,,,,,,,,,,,,,,,,,,,,,,,,,,,,,,,,,,,,,,,,,,,,,,,,,,,,,,,,,,,,,,,,,,,,,,,,,,,,,,,,,,,,,,,,,,,,,,,,,,,,,,,,,,,,,,,,,,,,,,,,,-5.4294873734761495e-06,3.2979160096147098e-06,-8.115629498206545e-06,0.0,0.001148924115113914,0.0014197647105902433,-0.024166537448763847,-0.024025933817029,-2.2598589666245061e-10,-1.708067109973399e-08,-1.911755420636041e-09,0.0,1.8805205399985425e-05,1.6974983736872673e-05,0.021550815552473068,0.021450232714414597,,,,,,,,,,,,,,,,,,,,,,,,,,,,,,,,,,,,,,,,,,,,,,,,,,,,,,,,,,,,,,,,,,,,,,,,,,
19,1.5024473667144775,0.6077578067779541,1.5726900100708008,0.3874394810199738,0.0,-3.1417815625647814,-0.0002333370503038168,0.5039709806442261,0.5039510726928711,0.6108640432357788,1.5707966089248657,0.3899990311264992,0.0,-3.1415960133055956,-3.0124783734208904e-06,0.504283607006073,0.5042657852172852,,,,,,,,,,,,,,,,,,,,,,,,,,,,,,,,,,,,,,,,,,,,,,,,,,,,,,,,,,,,,,,,,,,,,,,,,,,,,,,,,,,,,,,,,,,,,,,,,,,,,,,,,,,,,,,,,,,,,,,,,,,,,,,,,,,,,,-4.489417278819019e-06,2.7276412311039167e-06,-6.708046385028865e-06,0.0,0.0009499583975411952,0.0011738429311662912,-0.01997990719974041,-0.01986626163125038,-2.2598589666245061e-10,-1.708067109973399e-08,-1.911755420636041e-09,0.0,1.8805205399985425e-05,1.6974983736872673e-05,0.021550815552473068,0.021450232714414597,,,,,,,,,,,,,,,,,,,,,,,,,,,,,,,,,,,,,,,,,,,,,,,,,,,,,,,,,,,,,,,,,,,,,,,,,,
20,1.5241341590881348,0.6077578067779541,1.5726900100708008,0.3874394810199738,0.0,-3.1417815625647814,-0.0002333370503038168,0.5039709806442261,0.5039510726928711,0.6108640432357788,1.5707966089248657,0.3899990311264992,0.0,-3.141595417259148,-2.461525809849263e-06,0.5035772323608398,0.5035626292228699,,,,,,,,,,,,,,,,,,,,,,,,,,,,,,,,,,,,,,,,,,,,,,,,,,,,,,,,,,,,,,,,,,,,,,,,,,,,,,,,,,,,,,,,,,,,,,,,,,,,,,,,,,,,,,,,,,,,,,,,,,,,,,,,,,,,,,-4.489417278819019e-06,2.7276412311039167e-06,-6.708046385028865e-06,0.0,0.0009499583975411952,0.0011738429311662912,-0.01997990719974041,-0.01986626163125038,-2.138844656940364e-10,-1.3991474645536073e-08,-1.5876466807895895e-09,0.0,1.5397341485368088e-05,1.3904718798585236e-05,0.017996953800320625,0.017914578318595886,,,,,,,,,,,,,,,,,,,,,,,,,,,,,,,,,,,,,,,,,,,,,,,,,,,,,,,,,,,,,,,,,,,,,,,,,,
21,1.5458085536956787,0.6077576279640198,1.5726901292800903,0.38743925005197527,0.0,-3.1417488396147997,-0.00019291957141831517,0.5032830238342285,0.5032670497894287,0.6108640432357788,1.5707966089248657,0.3899990311264992,0.0,-3.141595417259148,-2.461525809849263e-06,0.5035772323608398,0.5035626292228699,,,,,,,,,,,,,,,,,,,,,,,,,,,,,,,,,,,,,,,,,,,,,,,,,,,,,,,,,,,,,,,,,,,,,,,,,,,,,,,,,,,,,,,,,,,,,,,,,,,,,,,,,,,,,,,,,,,,,,,,,,,,,,,,,,,,,,-3.7121119476068998e-06,2.255976141896099e-06,-5.544595751416637e-06,0.0,0.0007854497525840998,0.0009705174015834928,-0.016518572345376015,-0.01642676256597042,-2.138844656940364e-10,-1.3991474645536073e-08,-1.5876466807895895e-09,0.0,1.5397341485368088e-05,1.3904718798585236e-05,0.017996953800320625,0.017914578318595886,,,,,,,,,,,,,,,,,,,,,,,,,,,,,,,,,,,,,,,,,,,,,,,,,,,,,,,,,,,,,,,,,,,,,,,,,,
22,1.5680592060089111,0.6077576279640198,1.5726901292800903,0.38743925005197527,0.0,-3.1417488396147997,-0.00019291957141831517,0.5032830238342285,0.5032670497894287,0.6108640432357788,1.5707966089248657,0.3899990311264992,0.0,-3.141594880817345,-2.010320031331503e-06,0.5029873251914978,0.5029754042625427,,,,,,,,,,,,,,,,,,,,,,,,,,,,,,,,,,,,,,,,,,,,,,,,,,,,,,,,,,,,,,,,,,,,,,,,,,,,,,,,,,,,,,,,,,,,,,,,,,,,,,,,,,,,,,,,,,,,,,,,,,,,,,,,,,,,,,-3.7121119476068998e-06,2.255976141896099e-06,-5.544595751416637e-06,0.0,0.0007854497525840998,0.0009705174015834928,-0.016518572345376015,-0.01642676256597042,-1.9939605522267811e-10,-1.1457834681039003e-08,-1.3187992919938551e-09,0.0,1.2602099559444468e-05,1.1385014659026638e-05,0.01502914447337389,0.014961709268391132,,,,,,,,,,,,,,,,,,,,,,,,,,,,,,,,,,,,,,,,,,,,,,,,,,,,,,,,,,,,,,,,,,,,,,,,,,
23,1.5894453525543213,0.6077575087547302,1.5726902484893799,0.38743905633687975,0.0,-3.1417217791060716,-0.00015950297529343516,0.5027142763137817,0.5027014017105103,0.6108640432357788,1.5707966089248657,0.3899990311264992,0.0,-3.1415944635848314,-1.6409587715315865e-06,0.5024946928024292,0.5024849772453308,,,,,,,,,,,,,,,,,,,,,,,,,,,,,,,,,,,,,,,,,,,,,,,,,,,,,,,,,,,,,,,,,,,,,,,,,,,,,,,,,,,,,,,,,,,,,,,,,,,,,,,,,,,,,,,,,,,,,,,,,,,,,,,,,,,,,,-3.0693904591316823e-06,1.865869762696093e-06,-4.5829356167814694e-06,0.0,0.0006494305562227964,0.0008024101261980832,-0.01365688256919384,-0.013582753017544746,-1.8407497748285095e-10,-9.380607401965335e-09,-1.09569997519543e-09,0.0,1.0310081961506512e-05,9.317913281847723e-06,0.012550745159387589,0.012495563365519047,,,,,,,,,,,,,,,,,,,,,,,,,,,,,,,,,,,,,,,,,,,,,,,,,,,,,,,,,,,,,,,,,,,,,,,,,,
24,1.610565423965454,0.6077574491500854,1.5726902484893799,0.3874389147758484,0.0,-3.141701573131493,-0.00013454163854476064,0.5022894144058228,0.5022788643836975,0.6108640432357788,1.5707966089248657,0.3899990311264992,0.0,-3.1415944635848314,-1.6409587715315865e-06,0.5024946928024292,0.5024849772453308,,,,,,,,,,,,,,,,,,,,,,,,,,,,,,,,,,,,,,,,,,,,,,,,,,,,,,,,,,,,,,,,,,,,,,,,,,,,,,,,,,,,,,,,,,,,,,,,,,,,,,,,,,,,,,,,,,,,,,,,,,,,,,,,,,,,,,-2.589254108897876e-06,1.5743719359306851e-06,-3.864787686325144e-06,0.0,0.0005478234379552305,0.000676838040817529,-0.011519338935613632,-0.01145815197378397,-1.8407497748285095e-10,-9.380607401965335e-09,-1.09569997519543e-09,0.0,1.0310081961506512e-05,9.317913281847723e-06,0.012550745159387589,0.012495563365519047,,,,,,,,,,,,,,,,,,,,,,,,,,,,,,,,,,,,,,,,,,,,,,,,,,,,,,,,,,,,,,,,,,,,,,,,,,
25,1.631551742553711,0.6077574491500854,1.5726902484893799,0.3874389147758484,0.0,-3.141701573131493,-0.00013454163854476064,0.5022894144058228,0.5022788643836975,0.6108640432357788,1.5707966089248657,0.3899990311264992,0.0,-3.1415941655616075,-1.3387279977905564e-06,0.5020833015441895,0.5020753741264343,,,,,,,,,,,,,,,,,,,,,,,,,,,,,,,,,,,,,,,,,,,,,,,,,,,,,,,,,,,,,,,,,,,,,,,,,,,,,,,,,,,,,,,,,,,,,,,,,,,,,,,,,,,,,,,,,,,,,,,,,,,,,,,,,,,,,,-2.589254108897876e-06,1.5743719359306851e-06,-3.864787686325144e-06,0.0,0.0005478234379552305,0.000676838040817529,-0.011519338935613632,-0.01145815197378397,-1.6853185513809876e-10,-7.676970170678032e-09,-9.104592080255713e-10,0.0,8.431322385149542e-06,7.622753400937654e-06,0.010481049306690693,0.010435912758111954,,,,,,,,,,,,,,,,,,,,,,,,,,,,,,,,,,,,,,,,,,,,,,,,,,,,,,,,,,,,,,,,,,,,,,,,,,
26,1.6536369323730469,0.6077573299407959,1.5726903676986694,0.38743878066539766,0.0,-3.1416827380637438,-0.0001112369354814291,0.5018928050994873,0.5018842816352844,0.6108640432357788,1.5707966089248657,0.3899990311264992,0.0,-3.1415941655616075,-1.3387279977905564e-06,0.5020833015441895,0.5020753741264343,,,,,,,,,,,,,,,,,,,,,,,,,,,,,,,,,,,,,,,,,,,,,,,,,,,,,,,,,,,,,,,,,,,,,,,,,,,,,,,,,,,,,,,,,,,,,,,,,,,,,,,,,,,,,,,,,,,,,,,,,,,,,,,,,,,,,,-2.1409462078736397e-06,1.3021279983149725e-06,-3.1944750844559167e-06,0.0,0.0004529555735643953,0.0005595997208729386,-0.009523719549179077,-0.009474370628595352,-1.6853185513809876e-10,-7.676970170678032e-09,-9.104592080255713e-10,0.0,8.431322385149542e-06,7.622753400937654e-06,0.010481049306690693,0.010435912758111954,,,,,,,,,,,,,,,,,,,,,,,,,,,,,,,,,,,,,,,,,,,,,,,,,,,,,,,,,,,,,,,,,,,,,,,,,,
27,1.6753759384155273,0.6077573299407959,1.5726903676986694,0.38743878066539766,0.0,-3.1416827380637438,-0.0001112369354814291,0.5018928050994873,0.5018842816352844,0.6108640432357788,1.5707966089248657,0.3899990311264992,0.0,-3.1415938675383837,-1.091537797037745e-06,0.5017397403717041,0.5017333030700684,,,,,,,,,,,,,,,,,,,,,,,,,,,,,,,,,,,,,,,,,,,,,,,,,,,,,,,,,,,,,,,,,,,,,,,,,,,,,,,,,,,,,,,,,,,,,,,,,,,,,,,,,,,,,,,,,,,,,,,,,,,,,,,,,,,,,,-2.1409462078736397e-06,1.3021279983149725e-06,-3.1944750844559167e-06,0.0,0.0004529555735643953,0.0005595997208729386,-0.009523719549179077,-0.009474370628595352,-1.5343282200319663e-10,-6.280864717211898e-09,-7.565753579186207e-10,0.0,6.8918429860787e-06,6.233140084077604e-06,0.008752659894526005,0.008715755306184292,,,,,,,,,,,,,,,,,,,,,,,,,,,,,,,,,,,,,,,,,,,,,,,,,,,,,,,,,,,,,,,,,,,,,,,,,,
28,1.6972451210021973,0.6077572703361511,1.5726903676986694,0.3874386689066887,0.0,-3.1416671216468126,-9.196895553031936e-05,0.5015649199485779,0.5015580654144287,0.6108640432357788,1.5707966089248657,0.3899990311264992,0.0,-3.1415936291198046,-8.89458362962614e-07,0.5014528632164001,0.5014475584030151,,,,,,,,,,,,,,,,,,,,,,,,,,,,,,,,,,,,,,,,,,,,,,,,,,,,,,,,,,,,,,,,,,,,,,,,,,,,,,,,,,,,,,,,,,,,,,,,,,,,,,,,,,,,,,,,,,,,,,,,,,,,,,,,,,,,,,-1.770258677424863e-06,1.0769607570182416e-06,-2.6404225081932964e-06,0.0,0.0003745164431165904,0.00046266865683719516,-0.007873822934925556,-0.007834046147763729,-1.383337888682945e-10,-5.136557845730749e-09,-6.288580767233043e-10,0.0,5.630831765301991e-06,5.094443167763529e-06,0.00730929197743535,0.007279132958501577,,,,,,,,,,,,,,,,,,,,,,,,,,,,,,,,,,,,,,,,,,,,,,,,,,,,,,,,,,,,,,,,,,,,,,,,,,
29,1.7185497283935547,0.6077572107315063,1.5726903676986694,0.38743858695030214,0.0,-3.141654843089989,-7.680353155592456e-05,0.5013068318367004,0.5013012886047363,0.6108640432357788,1.5707966089248657,0.3899990311264992,0.0,-3.1415936291198046,-8.89458362962614e-07,0.5014528632164001,0.5014475584030151,,,,,,,,,,,,,,,,,,,,,,,,,,,,,,,,,,,,,,,,,,,,,,,,,,,,,,,,,,,,,,,,,,,,,,,,,,,,,,,,,,,,,,,,,,,,,,,,,,,,,,,,,,,,,,,,,,,,,,,,,,,,,,,,,,,,,,-1.4784735640205326e-06,8.996746601042105e-07,-2.204455540777417e-06,0.0,0.00031277566449716687,0.00038637613761238754,-0.006575263570994139,-0.006542856339365244,-1.383337888682945e-10,-5.136557845730749e-09,-6.288580767233043e-10,0.0,5.630831765301991e-06,5.094443167763529e-06,0.00730929197743535,0.007279132958501577,,,,,,,,,,,,,,,,,,,,,,,,,,,,,,,,,,,,,,,,,,,,,,,,,,,,,,,,,,,,,,,,,,,,,,,,,,
30,1.7401387691497803,0.6077572107315063,1.5726903676986694,0.38743858695030214,0.0,-3.141654843089989,-7.680353155592456e-05,0.5013068318367004,0.5013012886047363,0.6108640432357788,1.5707966089248657,0.3899990311264992,0.0,-3.1415934503058702,-7.161065127547772e-07,0.5012011528015137,0.5011969208717346,,,,,,,,,,,,,,,,,,,,,,,,,,,,,,,,,,,,,,,,,,,,,,,,,,,,,,,,,,,,,,,,,,,,,,,,,,,,,,,,,,,,,,,,,,,,,,,,,,,,,,,,,,,,,,,,,,,,,,,,,,,,,,,,,,,,,,-1.4784735640205326e-06,8.996746601042105e-07,-2.204455540777417e-06,0.0,0.00031277566449716687,0.00038637613761238754,-0.006575263570994139,-0.006542856339365244,-1.2356782264077992e-10,-4.152345134400548e-09,-5.172737238545722e-10,0.0,4.54678047390189e-06,4.115172487217933e-06,0.0060431379824876785,0.006018778774887323,,,,,,,,,,,,,,,,,,,,,,,,,,,,,,,,,,,,,,,,,,,,,,,,,,,,,,,,,,,,,,,,,,,,,,,,,,
31,1.7621924877166748,0.6077571511268616,1.572690486907959,0.3874385124444962,0.0,-3.1416445910910875,-6.413883966160938e-05,0.5010913014411926,0.5010867714881897,0.6108640432357788,1.5707966089248657,0.3899990311264992,0.0,-3.1415934503058702,-7.161065127547772e-07,0.5012011528015137,0.5011969208717346,,,,,,,,,,,,,,,,,,,,,,,,,,,,,,,,,,,,,,,,,,,,,,,,,,,,,,,,,,,,,,,,,,,,,,,,,,,,,,,,,,,,,,,,,,,,,,,,,,,,,,,,,,,,,,,,,,,,,,,,,,,,,,,,,,,,,,-1.2347818483249284e-06,7.515725997109257e-07,-1.8404722368359216e-06,0.0,0.000261213252088055,0.00032266395282931626,-0.0054908636957407,-0.005464476998895407,-1.2356782264077992e-10,-4.152345134400548e-09,-5.172737238545722e-10,0.0,4.54678047390189e-06,4.115172487217933e-06,0.0060431379824876785,0.006018778774887323,,,,,,,,,,,,,,,,,,,,,,,,,,,,,,,,,,,,,,,,,,,,,,,,,,,,,,,,,,,,,,,,,,,,,,,,,,
32,1.7830171585083008,0.6077571511268616,1.572690486907959,0.3874385124444962,0.0,-3.1416445910910875,-6.413883966160938e-05,0.5010913014411926,0.5010867714881897,0.6108640432357788,1.5707966089248657,0.3899990311264992,0.0,-3.1415933310965807,-5.76117145101307e-07,0.5009931325912476,0.5009896755218506,,,,,,,,,,,,,,,,,,,,,,,,,,,,,,,,,,,,,,,,,,,,,,,,,,,,,,,,,,,,,,,,,,,,,,,,,,,,,,,,,,,,,,,,,,,,,,,,,,,,,,,,,,,,,,,,,,,,,,,,,,,,,,,,,,,,,,-1.2347818483249284e-06,7.515725997109257e-07,-1.8404722368359216e-06,0.0,0.000261213252088055,0.00032266395282931626,-0.0054908636957407,-0.005464476998895407,-1.099120794378905e-10,-3.355093980417223e-09,-4.256456298534772e-10,0.0,3.66933886652987e-06,3.3222484034922672e-06,0.00499631417915225,0.004976650234311819,,,,,,,,,,,,,,,,,,,,,,,,,,,,,,,,,,,,,,,,,,,,,,,,,,,,,,,,,,,,,,,,,,,,,,,,,,
33,1.8043029308319092,0.6077570915222168,1.572690486907959,0.3874384528398514,0.0,-3.1416360676268846,-5.3562518587568775e-05,0.500911295413971,0.5009076595306396,0.6108640432357788,1.5707966089248657,0.3899990311264992,0.0,-3.1415933310965807,-5.76117145101307e-07,0.5009931325912476,0.5009896755218506,,,,,,,,,,,,,,,,,,,,,,,,,,,,,,,,,,,,,,,,,,,,,,,,,,,,,,,,,,,,,,,,,,,,,,,,,,,,,,,,,,,,,,,,,,,,,,,,,,,,,,,,,,,,,,,,,,,,,,,,,,,,,,,,,,,,,,-1.0312572840120993e-06,6.278503406065283e-07,-1.5365872059192043e-06,0.0,0.00021815118088852614,0.00026945763966068625,-0.0045853047631680965,-0.004563834052532911,-1.099120794378905e-10,-3.355093980417223e-09,-4.256456298534772e-10,0.0,3.66933886652987e-06,3.3222484034922672e-06,0.00499631417915225,0.004976650234311819,,,,,,,,,,,,,,,,,,,,,,,,,,,,,,,,,,,,,,,,,,,,,,,,,,,,,,,,,,,,,,,,,,,,,,,,,,
34,1.8255507946014404,0.6077570915222168,1.572690486907959,0.3874384006857872,0.0,-3.1416289150695116,-4.473020089790225e-05,0.5007610321044922,0.5007580518722534,0.6108640432357788,1.5707966089248657,0.3899990311264992,0.0,-3.141593211887291,-4.6313533630382153e-07,0.500821053981781,0.5008183121681213,,,,,,,,,,,,,,,,,,,,,,,,,,,,,,,,,,,,,,,,,,,,,,,,,,,,,,,,,,,,,,,,,,,,,,,,,,,,,,,,,,,,,,,,,,,,,,,,,,,,,,,,,,,,,,,,,,,,,,,,,,,,,,,,,,,,,,-8.612786928097194e-07,5.24495249010215e-07,-1.2828774060835713e-06,0.0,0.00018218811601400375,0.0002250248653581366,-0.003829091088846326,-0.0038116327486932278,-9.71445146547012e-11,-2.7094992915976945e-09,-3.502129142241017e-10,0.0,2.9594541501865024e-06,2.6805128072737716e-06,0.004130826331675053,0.004114962182939053,,,,,,,,,,,,,,,,,,,,,,,,,,,,,,,,,,,,,,,,,,,,,,,,,,,,,,,,,,,,,,,,,,,,,,,,,,
35,1.847121000289917,0.6077570915222168,1.572690486907959,0.3874384006857872,0.0,-3.1416289150695116,-4.473020089790225e-05,0.5007610321044922,0.5007580518722534,0.6108640432357788,1.5707966089248657,0.3899990311264992,0.0,-3.1415930926780016,-3.7632884186677984e-07,0.5006856918334961,0.5006834268569946,,,,,,,,,,,,,,,,,,,,,,,,,,,,,,,,,,,,,,,,,,,,,,,,,,,,,,,,,,,,,,,,,,,,,,,,,,,,,,,,,,,,,,,,,,,,,,,,,,,,,,,,,,,,,,,,,,,,,,,,,,,,,,,,,,,,,,-8.612786928097194e-07,5.24495249010215e-07,-1.2828774060835713e-06,0.0,0.00018218811601400375,0.0002250248653581366,-0.003829091088846326,-0.0038116327486932278,-8.593126210598712e-11,-2.212008354263162e-09,-2.9112823263233167e-10,0.0,2.4126704829541268e-06,2.1860516881133663e-06,0.0034496274311095476,0.0034366906620562077,,,,,,,,,,,,,,,,,,,,,,,,,,,,,,,,,,,,,,,,,,,,,,,,,,,,,,,,,,,,,,,,,,,,,,,,,,
36,1.8685247898101807,0.607757031917572,1.572690486907959,0.38743836343288424,0.0,-3.141622954605034,-3.735430436790921e-05,0.5006355047225952,0.5006331205368042,0.6108640432357788,1.5707966089248657,0.3899990311264992,0.0,-3.1415930926780016,-3.7632884186677984e-07,0.5006856918334961,0.5006834268569946,,,,,,,,,,,,,,,,,,,,,,,,,,,,,,,,,,,,,,,,,,,,,,,,,,,,,,,,,,,,,,,,,,,,,,,,,,,,,,,,,,,,,,,,,,,,,,,,,,,,,,,,,,,,,,,,,,,,,,,,,,,,,,,,,,,,,,-7.1931731326913e-07,4.381535063657793e-07,-1.071058250090573e-06,0.0,0.0001521537487860769,0.00018791889306157827,-0.0031975931487977505,-0.003183407709002495,-8.593126210598712e-11,-2.212008354263162e-09,-2.9112823263233167e-10,0.0,2.4126704829541268e-06,2.1860516881133663e-06,0.0034496274311095476,0.0034366906620562077,,,,,,,,,,,,,,,,,,,,,,,,,,,,,,,,,,,,,,,,,,,,,,,,,,,,,,,,,,,,,,,,,,,,,,,,,,
37,1.889700174331665,0.607757031917572,1.572690486907959,0.38743836343288424,0.0,-3.141622954605034,-3.735430436790921e-05,0.5006355047225952,0.5006331205368042,0.6108640432357788,1.5707966089248657,0.3899990311264992,0.0,-3.141593033073357,-3.0555608532267797e-07,0.5005726218223572,0.5005707740783691,,,,,,,,,,,,,,,,,,,,,,,,,,,,,,,,,,,,,,,,,,,,,,,,,,,,,,,,,,,,,,,,,,,,,,,,,,,,,,,,,,,,,,,,,,,,,,,,,,,,,,,,,,,,,,,,,,,,,,,,,,,,,,,,,,,,,,-7.1931731326913e-07,4.381535063657793e-07,-1.071058250090573e-06,0.0,0.0001521537487860769,0.00018791889306157827,-0.0031975931487977505,-0.003183407709002495,-7.593925488436071e-11,-1.804445481923267e-09,-2.4204249715609194e-10,0.0,1.9657431948871817e-06,1.7817601474234834e-06,0.002880762331187725,0.0028702188283205032,,,,,,,,,,,,,,,,,,,,,,,,,,,,,,,,,,,,,,,,,,,,,,,,,,,,,,,,,,,,,,,,,,,,,,,,,,
38,1.9116971492767334,0.607757031917572,1.572690486907959,0.38743832617998125,0.0,-3.141617947814873,-3.11946751025971e-05,0.5005307197570801,0.5005287528038025,0.6108640432357788,1.5707966089248657,0.3899990311264992,0.0,-3.141593033073357,-3.0555608532267797e-07,0.5005726218223572,0.5005707740783691,,,,,,,,,,,,,,,,,,,,,,,,,,,,,,,,,,,,,,,,,,,,,,,,,,,,,,,,,,,,,,,,,,,,,,,,,,,,,,,,,,,,,,,,,,,,,,,,,,,,,,,,,,,,,,,,,,,,,,,,,,,,,,,,,,,,,,-6.007550155118224e-07,3.6602554587261693e-07,-8.942131444200641e-07,0.0,0.00012707067071460187,0.00015693159366492182,-0.0026702426839619875,-0.0026587252505123615,-7.593925488436071e-11,-1.804445481923267e-09,-2.4204249715609194e-10,0.0,1.9657431948871817e-06,1.7817601474234834e-06,0.002880762331187725,0.0028702188283205032,,,,,,,,,,,,,,,,,,,,,,,,,,,,,,,,,,,,,,,,,,,,,,,,,,,,,,,,,,,,,,,,,,,,,,,,,,
39,1.9335715770721436,0.607757031917572,1.572690486907959,0.38743829637765886,0.0,-3.1416137754897386,-2.6050749511341564e-05,0.500443160533905,0.5004416108131409,0.6108640432357788,1.5707966089248657,0.3899990311264992,0.0,-3.141592973468712,-2.45020260081219e-07,0.5004734396934509,0.5004719495773315,,,,,,,,,,,,,,,,,,,,,,,,,,,,,,,,,,,,,,,,,,,,,,,,,,,,,,,,,,,,,,,,,,,,,,,,,,,,,,,,,,,,,,,,,,,,,,,,,,,,,,,,,,,,,,,,,,,,,,,,,,,,,,,,,,,,,,-5.017348030378344e-07,3.0577106713280955e-07,-7.46567366149975e-07,0.0,0.00010612265032250434,0.00013105398102197796,-0.0022298633120954037,-0.002220519818365574,-6.650235917504688e-11,-1.4552803406786552e-09,-1.99180949511657e-10,0.0,1.5824087995497393e-06,1.434879550288315e-06,0.0023817415349185467,0.0023732513654977083,,,,,,,,,,,,,,,,,,,,,,,,,,,,,,,,,,,,,,,,,,,,,,,,,,,,,,,,,,,,,,,,,,,,,,,,,,
40,1.9554648399353027,0.607757031917572,1.572690486907959,0.38743829637765886,0.0,-3.1416135370711595,-2.5791252483031712e-05,0.5004387497901917,0.5004372596740723,0.6108640432357788,1.5707966089248657,0.3899990311264992,0.0,-3.1415929138640672,-2.009328454732895e-07,0.5003993511199951,0.5003981590270996,,,,,,,,,,,,,,,,,,,,,,,,,,,,,,,,,,,,,,,,,,,,,,,,,,,,,,,,,,,,,,,,,,,,,,,,,,,,,,,,,,,,,,,,,,,,,,,,,,,,,,,,,,,,,,,,,,,,,,,,,,,,,,,,,,,,,,-4.967390623278334e-07,3.0273074003162037e-07,-7.391200256279262e-07,0.0,0.00010506584658287466,0.00012974852870684117,-0.002207647543400526,-0.0021984123159199953,-5.856426454897701e-11,-1.1995959781074816e-09,-1.6733836538662672e-10,0.0,1.3024413192397333e-06,1.1814523759312578e-06,0.002008990850299597,0.002002000343054533,,,,,,,,,,,,,,,,,,,,,,,,,,,,,,,,,,,,,,,,,,,,,,,,,,,,,,,,,,,,,,,,,,,,,,,,,,
41,1.9770100116729736,0.6077569723129272,1.5726906061172485,0.3874382665753365,0.0,-3.141609960792473,-2.1323790861060843e-05,0.500362753868103,0.5003615021705627,0.6108640432357788,1.5707966089248657,0.3899990311264992,0.0,-3.1415929138640672,-1.9859683675349515e-07,0.5003953576087952,0.5003941655158997,,,,,,,,,,,,,,,,,,,,,,,,,,,,,,,,,,,,,,,,,,,,,,,,,,,,,,,,,,,,,,,,,,,,,,,,,,,,,,,,,,,,,,,,,,,,,,,,,,,,,,,,,,,,,,,,,,,,,,,,,,,,,,,,,,,,,,-4.107327811198047e-07,2.503810492271441e-07,-6.109265200393565e-07,0.0,8.687160880072042e-05,0.00010727400513133034,-0.001825193059630692,-0.0018177946330979466,-5.850875339774575e-11,-1.1857181902996672e-09,-1.6552731407770693e-10,0.0,1.287584950659948e-06,1.1680020861604135e-06,0.0019889776594936848,0.0019820670131593943,,,,,,,,,,,,,,,,,,,,,,,,,,,,,,,,,,,,,,,,,,,,,,,,,,,,,,,,,,,,,,,,,,,,,,,,,,
42,1.9992611408233643,0.6077569723129272,1.5726906061172485,0.3874382665753365,0.0,-3.141609960792473,-2.1323790861060843e-05,0.500362753868103,0.5003615021705627,0.6108640432357788,1.5707966089248657,0.3899990311264992,0.0,-3.1415928542594225,-1.608208037851e-07,0.5003301501274109,0.5003291964530945,,,,,,,,,,,,,,,,,,,,,,,,,,,,,,,,,,,,,,,,,,,,,,,,,,,,,,,,,,,,,,,,,,,,,,,,,,,,,,,,,,,,,,,,,,,,,,,,,,,,,,,,,,,,,,,,,,,,,,,,,,,,,,,,,,,,,,-4.107327811198047e-07,2.503810492271441e-07,-6.109265200393565e-07,0.0,8.687160880072042e-05,0.00010727400513133034,-0.001825193059630692,-0.0018177946330979466,-5.10702591327572e-11,-9.660050537263487e-10,-1.376468383718077e-10,0.0,1.0469650533195818e-06,9.501183626525744e-07,0.0016609828453511,0.0016553616151213646,,,,,,,,,,,,,,,,,,,,,,,,,,,,,,,,,,,,,,,,,,,,,,,,,,,,,,,,,,,,,,,,,,,,,,,,,,
43,2.0206310749053955,0.6077569723129272,1.5726906061172485,0.3874382442235947,0.0,-3.1416069805602342,-1.7630165530135855e-05,0.5002999305725098,0.5002989172935486,0.6108640432357788,1.5707966089248657,0.3899990311264992,0.0,-3.1415928542594225,-1.608208037851e-07,0.5003301501274109,0.5003291964530945,,,,,,,,,,,,,,,,,,,,,,,,,,,,,,,,,,,,,,,,,,,,,,,,,,,,,,,,,,,,,,,,,,,,,,,,,,,,,,,,,,,,,,,,,,,,,,,,,,,,,,,,,,,,,,,,,,,,,,,,,,,,,,,,,,,,,,-3.3961771350732306e-07,2.0708380077394395e-07,-5.049669198342599e-07,0.0,7.182807166827843e-05,8.869242446962744e-05,-0.0015089951921254396,-0.0015030745416879654,-5.10702591327572e-11,-9.660050537263487e-10,-1.376468383718077e-10,0.0,1.0469650533195818e-06,9.501183626525744e-07,0.0016609828453511,0.0016553616151213646,,,,,,,,,,,,,,,,,,,,,,,,,,,,,,,,,,,,,,,,,,,,,,,,,,,,,,,,,,,,,,,,,,,,,,,,,,
44,2.041858196258545,0.6077569723129272,1.5726906061172485,0.3874382442235947,0.0,-3.1416069805602342,-1.7630165530135855e-05,0.5002999305725098,0.5002989172935486,0.6108640432357788,1.5707966089248657,0.3899990311264992,0.0,-3.1415927946547777,-1.3010274813041178e-07,0.500275731086731,0.5002749562263489,,,,,,,,,,,,,,,,,,,,,,,,,,,,,,,,,,,,,,,,,,,,,,,,,,,,,,,,,,,,,,,,,,,,,,,,,,,,,,,,,,,,,,,,,,,,,,,,,,,,,,,,,,,,,,,,,,,,,,,,,,,,,,,,,,,,,,-3.3961771350732306e-07,2.0708380077394395e-07,-5.049669198342599e-07,0.0,7.182807166827843e-05,8.869242446962744e-05,-0.0015089951921254396,-0.0015030745416879654,-4.4797499043625066e-11,-7.860379014346108e-10,-1.1440848268762238e-10,0.0,8.506884228154377e-07,7.723292014816252e-07,0.0013870764523744583,0.001382507267408073,,,,,,,,,,,,,,,,,,,,,,,,,,,,,,,,,,,,,,,,,,,,,,,,,,,,,,,,,,,,,,,,,,,,,,,,,,
45,2.0637800693511963,0.6077569723129272,1.5726906061172485,0.3874382293224335,0.0,-3.1416047155837328,-1.487112785980571e-05,0.5002529621124268,0.5002521872520447,0.6108640432357788,1.5707966089248657,0.3899990311264992,0.0,-3.1415927946547777,-1.0639691083724756e-07,0.5002325773239136,0.500231921672821,,,,,,,,,,,,,,,,,,,,,,,,,,,,,,,,,,,,,,,,,,,,,,,,,,,,,,,,,,,,,,,,,,,,,,,,,,,,,,,,,,,,,,,,,,,,,,,,,,,,,,,,,,,,,,,,,,,,,,,,,,,,,,,,,,,,,,-2.864923374090722e-07,1.7473145419444336e-07,-4.258385217781324e-07,0.0,6.059037332306616e-05,7.481249485863373e-05,-0.0012728107394650578,-0.001267964718863368,-3.9246383920499284e-11,-6.470379787515412e-10,-9.613143614473074e-11,0.0,6.987318670326204e-07,6.346385248434672e-07,0.001169994124211371,0.0011662397300824523,,,,,,,,,,,,,,,,,,,,,,,,,,,,,,,,,,,,,,,,,,,,,,,,,,,,,,,,,,,,,,,,,,,,,,,,,,
46,2.085641622543335,0.6077569723129272,1.5726906061172485,0.3874382144212723,0.0,-3.1416026294211656,-1.2295206943235826e-05,0.5002091526985168,0.5002084970474243,0.6108640432357788,1.5707966089248657,0.3899990311264992,0.0,-3.1415927946547777,-1.0514224157986973e-07,0.5002302527427673,0.5002295970916748,,,,,,,,,,,,,,,,,,,,,,,,,,,,,,,,,,,,,,,,,,,,,,,,,,,,,,,,,,,,,,,,,,,,,,,,,,,,,,,,,,,,,,,,,,,,,,,,,,,,,,,,,,,,,,,,,,,,,,,,,,,,,,,,,,,,,,-2.3688834005497483e-07,1.4451595120590355e-07,-3.5198064551877906e-07,0.0,5.0097962230211124e-05,6.185375968925655e-05,-0.0010523080127313733,-0.0010484381346032023,-3.913536161803677e-11,-6.392664175791651e-10,-9.513917431647201e-11,0.0,6.906752219038026e-07,6.273366466302832e-07,0.0011583389714360237,0.0011546277673915029,,,,,,,,,,,,,,,,,,,,,,,,,,,,,,,,,,,,,,,,,,,,,,,,,,,,,,,,,,,,,,,,,,,,,,,,,,
47,2.1077046394348145,0.6077569723129272,1.5726906061172485,0.3874382144212723,0.0,-3.1416026294211656,-1.2295206943235826e-05,0.5002091526985168,0.5002084970474243,0.6108640432357788,1.5707966089248657,0.3899990311264992,0.0,-3.1415927946547777,-8.487580771543435e-08,0.5001922845840454,0.5001917481422424,,,,,,,,,,,,,,,,,,,,,,,,,,,,,,,,,,,,,,,,,,,,,,,,,,,,,,,,,,,,,,,,,,,,,,,,,,,,,,,,,,,,,,,,,,,,,,,,,,,,,,,,,,,,,,,,,,,,,,,,,,,,,,,,,,,,,,-2.3688834005497483e-07,1.4451595120590355e-07,-3.5198064551877906e-07,0.0,5.0097962230211124e-05,6.185375968925655e-05,-0.0010523080127313733,-0.0010484381346032023,-3.397282455352979e-11,-5.196953978270358e-10,-7.91033905045424e-11,0.0,5.603022827926907e-07,5.091600314699463e-07,0.0009673216263763607,0.0009643097291700542,,,,,,,,,,,,,,,,,,,,,,,,,,,,,,,,,,,,,,,,,,,,,,,,,,,,,,,,,,,,,,,,,,,,,,,,,,
48,2.128819704055786,0.6077569723129272,1.5726906061172485,0.3874382069706917,0.0,-3.141600900886467,-1.0165477760892827e-05,0.5001729130744934,0.5001724362373352,0.6108640432357788,1.5707966089248657,0.3899990311264992,0.0,-3.1415927946547777,-8.487580771543435e-08,0.5001922845840454,0.5001917481422424,,,,,,,,,,,,,,,,,,,,,,,,,,,,,,,,,,,,,,,,,,,,,,,,,,,,,,,,,,,,,,,,,,,,,,,,,,,,,,,,,,,,,,,,,,,,,,,,,,,,,,,,,,,,,,,,,,,,,,,,,,,,,,,,,,,,,,-1.9587321276048897e-07,1.195254952790492e-07,-2.9093286002535024e-07,0.0,4.142252146266401e-05,5.1139686547685415e-05,-0.0008700052858330309,-0.0008669188828207552,-3.397282455352979e-11,-5.196953978270358e-10,-7.91033905045424e-11,0.0,5.603022827926907e-07,5.091600314699463e-07,0.0009673216263763607,0.0009643097291700542,,,,,,,,,,,,,,,,,,,,,,,,,,,,,,,,,,,,,,,,,,,,,,,,,,,,,,,,,,,,,,,,,,,,,,,,,,
49,2.1501007080078125,0.6077569723129272,1.5726906061172485,0.3874382069706917,0.0,-3.141600900886467,-1.0165477760892827e-05,0.5001729130744934,0.5001724362373352,0.6108640432357788,1.5707966089248657,0.3899990311264992,0.0,-3.141592735050133,-6.843411881618522e-08,0.5001605749130249,0.5001601576805115,,,,,,,,,,,,,,,,,,,,,,,,,,,,,,,,,,,,,,,,,,,,,,,,,,,,,,,,,,,,,,,,,,,,,,,,,,,,,,,,,,,,,,,,,,,,,,,,,,,,,,,,,,,,,,,,,,,,,,,,,,,,,,,,,,,,,,-1.9587321276048897e-07,1.195254952790492e-07,-2.9093286002535024e-07,0.0,4.142252146266401e-05,5.1139686547685415e-05,-0.0008700052858330309,-0.0008669188828207552,-2.964295475749168e-11,-4.2221781626494703e-10,-6.579459199684834e-11,0.0,4.5414472538141126e-07,4.128980606310506e-07,0.0008078042883425951,0.000805361894890666,,,,,,,,,,,,,,,,,,,,,,,,,,,,,,,,,,,,,,,,,,,,,,,,,,,,,,,,,,,,,,,,,,,,,,,,,,
50,2.1711583137512207,0.6077569723129272,1.5726906061172485,0.3874381920695305,0.0,-3.1415994703749925,-8.404651453020051e-06,0.5001429319381714,0.5001425743103027,0.6108640432357788,1.5707966089248657,0.3899990311264992,0.0,-3.141592735050133,-5.577596695616194e-08,0.5001354217529297,0.5001351237297058,,,,,,,,,,,,,,,,,,,,,,,,,,,,,,,,,,,,,,,,,,,,,,,,,,,,,,,,,,,,,,,,,,,,,,,,,,,,,,,,,,,,,,,,,,,,,,,,,,,,,,,,,,,,,,,,,,,,,,,,,,,,,,,,,,,,,,-1.6195916430206125e-07,9.885648211138687e-08,-2.4047321289799584e-07,0.0,3.424940223339945e-05,4.22814664489124e-05,-0.0007192848715931177,-0.0007168265874497592,-2.5868196473766147e-11,-3.4661162828797387e-10,-5.522665658119763e-11,0.0,3.721077916907234e-07,3.3848050406959374e-07,0.0006813801010139287,0.000679377990309149,,,,,,,,,,,,,,,,,,,,,,,,,,,,,,,,,,,,,,,,,,,,,,,,,,,,,,,,,,,,,,,,,,,,,,,,,,
51,2.1928040981292725,0.6077569723129272,1.5726906061172485,0.3874381920695305,0.0,-3.1415994703749925,-8.404651453020051e-06,0.5001429319381714,0.5001425743103027,0.6108640432357788,1.5707966089248657,0.3899990311264992,0.0,-3.141592735050133,-5.4445610686570944e-08,0.5001327395439148,0.5001324415206909,,,,,,,,,,,,,,,,,,,,,,,,,,,,,,,,,,,,,,,,,,,,,,,,,,,,,,,,,,,,,,,,,,,,,,,,,,,,,,,,,,,,,,,,,,,,,,,,,,,,,,,,,,,,,,,,,,,,,,,,,,,,,,,,,,,,,,-1.6195916430206125e-07,9.885648211138687e-08,-2.4047321289799584e-07,0.0,3.424940223339945e-05,4.22814664489124e-05,-0.0007192848715931177,-0.0007168265874497592,-2.5368596112684827e-11,-3.3861802251067274e-10,-5.410255576876466e-11,0.0,3.6346719411994854e-07,3.3064023341466964e-07,0.0006678721983917058,0.0006659164791926742,,,,,,,,,,,,,,,,,,,,,,,,,,,,,,,,,,,,,,,,,,,,,,,,,,,,,,,,,,,,,,,,,,,,,,,,,,
52,2.215061902999878,0.6077569127082825,1.5726906061172485,0.3874381846189499,0.0,-3.141598337886742,-7.018744327069726e-06,0.5001193881034851,0.5001190900802612,0.6108640432357788,1.5707966089248657,0.3899990311264992,0.0,-3.141592735050133,-4.324985170001128e-08,0.5001097321510315,0.5001094937324524,,,,,,,,,,,,,,,,,,,,,,,,,,,,,,,,,,,,,,,,,,,,,,,,,,,,,,,,,,,,,,,,,,,,,,,,,,,,,,,,,,,,,,,,,,,,,,,,,,,,,,,,,,,,,,,,,,,,,,,,,,,,,,,,,,,,,,-1.3526424424981087e-07,8.258304973196573e-08,-2.007681416671403e-07,0.0,2.8603291866602376e-05,3.530935282469727e-05,-0.0006006596377119422,-0.0005986806354485452,-2.1815882433884326e-11,-2.7144952952085077e-10,-4.4526882181372684e-11,0.0,2.9057622441541753e-07,2.644902110660041e-07,0.0005521798739209771,0.0005506155430339277,,,,,,,,,,,,,,,,,,,,,,,,,,,,,,,,,,,,,,,,,,,,,,,,,,,,,,,,,,,,,,,,,,,,,,,,,,
53,2.2366409301757812,0.6077569127082825,1.5726906061172485,0.3874381771683693,0.0,-3.1415973842124254,-5.8029831961903255e-06,0.500098705291748,0.500098466873169,0.6108640432357788,1.5707966089248657,0.3899990311264992,0.0,-3.141592735050133,-4.324985170001128e-08,0.5001097321510315,0.5001094937324524,,,,,,,,,,,,,,,,,,,,,,,,,,,,,,,,,,,,,,,,,,,,,,,,,,,,,,,,,,,,,,,,,,,,,,,,,,,,,,,,,,,,,,,,,,,,,,,,,,,,,,,,,,,,,,,,,,,,,,,,,,,,,,,,,,,,,,-1.118443151426618e-07,6.830236287669322e-08,-1.659466875025828e-07,0.0,2.3650074581382796e-05,2.9193199225119315e-05,-0.0004966008709743619,-0.0004950292059220374,-2.1815882433884326e-11,-2.7144952952085077e-10,-4.4526882181372684e-11,0.0,2.9057622441541753e-07,2.644902110660041e-07,0.0005521798739209771,0.0005506155430339277,,,,,,,,,,,,,,,,,,,,,,,,,,,,,,,,,,,,,,,,,,,,,,,,,,,,,,,,,,,,,,,,,,,,,,,,,,
54,2.2575953006744385,0.6077569127082825,1.5726906061172485,0.3874381771683693,0.0,-3.1415973842124254,-5.8029831961903255e-06,0.500098705291748,0.500098466873169,0.6108640432357788,1.5707966089248657,0.3899990311264992,0.0,-3.141592735050133,-3.4721740149734615e-08,0.5000916719436646,0.5000914335250854,,,,,,,,,,,,,,,,,,,,,,,,,,,,,,,,,,,,,,,,,,,,,,,,,,,,,,,,,,,,,,,,,,,,,,,,,,,,,,,,,,,,,,,,,,,,,,,,,,,,,,,,,,,,,,,,,,,,,,,,,,,,,,,,,,,,,,-1.118443151426618e-07,6.830236287669322e-08,-1.659466875025828e-07,0.0,2.3650074581382796e-05,2.9193199225119315e-05,-0.0004966008709743619,-0.0004950292059220374,-1.8762769116165146e-11,-2.1971313657331848e-10,-3.698430450782553e-11,0.0,2.3480289712551894e-07,2.1385214665770036e-07,0.00046112199197523296,0.0004598571977112442,,,,,,,,,,,,,,,,,,,,,,,,,,,,,,,,,,,,,,,,,,,,,,,,,,,,,,,,,,,,,,,,,,,,,,,,,,
55,2.2785773277282715,0.6077569127082825,1.5726906061172485,0.3874381771683693,0.0,-3.1415966093520433,-4.8460847210662905e-06,0.5000824332237244,0.50008225440979,0.6108640432357788,1.5707966089248657,0.3899990311264992,0.0,-3.141592735050133,-3.4721740149734615e-08,0.5000916719436646,0.5000914335250854,,,,,,,,,,,,,,,,,,,,,,,,,,,,,,,,,,,,,,,,,,,,,,,,,,,,,,,,,,,,,,,,,,,,,,,,,,,,,,,,,,,,,,,,,,,,,,,,,,,,,,,,,,,,,,,,,,,,,,,,,,,,,,,,,,,,,,-9.340922701994714e-08,5.705802408328964e-08,-1.3854685221303953e-07,0.0,1.975129453057889e-05,2.4379311071243137e-05,-0.0004147009167354554,-0.0004134394694119692,-1.8762769116165146e-11,-2.1971313657331848e-10,-3.698430450782553e-11,0.0,2.3480289712551894e-07,2.1385214665770036e-07,0.00046112199197523296,0.0004598571977112442,,,,,,,,,,,,,,,,,,,,,,,,,,,,,,,,,,,,,,,,,,,,,,,,,,,,,,,,,,,,,,,,,,,,,,,,,,
56,2.3003244400024414,0.6077569127082825,1.5726906061172485,0.3874381771683693,0.0,-3.1415966093520433,-4.8460847210662905e-06,0.5000824332237244,0.50008225440979,0.6108640432357788,1.5707966089248657,0.3899990311264992,0.0,-3.141592735050133,-2.7488775700135193e-08,0.5000757575035095,0.50007563829422,,,,,,,,,,,,,,,,,,,,,,,,,,,,,,,,,,,,,,,,,,,,,,,,,,,,,,,,,,,,,,,,,,,,,,,,,,,,,,,,,,,,,,,,,,,,,,,,,,,,,,,,,,,,,,,,,,,,,,,,,,,,,,,,,,,,,,-9.340922701994714e-08,5.705802408328964e-08,-1.3854685221303953e-07,0.0,1.975129453057889e-05,2.4379311071243137e-05,-0.0004147009167354554,-0.0004134394694119692,-1.6209256159527285e-11,-1.758593271006248e-10,-3.046868313205664e-11,0.0,1.8727314454736188e-07,1.7067948476778838e-07,0.00038124402635730803,0.00038023461820557714,,,,,,,,,,,,,,,,,,,,,,,,,,,,,,,,,,,,,,,,,,,,,,,,,,,,,,,,,,,,,,,,,,,,,,,,,,
57,2.321986436843872,0.6077569127082825,1.5726906061172485,0.3874381697177887,0.0,-3.141595894096306,-4.006663857580861e-06,0.5000681281089783,0.5000680088996887,0.6108640432357788,1.5707966089248657,0.3899990311264992,0.0,-3.141592675445488,-2.2267215626925463e-08,0.5000638961791992,0.5000637769699097,,,,,,,,,,,,,,,,,,,,,,,,,,,,,,,,,,,,,,,,,,,,,,,,,,,,,,,,,,,,,,,,,,,,,,,,,,,,,,,,,,,,,,,,,,,,,,,,,,,,,,,,,,,,,,,,,,,,,,,,,,,,,,,,,,,,,,-7.723649275703792e-08,4.719147383980271e-08,-1.1451709269749699e-07,0.0,1.633097417652607e-05,2.015641803154722e-05,-0.0003428578202147037,-0.00034185941331088543,-1.4155343563970746e-11,-1.438849039914203e-10,-2.5625335187129394e-11,0.0,1.527898376707526e-07,1.3934212006461166e-07,0.00032157800160348415,0.0003207539557479322,,,,,,,,,,,,,,,,,,,,,,,,,,,,,,,,,,,,,,,,,,,,,,,,,,,,,,,,,,,,,,,,,,,,,,,,,,
58,2.3433496952056885,0.6077569127082825,1.5726906061172485,0.3874381697177887,0.0,-3.141595357654503,-3.3459743917774176e-06,0.5000569224357605,0.500056803226471,0.6108640432357788,1.5707966089248657,0.3899990311264992,0.0,-3.141592675445488,-2.2267215626925463e-08,0.5000638961791992,0.5000637769699097,,,,,,,,,,,,,,,,,,,,,,,,,,,,,,,,,,,,,,,,,,,,,,,,,,,,,,,,,,,,,,,,,,,,,,,,,,,,,,,,,,,,,,,,,,,,,,,,,,,,,,,,,,,,,,,,,,,,,,,,,,,,,,,,,,,,,,-6.450562040072327e-08,3.94227974709338e-08,-9.560894653759533e-08,0.0,1.3638768905366305e-05,1.6832671462907456e-05,-0.0002863133267965168,-0.0002855148050002754,-1.4155343563970746e-11,-1.438849039914203e-10,-2.5625335187129394e-11,0.0,1.527898376707526e-07,1.3934212006461166e-07,0.00032157800160348415,0.0003207539557479322,,,,,,,,,,,,,,,,,,,,,,,,,,,,,,,,,,,,,,,,,,,,,,,,,,,,,,,,,,,,,,,,,,,,,,,,,,
59,2.365168571472168,0.6077569127082825,1.5726906061172485,0.3874381697177887,0.0,-3.141595357654503,-3.3459743917774176e-06,0.5000569224357605,0.500056803226471,0.6108640432357788,1.5707966089248657,0.3899990311264992,0.0,-3.141592675445488,-1.7560324749865686e-08,0.5000528693199158,0.5000527501106262,,,,,,,,,,,,,,,,,,,,,,,,,,,,,,,,,,,,,,,,,,,,,,,,,,,,,,,,,,,,,,,,,,,,,,,,,,,,,,,,,,,,,,,,,,,,,,,,,,,,,,,,,,,,,,,,,,,,,,,,,,,,,,,,,,,,,,-6.450562040072327e-08,3.94227974709338e-08,-9.560894653759533e-08,0.0,1.3638768905366305e-05,1.6832671462907456e-05,-0.0002863133267965168,-0.0002855148050002754,-1.2212453270876722e-11,-1.149080830487037e-10,-2.1066481892262345e-11,0.0,1.2154116291185346e-07,1.1093035112708094e-07,0.0002658725716173649,0.0002652165712788701,,,,,,,,,,,,,,,,,,,,,,,,,,,,,,,,,,,,,,,,,,,,,,,,,,,,,,,,,,,,,,,,,,,,,,,,,,
60,2.3867082595825195,0.6077569127082825,1.5726906061172485,0.3874381622672081,0.0,-3.1415949404219896,-2.794231022562599e-06,0.500047504901886,0.5000474452972412,0.6108640432357788,1.5707966089248657,0.3899990311264992,0.0,-3.141592675445488,-1.7560324749865686e-08,0.5000528693199158,0.5000527501106262,,,,,,,,,,,,,,,,,,,,,,,,,,,,,,,,,,,,,,,,,,,,,,,,,,,,,,,,,,,,,,,,,,,,,,,,,,,,,,,,,,,,,,,,,,,,,,,,,,,,,,,,,,,,,,,,,,,,,,,,,,,,,,,,,,,,,,-5.387346035945484e-08,3.293299144502271e-08,-7.982271199580282e-08,0.0,1.1390380677767098e-05,1.4057003681955393e-05,-0.00023909420997370034,-0.0002384567924309522,-1.2212453270876722e-11,-1.149080830487037e-10,-2.1066481892262345e-11,0.0,1.2154116291185346e-07,1.1093035112708094e-07,0.0002658725716173649,0.0002652165712788701,,,,,,,,,,,,,,,,,,,,,,,,,,,,,,,,,,,,,,,,,,,,,,,,,,,,,,,,,,,,,,,,,,,,,,,,,,
61,2.4083311557769775,0.6077569127082825,1.5726906061172485,0.3874381622672081,0.0,-3.1415949404219896,-2.794231022562599e-06,0.500047504901886,0.5000474452972412,0.6108640432357788,1.5707966089248657,0.3899990311264992,0.0,-3.141592675445488,-1.3815950161699675e-08,0.5000436902046204,0.5000436305999756,,,,,,,,,,,,,,,,,,,,,,,,,,,,,,,,,,,,,,,,,,,,,,,,,,,,,,,,,,,,,,,,,,,,,,,,,,,,,,,,,,,,,,,,,,,,,,,,,,,,,,,,,,,,,,,,,,,,,,,,,,,,,,,,,,,,,,-5.387346035945484e-08,3.293299144502271e-08,-7.982271199580282e-08,0.0,1.1390380677767098e-05,1.4057003681955393e-05,-0.00023909420997370034,-0.0002384567924309522,-1.0436096431476471e-11,-9.14823772291129e-11,-1.7305601396344628e-11,0.0,9.65340021252814e-08,8.818062013915551e-08,0.0002198167348979041,0.00021929529611952603,,,,,,,,,,,,,,,,,,,,,,,,,,,,,,,,,,,,,,,,,,,,,,,,,,,,,,,,,,,,,,,,,,,,,,,,,,
62,2.431288957595825,0.6077569127082825,1.5726906061172485,0.3874381622672081,0.0,-3.141594582794121,-2.3569468794448767e-06,0.5000400543212891,0.5000399947166443,0.6108640432357788,1.5707966089248657,0.3899990311264992,0.0,-3.141592675445488,-1.1123529652934394e-08,0.5000368356704712,0.5000367760658264,,,,,,,,,,,,,,,,,,,,,,,,,,,,,,,,,,,,,,,,,,,,,,,,,,,,,,,,,,,,,,,,,,,,,,,,,,,,,,,,,,,,,,,,,,,,,,,,,,,,,,,,,,,,,,,,,,,,,,,,,,,,,,,,,,,,,,-4.544609311096792e-08,2.7787661949219e-08,-6.731446688945653e-08,0.0,9.608327673049644e-06,1.1857148820126895e-05,-0.00020167174807284027,-0.00020115752704441547,-9.159339953157541e-12,-7.471800955727304e-11,-1.4585554986012994e-11,0.0,7.844275273782841e-08,7.171303906261528e-08,0.00018541465396992862,0.000184990611160174,,,,,,,,,,,,,,,,,,,,,,,,,,,,,,,,,,,,,,,,,,,,,,,,,,,,,,,,,,,,,,,,,,,,,,,,,,
63,2.4535796642303467,0.6077569127082825,1.5726906061172485,0.3874381548166275,0.0,-3.141594284770897,-1.968291826415225e-06,0.5000334978103638,0.500033438205719,0.6108640432357788,1.5707966089248657,0.3899990311264992,0.0,-3.141592675445488,-1.0981842990531732e-08,0.5000364780426025,0.5000364184379578,,,,,,,,,,,,,,,,,,,,,,,,,,,,,,,,,,,,,,,,,,,,,,,,,,,,,,,,,,,,,,,,,,,,,,,,,,,,,,,,,,,,,,,,,,,,,,,,,,,,,,,,,,,,,,,,,,,,,,,,,,,,,,,,,,,,,,-3.795535974404629e-08,2.3213431177282473e-08,-5.619997622829942e-08,0.0,8.024368980841246e-06,9.901932571665384e-06,-0.00016841181786730886,-0.00016800311277620494,-8.770761894538737e-12,-7.37188088351104e-11,-1.4377388168895777e-11,0.0,7.748646169147833e-08,7.084315711836098e-08,0.00018356759392190725,0.00018314868793822825,,,,,,,,,,,,,,,,,,,,,,,,,,,,,,,,,,,,,,,,,,,,,,,,,,,,,,,,,,,,,,,,,,,,,,,,,,
64,2.47468638420105,0.6077569127082825,1.5726906061172485,0.3874381548166275,0.0,-3.141594284770897,-1.968291826415225e-06,0.5000334978103638,0.500033438205719,0.6108640432357788,1.5707966089248657,0.3899990311264992,0.0,-3.141592675445488,-8.594478018153495e-09,0.5000301599502563,0.5000301003456116,,,,,,,,,,,,,,,,,,,,,,,,,,,,,,,,,,,,,,,,,,,,,,,,,,,,,,,,,,,,,,,,,,,,,,,,,,,,,,,,,,,,,,,,,,,,,,,,,,,,,,,,,,,,,,,,,,,,,,,,,,,,,,,,,,,,,,-3.795535974404629e-08,2.3213431177282473e-08,-5.619997622829942e-08,0.0,8.024368980841246e-06,9.901932571665384e-06,-0.00016841181786730886,-0.00016800311277620494,-7.605027718682322e-12,-5.850875339774575e-11,-1.1823875212257917e-11,0.0,6.133443974931652e-08,5.613153675199101e-08,0.0001517690543550998,0.0001514371542725712,,,,,,,,,,,,,,,,,,,,,,,,,,,,,,,,,,,,,,,,,,,,,,,,,,,,,,,,,,,,,,,,,,,,,,,,,,
65,2.495823621749878,0.6077569127082825,1.5726906061172485,0.3874381548166275,0.0,-3.141593986747673,-1.6437251133538666e-06,0.5000279545783997,0.5000278949737549,0.6108640432357788,1.5707966089248657,0.3899990311264992,0.0,-3.141592675445488,-8.594478018153495e-09,0.5000301599502563,0.5000301003456116,,,,,,,,,,,,,,,,,,,,,,,,,,,,,,,,,,,,,,,,,,,,,,,,,,,,,,,,,,,,,,,,,,,,,,,,,,,,,,,,,,,,,,,,,,,,,,,,,,,,,,,,,,,,,,,,,,,,,,,,,,,,,,,,,,,,,,-3.1699364910764416e-08,1.9392155437003566e-08,-4.69206753450635e-08,0.0,6.701529855490662e-06,8.269126738014165e-06,-0.00014063715934753418,-0.0001403131609549746,-7.605027718682322e-12,-5.850875339774575e-11,-1.1823875212257917e-11,0.0,6.133443974931652e-08,5.613153675199101e-08,0.0001517690543550998,0.0001514371542725712,,,,,,,,,,,,,,,,,,,,,,,,,,,,,,,,,,,,,,,,,,,,,,,,,,,,,,,,,,,,,,,,,,,,,,,,,,
66,2.5165159702301025,0.6077569127082825,1.5726906061172485,0.3874381548166275,0.0,-3.141593986747673,-1.6437251133538666e-06,0.5000279545783997,0.5000278949737549,0.6108640432357788,1.5707966089248657,0.3899990311264992,0.0,-3.141592675445488,-6.704679478275466e-09,0.5000249147415161,0.5000249147415161,,,,,,,,,,,,,,,,,,,,,,,,,,,,,,,,,,,,,,,,,,,,,,,,,,,,,,,,,,,,,,,,,,,,,,,,,,,,,,,,,,,,,,,,,,,,,,,,,,,,,,,,,,,,,,,,,,,,,,,,,,,,,,,,,,,,,,-3.1699364910764416e-08,1.9392155437003566e-08,-4.69206753450635e-08,0.0,6.701529855490662e-06,8.269126738014165e-06,-0.00014063715934753418,-0.0001403131609549746,-6.5503158452884236e-12,-4.651834473179406e-11,-9.728329253277934e-12,0.0,4.8452463374815125e-08,4.4390720432829767e-08,0.0001254788221558556,0.00012521636381279677,,,,,,,,,,,,,,,,,,,,,,,,,,,,,,,,,,,,,,,,,,,,,,,,,,,,,,,,,,,,,,,,,,,,,,,,,,
67,2.537447690963745,0.6077569127082825,1.5726906061172485,0.3874381548166275,0.0,-3.141593807933739,-1.3726786391998758e-06,0.500023365020752,0.5000233054161072,0.6108640432357788,1.5707966089248657,0.3899990311264992,0.0,-3.141592675445488,-6.704679478275466e-09,0.5000249147415161,0.5000249147415161,,,,,,,,,,,,,,,,,,,,,,,,,,,,,,,,,,,,,,,,,,,,,,,,,,,,,,,,,,,,,,,,,,,,,,,,,,,,,,,,,,,,,,,,,,,,,,,,,,,,,,,,,,,,,,,,,,,,,,,,,,,,,,,,,,,,,,-2.647465535687843e-08,1.6199930286120434e-08,-3.91734822358103e-08,0.0,5.596764822257683e-06,6.9055672611284535e-06,-0.00011744312359951437,-0.0001171870026155375,-6.5503158452884236e-12,-4.651834473179406e-11,-9.728329253277934e-12,0.0,4.8452463374815125e-08,4.4390720432829767e-08,0.0001254788221558556,0.00012521636381279677,,,,,,,,,,,,,,,,,,,,,,,,,,,,,,,,,,,,,,,,,,,,,,,,,,,,,,,,,,,,,,,,,,,,,,,,,,
68,2.558079242706299,0.6077569127082825,1.5726906061172485,0.3874381548166275,0.0,-3.1415936291198046,-1.1463271221145988e-06,0.5000194907188416,0.5000194907188416,0.6108640432357788,1.5707966089248657,0.3899990311264992,0.0,-3.141592675445488,-5.281770132370411e-09,0.5000208020210266,0.5000208020210266,,,,,,,,,,,,,,,,,,,,,,,,,,,,,,,,,,,,,,,,,,,,,,,,,,,,,,,,,,,,,,,,,,,,,,,,,,,,,,,,,,,,,,,,,,,,,,,,,,,,,,,,,,,,,,,,,,,,,,,,,,,,,,,,,,,,,,-2.211092464676767e-08,1.353284151406342e-08,-3.270542237032714e-08,0.0,4.674122919823276e-06,5.7668553381517995e-06,-9.807426977204159e-05,-9.787245653569698e-05,-5.773159728050814e-12,-3.7414515929867775e-11,-8.11156697366755e-12,0.0,3.867739550855731e-08,3.5474247539468706e-08,0.00010478658805368468,0.00010457685129949823,,,,,,,,,,,,,,,,,,,,,,,,,,,,,,,,,,,,,,,,,,,,,,,,,,,,,,,,,,,,,,,,,,,,,,,,,,
69,2.5791664123535156,0.6077569127082825,1.5726906061172485,0.3874381548166275,0.0,-3.14159356951516,-1.1349081887601642e-06,0.5000193119049072,0.5000192523002625,0.6108640432357788,1.5707966089248657,0.3899990311264992,0.0,-3.141592675445488,-4.202406422848526e-09,0.5000175833702087,0.500017523765564,,,,,,,,,,,,,,,,,,,,,,,,,,,,,,,,,,,,,,,,,,,,,,,,,,,,,,,,,,,,,,,,,,,,,,,,,,,,,,,,,,,,,,,,,,,,,,,,,,,,,,,,,,,,,,,,,,,,,,,,,,,,,,,,,,,,,,-2.189060133162002e-08,1.3398393505781314e-08,-3.2379222858480716e-08,0.0,4.627576799975941e-06,5.709410288545769e-06,-9.70971814240329e-05,-9.68980384641327e-05,-4.829470157119431e-12,-2.9976021664879227e-11,-6.7931771319251766e-12,0.0,3.120132063827441e-08,2.865095005688545e-08,8.838711801217869e-05,8.821774099487811e-05,,,,,,,,,,,,,,,,,,,,,,,,,,,,,,,,,,,,,,,,,,,,,,,,,,,,,,,,,,,,,,,,,,,,,,,,,,
70,2.6005747318267822,0.6077569127082825,1.5726906061172485,0.3874381548166275,0.0,-3.1415934503058702,-9.383235806126322e-07,0.5000159740447998,0.500015914440155,0.6108640432357788,1.5707966089248657,0.3899990311264992,0.0,-3.141592675445488,-4.1458236843539e-09,0.5000174045562744,0.5000173449516296,,,,,,,,,,,,,,,,,,,,,,,,,,,,,,,,,,,,,,,,,,,,,,,,,,,,,,,,,,,,,,,,,,,,,,,,,,,,,,,,,,,,,,,,,,,,,,,,,,,,,,,,,,,,,,,,,,,,,,,,,,,,,,,,,,,,,,-1.8100410059673777e-08,1.1081358053388612e-08,-2.6763348870417758e-08,0.0,3.8262223824858665e-06,4.720447122963378e-06,-8.027598960325122e-05,-8.012176840566099e-05,-4.829470157119431e-12,-2.986499936241671e-11,-6.716849298982197e-12,0.0,3.0807857598347255e-08,2.829128931125524e-08,8.75066252774559e-05,8.733937283977866e-05,,,,,,,,,,,,,,,,,,,,,,,,,,,,,,,,,,,,,,,,,,,,,,,,,,,,,,,,,,,,,,,,,,,,,,,,,,
71,2.6222524642944336,0.6077569127082825,1.5726906061172485,0.3874381548166275,0.0,-3.1415934503058702,-9.383235806126322e-07,0.5000159740447998,0.500015914440155,0.6108640432357788,1.5707966089248657,0.3899990311264992,0.0,-3.141592675445488,-3.285917316020459e-09,0.5000146627426147,0.5000146627426147,,,,,,,,,,,,,,,,,,,,,,,,,,,,,,,,,,,,,,,,,,,,,,,,,,,,,,,,,,,,,,,,,,,,,,,,,,,,,,,,,,,,,,,,,,,,,,,,,,,,,,,,,,,,,,,,,,,,,,,,,,,,,,,,,,,,,,-1.8100410059673777e-08,1.1081358053388612e-08,-2.6763348870417758e-08,0.0,3.8262223824858665e-06,4.720447122963378e-06,-8.027598960325122e-05,-8.012176840566099e-05,-4.163336342344337e-12,-2.4202861936828413e-11,-5.648259637780484e-12,0.0,2.4798440634299368e-08,2.280198430071323e-08,7.38115340936929e-05,7.367673970293254e-05,,,,,,,,,,,,,,,,,,,,,,,,,,,,,,,,,,,,,,,,,,,,,,,,,,,,,,,,,,,,,,,,,,,,,,,,,,
72,2.6439051628112793,0.6077569127082825,1.5726906061172485,0.3874381548166275,0.0,-3.1415933310965807,-7.757906246297352e-07,0.5000131726264954,0.5000131726264954,0.6108640432357788,1.5707966089248657,0.3899990311264992,0.0,-3.141592675445488,-3.285917316020459e-09,0.5000146627426147,0.5000146627426147,,,,,,,,,,,,,,,,,,,,,,,,,,,,,,,,,,,,,,,,,,,,,,,,,,,,,,,,,,,,,,,,,,,,,,,,,,,,,,,,,,,,,,,,,,,,,,,,,,,,,,,,,,,,,,,,,,,,,,,,,,,,,,,,,,,,,,-1.4966527572823907e-08,9.165113112885592e-09,-2.2121456666468475e-08,0.0,3.1636386665923055e-06,3.902788648701971e-06,-6.636891339439899e-05,-6.625002424698323e-05,-4.163336342344337e-12,-2.4202861936828413e-11,-5.648259637780484e-12,0.0,2.4798440634299368e-08,2.280198430071323e-08,7.38115340936929e-05,7.367673970293254e-05,,,,,,,,,,,,,,,,,,,,,,,,,,,,,,,,,,,,,,,,,,,,,,,,,,,,,,,,,,,,,,,,,,,,,,,,,,
73,2.666304588317871,0.6077569127082825,1.5726906061172485,0.3874381548166275,0.0,-3.1415933310965807,-7.757906246297352e-07,0.5000131726264954,0.5000131726264954,0.6108640432357788,1.5707966089248657,0.3899990311264992,0.0,-3.141592675445488,-2.5936208736254684e-09,0.5000123977661133,0.5000123381614685,,,,,,,,,,,,,,,,,,,,,,,,,,,,,,,,,,,,,,,,,,,,,,,,,,,,,,,,,,,,,,,,,,,,,,,,,,,,,,,,,,,,,,,,,,,,,,,,,,,,,,,,,,,,,,,,,,,,,,,,,,,,,,,,,,,,,,-1.4966527572823907e-08,9.165113112885592e-09,-2.2121456666468475e-08,0.0,3.1636386665923055e-06,3.902788648701971e-06,-6.636891339439899e-05,-6.625002424698323e-05,-3.6082248300317588e-12,-1.965094753586527e-11,-4.7531423241764514e-12,0.0,1.9914569548973304e-08,1.8337930285383663e-08,6.225977267604321e-05,6.215137545950711e-05,,,,,,,,,,,,,,,,,,,,,,,,,,,,,,,,,,,,,,,,,,,,,,,,,,,,,,,,,,,,,,,,,,,,,,,,,,
74,2.6875593662261963,0.6077569127082825,1.5726906061172485,0.3874381473660469,0.0,-3.141593211887291,-6.478645104834868e-07,0.5000110268592834,0.5000110268592834,0.6108640432357788,1.5707966089248657,0.3899990311264992,0.0,-3.141592675445488,-1.979823638365019e-09,0.5000102519989014,0.5000101923942566,,,,,,,,,,,,,,,,,,,,,,,,,,,,,,,,,,,,,,,,,,,,,,,,,,,,,,,,,,,,,,,,,,,,,,,,,,,,,,,,,,,,,,,,,,,,,,,,,,,,,,,,,,,,,,,,,,,,,,,,,,,,,,,,,,,,,,-1.2499556945044787e-08,7.656320022420005e-09,-1.8468927720505235e-08,0.0,2.6421041638968745e-06,3.259227923990693e-06,-5.542327926377766e-05,-5.533081275643781e-05,-3.164135620181696e-12,-1.532107773982716e-11,-3.927413949611491e-12,0.0,1.5538903497258616e-08,1.4333656928045002e-08,5.147480987943709e-05,5.139008499099873e-05,,,,,,,,,,,,,,,,,,,,,,,,,,,,,,,,,,,,,,,,,,,,,,,,,,,,,,,,,,,,,,,,,,,,,,,,,,
75,2.7086181640625,0.6077569127082825,1.5726906061172485,0.3874381473660469,0.0,-3.1415930926780016,-5.410331596067408e-07,0.5000091791152954,0.5000091791152954,0.6108640432357788,1.5707966089248657,0.3899990311264992,0.0,-3.141592675445488,-1.979823638365019e-09,0.5000102519989014,0.5000101923942566,,,,,,,,,,,,,,,,,,,,,,,,,,,,,,,,,,,,,,,,,,,,,,,,,,,,,,,,,,,,,,,,,,,,,,,,,,,,,,,,,,,,,,,,,,,,,,,,,,,,,,,,,,,,,,,,,,,,,,,,,,,,,,,,,,,,,,-1.0439427100550347e-08,6.395772800260602e-09,-1.5419479026945737e-08,0.0,2.206546014349442e-06,2.721788632698008e-06,-4.628281021723524e-05,-4.6211287553887814e-05,-3.164135620181696e-12,-1.532107773982716e-11,-3.927413949611491e-12,0.0,1.5538903497258616e-08,1.4333656928045002e-08,5.147480987943709e-05,5.139008499099873e-05,,,,,,,,,,,,,,,,,,,,,,,,,,,,,,,,,,,,,,,,,,,,,,,,,,,,,,,,,,,,,,,,,,,,,,,,,,
76,2.729583263397217,0.6077569127082825,1.5726906061172485,0.3874381473660469,0.0,-3.1415930926780016,-5.410331596067408e-07,0.5000091791152954,0.5000091791152954,0.6108640432357788,1.5707966089248657,0.3899990311264992,0.0,-3.141592675445488,-1.5008490006351849e-09,0.5000084638595581,0.5000084638595581,,,,,,,,,,,,,,,,,,,,,,,,,,,,,,,,,,,,,,,,,,,,,,,,,,,,,,,,,,,,,,,,,,,,,,,,,,,,,,,,,,,,,,,,,,,,,,,,,,,,,,,,,,,,,,,,,,,,,,,,,,,,,,,,,,,,,,-1.0439427100550347e-08,6.395772800260602e-09,-1.5419479026945737e-08,0.0,2.206546014349442e-06,2.721788632698008e-06,-4.628281021723524e-05,-4.6211287553887814e-05,-2.6645352591003757e-12,-1.199040866595169e-11,-3.191891195797325e-12,0.0,1.2081391886908932e-08,1.1166453539601662e-08,4.2558072891552e-05,4.249207268003374e-05,,,,,,,,,,,,,,,,,,,,,,,,,,,,,,,,,,,,,,,,,,,,,,,,,,,,,,,,,,,,,,,,,,,,,,,,,,
77,2.751147985458374,0.6077569127082825,1.5726906061172485,0.3874381473660469,0.0,-3.141593033073357,-4.4731737602887733e-07,0.5000076293945312,0.5000075697898865,0.6108640432357788,1.5707966089248657,0.3899990311264992,0.0,-3.141592675445488,-1.5008490006351849e-09,0.5000084638595581,0.5000084638595581,,,,,,,,,,,,,,,,,,,,,,,,,,,,,,,,,,,,,,,,,,,,,,,,,,,,,,,,,,,,,,,,,,,,,,,,,,,,,,,,,,,,,,,,,,,,,,,,,,,,,,,,,,,,,,,,,,,,,,,,,,,,,,,,,,,,,,-8.631984016460592e-09,5.289879645431483e-09,-1.2745096533706146e-08,0.0,1.824440687414608e-06,2.250330226161168e-06,-3.826474130619317e-05,-3.8210575439734384e-05,-2.6645352591003757e-12,-1.199040866595169e-11,-3.191891195797325e-12,0.0,1.2081391886908932e-08,1.1166453539601662e-08,4.2558072891552e-05,4.249207268003374e-05,,,,,,,,,,,,,,,,,,,,,,,,,,,,,,,,,,,,,,,,,,,,,,,,,,,,,,,,,,,,,,,,,,,,,,,,,,
78,2.772757053375244,0.6077569127082825,1.5726906061172485,0.3874381473660469,0.0,-3.141593033073357,-4.4731737602887733e-07,0.5000076293945312,0.5000075697898865,0.6108640432357788,1.5707966089248657,0.3899990311264992,0.0,-3.141592675445488,-1.1457392812275202e-09,0.5000070929527283,0.5000070333480835,,,,,,,,,,,,,,,,,,,,,,,,,,,,,,,,,,,,,,,,,,,,,,,,,,,,,,,,,,,,,,,,,,,,,,,,,,,,,,,,,,,,,,,,,,,,,,,,,,,,,,,,,,,,,,,,,,,,,,,,,,,,,,,,,,,,,,-8.631984016460592e-09,5.289879645431483e-09,-1.2745096533706146e-08,0.0,1.824440687414608e-06,2.250330226161168e-06,-3.826474130619317e-05,-3.8210575439734384e-05,-2.1094237467877974e-12,-9.325873406851315e-12,-2.6575963651964685e-12,0.0,9.483803076193453e-09,8.783598737238663e-09,3.553998249117285e-05,3.548806853359565e-05,,,,,,,,,,,,,,,,,,,,,,,,,,,,,,,,,,,,,,,,,,,,,,,,,,,,,,,,,,,,,,,,,,,,,,,,,,
79,2.794269323348999,0.6077569127082825,1.5726906061172485,0.3874381473660469,0.0,-3.141592973468712,-3.773142793761508e-07,0.5000064373016357,0.5000064373016357,0.6108640432357788,1.5707966089248657,0.3899990311264992,0.0,-3.141592675445488,-1.1457392812275202e-09,0.5000070929527283,0.5000070333480835,,,,,,,,,,,,,,,,,,,,,,,,,,,,,,,,,,,,,,,,,,,,,,,,,,,,,,,,,,,,,,,,,,,,,,,,,,,,,,,,,,,,,,,,,,,,,,,,,,,,,,,,,,,,,,,,,,,,,,,,,,,,,,,,,,,,,,-7.281619751609014e-09,4.463540648202979e-09,-1.0747985612624689e-08,0.0,1.539001686978736e-06,1.898164100566646e-06,-3.227563138352707e-05,-3.223369276383892e-05,-2.1094237467877974e-12,-9.325873406851315e-12,-2.6575963651964685e-12,0.0,9.483803076193453e-09,8.783598737238663e-09,3.553998249117285e-05,3.548806853359565e-05,,,,,,,,,,,,,,,,,,,,,,,,,,,,,,,,,,,,,,,,,,,,,,,,,,,,,,,,,,,,,,,,,,,,,,,,,,
80,2.8163034915924072,0.6077569127082825,1.5726906061172485,0.3874381473660469,0.0,-3.1415929138640672,-3.150960310449591e-07,0.5000053644180298,0.5000053644180298,0.6108640432357788,1.5707966089248657,0.3899990311264992,0.0,-3.141592675445488,-8.533544426647666e-10,0.500005841255188,0.500005841255188,,,,,,,,,,,,,,,,,,,,,,,,,,,,,,,,,,,,,,,,,,,,,,,,,,,,,,,,,,,,,,,,,,,,,,,,,,,,,,,,,,,,,,,,,,,,,,,,,,,,,,,,,,,,,,,,,,,,,,,,,,,,,,,,,,,,,,-6.0813576396867575e-09,3.728795050506051e-09,-8.973328746719744e-09,0.0,1.2852937061325065e-06,1.5851612715778174e-06,-2.6952699045068584e-05,-2.6920990421785973e-05,-1.5543122344752192e-12,-7.2164496600635175e-12,-2.220446049250313e-12,0.0,7.31187332903005e-09,6.789657280847905e-09,2.93835619231686e-05,2.9343435016926378e-05,,,,,,,,,,,,,,,,,,,,,,,,,,,,,,,,,,,,,,,,,,,,,,,,,,,,,,,,,,,,,,,,,,,,,,,,,,
81,2.837390184402466,0.6077569127082825,1.5726906061172485,0.3874381473660469,0.0,-3.1415929138640672,-3.150960310449591e-07,0.5000053644180298,0.5000053644180298,0.6102632880210876,1.570870041847229,0.39001486361026766,0.0,-3.141586297748497,9.962361218640581e-05,0.499985933303833,0.5000334978103638,,,,,,,,,,,,,,,,,,,,,,,,,,,,,,,,,,,,,,,,,,,,,,,,,,,,,,,,,,,,,,,,,,,,,,,,,,,,,,,,,,,,,,,,,,,,,,,,,,,,,,,,,,,,,,,,,,,,,,,,,,,,,,,,,,,,,,-6.0813576396867575e-09,3.728795050506051e-09,-8.973328746719744e-09,0.0,1.2852937061325065e-06,1.5851612715778174e-06,-2.6952699045068584e-05,-2.6920990421785973e-05,-0.011475023813545704,0.003155479906126857,-0.0018809655448421836,0.0,0.0011499169049784541,-0.024233167991042137,-0.007809366565197706,0.00250407587736845,,,,,,,,,,,,,,,,,,,,,,,,,,,,,,,,,,,,,,,,,,,,,,,,,,,,,,,,,,,,,,,,,,,,,,,,,,
82,2.8584506511688232,0.6077569127082825,1.5726906061172485,0.3874381473660469,0.0,-3.1415929138640672,-2.6313739454053575e-07,0.5000044703483582,0.5000044703483582,0.6102632880210876,1.570870041847229,0.39001486361026766,0.0,-3.141586297748497,9.962361218640581e-05,0.499985933303833,0.5000334978103638,,,,,,,,,,,,,,,,,,,,,,,,,,,,,,,,,,,,,,,,,,,,,,,,,,,,,,,,,,,,,,,,,,,,,,,,,,,,,,,,,,,,,,,,,,,,,,,,,,,,,,,,,,,,,,,,,,,,,,,,,,,,,,,,,,,,,,-5.078881759601472e-09,3.1147306955858767e-09,-7.491722797681177e-09,0.0,1.0734096349551692e-06,1.3237716984804138e-06,-2.2507631001644768e-05,-2.2483918655780144e-05,-0.011475023813545704,0.003155479906126857,-0.0018809655448421836,0.0,0.0011499169049784541,-0.024233167991042137,-0.007809366565197706,0.00250407587736845,,,,,,,,,,,,,,,,,,,,,,,,,,,,,,,,,,,,,,,,,,,,,,,,,,,,,,,,,,,,,,,,,,,,,,,,,,
83,2.8803443908691406,0.6077569127082825,1.5726906061172485,0.3874381473660469,0.0,-3.1415929138640672,-2.6313739454053575e-07,0.5000044703483582,0.5000044703483582,0.6090602874755859,1.570953130722046,0.39004900217056276,0.0,-3.1415936887244493,0.00022451794939115644,0.4999564588069916,0.5000414252281189,,,,,,,,,,,,,,,,,,,,,,,,,,,,,,,,,,,,,,,,,,,,,,,,,,,,,,,,,,,,,,,,,,,,,,,,,,,,,,,,,,,,,,,,,,,,,,,,,,,,,,,,,,,,,,,,,,,,,,,,,,,,,,,,,,,,,,-5.078881759601472e-09,3.1147306955858767e-09,-7.491722797681177e-09,0.0,1.0734096349551692e-06,1.3237716984804138e-06,-2.2507631001644768e-05,-2.2483918655780144e-05,-0.10208535939455032,0.011451730504631996,0.0024043074809014797,0.0,-0.004008346702903509,0.04275454953312874,0.007703981827944517,0.004531873855739832,,,,,,,,,,,,,,,,,,,,,,,,,,,,,,,,,,,,,,,,,,,,,,,,,,,,,,,,,,,,,,,,,,,,,,,,,,
84,2.901897668838501,0.6077569127082825,1.5726906061172485,0.3874381473660469,0.0,-3.1415928542594225,-2.2195762028331956e-07,0.5000037550926208,0.5000037550926208,0.6090602874755859,1.570953130722046,0.39004900217056276,0.0,-3.1415936887244493,0.00022451794939115644,0.4999564588069916,0.5000414252281189,,,,,,,,,,,,,,,,,,,,,,,,,,,,,,,,,,,,,,,,,,,,,,,,,,,,,,,,,,,,,,,,,,,,,,,,,,,,,,,,,,,,,,,,,,,,,,,,,,,,,,,,,,,,,,,,,,,,,,,,,,,,,,,,,,,,,,-4.284628207784635e-09,2.6283419884975956e-09,-6.3178213771664105e-09,0.0,9.054719498635677e-07,1.1166076774316025e-06,-1.8984788766829297e-05,-1.8966993593494408e-05,-0.10208535939455032,0.011451730504631996,0.0024043074809014797,0.0,-0.004008346702903509,0.04275454953312874,0.007703981827944517,0.004531873855739832,,,,,,,,,,,,,,,,,,,,,,,,,,,,,,,,,,,,,,,,,,,,,,,,,,,,,,,,,,,,,,,,,,,,,,,,,,
85,2.923928737640381,0.6077569127082825,1.5726906061172485,0.3874381473660469,0.0,-3.1415928542594225,-1.8535732237978664e-07,0.5000031590461731,0.5000031590461731,0.6080931425094604,1.5709335803985596,0.3900779476761818,0.0,-3.1415885627249986,0.00012834764493163675,0.4999697506427765,0.500058114528656,,,,,,,,,,,,,,,,,,,,,,,,,,,,,,,,,,,,,,,,,,,,,,,,,,,,,,,,,,,,,,,,,,,,,,,,,,,,,,,,,,,,,,,,,,,,,,,,,,,,,,,,,,,,,,,,,,,,,,,,,,,,,,,,,,,,,,-3.5784153418205733e-09,2.195688075801172e-09,-5.274600312077382e-09,0.0,7.562025530205574e-07,9.324815550826315e-07,-1.585379686730448e-05,-1.5840885680518113e-05,-0.01804131641983986,0.0031767545733600855,-0.0018366965232416987,0.0,0.0001635799853829667,-0.02454800345003605,-0.011298293247818947,0.006756204646080732,,,,,,,,,,,,,,,,,,,,,,,,,,,,,,,,,,,,,,,,,,,,,,,,,,,,,,,,,,,,,,,,,,,,,,,,,,
86,2.9455230236053467,0.6077569127082825,1.5726906061172485,0.3874381473660469,0.0,-3.1415928542594225,-1.8535732237978664e-07,0.5000031590461731,0.5000031590461731,0.607724666595459,1.5709359645843506,0.3900898909568787,0.0,-3.1415918409804613,3.342003037687391e-05,0.4999946653842926,0.5000117421150208,,,,,,,,,,,,,,,,,,,,,,,,,,,,,,,,,,,,,,,,,,,,,,,,,,,,,,,,,,,,,,,,,,,,,,,,,,,,,,,,,,,,,,,,,,,,,,,,,,,,,,,,,,,,,,,,,,,,,,,,,,,,,,,,,,,,,,-3.5784153418205733e-09,2.195688075801172e-09,-5.274600312077382e-09,0.0,7.562025530205574e-07,9.324815550826315e-07,-1.585379686730448e-05,-1.5840885680518113e-05,-0.007701235357671976,0.00024362813564948738,0.00021261889196466655,0.0,-1.2890534890175331e-05,0.00010717318946262822,-4.8269692342728376e-05,2.5146297048195265e-05,,,,,,,,,,,,,,,,,,,,,,,,,,,,,,,,,,,,,,,,,,,,,,,,,,,,,,,,,,,,,,,,,,,,,,,,,,
87,2.9681522846221924,0.6077569127082825,1.5726906061172485,0.3874381473660469,0.0,-3.1415927946547777,-1.5479231763038115e-07,0.5000026226043701,0.5000026226043701,0.6077094078063965,1.5709364414215088,0.3900903156399727,0.0,-3.141591900585106,3.339153772685677e-05,0.499994695186615,0.5000116229057312,,,,,,,,,,,,,,,,,,,,,,,,,,,,,,,,,,,,,,,,,,,,,,,,,,,,,,,,,,,,,,,,,,,,,,,,,,,,,,,,,,,,,,,,,,,,,,,,,,,,,,,,,,,,,,,,,,,,,,,,,,,,,,,,,,,,,,-2.98866487113969e-09,1.8343104812856836e-09,-4.4036996271756834e-09,0.0,6.315405016721343e-07,7.78717605953716e-07,-1.3239170584711246e-05,-1.3230016520537902e-05,-0.00763628538697958,0.0002407887513982132,0.00021162134362384677,0.0,-1.5267942217178643e-05,-1.4246375940274447e-05,-7.4526856224110816e-06,5.450008757179603e-05,,,,,,,,,,,,,,,,,,,,,,,,,,,,,,,,,,,,,,,,,,,,,,,,,,,,,,,,,,,,,,,,,,,,,,,,,,
88,2.990691900253296,0.6077569127082825,1.5726906061172485,0.3874381473660469,0.0,-3.1415927946547777,-1.5479231763038115e-07,0.5000026226043701,0.5000026226043701,0.6074588298797607,1.5709441900253296,0.3900975650548935,0.0,-3.1415920197943956,2.8229485906194896e-05,0.49999552965164185,0.5000101327896118,,,,,,,,,,,,,,,,,,,,,,,,,,,,,,,,,,,,,,,,,,,,,,,,,,,,,,,,,,,,,,,,,,,,,,,,,,,,,,,,,,,,,,,,,,,,,,,,,,,,,,,,,,,,,,,,,,,,,,,,,,,,,,,,,,,,,,-2.98866487113969e-09,1.8343104812856836e-09,-4.4036996271756834e-09,0.0,6.315405016721343e-07,7.78717605953716e-07,-1.3239170584711246e-05,-1.3230016520537902e-05,-0.0063882675021886826,0.00019518878252711147,0.00018431071657687426,0.0,-3.432009179960005e-06,-0.00015561794862151146,-2.5876919607981108e-05,5.3770829254062846e-05,,,,,,,,,,,,,,,,,,,,,,,,,,,,,,,,,,,,,,,,,,,,,,,,,,,,,,,,,,,,,,,,,,,,,,,,,,
89,3.011782646179199,0.6077569127082825,1.5726906061172485,0.3874381473660469,0.0,-3.1415927946547777,-1.2797976012279833e-07,0.5000021457672119,0.5000022053718567,0.6074588298797607,1.5709441900253296,0.3900975650548935,0.0,-3.1415920197943956,2.8229485906194896e-05,0.49999552965164185,0.5000101327896118,,,,,,,,,,,,,,,,,,,,,,,,,,,,,,,,,,,,,,,,,,,,,,,,,,,,,,,,,,,,,,,,,,,,,,,,,,,,,,,,,,,,,,,,,,,,,,,,,,,,,,,,,,,,,,,,,,,,,,,,,,,,,,,,,,,,,,-2.471078897059442e-09,1.517008740847814e-09,-3.639963441770533e-09,0.0,5.221770607022336e-07,6.438310151679616e-07,-1.0945606845780276e-05,-1.093945866159629e-05,-0.0063882675021886826,0.00019518878252711147,0.00018431071657687426,0.0,-3.432009179960005e-06,-0.00015561794862151146,-2.5876919607981108e-05,5.3770829254062846e-05,,,,,,,,,,,,,,,,,,,,,,,,,,,,,,,,,,,,,,,,,,,,,,,,,,,,,,,,,,,,,,,,,,,,,,,,,,
90,3.032684564590454,0.6077569127082825,1.5726906061172485,0.3874381473660469,0.0,-3.141592735050133,-1.0687618612337246e-07,0.5000017881393433,0.5000017881393433,0.60724937915802,1.5709505081176758,0.390103600025177,0.0,-3.141592139003685,2.317666803719476e-05,0.4999963641166687,0.5000083446502686,,,,,,,,,,,,,,,,,,,,,,,,,,,,,,,,,,,,,,,,,,,,,,,,,,,,,,,,,,,,,,,,,,,,,,,,,,,,,,,,,,,,,,,,,,,,,,,,,,,,,,,,,,,,,,,,,,,,,,,,,,,,,,,,,,,,,,-2.0636270470220097e-09,1.2672085603071537e-09,-3.0389788463480727e-09,0.0,4.36094779843188e-07,5.376646186050493e-07,-9.140445399680175e-06,-9.136435437540058e-06,-0.0053358618170022964,0.0001630179031053558,0.00015383718709927052,0.0,-3.0021283237147145e-06,-0.00012754234194289893,-2.0996923922211863e-05,4.512592204264365e-05,,,,,,,,,,,,,,,,,,,,,,,,,,,,,,,,,,,,,,,,,,,,,,,,,,,,,,,,,,,,,,,,,,,,,,,,,,
91,3.0537970066070557,0.6077569127082825,1.5726906061172485,0.3874381473660469,0.0,-3.141592735050133,-1.0581157283695575e-07,0.5000017881393433,0.5000017881393433,0.6070833802223206,1.5709556341171265,0.39010839074850084,0.0,-3.14159219860833,1.9240216715843417e-05,0.49999698996543884,0.5000069737434387,,,,,,,,,,,,,,,,,,,,,,,,,,,,,,,,,,,,,,,,,,,,,,,,,,,,,,,,,,,,,,,,,,,,,,,,,,,,,,,,,,,,,,,,,,,,,,,,,,,,,,,,,,,,,,,,,,,,,,,,,,,,,,,,,,,,,,-2.0433654768226006e-09,1.2548850847338144e-09,-3.008565618856096e-09,0.0,4.31752255281026e-07,5.323090022102406e-07,-9.049381333170459e-06,-9.045472324942239e-06,-0.004501275718212128,0.00013758937711827457,0.00012973177945241332,0.0,-2.4821767965477193e-06,-0.00010596947686281055,-1.7326738088740967e-05,3.7646543205482885e-05,,,,,,,,,,,,,,,,,,,,,,,,,,,,,,,,,,,,,,,,,,,,,,,,,,,,,,,,,,,,,,,,,,,,,,,,,,
92,3.075166940689087,0.6077569127082825,1.5726906061172485,0.3874381473660469,0.0,-3.141592735050133,-8.748327928742583e-08,0.5000014901161194,0.5000014901161194,0.607074499130249,1.5709558725357056,0.39010864406824114,0.0,-3.1415922582129747,1.9030570911127143e-05,0.4999970495700836,0.500006914138794,,,,,,,,,,,,,,,,,,,,,,,,,,,,,,,,,,,,,,,,,,,,,,,,,,,,,,,,,,,,,,,,,,,,,,,,,,,,,,,,,,,,,,,,,,,,,,,,,,,,,,,,,,,,,,,,,,,,,,,,,,,,,,,,,,,,,,-1.689481887723332e-09,1.0377254611171338e-09,-2.4868163084335038e-09,0.0,3.5698576539289206e-07,4.401043440793728e-07,-7.481659395125462e-06,-7.479398846044205e-06,-0.004456462804228067,0.00013622369442600757,0.00012843772128690034,0.0,-2.455287358316127e-06,-0.00010482280049473047,-1.7131980712292716e-05,3.724556154338643e-05,,,,,,,,,,,,,,,,,,,,,,,,,,,,,,,,,,,,,,,,,,,,,,,,,,,,,,,,,,,,,,,,,,,,,,,,,,
93,3.0972609519958496,0.6077569127082825,1.5726906061172485,0.3874381473660469,0.0,-3.141592735050133,-8.748327928742583e-08,0.5000014901161194,0.5000014901161194,0.6069284081459045,1.5709604024887085,0.3901128536462784,0.0,-3.1415923178176195,1.562216129968874e-05,0.4999975860118866,0.5000056624412537,,,,,,,,,,,,,,,,,,,,,,,,,,,,,,,,,,,,,,,,,,,,,,,,,,,,,,,,,,,,,,,,,,,,,,,,,,,,,,,,,,,,,,,,,,,,,,,,,,,,,,,,,,,,,,,,,,,,,,,,,,,,,,,,,,,,,,-1.689481887723332e-09,1.0377254611171338e-09,-2.4868163084335038e-09,0.0,3.5698576539289206e-07,4.401043440793728e-07,-7.481659395125462e-06,-7.479398846044205e-06,-0.0037219864316284657,0.00011383362289052457,0.00010723196464823559,0.0,-2.016219923461904e-06,-8.617310231784359e-05,-1.3973847671877593e-05,3.0711085855728015e-05,,,,,,,,,,,,,,,,,,,,,,,,,,,,,,,,,,,,,,,,,,,,,,,,,,,,,,,,,,,,,,,,,,,,,,,,,,
94,3.1201186180114746,0.6077569127082825,1.5726906061172485,0.3874381473660469,0.0,-3.141592735050133,-7.232974041926354e-08,0.5000012516975403,0.5000012516975403,0.6069284081459045,1.5709604024887085,0.3901128536462784,0.0,-3.1415923178176195,1.562216129968874e-05,0.4999975860118866,0.5000056624412537,,,,,,,,,,,,,,,,,,,,,,,,,,,,,,,,,,,,,,,,,,,,,,,,,,,,,,,,,,,,,,,,,,,,,,,,,,,,,,,,,,,,,,,,,,,,,,,,,,,,,,,,,,,,,,,,,,,,,,,,,,,,,,,,,,,,,,-1.396882609583372e-09,8.58202398035246e-10,-2.0554737911737675e-09,0.0,2.951668989226164e-07,3.638711518760829e-07,-6.185530310176546e-06,-6.184464382386068e-06,-0.0037219864316284657,0.00011383362289052457,0.00010723196464823559,0.0,-2.016219923461904e-06,-8.617310231784359e-05,-1.3973847671877593e-05,3.0711085855728015e-05,,,,,,,,,,,,,,,,,,,,,,,,,,,,,,,,,,,,,,,,,,,,,,,,,,,,,,,,,,,,,,,,,,,,,,,,,,
95,3.141514539718628,0.6077569127082825,1.5726906061172485,0.3874381473660469,0.0,-3.141592735050133,-7.232974041926354e-08,0.5000012516975403,0.5000012516975403,0.6068063974380493,1.5709640979766846,0.39011637032032015,0.0,-3.1415923774222643,1.2820468327845447e-05,0.4999980330467224,0.5000046491622925,,,,,,,,,,,,,,,,,,,,,,,,,,,,,,,,,,,,,,,,,,,,,,,,,,,,,,,,,,,,,,,,,,,,,,,,,,,,,,,,,,,,,,,,,,,,,,,,,,,,,,,,,,,,,,,,,,,,,,,,,,,,,,,,,,,,,,-1.396882609583372e-09,8.58202398035246e-10,-2.0554737911737675e-09,0.0,2.951668989226164e-07,3.638711518760829e-07,-6.185530310176546e-06,-6.184464382386068e-06,-0.003108559874817729,9.512338874628767e-05,8.952733332989737e-05,0.0,-1.6551606449866085e-06,-7.082585216267034e-05,-1.1391733096388634e-05,2.5319499400211498e-05,,,,,,,,,,,,,,,,,,,,,,,,,,,,,,,,,,,,,,,,,,,,,,,,,,,,,,,,,,,,,,,,,,,,,,,,,,
96,3.162975311279297,0.6077569127082825,1.5726906061172485,0.3874381473660469,0.0,-3.141592735050133,-5.980104589298207e-08,0.5000010132789612,0.5000010132789612,0.6067044734954834,1.570967197418213,0.39011930584907534,0.0,-3.141592437026909,1.051803701557219e-05,0.49999842047691345,0.5000038743019104,,,,,,,,,,,,,,,,,,,,,,,,,,,,,,,,,,,,,,,,,,,,,,,,,,,,,,,,,,,,,,,,,,,,,,,,,,,,,,,,,,,,,,,,,,,,,,,,,,,,,,,,,,,,,,,,,,,,,,,,,,,,,,,,,,,,,,-1.1550205236687816e-09,7.096545573404001e-10,-1.6990298057351083e-09,0.0,2.440526145619515e-07,3.0084260060903034e-07,-5.113944098411594e-06,-5.11372672917787e-06,-0.0025962332729250193,7.948830170789734e-05,7.474579615518451e-05,0.0,-1.3585714668806759e-06,-5.819764919579029e-05,-9.281542588723823e-06,2.0872088498435915e-05,,,,,,,,,,,,,,,,,,,,,,,,,,,,,,,,,,,,,,,,,,,,,,,,,,,,,,,,,,,,,,,,,,,,,,,,,,
97,3.185558557510376,0.6077569127082825,1.5726906061172485,0.3874381473660469,0.0,-3.141592735050133,-4.993998814484257e-08,0.5000008344650269,0.5000008344650269,0.6067044734954834,1.570967197418213,0.39011930584907534,0.0,-3.141592437026909,1.051803701557219e-05,0.49999842047691345,0.5000038743019104,,,,,,,,,,,,,,,,,,,,,,,,,,,,,,,,,,,,,,,,,,,,,,,,,,,,,,,,,,,,,,,,,,,,,,,,,,,,,,,,,,,,,,,,,,,,,,,,,,,,,,,,,,,,,,,,,,,,,,,,,,,,,,,,,,,,,,-9.647282972480298e-10,5.927480728473711e-10,-1.4184486918367156e-09,0.0,2.0382012166919594e-07,2.51234610004758e-07,-4.270547378837364e-06,-4.270890258339932e-06,-0.0025962332729250193,7.948830170789734e-05,7.474579615518451e-05,0.0,-1.3585714668806759e-06,-5.819764919579029e-05,-9.281542588723823e-06,2.0872088498435915e-05,,,,,,,,,,,,,,,,,,,,,,,,,,,,,,,,,,,,,,,,,,,,,,,,,,,,,,,,,,,,,,,,,,,,,,,,,,
98,3.207608461380005,0.6077569127082825,1.5726906061172485,0.3874381473660469,0.0,-3.141592735050133,-4.993998814484257e-08,0.5000008344650269,0.5000008344650269,0.6066150665283203,1.5709699392318726,0.3901218762993813,0.0,-3.141592496631554,8.531796083843801e-06,0.49999871850013733,0.5000031590461731,,,,,,,,,,,,,,,,,,,,,,,,,,,,,,,,,,,,,,,,,,,,,,,,,,,,,,,,,,,,,,,,,,,,,,,,,,,,,,,,,,,,,,,,,,,,,,,,,,,,,,,,,,,,,,,,,,,,,,,,,,,,,,,,,,,,,,-9.647282972480298e-10,5.927480728473711e-10,-1.4184486918367156e-09,0.0,2.0382012166919594e-07,2.51234610004758e-07,-4.270547378837364e-06,-4.270890258339932e-06,-0.0021467567421495914,6.576364830834791e-05,6.178226612973958e-05,0.0,-1.1027503887817147e-06,-4.7289024223573506e-05,-7.471845947293332e-06,1.701994551694952e-05,,,,,,,,,,,,,,,,,,,,,,,,,,,,,,,,,,,,,,,,,,,,,,,,,,,,,,,,,,,,,,,,,,,,,,,,,,
99,3.2290329933166504,0.6077569127082825,1.5726906061172485,0.3874381473660469,0.0,-3.141592735050133,-4.1705000342062704e-08,0.5000007152557373,0.5000007152557373,0.6066150665283203,1.5709699392318726,0.3901218762993813,0.0,-3.141592496631554,8.531796083843801e-06,0.49999871850013733,0.5000031590461731,,,,,,,,,,,,,,,,,,,,,,,,,,,,,,,,,,,,,,,,,,,,,,,,,,,,,,,,,,,,,,,,,,,,,,,,,,,,,,,,,,,,,,,,,,,,,,,,,,,,,,,,,,,,,,,,,,,,,,,,,,,,,,,,,,,,,,-8.057998712729386e-10,4.954925358902074e-10,-1.1843096503483252e-09,0.0,1.7021989151544403e-07,2.0980641579626536e-07,-3.566243776731426e-06,-3.5669684166350635e-06,-0.0021467567421495914,6.576364830834791e-05,6.178226612973958e-05,0.0,-1.1027503887817147e-06,-4.7289024223573506e-05,-7.471845947293332e-06,1.701994551694952e-05,,,,,,,,,,,,,,,,,,,,,,,,,,,,,,,,,,,,,,,,,,,,,,,,,,,,,,,,,,,,,,,,,,,,,,,,,,
100,3.250242233276367,0.6077569127082825,1.5726906061172485,0.3874381473660469,0.0,-3.141592735050133,-4.1705000342062704e-08,0.5000007152557373,0.5000007152557373,0.6065411567687988,1.570972204208374,0.3901239997148514,0.0,-3.141592496631554,6.9181000981188845e-06,0.4999989867210388,0.5000025629997253,,,,,,,,,,,,,,,,,,,,,,,,,,,,,,,,,,,,,,,,,,,,,,,,,,,,,,,,,,,,,,,,,,,,,,,,,,,,,,,,,,,,,,,,,,,,,,,,,,,,,,,,,,,,,,,,,,,,,,,,,,,,,,,,,,,,,,-8.057998712729386e-10,4.954925358902074e-10,-1.1843096503483252e-09,0.0,1.7021989151544403e-07,2.0980641579626536e-07,-3.566243776731426e-06,-3.5669684166350635e-06,-0.0017750966362655163,5.4408639698522165e-05,5.106704338686541e-05,0.0,-8.948996992330649e-07,-3.8413709262385964e-05,-6.01077726969379e-06,1.3876684533897787e-05,,,,,,,,,,,,,,,,,,,,,,,,,,,,,,,,,,,,,,,,,,,,,,,,,,,,,,,,,,,,,,,,,,,,,,,,,,
101,3.2722837924957275,0.6077569127082825,1.5726906061172485,0.3874381473660469,0.0,-3.141592675445488,-3.482793786702132e-08,0.5000005960464478,0.5000005960464478,0.6065411567687988,1.570972204208374,0.3901239997148514,0.0,-3.141592496631554,6.9181000981188845e-06,0.4999989867210388,0.5000025629997253,,,,,,,,,,,,,,,,,,,,,,,,,,,,,,,,,,,,,,,,,,,,,,,,,,,,,,,,,,,,,,,,,,,,,,,,,,,,,,,,,,,,,,,,,,,,,,,,,,,,,,,,,,,,,,,,,,,,,,,,,,,,,,,,,,,,,,-6.729616863765386e-10,4.1400216588272087e-10,-9.887091145799332e-10,0.0,1.4215872568001942e-07,1.752096494556099e-07,-2.9780951535940403e-06,-2.9790667213092092e-06,-0.0017750966362655163,5.4408639698522165e-05,5.106704338686541e-05,0.0,-8.948996992330649e-07,-3.8413709262385964e-05,-6.01077726969379e-06,1.3876684533897787e-05,,,,,,,,,,,,,,,,,,,,,,,,,,,,,,,,,,,,,,,,,,,,,,,,,,,,,,,,,,,,,,,,,,,,,,,,,,
102,3.2936644554138184,0.6077569127082825,1.5726906061172485,0.3874381473660469,0.0,-3.141592675445488,-2.9084890940112018e-08,0.5000004768371582,0.5000004768371582,0.606480062007904,1.5709741115570068,0.3901257580518723,0.0,-3.1415925562361986,5.6074718486343045e-06,0.49999919533729553,0.5000020861625671,,,,,,,,,,,,,,,,,,,,,,,,,,,,,,,,,,,,,,,,,,,,,,,,,,,,,,,,,,,,,,,,,,,,,,,,,,,,,,,,,,,,,,,,,,,,,,,,,,,,,,,,,,,,,,,,,,,,,,,,,,,,,,,,,,,,,,-5.61939383914023e-10,3.453903829608862e-10,-8.254369410209961e-10,0.0,1.1872336358464963e-07,1.463181149574666e-07,-2.4869441404007375e-06,-2.4880614546418656e-06,-0.00146778067573905,4.5014174247626215e-05,4.221020208206028e-05,0.0,-7.260431971189973e-07,-3.1194471375783905e-05,-4.8318061089958064e-06,1.1312111382721923e-05,,,,,,,,,,,,,,,,,,,,,,,,,,,,,,,,,,,,,,,,,,,,,,,,,,,,,,,,,,,,,,,,,,,,,,,,,,
103,3.3150627613067627,0.6077569127082825,1.5726906061172485,0.3874381473660469,0.0,-3.141592675445488,-2.9084890940112018e-08,0.5000004768371582,0.5000004768371582,0.6064319610595703,1.5709755420684814,0.3901271438598633,0.0,-3.1415925562361986,4.593975972966291e-06,0.49999934434890747,0.5000017285346985,,,,,,,,,,,,,,,,,,,,,,,,,,,,,,,,,,,,,,,,,,,,,,,,,,,,,,,,,,,,,,,,,,,,,,,,,,,,,,,,,,,,,,,,,,,,,,,,,,,,,,,,,,,,,,,,,,,,,,,,,,,,,,,,,,,,,,-5.61939383914023e-10,3.453903829608862e-10,-8.254369410209961e-10,0.0,1.1872336358464963e-07,1.463181149574666e-07,-2.4869441404007375e-06,-2.4880614546418656e-06,-0.0012258733622729778,3.761515108635649e-05,3.524096973706037e-05,0.0,-5.954144057795929e-07,-2.5603436370147392e-05,-3.926104000129271e-06,9.319744094682392e-06,,,,,,,,,,,,,,,,,,,,,,,,,,,,,,,,,,,,,,,,,,,,,,,,,,,,,,,,,,,,,,,,,,,,,,,,,,
104,3.3359012603759766,0.6077569127082825,1.5726906061172485,0.3874381473660469,0.0,-3.141592675445488,-2.4046910240826946e-08,0.5000004172325134,0.5000004172325134,0.6064319610595703,1.5709755420684814,0.3901271438598633,0.0,-3.1415925562361986,4.593975972966291e-06,0.49999934434890747,0.5000017285346985,,,,,,,,,,,,,,,,,,,,,,,,,,,,,,,,,,,,,,,,,,,,,,,,,,,,,,,,,,,,,,,,,,,,,,,,,,,,,,,,,,,,,,,,,,,,,,,,,,,,,,,,,,,,,,,,,,,,,,,,,,,,,,,,,,,,,,-4.647948692593218e-10,2.858824288409778e-10,-6.82280620889486e-10,0.0,9.81642003239358e-08,1.2097335400085285e-07,-2.056103994618752e-06,-2.057294523183373e-06,-0.0012258733622729778,3.761515108635649e-05,3.524096973706037e-05,0.0,-5.954144057795929e-07,-2.5603436370147392e-05,-3.926104000129271e-06,9.319744094682392e-06,,,,,,,,,,,,,,,,,,,,,,,,,,,,,,,,,,,,,,,,,,,,,,,,,,,,,,,,,,,,,,,,,,,,,,,,,,
105,3.3575313091278076,0.6077569127082825,1.5726906061172485,0.3874381473660469,0.0,-3.141592675445488,-2.4046910240826946e-08,0.5000004172325134,0.5000004172325134,0.6063938140869141,1.570976734161377,0.39012823909521105,0.0,-3.1415926158408434,3.804274228969007e-06,0.499999463558197,0.5000014305114746,,,,,,,,,,,,,,,,,,,,,,,,,,,,,,,,,,,,,,,,,,,,,,,,,,,,,,,,,,,,,,,,,,,,,,,,,,,,,,,,,,,,,,,,,,,,,,,,,,,,,,,,,,,,,,,,,,,,,,,,,,,,,,,,,,,,,,-4.647948692593218e-10,2.858824288409778e-10,-6.82280620889486e-10,0.0,9.81642003239358e-08,1.2097335400085285e-07,-2.056103994618752e-06,-2.057294523183373e-06,-0.0010341305751353502,3.174742596456781e-05,2.9718856239924207e-05,0.0,-4.935771471537009e-07,-2.1240492060314864e-05,-3.2249436117126606e-06,7.760225344100036e-06,,,,,,,,,,,,,,,,,,,,,,,,,,,,,,,,,,,,,,,,,,,,,,,,,,,,,,,,,,,,,,,,,,,,,,,,,,
106,3.3789515495300293,0.6077569127082825,1.5726906061172485,0.3874381473660469,0.0,-3.141592675445488,-2.008162880429154e-08,0.5000003576278687,0.5000003576278687,0.6063938140869141,1.570976734161377,0.39012823909521105,0.0,-3.1415926158408434,3.804274228969007e-06,0.499999463558197,0.5000014305114746,,,,,,,,,,,,,,,,,,,,,,,,,,,,,,,,,,,,,,,,,,,,,,,,,,,,,,,,,,,,,,,,,,,,,,,,,,,,,,,,,,,,,,,,,,,,,,,,,,,,,,,,,,,,,,,,,,,,,,,,,,,,,,,,,,,,,,-3.880229471064922e-10,2.3880897259687117e-10,-5.696276783595522e-10,0.0,8.198186662866647e-08,1.0102518643861913e-07,-1.7170092405649484e-06,-1.718214093671122e-06,-0.0010341305751353502,3.174742596456781e-05,2.9718856239924207e-05,0.0,-4.935771471537009e-07,-2.1240492060314864e-05,-3.2249436117126606e-06,7.760225344100036e-06,,,,,,,,,,,,,,,,,,,,,,,,,,,,,,,,,,,,,,,,,,,,,,,,,,,,,,,,,,,,,,,,,,,,,,,,,,
107,3.399784803390503,0.6077569127082825,1.5726906061172485,0.3874381473660469,0.0,-3.141592675445488,-1.693894624565928e-08,0.5000002980232239,0.5000002980232239,0.6063581705093384,1.570977807044983,0.3901292672753334,0.0,-3.1415926158408434,3.07992354464659e-06,0.4999995827674866,0.5000011324882507,,,,,,,,,,,,,,,,,,,,,,,,,,,,,,,,,,,,,,,,,,,,,,,,,,,,,,,,,,,,,,,,,,,,,,,,,,,,,,,,,,,,,,,,,,,,,,,,,,,,,,,,,,,,,,,,,,,,,,,,,,,,,,,,,,,,,,-3.2757130341565244e-10,2.015054789694659e-10,-4.803588082857857e-10,0.0,6.915501415960534e-08,8.521513450432394e-08,-1.4482674259852502e-06,-1.449451360713283e-06,-0.0008550953934900463,2.6265681299264543e-05,2.4564531486248598e-05,0.0,-4.001062166025804e-07,-1.7232276150025427e-05,-2.5862143502308754e-06,6.322817171167117e-06,,,,,,,,,,,,,,,,,,,,,,,,,,,,,,,,,,,,,,,,,,,,,,,,,,,,,,,,,,,,,,,,,,,,,,,,,,
108,3.42098331451416,0.6077569127082825,1.5726906061172485,0.3874381473660469,0.0,-3.141592675445488,-1.693894624565928e-08,0.5000002980232239,0.5000002980232239,0.606330156326294,1.5709786415100098,0.3901300719380379,0.0,-3.1415926158408434,2.5203207769664004e-06,0.49999964237213135,0.5000009536743164,,,,,,,,,,,,,,,,,,,,,,,,,,,,,,,,,,,,,,,,,,,,,,,,,,,,,,,,,,,,,,,,,,,,,,,,,,,,,,,,,,,,,,,,,,,,,,,,,,,,,,,,,,,,,,,,,,,,,,,,,,,,,,,,,,,,,,-3.2757130341565244e-10,2.015054789694659e-10,-4.803588082857857e-10,0.0,6.915501415960534e-08,8.521513450432394e-08,-1.4482674259852502e-06,-1.449451360713283e-06,-0.0007141657406464219,2.1948311768937856e-05,2.050872535619419e-05,0.0,-3.278363749359414e-07,-1.4130449926597066e-05,-2.0963975657650735e-06,5.206550213188166e-06,,,,,,,,,,,,,,,,,,,,,,,,,,,,,,,,,,,,,,,,,,,,,,,,,,,,,,,,,,,,,,,,,,,,,,,,,,
109,3.442197799682617,0.6077569127082825,1.5726906061172485,0.3874381473660469,0.0,-3.141592675445488,-1.400484261893098e-08,0.5000002384185791,0.5000002384185791,0.6063287258148193,1.5709787607192993,0.3901301091909409,0.0,-3.1415926158408434,2.4923699584178394e-06,0.49999967217445374,0.5000009536743164,,,,,,,,,,,,,,,,,,,,,,,,,,,,,,,,,,,,,,,,,,,,,,,,,,,,,,,,,,,,,,,,,,,,,,,,,,,,,,,,,,,,,,,,,,,,,,,,,,,,,,,,,,,,,,,,,,,,,,,,,,,,,,,,,,,,,,-2.707833957060757e-10,1.6653345369377348e-10,-3.9699493692424426e-10,0.0,5.717965123608337e-08,7.045474603728508e-08,-1.1973688742727973e-06,-1.198502218358044e-06,-0.0007070558494888246,2.173043685615994e-05,2.03041490749456e-05,0.0,-3.2422479989691055e-07,-1.3975379260955378e-05,-2.072030838462524e-06,5.150637662154622e-06,,,,,,,,,,,,,,,,,,,,,,,,,,,,,,,,,,,,,,,,,,,,,,,,,,,,,,,,,,,,,,,,,,,,,,,,,,
110,3.4641616344451904,0.6077569127082825,1.5726906061172485,0.3874381473660469,0.0,-3.141592675445488,-1.400484261893098e-08,0.5000002384185791,0.5000002384185791,0.6063055992126465,1.5709794759750366,0.390130772292614,0.0,-3.1415926158408434,2.0386139567563077e-06,0.4999997317790985,0.5000007748603821,,,,,,,,,,,,,,,,,,,,,,,,,,,,,,,,,,,,,,,,,,,,,,,,,,,,,,,,,,,,,,,,,,,,,,,,,,,,,,,,,,,,,,,,,,,,,,,,,,,,,,,,,,,,,,,,,,,,,,,,,,,,,,,,,,,,,,-2.707833957060757e-10,1.6653345369377348e-10,-3.9699493692424426e-10,0.0,5.717965123608337e-08,7.045474603728508e-08,-1.1973688742727973e-06,-1.198502218358044e-06,-0.0005905248690396547,1.815852738218382e-05,1.695176433713641e-05,0.0,-2.6556983812042745e-07,-1.1455714229668956e-05,-1.67799589689821e-06,4.240486305207014e-06,,,,,,,,,,,,,,,,,,,,,,,,,,,,,,,,,,,,,,,,,,,,,,,,,,,,,,,,,,,,,,,,,,,,,,,,,,
111,3.4856908321380615,0.6077569127082825,1.5726906061172485,0.3874381473660469,0.0,-3.141592675445488,-1.1578973335701903e-08,0.5000001788139343,0.5000001788139343,0.6063055992126465,1.5709794759750366,0.390130772292614,0.0,-3.1415926158408434,2.0386139567563077e-06,0.4999997317790985,0.5000007748603821,,,,,,,,,,,,,,,,,,,,,,,,,,,,,,,,,,,,,,,,,,,,,,,,,,,,,,,,,,,,,,,,,,,,,,,,,,,,,,,,,,,,,,,,,,,,,,,,,,,,,,,,,,,,,,,,,,,,,,,,,,,,,,,,,,,,,,-2.2393198406689407e-10,1.3788969965844444e-10,-3.28126414927965e-10,0.0,4.727823821326638e-08,5.825059545827571e-08,-9.899348469843972e-07,-9.910017979564145e-07,-0.0005905248690396547,1.815852738218382e-05,1.695176433713641e-05,0.0,-2.6556983812042745e-07,-1.1455714229668956e-05,-1.67799589689821e-06,4.240486305207014e-06,,,,,,,,,,,,,,,,,,,,,,,,,,,,,,,,,,,,,,,,,,,,,,,,,,,,,,,,,,,,,,,,,,,,,,,,,,
112,3.5066144466400146,0.6077569127082825,1.5726906061172485,0.3874381473660469,0.0,-3.141592675445488,-1.1578973335701903e-08,0.5000001788139343,0.5000001788139343,0.6062862277030945,1.5709800720214844,0.3901313310861588,0.0,-3.1415926158408434,1.6667336240061559e-06,0.4999997913837433,0.5000006556510925,,,,,,,,,,,,,,,,,,,,,,,,,,,,,,,,,,,,,,,,,,,,,,,,,,,,,,,,,,,,,,,,,,,,,,,,,,,,,,,,,,,,,,,,,,,,,,,,,,,,,,,,,,,,,,,,,,,,,,,,,,,,,,,,,,,,,,-2.2393198406689407e-10,1.3788969965844444e-10,-3.28126414927965e-10,0.0,4.727823821326638e-08,5.825059545827571e-08,-9.899348469843972e-07,-9.910017979564145e-07,-0.0004931995063088834,1.5173736755969003e-05,1.4152886251395103e-05,0.0,-2.1745111666859884e-07,-9.38702669373015e-06,-1.357583983008226e-06,3.4904912808997324e-06,,,,,,,,,,,,,,,,,,,,,,,,,,,,,,,,,,,,,,,,,,,,,,,,,,,,,,,,,,,,,,,,,,,,,,,,,,
113,3.5275630950927734,0.6077569127082825,1.5726906061172485,0.3874381473660469,0.0,-3.141592675445488,-9.573305703725055e-09,0.5000001788139343,0.5000001788139343,0.6062862277030945,1.5709800720214844,0.3901313310861588,0.0,-3.1415926158408434,1.6667336240061559e-06,0.4999997913837433,0.5000006556510925,,,,,,,,,,,,,,,,,,,,,,,,,,,,,,,,,,,,,,,,,,,,,,,,,,,,,,,,,,,,,,,,,,,,,,,,,,,,,,,,,,,,,,,,,,,,,,,,,,,,,,,,,,,,,,,,,,,,,,,,,,,,,,,,,,,,,,-1.8496315590255108e-10,1.1413092693146609e-10,-2.7125524049154137e-10,0.0,3.90908958536329e-08,4.8160806898067676e-08,-8.184381385945017e-07,-8.194255087801139e-07,-0.0004931995063088834,1.5173736755969003e-05,1.4152886251395103e-05,0.0,-2.1745111666859884e-07,-9.38702669373015e-06,-1.357583983008226e-06,3.4904912808997324e-06,,,,,,,,,,,,,,,,,,,,,,,,,,,,,,,,,,,,,,,,,,,,,,,,,,,,,,,,,,,,,,,,,,,,,,,,,,
114,3.54951810836792,0.6077569127082825,1.5726906061172485,0.3874381473660469,0.0,-3.141592675445488,-7.994687578616322e-09,0.5000001192092896,0.5000001192092896,0.6062700748443604,1.5709805488586426,0.3901317930221558,0.0,-3.1415926158408434,1.3620644949696725e-06,0.4999998211860657,0.500000536441803,,,,,,,,,,,,,,,,,,,,,,,,,,,,,,,,,,,,,,,,,,,,,,,,,,,,,,,,,,,,,,,,,,,,,,,,,,,,,,,,,,,,,,,,,,,,,,,,,,,,,,,,,,,,,,,,,,,,,,,,,,,,,,,,,,,,,,-1.5459855617905305e-10,9.536815781530095e-11,-2.2651325259914756e-10,0.0,3.264649706125056e-08,4.021917021646004e-08,-6.834603141214757e-07,-6.843686719548714e-07,-0.00041191454511135817,1.267956213268917e-05,1.1816124242614023e-05,0.0,-1.7798556939396804e-07,-7.689093763474375e-06,-1.0972252084684442e-06,2.872568757084082e-06,,,,,,,,,,,,,,,,,,,,,,,,,,,,,,,,,,,,,,,,,,,,,,,,,,,,,,,,,,,,,,,,,,,,,,,,,,
115,3.5705456733703613,0.6077569127082825,1.5726906061172485,0.3874381473660469,0.0,-3.141592675445488,-7.91505083697075e-09,0.5000001192092896,0.5000001192092896,0.6062565445899963,1.5709809064865112,0.3901321804523468,0.0,-3.141592675445488,1.112552240556397e-06,0.49999985098838806,0.5000004172325134,,,,,,,,,,,,,,,,,,,,,,,,,,,,,,,,,,,,,,,,,,,,,,,,,,,,,,,,,,,,,,,,,,,,,,,,,,,,,,,,,,,,,,,,,,,,,,,,,,,,,,,,,,,,,,,,,,,,,,,,,,,,,,,,,,,,,,-1.5315526624704034e-10,9.414691248821327e-11,-2.2420953982305036e-10,0.0,3.23218110054313e-08,3.981846674605549e-08,-6.766509841327206e-07,-6.775559313609847e-07,-0.00034402625169605017,1.0595360436127521e-05,9.865180800261442e-06,0.0,-1.4562789374394924e-07,-6.295888852037024e-06,-8.858242495080049e-07,2.3635464003746165e-06,,,,,,,,,,,,,,,,,,,,,,,,,,,,,,,,,,,,,,,,,,,,,,,,,,,,,,,,,,,,,,,,,,,,,,,,,,
116,3.5914995670318604,0.6077569127082825,1.5726906061172485,0.3874381473660469,0.0,-3.141592675445488,-6.67638255791303e-09,0.5000001192092896,0.5000001192092896,0.6062565445899963,1.5709809064865112,0.3901321804523468,0.0,-3.141592675445488,1.112552240556397e-06,0.49999985098838806,0.5000004172325134,,,,,,,,,,,,,,,,,,,,,,,,,,,,,,,,,,,,,,,,,,,,,,,,,,,,,,,,,,,,,,,,,,,,,,,,,,,,,,,,,,,,,,,,,,,,,,,,,,,,,,,,,,,,,,,,,,,,,,,,,,,,,,,,,,,,,,-1.2922996006636822e-10,7.982503547054876e-11,-1.8907791998756807e-10,0.0,2.7265024016287498e-08,3.358695721544791e-08,-5.707439640900702e-07,-5.715720021726156e-07,-0.00034402625169605017,1.0595360436127521e-05,9.865180800261442e-06,0.0,-1.4562789374394924e-07,-6.295888852037024e-06,-8.858242495080049e-07,2.3635464003746165e-06,,,,,,,,,,,,,,,,,,,,,,,,,,,,,,,,,,,,,,,,,,,,,,,,,,,,,,,,,,,,,,,,,,,,,,,,,,
