MHC-RobotSimulators-Research/Data_Analysis_MotionReplication/mai_plotter/raven_data/the_good_stuff/2arm_a2.csv
,time,jpos0,jpos1,jpos2,jpos3,jpos4,jpos5,jpos6,jpos7,jpos8,jpos9,jpos10,jpos11,jpos12,jpos13,jpos14,jpos15,runlevel,sublevel,last_seq,type0,type1,pos0,pos1,pos2,pos3,pos4,pos5,ori0,ori1,ori2,ori3,ori4,ori5,ori6,ori7,ori8,ori9,ori10,ori11,ori12,ori13,ori14,ori15,ori16,ori17,ori_d0,ori_d1,ori_d2,ori_d3,ori_d4,ori_d5,ori_d6,ori_d7,ori_d8,ori_d9,ori_d10,ori_d11,ori_d12,ori_d13,ori_d14,ori_d15,ori_d16,ori_d17,pos_d0,pos_d1,pos_d2,pos_d3,pos_d4,pos_d5,encVals0,encVals1,encVals2,encVals3,encVals4,encVals5,encVals6,encVals7,encVals8,encVals9,encVals10,encVals11,encVals12,encVals13,encVals14,encVals15,dac_vals0,dac_vals1,dac_vals2,dac_vals3,dac_vals4,dac_vals5,dac_vals6,dac_vals7,dac_vals8,dac_vals9,dac_vals10,dac_vals11,dac_vals12,dac_vals13,dac_vals14,dac_vals15,Tau0,Tau1,Tau2,Tau3,Tau4,Tau5,Tau6,Tau7,Tau8,Tau9,Tau10,Tau11,Tau12,Tau13,Tau14,Tau15,mpos0,mpos1,mpos2,mpos3,mpos4,mpos5,mpos6,mpos7,mpos8,mpos9,mpos10,mpos11,mpos12,mpos13,mpos14,mpos15,mvel0,mvel1,mvel2,mvel3,mvel4,mvel5,mvel6,mvel7,mvel8,mvel9,mvel10,mvel11,mvel12,mvel13,mvel14,mvel15,jvel0,jvel1,jvel2,jvel3,jvel4,jvel5,jvel6,jvel7,jvel8,jvel9,jvel10,jvel11,jvel12,jvel13,jvel14,jvel15,mpos_d0,mpos_d1,mpos_d2,mpos_d3,mpos_d4,mpos_d5,mpos_d6,mpos_d7,mpos_d8,mpos_d9,mpos_d10,mpos_d11,mpos_d12,mpos_d13,mpos_d14,mpos_d15,jpos_d0,jpos_d1,jpos_d2,jpos_d3,jpos_d4,jpos_d5,jpos_d6,jpos_d7,jpos_d8,jpos_d9,jpos_d10,jpos_d11,jpos_d12,jpos_d13,jpos_d14,jpos_d15,grasp_d0,grasp_d1,encoffsets0,encoffsets1,encoffsets2,encoffsets3,encoffsets4,encoffsets5,encoffsets6,encoffsets7,encoffsets8,encoffsets9,encoffsets10,encoffsets11,encoffsets12,encoffsets13,encoffsets14,encoffsets15,jac_vel0,jac_vel1,jac_vel2,jac_vel3,jac_vel4,jac_vel5,jac_vel6,jac_vel7,jac_vel8,jac_vel9,jac_vel10,jac_vel11,jac_f0,jac_f1,jac_f2,jac_f3,jac_f4,jac_f5,jac_f6,jac_f7,jac_f8,jac_f9,jac_f10,jac_f11
0,0.0,0.6108652353286743,1.5707963705062866,0.3899999848008156,0.0,-3.141592675445488,1.0457604292073153e-15,0.7853014469146729,0.7853014469146729,0.6108179688453674,1.5708078145980835,0.3899600049853325,0.0,-3.1417353093604357,-0.00041062533273361623,0.7853014469146729,0.7853014469146729,,,,,,,,,,,,,,,,,,,,,,,,,,,,,,,,,,,,,,,,,,,,,,,,,,,,,,,,,,,,,,,,,,,,,,,,,,,,,,,,,,,,,,,,,,,,,,,,,,,,,,,,,,,,,,,,,,,,,,,,,,,,,,,,,,,,,,0.0,0.0,0.0,0.0,0.0,0.0,0.0,0.0,0.0,0.0,0.0,0.0,1.6653345369377348e-13,-5.187907395343139e-14,0.0,0.0,,,,,,,,,,,,,,,,,,,,,,,,,,,,,,,,,,,,,,,,,,,,,,,,,,,,,,,,,,,,,,,,,,,,,,,,,,
1,1.1142516136169434,0.6108638048171997,1.5707972049713135,0.38999885976314547,0.0,-3.1415928542594225,-1.4748706007594592e-06,0.531600832939148,0.5312318801879883,0.6080825924873352,1.5714690685272217,0.38764997482299807,0.0,-3.1424873411635668,-0.002454782137647271,0.5280453562736511,0.5276997685432434,,,,,,,,,,,,,,,,,,,,,,,,,,,,,,,,,,,,,,,,,,,,,,,,,,,,,,,,,,,,,,,,,,,,,,,,,,,,,,,,,,,,,,,,,,,,,,,,,,,,,,,,,,,,,,,,,,,,,,,,,,,,,,,,,,,,,,-6.080646244299714e-07,1.3235839105618652e-05,-4.526022166828625e-06,0.0,0.00620573153719306,0.0006371786003001034,-0.2121392786502838,-0.1820300817489624,-2.691086228878703e-05,2.703344216570258e-05,-4.262651418684982e-05,0.0,0.0036757909692823887,0.012068425305187702,0.31968963146209717,0.3215852379798889,,,,,,,,,,,,,,,,,,,,,,,,,,,,,,,,,,,,,,,,,,,,,,,,,,,,,,,,,,,,,,,,,,,,,,,,,,
2,1.1356184482574463,0.6108638048171997,1.5707972049713135,0.38999885976314547,0.0,-3.1415928542594225,-1.4748706007594592e-06,0.531600832939148,0.5312318801879883,0.6080825328826904,1.5714690685272217,0.3876498928666115,0.0,-3.142462068794182,-0.00240935105830431,0.5276315212249756,0.5273321270942688,,,,,,,,,,,,,,,,,,,,,,,,,,,,,,,,,,,,,,,,,,,,,,,,,,,,,,,,,,,,,,,,,,,,,,,,,,,,,,,,,,,,,,,,,,,,,,,,,,,,,,,,,,,,,,,,,,,,,,,,,,,,,,,,,,,,,,-6.080646244299714e-07,1.3235839105618652e-05,-4.526022166828625e-06,0.0,0.00620573153719306,0.0006371786003001034,-0.2121392786502838,-0.1820300817489624,-2.9734417694271542e-05,-2.2303280275082216e-05,-4.279270797269419e-05,0.0,0.012632204219698906,0.022715480998158455,0.2069222629070282,0.18379437923431396,,,,,,,,,,,,,,,,,,,,,,,,,,,,,,,,,,,,,,,,,,,,,,,,,,,,,,,,,,,,,,,,,,,,,,,,,,
3,1.1577956676483154,0.6108638048171997,1.5707972049713135,0.38999886721372606,0.0,-3.1415907680968553,-1.0360307811652092e-07,0.5234087705612183,0.523237943649292,0.6080816984176636,1.5714693069458008,0.38764854431152346,0.0,-3.142260426280907,-0.001886635203845799,0.5219269394874573,0.5218032002449036,,,,,,,,,,,,,,,,,,,,,,,,,,,,,,,,,,,,,,,,,,,,,,,,,,,,,,,,,,,,,,,,,,,,,,,,,,,,,,,,,,,,,,,,,,,,,,,,,,,,,,,,,,,,,,,,,,,,,,,,,,,,,,,,,,,,,,4.0577930349172675e-07,-1.0310562856830074e-06,2.9326736239454476e-07,0.0,0.0005511298659257591,-3.8580077671213076e-05,-0.11895199865102768,-0.11296426504850388,-2.2737485778634436e-05,5.482059805217432e-06,-3.44269210472703e-05,0.0,0.0033431979827582836,0.00936584547162056,0.1103147491812706,0.10969389975070953,,,,,,,,,,,,,,,,,,,,,,,,,,,,,,,,,,,,,,,,,,,,,,,,,,,,,,,,,,,,,,,,,,,,,,,,,,
4,1.1790378093719482,0.6108638048171997,1.5707972049713135,0.38999885976314547,0.0,-3.141592675445488,-2.7284355041956587e-07,0.5195461511611938,0.5194160342216492,0.6080816984176636,1.5714693069458008,0.38764854431152346,0.0,-3.142260426280907,-0.001886635203845799,0.5219269394874573,0.5218032002449036,,,,,,,,,,,,,,,,,,,,,,,,,,,,,,,,,,,,,,,,,,,,,,,,,,,,,,,,,,,,,,,,,,,,,,,,,,,,,,,,,,,,,,,,,,,,,,,,,,,,,,,,,,,,,,,,,,,,,,,,,,,,,,,,,,,,,,-1.5354718385651722e-08,5.415556891819051e-09,-1.8123760270327693e-08,0.0,8.056019396462943e-06,2.5941668013729213e-07,-0.09834093600511551,-0.09764135628938675,-2.2737485778634436e-05,5.482059805217432e-06,-3.44269210472703e-05,0.0,0.0033431979827582836,0.00936584547162056,0.1103147491812706,0.10969389975070953,,,,,,,,,,,,,,,,,,,,,,,,,,,,,,,,,,,,,,,,,,,,,,,,,,,,,,,,,,,,,,,,,,,,,,,,,,
5,1.2001464366912842,0.6108638048171997,1.5707972049713135,0.38999885976314547,0.0,-3.141592675445488,-2.7284355041956587e-07,0.5195461511611938,0.5194160342216492,0.6080809235572815,1.5714694261550903,0.3876474118232727,0.0,-3.1421519458274156,-0.0015766368014737964,0.5183113217353821,0.518208384513855,,,,,,,,,,,,,,,,,,,,,,,,,,,,,,,,,,,,,,,,,,,,,,,,,,,,,,,,,,,,,,,,,,,,,,,,,,,,,,,,,,,,,,,,,,,,,,,,,,,,,,,,,,,,,,,,,,,,,,,,,,,,,,,,,,,,,,-1.5354718385651722e-08,5.415556891819051e-09,-1.8123760270327693e-08,0.0,8.056019396462943e-06,2.5941668013729213e-07,-0.09834093600511551,-0.09764135628938675,-1.8923301468021236e-05,4.613883902493399e-06,-2.8731883503496647e-05,0.0,0.0028168135322630405,0.007936142385005951,0.09212449193000793,0.09156118333339691,,,,,,,,,,,,,,,,,,,,,,,,,,,,,,,,,,,,,,,,,,,,,,,,,,,,,,,,,,,,,,,,,,,,,,,,,,
6,1.2210731506347656,0.6108638048171997,1.5707972049713135,0.38999885976314547,0.0,-3.1415926158408434,-2.29375487492689e-07,0.516322672367096,0.5162158608436584,0.6080809235572815,1.5714694261550903,0.3876474118232727,0.0,-3.1421519458274156,-0.0015766368014737964,0.5183113217353821,0.518208384513855,,,,,,,,,,,,,,,,,,,,,,,,,,,,,,,,,,,,,,,,,,,,,,,,,,,,,,,,,,,,,,,,,,,,,,,,,,,,,,,,,,,,,,,,,,,,,,,,,,,,,,,,,,,,,,,,,,,,,,,,,,,,,,,,,,,,,,-9.105050047253371e-09,-6.466605029231687e-09,-1.3474353188769328e-08,0.0,-6.747901011294744e-07,1.3064299082543585e-06,-0.0821271613240242,-0.08153442293405533,-1.8923301468021236e-05,4.613883902493399e-06,-2.8731883503496647e-05,0.0,0.0028168135322630405,0.007936142385005951,0.09212449193000793,0.09156118333339691,,,,,,,,,,,,,,,,,,,,,,,,,,,,,,,,,,,,,,,,,,,,,,,,,,,,,,,,,,,,,,,,,,,,,,,,,,
7,1.2432360649108887,0.6108638048171997,1.5707972049713135,0.38999885976314547,0.0,-3.1415926158408434,-2.29375487492689e-07,0.516322672367096,0.5162158608436584,0.608080267906189,1.5714696645736694,0.38764642834663393,0.0,-3.1420547902564318,-0.0013033093418926,0.5151392817497253,0.5150556564331055,,,,,,,,,,,,,,,,,,,,,,,,,,,,,,,,,,,,,,,,,,,,,,,,,,,,,,,,,,,,,,,,,,,,,,,,,,,,,,,,,,,,,,,,,,,,,,,,,,,,,,,,,,,,,,,,,,,,,,,,,,,,,,,,,,,,,,-9.105050047253371e-09,-6.466605029231687e-09,-1.3474353188769328e-08,0.0,-6.747901011294744e-07,1.3064299082543585e-06,-0.0821271613240242,-0.08153442293405533,-1.5644702216377482e-05,3.820636266027577e-06,-2.374852920183912e-05,0.0,0.0023319940082728863,0.00656277546659112,0.07616718858480453,0.07570730894804001,,,,,,,,,,,,,,,,,,,,,,,,,,,,,,,,,,,,,,,,,,,,,,,,,,,,,,,,,,,,,,,,,,,,,,,,,,
8,1.264744758605957,0.6108638048171997,1.5707972049713135,0.38999885976314547,0.0,-3.1415926158408434,-1.873796264817429e-07,0.5136306881904602,0.5135431885719299,0.608079731464386,1.571469783782959,0.38764560878276827,0.0,-3.141974562404564,-0.0010773628018796444,0.5125167369842529,0.5124488472938538,,,,,,,,,,,,,,,,,,,,,,,,,,,,,,,,,,,,,,,,,,,,,,,,,,,,,,,,,,,,,,,,,,,,,,,,,,,,,,,,,,,,,,,,,,,,,,,,,,,,,,,,,,,,,,,,,,,,,,,,,,,,,,,,,,,,,,-7.605249763287247e-09,-5.119904500361372e-09,-1.113521097551029e-08,0.0,-2.4731090775276243e-07,1.055651637216215e-06,-0.06858278810977936,-0.06809581816196442,-1.2936448911204934e-05,3.161628455927712e-06,-1.962959322554525e-05,0.0,0.0019267820753157139,0.005425040144473314,0.06297290325164795,0.06259876489639282,,,,,,,,,,,,,,,,,,,,,,,,,,,,,,,,,,,,,,,,,,,,,,,,,,,,,,,,,,,,,,,,,,,,,,,,,,
9,1.2860422134399414,0.6108638048171997,1.5707972049713135,0.38999885976314547,0.0,-3.1415926158408434,-1.5144202336614399e-07,0.5112693309783936,0.5111984014511108,0.608079731464386,1.571469783782959,0.38764560878276827,0.0,-3.141974562404564,-0.0010773628018796444,0.5125167369842529,0.5124488472938538,,,,,,,,,,,,,,,,,,,,,,,,,,,,,,,,,,,,,,,,,,,,,,,,,,,,,,,,,,,,,,,,,,,,,,,,,,,,,,,,,,,,,,,,,,,,,,,,,,,,,,,,,,,,,,,,,,,,,,,,,,,,,,,,,,,,,,-6.281974940236523e-09,-3.988920305175725e-09,-9.109629495185345e-09,0.0,-2.2732443483164388e-07,8.533495474694064e-07,-0.05670150741934776,-0.05630616098642349,-1.2936448911204934e-05,3.161628455927712e-06,-1.962959322554525e-05,0.0,0.0019267820753157139,0.005425040144473314,0.06297290325164795,0.06259876489639282,,,,,,,,,,,,,,,,,,,,,,,,,,,,,,,,,,,,,,,,,,,,,,,,,,,,,,,,,,,,,,,,,,,,,,,,,,
10,1.307260274887085,0.6108638048171997,1.5707972049713135,0.38999885976314547,0.0,-3.1415926158408434,-1.5144202336614399e-07,0.5112693309783936,0.5111984014511108,0.6080793142318726,1.5714699029922485,0.38764496803283693,0.0,-3.141911381481102,-0.0008995549869723618,0.5104526281356812,0.5103968977928162,,,,,,,,,,,,,,,,,,,,,,,,,,,,,,,,,,,,,,,,,,,,,,,,,,,,,,,,,,,,,,,,,,,,,,,,,,,,,,,,,,,,,,,,,,,,,,,,,,,,,,,,,,,,,,,,,,,,,,,,,,,,,,,,,,,,,,-6.281974940236523e-09,-3.988920305175725e-09,-9.109629495185345e-09,0.0,-2.2732443483164388e-07,8.533495474694064e-07,-0.05670150741934776,-0.05630616098642349,-1.080458332580747e-05,2.6424677344039083e-06,-1.6388528820243664e-05,0.0,0.001608202001079917,0.004529726225882769,0.05258813127875328,0.052280545234680176,,,,,,,,,,,,,,,,,,,,,,,,,,,,,,,,,,,,,,,,,,,,,,,,,,,,,,,,,,,,,,,,,,,,,,,,,,
11,1.3292701244354248,0.6108638048171997,1.5707972049713135,0.38999885976314547,0.0,-3.1415926158408434,-1.251755179509928e-07,0.5095054507255554,0.5094467401504517,0.6080793142318726,1.5714699029922485,0.38764496803283693,0.0,-3.141911381481102,-0.0008995549869723618,0.5104526281356812,0.5103968977928162,,,,,,,,,,,,,,,,,,,,,,,,,,,,,,,,,,,,,,,,,,,,,,,,,,,,,,,,,,,,,,,,,,,,,,,,,,,,,,,,,,,,,,,,,,,,,,,,,,,,,,,,,,,,,,,,,,,,,,,,,,,,,,,,,,,,,,-5.296429961276772e-09,-3.201328091506639e-09,-7.613514263482557e-09,0.0,-1.968545859654114e-07,7.051927468637587e-07,-0.04782675579190254,-0.04749877378344536,-1.080458332580747e-05,2.6424677344039083e-06,-1.6388528820243664e-05,0.0,0.001608202001079917,0.004529726225882769,0.05258813127875328,0.052280545234680176,,,,,,,,,,,,,,,,,,,,,,,,,,,,,,,,,,,,,,,,,,,,,,,,,,,,,,,,,,,,,,,,,,,,,,,,,,
12,1.3506135940551758,0.6108638048171997,1.5707972049713135,0.38999885976314547,0.0,-3.1415926158408434,-1.251755179509928e-07,0.5095054507255554,0.5094467401504517,0.6080789566040039,1.5714699029922485,0.38764440178871157,0.0,-3.1418560683707506,-0.0007436027517542243,0.5086419582366943,0.5085967183113098,,,,,,,,,,,,,,,,,,,,,,,,,,,,,,,,,,,,,,,,,,,,,,,,,,,,,,,,,,,,,,,,,,,,,,,,,,,,,,,,,,,,,,,,,,,,,,,,,,,,,,,,,,,,,,,,,,,,,,,,,,,,,,,,,,,,,,-5.296429961276772e-09,-3.201328091506639e-09,-7.613514263482557e-09,0.0,-1.968545859654114e-07,7.051927468637587e-07,-0.04782675579190254,-0.04749877378344536,-8.934213838074356e-06,2.1866494535061065e-06,-1.3546115951612592e-05,0.0,0.001328882179223001,0.0037444494664669037,0.04347841069102287,0.04322834312915802,,,,,,,,,,,,,,,,,,,,,,,,,,,,,,,,,,,,,,,,,,,,,,,,,,,,,,,,,,,,,,,,,,,,,,,,,,
13,1.372234582901001,0.6108638048171997,1.5707972049713135,0.38999885976314547,0.0,-3.141592675445488,-1.0231235592073062e-07,0.5079378485679626,0.5078897476196289,0.60807865858078,1.571470022201538,0.38764397710561754,0.0,-3.1418147027472765,-0.0006271302117966115,0.5072894096374512,0.5072519183158875,,,,,,,,,,,,,,,,,,,,,,,,,,,,,,,,,,,,,,,,,,,,,,,,,,,,,,,,,,,,,,,,,,,,,,,,,,,,,,,,,,,,,,,,,,,,,,,,,,,,,,,,,,,,,,,,,,,,,,,,,,,,,,,,,,,,,,-4.4205195059987545e-09,-2.5376367673857203e-09,-6.297615318118233e-09,0.0,-1.6633721600101126e-07,5.764748038927792e-07,-0.03993914648890495,-0.039670106023550034,-7.536928478657501e-06,1.8458759996065055e-06,-1.1423458090575878e-05,0.0,0.0011203509056940675,0.003157961182296276,0.036673787981271744,0.03646605834364891,,,,,,,,,,,,,,,,,,,,,,,,,,,,,,,,,,,,,,,,,,,,,,,,,,,,,,,,,,,,,,,,,,,,,,,,,,
14,1.3934595584869385,0.6108638048171997,1.5707972049713135,0.38999885976314547,0.0,-3.141592675445488,-8.361971026715764e-08,0.506628692150116,0.5065893530845642,0.60807865858078,1.571470022201538,0.38764393240213396,0.0,-3.141810292003563,-0.0006146866362541914,0.5071449279785156,0.507108211517334,,,,,,,,,,,,,,,,,,,,,,,,,,,,,,,,,,,,,,,,,,,,,,,,,,,,,,,,,,,,,,,,,,,,,,,,,,,,,,,,,,,,,,,,,,,,,,,,,,,,,,,,,,,,,,,,,,,,,,,,,,,,,,,,,,,,,,-3.6896041777367827e-09,-2.0112800314109336e-09,-5.209867204314378e-09,0.0,-1.3852974234396243e-07,4.71375670940688e-07,-0.033352360129356384,-0.03313174843788147,-7.3876235546777025e-06,1.809449372558447e-06,-1.1196690138604026e-05,0.0,0.001098076580092311,0.003095302265137434,0.03594674542546272,0.03574350103735924,,,,,,,,,,,,,,,,,,,,,,,,,,,,,,,,,,,,,,,,,,,,,,,,,,,,,,,,,,,,,,,,,,,,,,,,,,
15,1.415262222290039,0.6108638048171997,1.5707972049713135,0.38999885976314547,0.0,-3.141592675445488,-8.361971026715764e-08,0.506628692150116,0.5065893530845642,0.6080783605575562,1.571470022201538,0.3876435524225235,0.0,-3.1417725026587755,-0.0005081198760308325,0.5059072375297546,0.5058774352073669,,,,,,,,,,,,,,,,,,,,,,,,,,,,,,,,,,,,,,,,,,,,,,,,,,,,,,,,,,,,,,,,,,,,,,,,,,,,,,,,,,,,,,,,,,,,,,,,,,,,,,,,,,,,,,,,,,,,,,,,,,,,,,,,,,,,,,-3.6896041777367827e-09,-2.0112800314109336e-09,-5.209867204314378e-09,0.0,-1.3852974234396243e-07,4.71375670940688e-07,-0.033352360129356384,-0.03313174843788147,-6.1087635003787e-06,1.4973110182836535e-06,-9.254748874809593e-06,0.0,0.0009073583642020822,0.0025586881674826145,0.029719771817326546,0.029554633423686028,,,,,,,,,,,,,,,,,,,,,,,,,,,,,,,,,,,,,,,,,,,,,,,,,,,,,,,,,,,,,,,,,,,,,,,,,,
16,1.4365136623382568,0.6108638048171997,1.5707972049713135,0.38999885976314547,0.0,-3.141592675445488,-6.910455141451166e-08,0.5055912137031555,0.5055586695671082,0.6080783605575562,1.571470022201538,0.3876435524225235,0.0,-3.1417725026587755,-0.0005081198760308325,0.5059072375297546,0.5058774352073669,,,,,,,,,,,,,,,,,,,,,,,,,,,,,,,,,,,,,,,,,,,,,,,,,,,,,,,,,,,,,,,,,,,,,,,,,,,,,,,,,,,,,,,,,,,,,,,,,,,,,,,,,,,,,,,,,,,,,,,,,,,,,,,,,,,,,,-3.1106228703947636e-09,-1.61393121089759e-09,-4.356195848487232e-09,0.0,-1.1525547449764417e-07,3.898328770901571e-07,-0.02813214249908924,-0.027949294075369835,-6.1087635003787e-06,1.4973110182836535e-06,-9.254748874809593e-06,0.0,0.0009073583642020822,0.0025586881674826145,0.029719771817326546,0.029554633423686028,,,,,,,,,,,,,,,,,,,,,,,,,,,,,,,,,,,,,,,,,,,,,,,,,,,,,,,,,,,,,,,,,,,,,,,,,,
17,1.4573862552642822,0.6108638048171997,1.5707972049713135,0.38999885976314547,0.0,-3.141592675445488,-6.910455141451166e-08,0.5055912137031555,0.5055586695671082,0.6080781817436218,1.5714701414108276,0.38764324694871904,0.0,-3.1417427599410326,-0.00042425820720382035,0.5049330592155457,0.5049086809158325,,,,,,,,,,,,,,,,,,,,,,,,,,,,,,,,,,,,,,,,,,,,,,,,,,,,,,,,,,,,,,,,,,,,,,,,,,,,,,,,,,,,,,,,,,,,,,,,,,,,,,,,,,,,,,,,,,,,,,,,,,,,,,,,,,,,,,-3.1106228703947636e-09,-1.61393121089759e-09,-4.356195848487232e-09,0.0,-1.1525547449764417e-07,3.898328770901571e-07,-0.02813214249908924,-0.027949294075369835,-5.102073828311404e-06,1.2514238960648072e-06,-7.726692274445668e-06,0.0,0.0007573312614113092,0.0021364018321037292,0.024818725883960724,0.024683114141225815,,,,,,,,,,,,,,,,,,,,,,,,,,,,,,,,,,,,,,,,,,,,,,,,,,,,,,,,,,,,,,,,,,,,,,,,,,
18,1.4797818660736084,0.6108638048171997,1.5707972049713135,0.38999885976314547,0.0,-3.141592675445488,-5.583149587096159e-08,0.5046225786209106,0.5045962929725647,0.6080781817436218,1.5714701414108276,0.38764324694871904,0.0,-3.1417427599410326,-0.00042425820720382035,0.5049330592155457,0.5049086809158325,,,,,,,,,,,,,,,,,,,,,,,,,,,,,,,,,,,,,,,,,,,,,,,,,,,,,,,,,,,,,,,,,,,,,,,,,,,,,,,,,,,,,,,,,,,,,,,,,,,,,,,,,,,,,,,,,,,,,,,,,,,,,,,,,,,,,,-2.570332835460931e-09,-1.2617684674864904e-09,-3.566883011174582e-09,0.0,-9.279649049176442e-08,3.153012357870466e-07,-0.023258522152900696,-0.023110339418053627,-5.102073828311404e-06,1.2514238960648072e-06,-7.726692274445668e-06,0.0,0.0007573312614113092,0.0021364018321037292,0.024818725883960724,0.024683114141225815,,,,,,,,,,,,,,,,,,,,,,,,,,,,,,,,,,,,,,,,,,,,,,,,,,,,,,,,,,,,,,,,,,,,,,,,,,
19,1.5010671615600586,0.6108638048171997,1.5707972049713135,0.38999885976314547,0.0,-3.141592675445488,-4.509595541435374e-08,0.5038217902183533,0.5038005113601685,0.6080780029296875,1.5714701414108276,0.38764297872781756,0.0,-3.1417167127112657,-0.0003507050860207528,0.5040785074234009,0.5040587186813354,,,,,,,,,,,,,,,,,,,,,,,,,,,,,,,,,,,,,,,,,,,,,,,,,,,,,,,,,,,,,,,,,,,,,,,,,,,,,,,,,,,,,,,,,,,,,,,,,,,,,,,,,,,,,,,,,,,,,,,,,,,,,,,,,,,,,,-2.1239121572591557e-09,-9.851008897499014e-10,-2.9207400942254935e-09,0.0,-7.391948031454376e-08,2.550228259678988e-07,-0.019229209050536156,-0.019109167158603668,-4.218863068672363e-06,1.0355410040574498e-06,-6.386584573192522e-06,0.0,0.0006257952190935612,0.001766021829098463,0.0205194354057312,0.020409315824508667,,,,,,,,,,,,,,,,,,,,,,,,,,,,,,,,,,,,,,,,,,,,,,,,,,,,,,,,,,,,,,,,,,,,,,,,,,
20,1.5229671001434326,0.6108638048171997,1.5707972049713135,0.38999885976314547,0.0,-3.141592675445488,-4.509595541435374e-08,0.5038217902183533,0.5038005113601685,0.608077883720398,1.5714702606201172,0.38764277756214144,0.0,-3.141697221992424,-0.0002957724209409207,0.5034402012825012,0.503423810005188,,,,,,,,,,,,,,,,,,,,,,,,,,,,,,,,,,,,,,,,,,,,,,,,,,,,,,,,,,,,,,,,,,,,,,,,,,,,,,,,,,,,,,,,,,,,,,,,,,,,,,,,,,,,,,,,,,,,,,,,,,,,,,,,,,,,,,-2.1239121572591557e-09,-9.851008897499014e-10,-2.9207400942254935e-09,0.0,-7.391948031454376e-08,2.550228259678988e-07,-0.019229209050536156,-0.019109167158603668,-3.5590473999036476e-06,8.741496344555344e-07,-5.385817985370522e-06,0.0,0.0005275942385196686,0.0014894045889377594,0.017308026552200317,0.017216650769114494,,,,,,,,,,,,,,,,,,,,,,,,,,,,,,,,,,,,,,,,,,,,,,,,,,,,,,,,,,,,,,,,,,,,,,,,,,
21,1.5445270538330078,0.6108638048171997,1.5707972049713135,0.38999885976314547,0.0,-3.141592675445488,-3.64130414709507e-08,0.5031597018241882,0.5031425356864929,0.608077883720398,1.5714702606201172,0.38764277011156084,0.0,-3.141696208713463,-0.0002928233298007399,0.5034059286117554,0.5033897161483765,,,,,,,,,,,,,,,,,,,,,,,,,,,,,,,,,,,,,,,,,,,,,,,,,,,,,,,,,,,,,,,,,,,,,,,,,,,,,,,,,,,,,,,,,,,,,,,,,,,,,,,,,,,,,,,,,,,,,,,,,,,,,,,,,,,,,,-1.7552626019323725e-09,-7.676081992258332e-10,-2.391808973101206e-09,0.0,-5.829298288517748e-08,2.062547821424232e-07,-0.015897933393716812,-0.015800733119249344,-3.5236191706644604e-06,8.654811267660989e-07,-5.332093223842094e-06,0.0,0.0005223231855779886,0.0014745541848242283,0.017135605216026306,0.01704522781074047,,,,,,,,,,,,,,,,,,,,,,,,,,,,,,,,,,,,,,,,,,,,,,,,,,,,,,,,,,,,,,,,,,,,,,,,,,
22,1.5657007694244385,0.6108638048171997,1.5707972049713135,0.38999885976314547,0.0,-3.141592675445488,-3.64130414709507e-08,0.5031597018241882,0.5031425356864929,0.6080777645111084,1.5714702606201172,0.3876425987482071,0.0,-3.1416791021804125,-0.0002444944984745234,0.5028442740440369,0.502830982208252,,,,,,,,,,,,,,,,,,,,,,,,,,,,,,,,,,,,,,,,,,,,,,,,,,,,,,,,,,,,,,,,,,,,,,,,,,,,,,,,,,,,,,,,,,,,,,,,,,,,,,,,,,,,,,,,,,,,,,,,,,,,,,,,,,,,,,-1.7552626019323725e-09,-7.676081992258332e-10,-2.391808973101206e-09,0.0,-5.829298288517748e-08,2.062547821424232e-07,-0.015897933393716812,-0.015800733119249344,-2.942947958217701e-06,7.233471706058481e-07,-4.451709628483513e-06,0.0,0.0004359596932772547,0.0012311899336054921,0.014309797435998917,0.014235645532608032,,,,,,,,,,,,,,,,,,,,,,,,,,,,,,,,,,,,,,,,,,,,,,,,,,,,,,,,,,,,,,,,,,,,,,,,,,
23,1.5870089530944824,0.6108638048171997,1.5707972049713135,0.38999885976314547,0.0,-3.141592675445488,-2.9390996303391148e-08,0.502612292766571,0.5025984644889832,0.6080777645111084,1.5714702606201172,0.3876425987482071,0.0,-3.1416791021804125,-0.0002444944984745234,0.5028442740440369,0.502830982208252,,,,,,,,,,,,,,,,,,,,,,,,,,,,,,,,,,,,,,,,,,,,,,,,,,,,,,,,,,,,,,,,,,,,,,,,,,,,,,,,,,,,,,,,,,,,,,,,,,,,,,,,,,,,,,,,,,,,,,,,,,,,,,,,,,,,,,-1.4504508705215358e-09,-5.971889649458717e-10,-1.9587040878121798e-09,0.0,-4.551831267463058e-08,1.6679069858582807e-07,-0.013143769465386868,-0.013065098784863949,-2.942947958217701e-06,7.233471706058481e-07,-4.451709628483513e-06,0.0,0.0004359596932772547,0.0012311899336054921,0.014309797435998917,0.014235645532608032,,,,,,,,,,,,,,,,,,,,,,,,,,,,,,,,,,,,,,,,,,,,,,,,,,,,,,,,,,,,,,,,,,,,,,,,,,
24,1.6089694499969482,0.6108638048171997,1.5707972049713135,0.38999885976314547,0.0,-3.141592675445488,-2.9390996303391148e-08,0.502612292766571,0.5025984644889832,0.6080776453018188,1.5714702606201172,0.3876424497365952,0.0,-3.1416647970656664,-0.0002041420084424317,0.5023752450942993,0.5023643374443054,,,,,,,,,,,,,,,,,,,,,,,,,,,,,,,,,,,,,,,,,,,,,,,,,,,,,,,,,,,,,,,,,,,,,,,,,,,,,,,,,,,,,,,,,,,,,,,,,,,,,,,,,,,,,,,,,,,,,,,,,,,,,,,,,,,,,,-1.4504508705215358e-09,-5.971889649458717e-10,-1.9587040878121798e-09,0.0,-4.551831267463058e-08,1.6679069858582807e-07,-0.013143769465386868,-0.013065098784863949,-2.4579678665759275e-06,6.045544296284788e-07,-3.7166862512094667e-06,0.0,0.0003638759662862867,0.0010279904818162322,0.011949989013373852,0.011889168992638588,,,,,,,,,,,,,,,,,,,,,,,,,,,,,,,,,,,,,,,,,,,,,,,,,,,,,,,,,,,,,,,,,,,,,,,,,,
25,1.631364107131958,0.6108638048171997,1.5707972049713135,0.38999885976314547,0.0,-3.141592675445488,-2.371307061821426e-08,0.5021597146987915,0.5021485686302185,0.6080775856971741,1.5714702606201172,0.3876423379778862,0.0,-3.141653472183159,-0.00017216608102899045,0.5020034909248352,0.5019944906234741,,,,,,,,,,,,,,,,,,,,,,,,,,,,,,,,,,,,,,,,,,,,,,,,,,,,,,,,,,,,,,,,,,,,,,,,,,,,,,,,,,,,,,,,,,,,,,,,,,,,,,,,,,,,,,,,,,,,,,,,,,,,,,,,,,,,,,-1.1984302439316252e-09,-4.637401573859279e-10,-1.604084975959097e-09,0.0,-3.518480085062947e-08,1.3485038152794004e-07,-0.010866737924516201,-0.010803094133734703,-2.073550831482862e-06,5.103303237774526e-07,-3.134288590445067e-06,0.0,0.00030677576432935894,0.0008669716771692038,0.010079747997224331,0.010029326193034649,,,,,,,,,,,,,,,,,,,,,,,,,,,,,,,,,,,,,,,,,,,,,,,,,,,,,,,,,,,,,,,,,,,,,,,,,,
26,1.6521198749542236,0.6108638048171997,1.5707972049713135,0.38999885976314547,0.0,-3.141592675445488,-1.956147599457836e-08,0.5018216967582703,0.5018124580383301,0.6080775856971741,1.5714702606201172,0.3876423305273056,0.0,-3.1416528761367113,-0.00017044942069333047,0.5019835233688354,0.5019746422767639,,,,,,,,,,,,,,,,,,,,,,,,,,,,,,,,,,,,,,,,,,,,,,,,,,,,,,,,,,,,,,,,,,,,,,,,,,,,,,,,,,,,,,,,,,,,,,,,,,,,,,,,,,,,,,,,,,,,,,,,,,,,,,,,,,,,,,-1.010413974711355e-09,-3.687050664780145e-10,-1.3415102362301923e-09,0.0,-2.769062845686676e-08,1.1147056966365199e-07,-0.009165904484689236,-0.009113278239965439,-2.05290962185245e-06,5.05269497352856e-07,-3.1030233458295697e-06,0.0,0.00030371086904779077,0.0008583272574469447,0.009979333728551865,0.009929465129971504,,,,,,,,,,,,,,,,,,,,,,,,,,,,,,,,,,,,,,,,,,,,,,,,,,,,,,,,,,,,,,,,,,,,,,,,,,
27,1.6735756397247314,0.6108638048171997,1.5707972049713135,0.38999885976314547,0.0,-3.141592675445488,-1.956147599457836e-08,0.5018216967582703,0.5018124580383301,0.6080775260925293,1.5714702606201172,0.38764222621917727,0.0,-3.141642922161034,-0.00014231759996619076,0.5016564130783081,0.5016491413116455,,,,,,,,,,,,,,,,,,,,,,,,,,,,,,,,,,,,,,,,,,,,,,,,,,,,,,,,,,,,,,,,,,,,,,,,,,,,,,,,,,,,,,,,,,,,,,,,,,,,,,,,,,,,,,,,,,,,,,,,,,,,,,,,,,,,,,-1.010413974711355e-09,-3.687050664780145e-10,-1.3415102362301923e-09,0.0,-2.769062845686676e-08,1.1147056966365199e-07,-0.009165904484689236,-0.009113278239965439,-1.714602831270895e-06,4.222895313432673e-07,-2.5906824703270104e-06,0.0,0.0002534937229938805,0.0007166654686443508,0.008333656005561352,0.008292781189084053,,,,,,,,,,,,,,,,,,,,,,,,,,,,,,,,,,,,,,,,,,,,,,,,,,,,,,,,,,,,,,,,,,,,,,,,,,
28,1.695326805114746,0.6108638048171997,1.5707972049713135,0.38999885976314547,0.0,-3.141592675445488,-1.5767746219808032e-08,0.5015060901641846,0.5014986991882324,0.6080775260925293,1.5714702606201172,0.38764222621917727,0.0,-3.141642922161034,-0.00014231759996619076,0.5016564130783081,0.5016491413116455,,,,,,,,,,,,,,,,,,,,,,,,,,,,,,,,,,,,,,,,,,,,,,,,,,,,,,,,,,,,,,,,,,,,,,,,,,,,,,,,,,,,,,,,,,,,,,,,,,,,,,,,,,,,,,,,,,,,,,,,,,,,,,,,,,,,,,-8.350542479718115e-10,-2.843281166065026e-10,-1.0985726772716475e-09,0.0,-2.0949963541738725e-08,9.007720080944637e-08,-0.007577999494969845,-0.007535465061664581,-1.714602831270895e-06,4.222895313432673e-07,-2.5906824703270104e-06,0.0,0.0002534937229938805,0.0007166654686443508,0.008333656005561352,0.008292781189084053,,,,,,,,,,,,,,,,,,,,,,,,,,,,,,,,,,,,,,,,,,,,,,,,,,,,,,,,,,,,,,,,,,,,,,,,,,
29,1.7168383598327637,0.6108638048171997,1.5707972049713135,0.38999885976314547,0.0,-3.141592675445488,-1.5767746219808032e-08,0.5015060901641846,0.5014986991882324,0.6080774664878845,1.5714702606201172,0.3876421442627907,0.0,-3.1416345775107652,-0.00011882875696755946,0.5013832449913025,0.5013773441314697,,,,,,,,,,,,,,,,,,,,,,,,,,,,,,,,,,,,,,,,,,,,,,,,,,,,,,,,,,,,,,,,,,,,,,,,,,,,,,,,,,,,,,,,,,,,,,,,,,,,,,,,,,,,,,,,,,,,,,,,,,,,,,,,,,,,,,-8.350542479718115e-10,-2.843281166065026e-10,-1.0985726772716475e-09,0.0,-2.0949963541738725e-08,9.007720080944637e-08,-0.007577999494969845,-0.007535465061664581,-1.4320468153528054e-06,3.529367802457273e-07,-2.1629343791573774e-06,0.0,0.00021157972514629364,0.0005983839510008693,0.006959365215152502,0.0069258734583854675,,,,,,,,,,,,,,,,,,,,,,,,,,,,,,,,,,,,,,,,,,,,,,,,,,,,,,,,,,,,,,,,,,,,,,,,,,
30,1.7383756637573242,0.6108638048171997,1.5707972049713135,0.38999885976314547,0.0,-3.141592675445488,-1.2702646934314998e-08,0.5012452006340027,0.5012391805648804,0.6080774068832397,1.5714703798294067,0.3876420772075653,0.0,-3.14162802099984,-0.00010021587513620034,0.5011667609214783,0.5011618733406067,,,,,,,,,,,,,,,,,,,,,,,,,,,,,,,,,,,,,,,,,,,,,,,,,,,,,,,,,,,,,,,,,,,,,,,,,,,,,,,,,,,,,,,,,,,,,,,,,,,,,,,,,,,,,,,,,,,,,,,,,,,,,,,,,,,,,,-6.89837076350841e-10,-2.184918912462308e-10,-8.996553502171878e-10,0.0,-1.5635992056672876e-08,7.276383939824882e-08,-0.006265183445066214,-0.006230824161320925,-1.2080801070624148e-06,2.979282385240367e-07,-1.8240067447550246e-06,0.0,0.00017837808991316706,0.0005046557635068893,0.005870184861123562,0.005842446815222502,,,,,,,,,,,,,,,,,,,,,,,,,,,,,,,,,,,,,,,,,,,,,,,,,,,,,,,,,,,,,,,,,,,,,,,,,,
31,1.7595651149749756,0.6108638048171997,1.5707972049713135,0.38999885976314547,0.0,-3.141592675445488,-1.2702646934314998e-08,0.5012452006340027,0.5012391805648804,0.6080774068832397,1.5714703798294067,0.38764206975698473,0.0,-3.1416276633719713,-9.921662422129884e-05,0.5011551380157471,0.5011503100395203,,,,,,,,,,,,,,,,,,,,,,,,,,,,,,,,,,,,,,,,,,,,,,,,,,,,,,,,,,,,,,,,,,,,,,,,,,,,,,,,,,,,,,,,,,,,,,,,,,,,,,,,,,,,,,,,,,,,,,,,,,,,,,,,,,,,,,-6.89837076350841e-10,-2.184918912462308e-10,-8.996553502171878e-10,0.0,-1.5635992056672876e-08,7.276383939824882e-08,-0.006265183445066214,-0.006230824161320925,-1.19605442705506e-06,2.949736028767802e-07,-1.8058118484987062e-06,0.0,0.00017659596051089466,0.0004996239440515637,0.005811706185340881,0.00578427454456687,,,,,,,,,,,,,,,,,,,,,,,,,,,,,,,,,,,,,,,,,,,,,,,,,,,,,,,,,,,,,,,,,,,,,,,,,,
32,1.7829716205596924,0.6108638048171997,1.5707972049713135,0.38999885976314547,0.0,-3.141592675445488,-1.0227162228204634e-08,0.5010294914245605,0.5010246634483337,0.608077347278595,1.5714703798294067,0.38764201015233996,0.0,-3.141621881721428,-8.284136856673285e-05,0.5009646415710449,0.5009607076644897,,,,,,,,,,,,,,,,,,,,,,,,,,,,,,,,,,,,,,,,,,,,,,,,,,,,,,,,,,,,,,,,,,,,,,,,,,,,,,,,,,,,,,,,,,,,,,,,,,,,,,,,,,,,,,,,,,,,,,,,,,,,,,,,,,,,,,-5.701550342962491e-10,-1.6697754290362354e-10,-7.366399157326953e-10,0.0,-1.1480317141376872e-08,5.8754981324682376e-08,-0.005179800558835268,-0.005152060184627771,-9.989520322051249e-07,2.4652933916513575e-07,-1.507653905719053e-06,0.0,0.0001473965821787715,0.00041716359555721283,0.004853306338191032,0.0048308465629816055,,,,,,,,,,,,,,,,,,,,,,,,,,,,,,,,,,,,,,,,,,,,,,,,,,,,,,,,,,,,,,,,,,,,,,,,,,
33,1.805311918258667,0.6108638048171997,1.5707972049713135,0.38999885976314547,0.0,-3.141592675445488,-8.323551625721848e-09,0.5008596777915955,0.5008558034896851,0.608077347278595,1.5714703798294067,0.38764201015233996,0.0,-3.141621881721428,-8.284136856673285e-05,0.5009646415710449,0.5009607076644897,,,,,,,,,,,,,,,,,,,,,,,,,,,,,,,,,,,,,,,,,,,,,,,,,,,,,,,,,,,,,,,,,,,,,,,,,,,,,,,,,,,,,,,,,,,,,,,,,,,,,,,,,,,,,,,,,,,,,,,,,,,,,,,,,,,,,,-4.757860772031108e-10,-1.290079154614432e-10,-6.095957072460578e-10,0.0,-8.408496121603548e-09,4.7961009386199294e-08,-0.004325543530285358,-0.00430290587246418,-9.989520322051249e-07,2.4652933916513575e-07,-1.507653905719053e-06,0.0,0.0001473965821787715,0.00041716359555721283,0.004853306338191032,0.0048308465629816055,,,,,,,,,,,,,,,,,,,,,,,,,,,,,,,,,,,,,,,,,,,,,,,,,,,,,,,,,,,,,,,,,,,,,,,,,,
34,1.8260672092437744,0.6108638048171997,1.5707972049713135,0.38999885976314547,0.0,-3.141592675445488,-8.323551625721848e-09,0.5008596777915955,0.5008558034896851,0.608077347278595,1.5714703798294067,0.3876419579982758,0.0,-3.141616815326622,-6.847908662166446e-05,0.5007975697517395,0.5007943511009216,,,,,,,,,,,,,,,,,,,,,,,,,,,,,,,,,,,,,,,,,,,,,,,,,,,,,,,,,,,,,,,,,,,,,,,,,,,,,,,,,,,,,,,,,,,,,,,,,,,,,,,,,,,,,,,,,,,,,,,,,,,,,,,,,,,,,,-4.757860772031108e-10,-1.290079154614432e-10,-6.095957072460578e-10,0.0,-8.408496121603548e-09,4.7961009386199294e-08,-0.004325543530285358,-0.00430290587246418,-8.260258255177177e-07,2.0399781419655483e-07,-1.246168949364801e-06,0.0,0.00012179604527773336,0.0003448398201726377,0.0040125795640051365,0.003994401544332504,,,,,,,,,,,,,,,,,,,,,,,,,,,,,,,,,,,,,,,,,,,,,,,,,,,,,,,,,,,,,,,,,,,,,,,,,,
35,1.847369909286499,0.6108638048171997,1.5707972049713135,0.38999885976314547,0.0,-3.141592675445488,-6.77000544513362e-09,0.5007179379463196,0.5007147192955017,0.608077347278595,1.5714703798294067,0.3876419579982758,0.0,-3.141616815326622,-6.847908662166446e-05,0.5007975697517395,0.5007943511009216,,,,,,,,,,,,,,,,,,,,,,,,,,,,,,,,,,,,,,,,,,,,,,,,,,,,,,,,,,,,,,,,,,,,,,,,,,,,,,,,,,,,,,,,,,,,,,,,,,,,,,,,,,,,,,,,,,,,,,,,,,,,,,,,,,,,,,-3.971267759084185e-10,-9.903189379656396e-11,-5.043049311481695e-10,0.0,-6.014466702453092e-09,3.913256918508523e-08,-0.0036121716257184744,-0.003593707922846079,-8.260258255177177e-07,2.0399781419655483e-07,-1.246168949364801e-06,0.0,0.00012179604527773336,0.0003448398201726377,0.0040125795640051365,0.003994401544332504,,,,,,,,,,,,,,,,,,,,,,,,,,,,,,,,,,,,,,,,,,,,,,,,,,,,,,,,,,,,,,,,,,,,,,,,,,
36,1.868936538696289,0.6108638048171997,1.5707972049713135,0.38999885976314547,0.0,-3.141592675445488,-5.566547223168072e-09,0.5006055235862732,0.5006029605865479,0.6080772876739502,1.5714703798294067,0.3876419132947922,0.0,-3.141612643001488,-5.660680108121596e-05,0.5006594061851501,0.5006568431854248,,,,,,,,,,,,,,,,,,,,,,,,,,,,,,,,,,,,,,,,,,,,,,,,,,,,,,,,,,,,,,,,,,,,,,,,,,,,,,,,,,,,,,,,,,,,,,,,,,,,,,,,,,,,,,,,,,,,,,,,,,,,,,,,,,,,,,-3.3489877537817847e-10,-7.649436639667329e-11,-4.21697399222154e-10,0.0,-4.256039964900538e-09,3.227868106137066e-08,-0.0030468038748949766,-0.0030315809417515993,-6.830342726971139e-07,1.6880341036085156e-07,-1.030035491567105e-06,0.0,0.00010064191155834123,0.0002850547607522458,0.003317489754408598,0.003302783938124776,,,,,,,,,,,,,,,,,,,,,,,,,,,,,,,,,,,,,,,,,,,,,,,,,,,,,,,,,,,,,,,,,,,,,,,,,,
37,1.8905737400054932,0.6108638048171997,1.5707972049713135,0.38999885976314547,0.0,-3.141592675445488,-5.566547223168072e-09,0.5006055235862732,0.5006029605865479,0.6080772876739502,1.5714703798294067,0.3876418834924698,0.0,-3.1416093051413805,-4.72640895168297e-05,0.5005506873130798,0.5005485415458679,,,,,,,,,,,,,,,,,,,,,,,,,,,,,,,,,,,,,,,,,,,,,,,,,,,,,,,,,,,,,,,,,,,,,,,,,,,,,,,,,,,,,,,,,,,,,,,,,,,,,,,,,,,,,,,,,,,,,,,,,,,,,,,,,,,,,,-3.3489877537817847e-10,-7.649436639667329e-11,-4.21697399222154e-10,0.0,-4.256039964900538e-09,3.227868106137066e-08,-0.0030468038748949766,-0.0030315809417515993,-5.704746968149266e-07,1.4108047707850346e-07,-8.599661782682233e-07,0.0,8.400114165851846e-05,0.00023800780763849616,0.002770407358184457,0.0027583823539316654,,,,,,,,,,,,,,,,,,,,,,,,,,,,,,,,,,,,,,,,,,,,,,,,,,,,,,,,,,,,,,,,,,,,,,,,,,
38,1.911520004272461,0.6108638048171997,1.5707972049713135,0.38999885976314547,0.0,-3.141592675445488,-4.521478302876858e-09,0.5005056858062744,0.5005035400390625,0.6080772876739502,1.5714703798294067,0.3876418834924698,0.0,-3.1416093051413805,-4.72640895168297e-05,0.5005506873130798,0.5005485415458679,,,,,,,,,,,,,,,,,,,,,,,,,,,,,,,,,,,,,,,,,,,,,,,,,,,,,,,,,,,,,,,,,,,,,,,,,,,,,,,,,,,,,,,,,,,,,,,,,,,,,,,,,,,,,,,,,,,,,,,,,,,,,,,,,,,,,,-2.795541576006144e-10,-5.773159728050814e-11,-3.488667688067437e-10,0.0,-2.820466082908979e-09,2.631225726190678e-08,-0.0025443225167691708,-0.0025319205597043037,-5.704746968149266e-07,1.4108047707850346e-07,-8.599661782682233e-07,0.0,8.400114165851846e-05,0.00023800780763849616,0.002770407358184457,0.0027583823539316654,,,,,,,,,,,,,,,,,,,,,,,,,,,,,,,,,,,,,,,,,,,,,,,,,,,,,,,,,,,,,,,,,,,,,,,,,,
39,1.9333326816558838,0.6108638048171997,1.5707972049713135,0.38999885976314547,0.0,-3.141592675445488,-4.521478302876858e-09,0.5005056858062744,0.5005035400390625,0.6080772876739502,1.5714703798294067,0.3876418536901474,0.0,-3.1416064441184313,-3.906985875801183e-05,0.5004552602767944,0.5004535913467407,,,,,,,,,,,,,,,,,,,,,,,,,,,,,,,,,,,,,,,,,,,,,,,,,,,,,,,,,,,,,,,,,,,,,,,,,,,,,,,,,,,,,,,,,,,,,,,,,,,,,,,,,,,,,,,,,,,,,,,,,,,,,,,,,,,,,,-2.795541576006144e-10,-5.773159728050814e-11,-3.488667688067437e-10,0.0,-2.820466082908979e-09,2.631225726190678e-08,-0.0025443225167691708,-0.0025319205597043037,-4.7172093786684854e-07,1.1674072908363087e-07,-7.108151294232812e-07,0.0,6.941136962268502e-05,0.00019674422219395638,0.00229049613699317,0.0022807775530964136,,,,,,,,,,,,,,,,,,,,,,,,,,,,,,,,,,,,,,,,,,,,,,,,,,,,,,,,,,,,,,,,,,,,,,,,,,
40,1.95536208152771,0.6108638048171997,1.5707972049713135,0.38999885976314547,0.0,-3.141592675445488,-3.66981223187679e-09,0.5004222989082336,0.5004205703735352,0.6080772876739502,1.5714703798294067,0.3876418536901474,0.0,-3.1416064441184313,-3.906985875801183e-05,0.5004552602767944,0.5004535913467407,,,,,,,,,,,,,,,,,,,,,,,,,,,,,,,,,,,,,,,,,,,,,,,,,,,,,,,,,,,,,,,,,,,,,,,,,,,,,,,,,,,,,,,,,,,,,,,,,,,,,,,,,,,,,,,,,,,,,,,,,,,,,,,,,,,,,,-2.3342439092743916e-10,-4.3076653355456074e-11,-2.886441086147329e-10,0.0,-1.7341128533132633e-09,2.143699440182445e-08,-0.002124710939824581,-0.0021146133076399565,-4.7172093786684854e-07,1.1674072908363087e-07,-7.108151294232812e-07,0.0,6.941136962268502e-05,0.00019674422219395638,0.00229049613699317,0.0022807775530964136,,,,,,,,,,,,,,,,,,,,,,,,,,,,,,,,,,,,,,,,,,,,,,,,,,,,,,,,,,,,,,,,,,,,,,,,,,
41,1.9771268367767334,0.6108638048171997,1.5707972049713135,0.38999885976314547,0.0,-3.141592675445488,-2.9761448860909923e-09,0.5003526210784912,0.5003512501716614,0.6080772280693054,1.5714703798294067,0.38764183133840563,0.0,-3.1416040599326402,-3.22962696372997e-05,0.5003764033317566,0.5003750324249268,,,,,,,,,,,,,,,,,,,,,,,,,,,,,,,,,,,,,,,,,,,,,,,,,,,,,,,,,,,,,,,,,,,,,,,,,,,,,,,,,,,,,,,,,,,,,,,,,,,,,,,,,,,,,,,,,,,,,,,,,,,,,,,,,,,,,,-1.9478862967048372e-10,-3.197442310920451e-11,-2.3880897259687117e-10,0.0,-9.23428000731974e-10,1.7455203504823658e-08,-0.0017743018688634038,-0.0017660860903561115,-3.900625245023548e-07,9.660017497026274e-08,-5.875325541637721e-07,0.0,5.7355613535037264e-05,0.00016263450379483402,0.0018937188433483243,0.001885868376120925,,,,,,,,,,,,,,,,,,,,,,,,,,,,,,,,,,,,,,,,,,,,,,,,,,,,,,,,,,,,,,,,,,,,,,,,,,
42,2.0002832412719727,0.6108638048171997,1.5707972049713135,0.38999885976314547,0.0,-3.141592675445488,-2.9761448860909923e-09,0.5003526210784912,0.5003512501716614,0.6080772280693054,1.5714703798294067,0.38764180898666384,0.0,-3.1416021525840074,-2.6965899451170117e-05,0.5003143548965454,0.5003132224082947,,,,,,,,,,,,,,,,,,,,,,,,,,,,,,,,,,,,,,,,,,,,,,,,,,,,,,,,,,,,,,,,,,,,,,,,,,,,,,,,,,,,,,,,,,,,,,,,,,,,,,,,,,,,,,,,,,,,,,,,,,,,,,,,,,,,,,-1.9478862967048372e-10,-3.197442310920451e-11,-2.3880897259687117e-10,0.0,-9.23428000731974e-10,1.7455203504823658e-08,-0.0017743018688634038,-0.0017660860903561115,-3.257829632730136e-07,8.073486412740749e-08,-4.905249966213887e-07,0.0,4.7872032155282795e-05,0.00013579237565863878,0.001581428456120193,0.0015750185120850801,,,,,,,,,,,,,,,,,,,,,,,,,,,,,,,,,,,,,,,,,,,,,,,,,,,,,,,,,,,,,,,,,,,,,,,,,,
43,2.0224359035491943,0.6108638048171997,1.5707972049713135,0.38999885976314547,0.0,-3.141592675445488,-2.3834187956595088e-09,0.5002915263175964,0.5002904534339905,0.6080772280693054,1.5714703798294067,0.38764180898666384,0.0,-3.1416021525840074,-2.6965899451170117e-05,0.5003143548965454,0.5003132224082947,,,,,,,,,,,,,,,,,,,,,,,,,,,,,,,,,,,,,,,,,,,,,,,,,,,,,,,,,,,,,,,,,,,,,,,,,,,,,,,,,,,,,,,,,,,,,,,,,,,,,,,,,,,,,,,,,,,,,,,,,,,,,,,,,,,,,,-1.6087131626818518e-10,-2.275957200481571e-11,-1.9536455786450801e-10,0.0,-3.020916850005051e-10,1.4042029761185404e-08,-0.001466920948587358,-0.0014603172894567251,-3.257829632730136e-07,8.073486412740749e-08,-4.905249966213887e-07,0.0,4.7872032155282795e-05,0.00013579237565863878,0.001581428456120193,0.0015750185120850801,,,,,,,,,,,,,,,,,,,,,,,,,,,,,,,,,,,,,,,,,,,,,,,,,,,,,,,,,,,,,,,,,,,,,,,,,,
44,2.0439612865448,0.6108638048171997,1.5707972049713135,0.38999885976314547,0.0,-3.141592675445488,-2.3834187956595088e-09,0.5002915263175964,0.5002904534339905,0.6080772280693054,1.5714703798294067,0.38764179408550264,0.0,-3.1416006028632433,-2.251528530905489e-05,0.5002624988555908,0.5002616047859192,,,,,,,,,,,,,,,,,,,,,,,,,,,,,,,,,,,,,,,,,,,,,,,,,,,,,,,,,,,,,,,,,,,,,,,,,,,,,,,,,,,,,,,,,,,,,,,,,,,,,,,,,,,,,,,,,,,,,,,,,,,,,,,,,,,,,,-1.6087131626818518e-10,-2.275957200481571e-11,-1.9536455786450801e-10,0.0,-3.020916850005051e-10,1.4042029761185404e-08,-0.001466920948587358,-0.0014603172894567251,-2.7209568997932365e-07,6.747536218654204e-08,-4.095344365850906e-07,0.0,3.995652514277026e-05,0.00011338042531860992,0.0013206374133005738,0.0013154065236449242,,,,,,,,,,,,,,,,,,,,,,,,,,,,,,,,,,,,,,,,,,,,,,,,,,,,,,,,,,,,,,,,,,,,,,,,,,
45,2.0652618408203125,0.6108638048171997,1.5707972049713135,0.38999885976314547,0.0,-3.141592675445488,-1.9067631917835115e-09,0.5002410411834717,0.5002401471138,0.6080772280693054,1.5714703798294067,0.38764179408550264,0.0,-3.1416006028632433,-2.251528530905489e-05,0.5002624988555908,0.5002616047859192,,,,,,,,,,,,,,,,,,,,,,,,,,,,,,,,,,,,,,,,,,,,,,,,,,,,,,,,,,,,,,,,,,,,,,,,,,,,,,,,,,,,,,,,,,,,,,,,,,,,,,,,,,,,,,,,,,,,,,,,,,,,,,,,,,,,,,-1.3300471835009375e-10,-1.5654144647214707e-11,-1.599276266972538e-10,0.0,1.3533618670180658e-10,1.1288206813730994e-08,-0.0012127908412367105,-0.0012074874248355627,-2.7209568997932365e-07,6.747536218654204e-08,-4.095344365850906e-07,0.0,3.995652514277026e-05,0.00011338042531860992,0.0013206374133005738,0.0013154065236449242,,,,,,,,,,,,,,,,,,,,,,,,,,,,,,,,,,,,,,,,,,,,,,,,,,,,,,,,,,,,,,,,,,,,,,,,,,
46,2.086488962173462,0.6108638048171997,1.5707972049713135,0.38999885976314547,0.0,-3.141592675445488,-1.9067631917835115e-09,0.5002410411834717,0.5002401471138,0.6080772280693054,1.5714703798294067,0.38764177918434145,0.0,-3.141599351165703,-1.898856135085225e-05,0.5002214312553406,0.5002206563949585,,,,,,,,,,,,,,,,,,,,,,,,,,,,,,,,,,,,,,,,,,,,,,,,,,,,,,,,,,,,,,,,,,,,,,,,,,,,,,,,,,,,,,,,,,,,,,,,,,,,,,,,,,,,,,,,,,,,,,,,,,,,,,,,,,,,,,-1.3300471835009375e-10,-1.5654144647214707e-11,-1.599276266972538e-10,0.0,1.3533618670180658e-10,1.1288206813730994e-08,-0.0012127908412367105,-0.0012074874248355627,-2.2954100131755695e-07,5.6958104011073374e-08,-3.4536114412730967e-07,0.0,3.36863704433199e-05,9.562088962411508e-05,0.001113950158469379,0.00110963499173522,,,,,,,,,,,,,,,,,,,,,,,,,,,,,,,,,,,,,,,,,,,,,,,,,,,,,,,,,,,,,,,,,,,,,,,,,,
47,2.1086978912353516,0.6108638048171997,1.5707972049713135,0.38999885976314547,0.0,-3.141592675445488,-1.523740689179931e-09,0.5001992583274841,0.5001985430717468,0.6080772280693054,1.5714703798294067,0.38764177173376085,0.0,-3.141598278282097,-1.6014251741580665e-05,0.5001867413520813,0.5001861453056335,,,,,,,,,,,,,,,,,,,,,,,,,,,,,,,,,,,,,,,,,,,,,,,,,,,,,,,,,,,,,,,,,,,,,,,,,,,,,,,,,,,,,,,,,,,,,,,,,,,,,,,,,,,,,,,,,,,,,,,,,,,,,,,,,,,,,,-1.0996759058912176e-10,-1.0547118733938987e-11,-1.308328445581708e-10,0.0,4.3204329003287967e-10,9.067385953187568e-09,-0.0010026863310486078,-0.0009984307689592242,-1.9364171066627023e-07,4.8080430303798494e-08,-2.9124376510480943e-07,0.0,2.840014894900378e-05,8.064314897637814e-05,0.0009396105888299644,0.0009360527037642896,,,,,,,,,,,,,,,,,,,,,,,,,,,,,,,,,,,,,,,,,,,,,,,,,,,,,,,,,,,,,,,,,,,,,,,,,,
48,2.13077712059021,0.6108638048171997,1.5707972049713135,0.38999885976314547,0.0,-3.141592675445488,-1.2307618257878516e-09,0.5001664161682129,0.5001658201217651,0.6080772280693054,1.5714703798294067,0.38764177173376085,0.0,-3.141598278282097,-1.6014251741580665e-05,0.5001867413520813,0.5001861453056335,,,,,,,,,,,,,,,,,,,,,,,,,,,,,,,,,,,,,,,,,,,,,,,,,,,,,,,,,,,,,,,,,,,,,,,,,,,,,,,,,,,,,,,,,,,,,,,,,,,,,,,,,,,,,,,,,,,,,,,,,,,,,,,,,,,,,,-9.181544413650045e-11,-6.661338147750939e-12,-1.0825368379485667e-10,0.0,6.153966225497243e-10,7.3619559337601e-09,-0.0008373224991373718,-0.000833870901260525,-1.9364171066627023e-07,4.8080430303798494e-08,-2.9124376510480943e-07,0.0,2.840014894900378e-05,8.064314897637814e-05,0.0009396105888299644,0.0009360527037642896,,,,,,,,,,,,,,,,,,,,,,,,,,,,,,,,,,,,,,,,,,,,,,,,,,,,,,,,,,,,,,,,,,,,,,,,,,
49,2.1521177291870117,0.6108638048171997,1.5707972049713135,0.38999885976314547,0.0,-3.141592675445488,-1.2307618257878516e-09,0.5001664161682129,0.5001658201217651,0.6080772280693054,1.5714703798294067,0.38764175683259966,0.0,-3.1415973246077806,-1.3237836355983745e-05,0.500154435634613,0.5001538991928101,,,,,,,,,,,,,,,,,,,,,,,,,,,,,,,,,,,,,,,,,,,,,,,,,,,,,,,,,,,,,,,,,,,,,,,,,,,,,,,,,,,,,,,,,,,,,,,,,,,,,,,,,,,,,,,,,,,,,,,,,,,,,,,,,,,,,,-9.181544413650045e-11,-6.661338147750939e-12,-1.0825368379485667e-10,0.0,6.153966225497243e-10,7.3619559337601e-09,-0.0008373224991373718,-0.000833870901260525,-1.6012097603379516e-07,3.978517426617145e-08,-2.407309125374013e-07,0.0,2.3467417122446932e-05,6.666194531135261e-05,0.0007768440409563482,0.0007739781867712736,,,,,,,,,,,,,,,,,,,,,,,,,,,,,,,,,,,,,,,,,,,,,,,,,,,,,,,,,,,,,,,,,,,,,,,,,,
50,2.1735146045684814,0.6108638048171997,1.5707972049713135,0.38999885976314547,0.0,-3.141592675445488,-9.929759237081726e-10,0.5001389980316162,0.500138521194458,0.6080772280693054,1.5714703798294067,0.38764175683259966,0.0,-3.1415973246077806,-1.3237836355983745e-05,0.500154435634613,0.5001538991928101,,,,,,,,,,,,,,,,,,,,,,,,,,,,,,,,,,,,,,,,,,,,,,,,,,,,,,,,,,,,,,,,,,,,,,,,,,,,,,,,,,,,,,,,,,,,,,,,,,,,,,,,,,,,,,,,,,,,,,,,,,,,,,,,,,,,,,-7.643885524544203e-11,-4.440892098500626e-12,-8.949091467869152e-11,0.0,7.274736368856338e-10,5.97309401939583e-09,-0.0006992306443862617,-0.0006964335334487259,-1.6012097603379516e-07,3.978517426617145e-08,-2.407309125374013e-07,0.0,2.3467417122446932e-05,6.666194531135261e-05,0.0007768440409563482,0.0007739781867712736,,,,,,,,,,,,,,,,,,,,,,,,,,,,,,,,,,,,,,,,,,,,,,,,,,,,,,,,,,,,,,,,,,,,,,,,,,
51,2.1953020095825195,0.6108638048171997,1.5707972049713135,0.38999885976314547,0.0,-3.141592675445488,-9.929759237081726e-10,0.5001389980316162,0.500138521194458,0.6080771684646606,1.5714703798294067,0.38764174938201906,0.0,-3.1415964901427538,-1.0942772860289551e-05,0.5001276731491089,0.5001272559165955,,,,,,,,,,,,,,,,,,,,,,,,,,,,,,,,,,,,,,,,,,,,,,,,,,,,,,,,,,,,,,,,,,,,,,,,,,,,,,,,,,,,,,,,,,,,,,,,,,,,,,,,,,,,,,,,,,,,,,,,,,,,,,,,,,,,,,-7.643885524544203e-11,-4.440892098500626e-12,-8.949091467869152e-11,0.0,7.274736368856338e-10,5.97309401939583e-09,-0.0006992306443862617,-0.0006964335334487259,-1.3240281759863137e-07,3.2921001036356756e-08,-1.9897898084764165e-07,0.0,1.9391429304960184e-05,5.510467599378899e-05,0.0006422731676138937,0.0006399663398042321,,,,,,,,,,,,,,,,,,,,,,,,,,,,,,,,,,,,,,,,,,,,,,,,,,,,,,,,,,,,,,,,,,,,,,,,,,
52,2.2167155742645264,0.6108638048171997,1.5707972049713135,0.38999885976314547,0.0,-3.141592675445488,-7.905746057801366e-10,0.500114917755127,0.5001145005226135,0.6080771684646606,1.5714703798294067,0.38764174193143847,0.0,-3.141595894096306,-9.136709195445292e-06,0.5001066327095032,0.5001062750816345,,,,,,,,,,,,,,,,,,,,,,,,,,,,,,,,,,,,,,,,,,,,,,,,,,,,,,,,,,,,,,,,,,,,,,,,,,,,,,,,,,,,,,,,,,,,,,,,,,,,,,,,,,,,,,,,,,,,,,,,,,,,,,,,,,,,,,-6.328271240363392e-11,-2.220446049250313e-12,-7.321920847402907e-11,0.0,7.884248809375549e-10,4.78528283665014e-09,-0.0005780955543741584,-0.0005758574698120356,-1.1058348547976493e-07,2.7514325040556287e-08,-1.661255311091736e-07,0.0,1.618508576939348e-05,4.6009867219254375e-05,0.0005363568780012429,0.0005344799137674272,,,,,,,,,,,,,,,,,,,,,,,,,,,,,,,,,,,,,,,,,,,,,,,,,,,,,,,,,,,,,,,,,,,,,,,,,,
53,2.239034652709961,0.6108638048171997,1.5707972049713135,0.38999885976314547,0.0,-3.141592675445488,-6.439068167551909e-10,0.5000969171524048,0.5000966191291809,0.6080771684646606,1.5714703798294067,0.38764174193143847,0.0,-3.141595894096306,-9.136709195445292e-06,0.5001066327095032,0.5001062750816345,,,,,,,,,,,,,,,,,,,,,,,,,,,,,,,,,,,,,,,,,,,,,,,,,,,,,,,,,,,,,,,,,,,,,,,,,,,,,,,,,,,,,,,,,,,,,,,,,,,,,,,,,,,,,,,,,,,,,,,,,,,,,,,,,,,,,,-5.340172748447003e-11,-4.440892098500626e-13,-6.112471639951877e-11,0.0,8.068545831463325e-10,3.921106550563991e-09,-0.0004876135499216616,-0.0004857819003518671,-1.1058348547976493e-07,2.7514325040556287e-08,-1.661255311091736e-07,0.0,1.618508576939348e-05,4.6009867219254375e-05,0.0005363568780012429,0.0005344799137674272,,,,,,,,,,,,,,,,,,,,,,,,,,,,,,,,,,,,,,,,,,,,,,,,,,,,,,,,,,,,,,,,,,,,,,,,,,
54,2.259962320327759,0.6108638048171997,1.5707972049713135,0.38999885976314547,0.0,-3.141592675445488,-6.439068167551909e-10,0.5000969171524048,0.5000966191291809,0.6080771684646606,1.5714703798294067,0.38764174193143847,0.0,-3.1415952980498583,-7.552663646492874e-06,0.5000881552696228,0.5000878572463989,,,,,,,,,,,,,,,,,,,,,,,,,,,,,,,,,,,,,,,,,,,,,,,,,,,,,,,,,,,,,,,,,,,,,,,,,,,,,,,,,,,,,,,,,,,,,,,,,,,,,,,,,,,,,,,,,,,,,,,,,,,,,,,,,,,,,,-5.340172748447003e-11,-4.440892098500626e-13,-6.112471639951877e-11,0.0,8.068545831463325e-10,3.921106550563991e-09,-0.0004876135499216616,-0.0004857819003518671,-9.144079626821622e-08,2.2767011387259117e-08,-1.3731302317410155e-07,0.0,1.3373935871641152e-05,3.803307481575757e-05,0.00044344502384774387,0.0004419364267960191,,,,,,,,,,,,,,,,,,,,,,,,,,,,,,,,,,,,,,,,,,,,,,,,,,,,,,,,,,,,,,,,,,,,,,,,,,
55,2.2807228565216064,0.6108638048171997,1.5707972049713135,0.38999885976314547,0.0,-3.141592675445488,-5.174356498827137e-10,0.500080943107605,0.5000807046890259,0.6080771684646606,1.5714703798294067,0.38764174193143847,0.0,-3.1415952980498583,-7.552663646492874e-06,0.5000881552696228,0.5000878572463989,,,,,,,,,,,,,,,,,,,,,,,,,,,,,,,,,,,,,,,,,,,,,,,,,,,,,,,,,,,,,,,,,,,,,,,,,,,,,,,,,,,,,,,,,,,,,,,,,,,,,,,,,,,,,,,,,,,,,,,,,,,,,,,,,,,,,,-4.4575454438700035e-11,4.440892098500626e-13,-5.05914754533876e-11,0.0,7.988609773690314e-10,3.1723781379611182e-09,-0.0004071959119755775,-0.0004057160404045135,-9.144079626821622e-08,2.2767011387259117e-08,-1.3731302317410155e-07,0.0,1.3373935871641152e-05,3.803307481575757e-05,0.00044344502384774387,0.0004419364267960191,,,,,,,,,,,,,,,,,,,,,,,,,,,,,,,,,,,,,,,,,,,,,,,,,,,,,,,,,,,,,,,,,,,,,,,,,,
56,2.302722692489624,0.6108638048171997,1.5707972049713135,0.38999885976314547,0.0,-3.141592675445488,-5.174356498827137e-10,0.500080943107605,0.5000807046890259,0.6080771684646606,1.5714703798294067,0.38764173448085787,0.0,-3.141594880817345,-6.243245934456354e-06,0.5000728964805603,0.5000726580619812,,,,,,,,,,,,,,,,,,,,,,,,,,,,,,,,,,,,,,,,,,,,,,,,,,,,,,,,,,,,,,,,,,,,,,,,,,,,,,,,,,,,,,,,,,,,,,,,,,,,,,,,,,,,,,,,,,,,,,,,,,,,,,,,,,,,,,-4.4575454438700035e-11,4.440892098500626e-13,-5.05914754533876e-11,0.0,7.988609773690314e-10,3.1723781379611182e-09,-0.0004071959119755775,-0.0004057160404045135,-7.561151704749136e-08,1.8839152460259356e-08,-1.1349767703450198e-07,0.0,1.1051045476051513e-05,3.1439223675988615e-05,0.00036662808270193636,0.000365416519343853,,,,,,,,,,,,,,,,,,,,,,,,,,,,,,,,,,,,,,,,,,,,,,,,,,,,,,,,,,,,,,,,,,,,,,,,,,
57,2.3245224952697754,0.6108638048171997,1.5707972049713135,0.38999885976314547,0.0,-3.141592675445488,-4.1516320936629825e-10,0.5000675916671753,0.500067412853241,0.6080771684646606,1.5714703798294067,0.38764173448085787,0.0,-3.141594880817345,-6.243245934456354e-06,0.5000728964805603,0.5000726580619812,,,,,,,,,,,,,,,,,,,,,,,,,,,,,,,,,,,,,,,,,,,,,,,,,,,,,,,,,,,,,,,,,,,,,,,,,,,,,,,,,,,,,,,,,,,,,,,,,,,,,,,,,,,,,,,,,,,,,,,,,,,,,,,,,,,,,,-3.7247982476174e-11,1.2212453270876722e-12,-4.181377466494496e-11,0.0,7.723821582317214e-10,2.564391587966952e-09,-0.00034004083136096597,-0.00033884646836668253,-7.561151704749136e-08,1.8839152460259356e-08,-1.1349767703450198e-07,0.0,1.1051045476051513e-05,3.1439223675988615e-05,0.00036662808270193636,0.000365416519343853,,,,,,,,,,,,,,,,,,,,,,,,,,,,,,,,,,,,,,,,,,,,,,,,,,,,,,,,,,,,,,,,,,,,,,,,,,
58,2.3463878631591797,0.6108638048171997,1.5707972049713135,0.38999885976314547,0.0,-3.141592675445488,-3.366877332489082e-10,0.5000569820404053,0.5000568628311157,0.6080771684646606,1.5714703798294067,0.38764173448085787,0.0,-3.141594523189476,-5.21282117915689e-06,0.5000608563423157,0.5000606775283813,,,,,,,,,,,,,,,,,,,,,,,,,,,,,,,,,,,,,,,,,,,,,,,,,,,,,,,,,,,,,,,,,,,,,,,,,,,,,,,,,,,,,,,,,,,,,,,,,,,,,,,,,,,,,,,,,,,,,,,,,,,,,,,,,,,,,,-3.136380044566067e-11,1.6653345369377348e-12,-3.4833247397614286e-11,0.0,7.349676423018536e-10,2.095249307387803e-09,-0.0002868185401894152,-0.00028584414394572377,-6.315131884093717e-08,1.5744850756505002e-08,-9.475812134951411e-08,0.0,9.223764209309593e-06,2.625029992486816e-05,0.00030616798903793097,0.00030518448329530656,,,,,,,,,,,,,,,,,,,,,,,,,,,,,,,,,,,,,,,,,,,,,,,,,,,,,,,,,,,,,,,,,,,,,,,,,,
59,2.3683767318725586,0.6108638048171997,1.5707972049713135,0.38999885976314547,0.0,-3.141592675445488,-3.366877332489082e-10,0.5000569820404053,0.5000568628311157,0.6080771684646606,1.5714703798294067,0.38764172703027727,0.0,-3.1415941655616075,-4.309065388952149e-06,0.5000503063201904,0.5000501871109009,,,,,,,,,,,,,,,,,,,,,,,,,,,,,,,,,,,,,,,,,,,,,,,,,,,,,,,,,,,,,,,,,,,,,,,,,,,,,,,,,,,,,,,,,,,,,,,,,,,,,,,,,,,,,,,,,,,,,,,,,,,,,,,,,,,,,,-3.136380044566067e-11,1.6653345369377348e-12,-3.4833247397614286e-11,0.0,7.349676423018536e-10,2.095249307387803e-09,-0.0002868185401894152,-0.00028584414394572377,-5.2219174762058174e-08,1.3028245149371287e-08,-7.832338866364807e-08,0.0,7.6217020250624046e-06,2.169924664485734e-05,0.0002531312347855419,0.00025234275381080806,,,,,,,,,,,,,,,,,,,,,,,,,,,,,,,,,,,,,,,,,,,,,,,,,,,,,,,,,,,,,,,,,,,,,,,,,,
60,2.3903162479400635,0.6108638048171997,1.5707972049713135,0.38999885976314547,0.0,-3.141592675445488,-2.692250589131362e-10,0.5000476241111755,0.500047504901886,0.6080771684646606,1.5714703798294067,0.38764172703027727,0.0,-3.1415941655616075,-4.309065388952149e-06,0.5000503063201904,0.5000501871109009,,,,,,,,,,,,,,,,,,,,,,,,,,,,,,,,,,,,,,,,,,,,,,,,,,,,,,,,,,,,,,,,,,,,,,,,,,,,,,,,,,,,,,,,,,,,,,,,,,,,,,,,,,,,,,,,,,,,,,,,,,,,,,,,,,,,,,-2.6145752229922437e-11,1.887379141862766e-12,-2.8851920852446256e-11,0.0,6.880607195114408e-10,1.6896465337978839e-09,-0.00023951618641149253,-0.0002387317072134465,-5.2219174762058174e-08,1.3028245149371287e-08,-7.832338866364807e-08,0.0,7.6217020250624046e-06,2.169924664485734e-05,0.0002531312347855419,0.00025234275381080806,,,,,,,,,,,,,,,,,,,,,,,,,,,,,,,,,,,,,,,,,,,,,,,,,,,,,,,,,,,,,,,,,,,,,,,,,,
61,2.4113197326660156,0.6108638048171997,1.5707972049713135,0.38999885976314547,0.0,-3.141592675445488,-2.1757619317330779e-10,0.5000401735305786,0.5000400543212891,0.6080771684646606,1.5714703798294067,0.38764172703027727,0.0,-3.1415939271430284,-3.5978698633698514e-06,0.5000420212745667,0.5000419020652771,,,,,,,,,,,,,,,,,,,,,,,,,,,,,,,,,,,,,,,,,,,,,,,,,,,,,,,,,,,,,,,,,,,,,,,,,,,,,,,,,,,,,,,,,,,,,,,,,,,,,,,,,,,,,,,,,,,,,,,,,,,,,,,,,,,,,,-2.2037927038809357e-11,1.887379141862766e-12,-2.4098778528269804e-11,0.0,6.394884621840902e-10,1.3770835582960217e-09,-0.0002020277315750718,-0.0002013893099501729,-4.3613781031126564e-08,1.088884538091861e-08,-6.539139008054917e-08,0.0,6.361455689329887e-06,1.811786751204636e-05,0.00021138772717677057,0.00021074878168292344,,,,,,,,,,,,,,,,,,,,,,,,,,,,,,,,,,,,,,,,,,,,,,,,,,,,,,,,,,,,,,,,,,,,,,,,,,
62,2.433490753173828,0.6108638048171997,1.5707972049713135,0.38999885976314547,0.0,-3.141592675445488,-2.1485434265056114e-10,0.5000397562980652,0.5000396370887756,0.6080771684646606,1.5714703798294067,0.38764172703027727,0.0,-3.1415939271430284,-3.5978698633698514e-06,0.5000420212745667,0.5000419020652771,,,,,,,,,,,,,,,,,,,,,,,,,,,,,,,,,,,,,,,,,,,,,,,,,,,,,,,,,,,,,,,,,,,,,,,,,,,,,,,,,,,,,,,,,,,,,,,,,,,,,,,,,,,,,,,,,,,,,,,,,,,,,,,,,,,,,,-2.2037927038809357e-11,2.3314683517128287e-12,-2.3897550605056495e-11,0.0,6.371569938323773e-10,1.3609283699977937e-09,-0.00020001498342026025,-0.00019938427431043237,-4.3613781031126564e-08,1.088884538091861e-08,-6.539139008054917e-08,0.0,6.361455689329887e-06,1.811786751204636e-05,0.00021138772717677057,0.00021074878168292344,,,,,,,,,,,,,,,,,,,,,,,,,,,,,,,,,,,,,,,,,,,,,,,,,,,,,,,,,,,,,,,,,,,,,,,,,,
63,2.4548795223236084,0.6108638048171997,1.5707972049713135,0.38999885976314547,0.0,-3.141592675445488,-1.6892952314773169e-10,0.5000328421592712,0.5000327825546265,0.6080771684646606,1.5714703798294067,0.3876417195796967,0.0,-3.141593748329094,-3.004054406119394e-06,0.5000351071357727,0.5000349879264832,,,,,,,,,,,,,,,,,,,,,,,,,,,,,,,,,,,,,,,,,,,,,,,,,,,,,,,,,,,,,,,,,,,,,,,,,,,,,,,,,,,,,,,,,,,,,,,,,,,,,,,,,,,,,,,,,,,,,,,,,,,,,,,,,,,,,,-1.7985612998927536e-11,2.1094237467877974e-12,-1.9484414082171497e-11,0.0,5.805356195764944e-10,1.0812000184046155e-09,-0.00016536428302060813,-0.00016486413369420916,-3.642664125891315e-08,9.100498132852408e-09,-5.4594622156400874e-08,0.0,5.309589141688775e-06,1.5127580809348729e-05,0.00017652809037826955,0.00017601079889573157,,,,,,,,,,,,,,,,,,,,,,,,,,,,,,,,,,,,,,,,,,,,,,,,,,,,,,,,,,,,,,,,,,,,,,,,,,
64,2.4757213592529297,0.6108638048171997,1.5707972049713135,0.38999885976314547,0.0,-3.141592675445488,-1.6892952314773169e-10,0.5000328421592712,0.5000327825546265,0.6080771684646606,1.5714703798294067,0.3876417195796967,0.0,-3.14159356951516,-2.508245870558312e-06,0.5000293254852295,0.5000292062759399,,,,,,,,,,,,,,,,,,,,,,,,,,,,,,,,,,,,,,,,,,,,,,,,,,,,,,,,,,,,,,,,,,,,,,,,,,,,,,,,,,,,,,,,,,,,,,,,,,,,,,,,,,,,,,,,,,,,,,,,,,,,,,,,,,,,,,-1.7985612998927536e-11,2.1094237467877974e-12,-1.9484414082171497e-11,0.0,5.805356195764944e-10,1.0812000184046155e-09,-0.00016536428302060813,-0.00016486413369420916,-3.0423940700075036e-08,7.605471807892172e-09,-4.558051003300534e-08,0.0,4.431647084857104e-06,1.2630829587578773e-05,0.0001474171003792435,0.00014699871826451272,,,,,,,,,,,,,,,,,,,,,,,,,,,,,,,,,,,,,,,,,,,,,,,,,,,,,,,,,,,,,,,,,,,,,,,,,,
65,2.497947931289673,0.6108638048171997,1.5707972049713135,0.38999885976314547,0.0,-3.141592675445488,-1.3246567731606262e-10,0.5000271797180176,0.5000271201133728,0.6080771684646606,1.5714703798294067,0.3876417195796967,0.0,-3.14159356951516,-2.508245870558312e-06,0.5000293254852295,0.5000292062759399,,,,,,,,,,,,,,,,,,,,,,,,,,,,,,,,,,,,,,,,,,,,,,,,,,,,,,,,,,,,,,,,,,,,,,,,,,,,,,,,,,,,,,,,,,,,,,,,,,,,,,,,,,,,,,,,,,,,,,,,,,,,,,,,,,,,,,-1.4876988529977098e-11,2.3314683517128287e-12,-1.5931700403370996e-11,0.0,5.247469125890802e-10,8.578744381537717e-10,-0.0001367164950352162,-0.00013632058107759804,-3.0423940700075036e-08,7.605471807892172e-09,-4.558051003300534e-08,0.0,4.431647084857104e-06,1.2630829587578773e-05,0.0001474171003792435,0.00014699871826451272,,,,,,,,,,,,,,,,,,,,,,,,,,,,,,,,,,,,,,,,,,,,,,,,,,,,,,,,,,,,,,,,,,,,,,,,,,
66,2.5189218521118164,0.6108638048171997,1.5707972049713135,0.38999885976314547,0.0,-3.141592675445488,-1.3246567731606262e-10,0.5000271797180176,0.5000271201133728,0.6080771684646606,1.5714703798294067,0.3876417195796967,0.0,-3.1415933907012255,-2.0942686660418985e-06,0.5000244975090027,0.5000244379043579,,,,,,,,,,,,,,,,,,,,,,,,,,,,,,,,,,,,,,,,,,,,,,,,,,,,,,,,,,,,,,,,,,,,,,,,,,,,,,,,,,,,,,,,,,,,,,,,,,,,,,,,,,,,,,,,,,,,,,,,,,,,,,,,,,,,,,-1.4876988529977098e-11,2.3314683517128287e-12,-1.5931700403370996e-11,0.0,5.247469125890802e-10,8.578744381537717e-10,-0.0001367164950352162,-0.00013632058107759804,-2.5410008319681765e-08,6.356470905188871e-09,-3.8054690065791874e-08,0.0,3.6988719784858404e-06,1.0546157682256307e-05,0.00012310677266214043,0.00012276873167138547,,,,,,,,,,,,,,,,,,,,,,,,,,,,,,,,,,,,,,,,,,,,,,,,,,,,,,,,,,,,,,,,,,,,,,,,,,
67,2.5407068729400635,0.6108638048171997,1.5707972049713135,0.38999885976314547,0.0,-3.141592675445488,-1.0356342172723743e-10,0.5000224709510803,0.5000224113464355,0.6080771684646606,1.5714703798294067,0.3876417195796967,0.0,-3.1415933907012255,-2.0942686660418985e-06,0.5000244975090027,0.5000244379043579,,,,,,,,,,,,,,,,,,,,,,,,,,,,,,,,,,,,,,,,,,,,,,,,,,,,,,,,,,,,,,,,,,,,,,,,,,,,,,,,,,,,,,,,,,,,,,,,,,,,,,,,,,,,,,,,,,,,,,,,,,,,,,,,,,,,,,-1.226796442210798e-11,1.887379141862766e-12,-1.3038181645441682e-11,0.0,4.711786516509164e-10,6.791769369129952e-10,-0.00011303165956633165,-0.00011271888797637075,-2.5410008319681765e-08,6.356470905188871e-09,-3.8054690065791874e-08,0.0,3.6988719784858404e-06,1.0546157682256307e-05,0.00012310677266214043,0.00012276873167138547,,,,,,,,,,,,,,,,,,,,,,,,,,,,,,,,,,,,,,,,,,,,,,,,,,,,,,,,,,,,,,,,,,,,,,,,,,
68,2.5622141361236572,0.6108638048171997,1.5707972049713135,0.38999885976314547,0.0,-3.141592675445488,-1.0356342172723743e-10,0.5000224709510803,0.5000224113464355,0.6080771684646606,1.5714703798294067,0.3876417195796967,0.0,-3.141593271491936,-1.7486170236225007e-06,0.500020444393158,0.5000203847885132,,,,,,,,,,,,,,,,,,,,,,,,,,,,,,,,,,,,,,,,,,,,,,,,,,,,,,,,,,,,,,,,,,,,,,,,,,,,,,,,,,,,,,,,,,,,,,,,,,,,,,,,,,,,,,,,,,,,,,,,,,,,,,,,,,,,,,-1.226796442210798e-11,1.887379141862766e-12,-1.3038181645441682e-11,0.0,4.711786516509164e-10,6.791769369129952e-10,-0.00011303165956633165,-0.00011271888797637075,-2.1222579249524642e-08,5.3125281951338366e-09,-3.177147434030303e-08,0.0,3.087260893153143e-06,8.80555307958275e-06,0.00010280541027896106,0.00010253261280013248,,,,,,,,,,,,,,,,,,,,,,,,,,,,,,,,,,,,,,,,,,,,,,,,,,,,,,,,,,,,,,,,,,,,,,,,,,
69,2.5848963260650635,0.6108638048171997,1.5707972049713135,0.38999885976314547,0.0,-3.141592675445488,-8.069729606763332e-11,0.5000185966491699,0.5000185370445251,0.6080771684646606,1.5714703798294067,0.3876417195796967,0.0,-3.141593211887291,-1.4600138911191607e-06,0.5000170469284058,0.5000170469284058,,,,,,,,,,,,,,,,,,,,,,,,,,,,,,,,,,,,,,,,,,,,,,,,,,,,,,,,,,,,,,,,,,,,,,,,,,,,,,,,,,,,,,,,,,,,,,,,,,,,,,,,,,,,,,,,,,,,,,,,,,,,,,,,,,,,,,-1.0158540675320182e-11,1.7763568394002505e-12,-1.071365218763276e-11,0.0,4.20274925971853e-10,5.368343547473842e-10,-9.344999853055924e-05,-9.320343815488741e-05,-1.7725209744412496e-08,4.440003920080926e-09,-2.652571851058383e-08,0.0,2.5767794795683585e-06,7.3522282946214546e-06,8.58519269968383e-05,8.563202572986484e-05,,,,,,,,,,,,,,,,,,,,,,,,,,,,,,,,,,,,,,,,,,,,,,,,,,,,,,,,,,,,,,,,,,,,,,,,,,
70,2.6074280738830566,0.6108638048171997,1.5707972049713135,0.38999885976314547,0.0,-3.141592675445488,-6.264491703156239e-11,0.500015377998352,0.5000153183937073,0.6080771684646606,1.5714703798294067,0.3876417195796967,0.0,-3.141593211887291,-1.4600138911191607e-06,0.5000170469284058,0.5000170469284058,,,,,,,,,,,,,,,,,,,,,,,,,,,,,,,,,,,,,,,,,,,,,,,,,,,,,,,,,,,,,,,,,,,,,,,,,,,,,,,,,,,,,,,,,,,,,,,,,,,,,,,,,,,,,,,,,,,,,,,,,,,,,,,,,,,,,,-8.43769498715119e-12,1.7763568394002505e-12,-8.666678485980128e-12,0.0,3.7259084706420253e-10,4.233687567190003e-10,-7.726067997282371e-05,-7.706677570240572e-05,-1.7725209744412496e-08,4.440003920080926e-09,-2.652571851058383e-08,0.0,2.5767794795683585e-06,7.3522282946214546e-06,8.58519269968383e-05,8.563202572986484e-05,,,,,,,,,,,,,,,,,,,,,,,,,,,,,,,,,,,,,,,,,,,,,,,,,,,,,,,,,,,,,,,,,,,,,,,,,,
71,2.6289045810699463,0.6108638048171997,1.5707972049713135,0.38999885976314547,0.0,-3.141592675445488,-6.264491703156239e-11,0.500015377998352,0.5000153183937073,0.6080771684646606,1.5714703798294067,0.3876417195796967,0.0,-3.1415930926780016,-1.2190436109449365e-06,0.5000142455101013,0.5000142455101013,,,,,,,,,,,,,,,,,,,,,,,,,,,,,,,,,,,,,,,,,,,,,,,,,,,,,,,,,,,,,,,,,,,,,,,,,,,,,,,,,,,,,,,,,,,,,,,,,,,,,,,,,,,,,,,,,,,,,,,,,,,,,,,,,,,,,,-8.43769498715119e-12,1.7763568394002505e-12,-8.666678485980128e-12,0.0,3.7259084706420253e-10,4.233687567190003e-10,-7.726067997282371e-05,-7.706677570240572e-05,-1.480426892186415e-08,3.710365348297273e-09,-2.214605565598049e-08,0.0,2.1507057681446895e-06,6.138769549579592e-06,7.169420860009268e-05,7.151719182729721e-05,,,,,,,,,,,,,,,,,,,,,,,,,,,,,,,,,,,,,,,,,,,,,,,,,,,,,,,,,,,,,,,,,,,,,,,,,,
72,2.6496729850769043,0.6108638048171997,1.5707972049713135,0.38999885976314547,0.0,-3.141592675445488,-4.908963513461373e-11,0.5000128149986267,0.5000128149986267,0.6080771684646606,1.5714703798294067,0.3876417195796967,0.0,-3.1415930926780016,-1.2190436109449365e-06,0.5000142455101013,0.5000142455101013,,,,,,,,,,,,,,,,,,,,,,,,,,,,,,,,,,,,,,,,,,,,,,,,,,,,,,,,,,,,,,,,,,,,,,,,,,,,,,,,,,,,,,,,,,,,,,,,,,,,,,,,,,,,,,,,,,,,,,,,,,,,,,,,,,,,,,-6.8833827526759706e-12,1.5543122344752192e-12,-7.167877402736167e-12,0.0,3.3190117321169055e-10,3.3742483807053247e-10,-6.451878289226443e-05,-6.436472904169932e-05,-1.480426892186415e-08,3.710365348297273e-09,-2.214605565598049e-08,0.0,2.1507057681446895e-06,6.138769549579592e-06,7.169420860009268e-05,7.151719182729721e-05,,,,,,,,,,,,,,,,,,,,,,,,,,,,,,,,,,,,,,,,,,,,,,,,,,,,,,,,,,,,,,,,,,,,,,,,,,
73,2.672473430633545,0.6108638048171997,1.5707972049713135,0.38999885976314547,0.0,-3.141592675445488,-4.908963513461373e-11,0.5000128149986267,0.5000128149986267,0.6080771684646606,1.5714703798294067,0.3876417121291161,0.0,-3.141593033073357,-1.0076956868942943e-06,0.5000118017196655,0.5000117421150208,,,,,,,,,,,,,,,,,,,,,,,,,,,,,,,,,,,,,,,,,,,,,,,,,,,,,,,,,,,,,,,,,,,,,,,,,,,,,,,,,,,,,,,,,,,,,,,,,,,,,,,,,,,,,,,,,,,,,,,,,,,,,,,,,,,,,,-6.8833827526759706e-12,1.5543122344752192e-12,-7.167877402736167e-12,0.0,3.3190117321169055e-10,3.3742483807053247e-10,-6.451878289226443e-05,-6.436472904169932e-05,-1.224148604705988e-08,3.070432796903333e-09,-1.830503038036113e-08,0.0,1.7771485545381438e-06,5.0744802138069645e-06,5.9274792874930426e-05,5.9134206821909174e-05,,,,,,,,,,,,,,,,,,,,,,,,,,,,,,,,,,,,,,,,,,,,,,,,,,,,,,,,,,,,,,,,,,,,,,,,,,
74,2.694366455078125,0.6108638048171997,1.5707972049713135,0.38999885976314547,0.0,-3.141592675445488,-3.7770939154135874e-11,0.50001060962677,0.50001060962677,0.6080771684646606,1.5714703798294067,0.3876417121291161,0.0,-3.141592973468712,-8.329895422320988e-07,0.5000097155570984,0.5000097155570984,,,,,,,,,,,,,,,,,,,,,,,,,,,,,,,,,,,,,,,,,,,,,,,,,,,,,,,,,,,,,,,,,,,,,,,,,,,,,,,,,,,,,,,,,,,,,,,,,,,,,,,,,,,,,,,,,,,,,,,,,,,,,,,,,,,,,,-5.88418203051333e-12,1.5543122344752192e-12,-5.856426454897701e-12,0.0,2.9187763317395365e-10,2.6508817363435355e-10,-5.334151865099557e-05,-5.322101424098946e-05,-1.0122569449322327e-08,2.5406343695522082e-09,-1.5130224184645158e-08,0.0,1.4684740108350525e-06,4.194708708382677e-06,4.9006761400960386e-05,4.88952973682899e-05,,,,,,,,,,,,,,,,,,,,,,,,,,,,,,,,,,,,,,,,,,,,,,,,,,,,,,,,,,,,,,,,,,,,,,,,,,
75,2.7152857780456543,0.6108638048171997,1.5707972049713135,0.38999885976314547,0.0,-3.141592675445488,-2.931389159188669e-11,0.5000088810920715,0.5000088214874268,0.6080771684646606,1.5714703798294067,0.3876417121291161,0.0,-3.141592973468712,-8.329895422320988e-07,0.5000097155570984,0.5000097155570984,,,,,,,,,,,,,,,,,,,,,,,,,,,,,,,,,,,,,,,,,,,,,,,,,,,,,,,,,,,,,,,,,,,,,,,,,,,,,,,,,,,,,,,,,,,,,,,,,,,,,,,,,,,,,,,,,,,,,,,,,,,,,,,,,,,,,,-4.940492459581947e-12,1.2212453270876722e-12,-4.760081218080359e-12,0.0,2.575717417130363e-10,2.1016947904239913e-10,-4.454439113033004e-05,-4.4449192500906065e-05,-1.0122569449322327e-08,2.5406343695522082e-09,-1.5130224184645158e-08,0.0,1.4684740108350525e-06,4.194708708382677e-06,4.9006761400960386e-05,4.88952973682899e-05,,,,,,,,,,,,,,,,,,,,,,,,,,,,,,,,,,,,,,,,,,,,,,,,,,,,,,,,,,,,,,,,,,,,,,,,,,
76,2.7369637489318848,0.6108638048171997,1.5707972049713135,0.38999885976314547,0.0,-3.141592675445488,-2.931389159188669e-11,0.5000088810920715,0.5000088214874268,0.6080771684646606,1.5714703798294067,0.3876417121291161,0.0,-3.1415929138640672,-6.955074809411599e-07,0.5000081062316895,0.5000081062316895,,,,,,,,,,,,,,,,,,,,,,,,,,,,,,,,,,,,,,,,,,,,,,,,,,,,,,,,,,,,,,,,,,,,,,,,,,,,,,,,,,,,,,,,,,,,,,,,,,,,,,,,,,,,,,,,,,,,,,,,,,,,,,,,,,,,,,-4.940492459581947e-12,1.2212453270876722e-12,-4.760081218080359e-12,0.0,2.575717417130363e-10,2.1016947904239913e-10,-4.454439113033004e-05,-4.4449192500906065e-05,-8.454404287761008e-09,2.123523579200537e-09,-1.2632117574185031e-08,0.0,1.2256585932846065e-06,3.502386789477896e-06,4.0925129724200815e-05,4.083582098246552e-05,,,,,,,,,,,,,,,,,,,,,,,,,,,,,,,,,,,,,,,,,,,,,,,,,,,,,,,,,,,,,,,,,,,,,,,,,,
77,2.7594802379608154,0.6108638048171997,1.5707972049713135,0.38999885976314547,0.0,-3.141592675445488,-2.2619151343605814e-11,0.5000073909759521,0.5000073909759521,0.6080771684646606,1.5714703798294067,0.3876417121291161,0.0,-3.1415929138640672,-6.955074809411599e-07,0.5000081062316895,0.5000081062316895,,,,,,,,,,,,,,,,,,,,,,,,,,,,,,,,,,,,,,,,,,,,,,,,,,,,,,,,,,,,,,,,,,,,,,,,,,,,,,,,,,,,,,,,,,,,,,,,,,,,,,,,,,,,,,,,,,,,,,,,,,,,,,,,,,,,,,-4.107825191113079e-12,1.2212453270876722e-12,-3.969047313034935e-12,0.0,2.2720714198953829e-10,1.6613752040761653e-10,-3.71980931959115e-05,-3.7123129004612565e-05,-8.454404287761008e-09,2.123523579200537e-09,-1.2632117574185031e-08,0.0,1.2256585932846065e-06,3.502386789477896e-06,4.0925129724200815e-05,4.083582098246552e-05,,,,,,,,,,,,,,,,,,,,,,,,,,,,,,,,,,,,,,,,,,,,,,,,,,,,,,,,,,,,,,,,,,,,,,,,,,
78,2.781062364578247,0.6108638048171997,1.5707972049713135,0.38999885976314547,0.0,-3.141592675445488,-2.2619151343605814e-11,0.5000073909759521,0.5000073909759521,0.6080771684646606,1.5714703798294067,0.3876417121291161,0.0,-3.1415928542594225,-5.749259344156599e-07,0.5000067353248596,0.5000067353248596,,,,,,,,,,,,,,,,,,,,,,,,,,,,,,,,,,,,,,,,,,,,,,,,,,,,,,,,,,,,,,,,,,,,,,,,,,,,,,,,,,,,,,,,,,,,,,,,,,,,,,,,,,,,,,,,,,,,,,,,,,,,,,,,,,,,,,-4.107825191113079e-12,1.2212453270876722e-12,-3.969047313034935e-12,0.0,2.2720714198953829e-10,1.6613752040761653e-10,-3.71980931959115e-05,-3.7123129004612565e-05,-6.990741319157223e-09,1.7568169141668477e-09,-1.0441189246535032e-08,0.0,1.01277203157224e-06,2.8951715194125427e-06,3.383576404303312e-05,3.3765223633963615e-05,,,,,,,,,,,,,,,,,,,,,,,,,,,,,,,,,,,,,,,,,,,,,,,,,,,,,,,,,,,,,,,,,,,,,,,,,,
79,2.8041927814483643,0.6108638048171997,1.5707972049713135,0.38999885976314547,0.0,-3.141592675445488,-1.733364840550422e-11,0.5000061988830566,0.5000061392784119,0.6080771684646606,1.5714703798294067,0.3876417121291161,0.0,-3.1415928542594225,-4.800363626600301e-07,0.5000056028366089,0.5000056028366089,,,,,,,,,,,,,,,,,,,,,,,,,,,,,,,,,,,,,,,,,,,,,,,,,,,,,,,,,,,,,,,,,,,,,,,,,,,,,,,,,,,,,,,,,,,,,,,,,,,,,,,,,,,,,,,,,,,,,,,,,,,,,,,,,,,,,,-3.2751579226442118e-12,1.1102230246251565e-12,-3.2612801348363973e-12,0.0,1.9895196601282805e-10,1.3098651330256672e-10,-3.106335498159751e-05,-3.100453977822326e-05,-5.838607375352467e-09,1.468380972369232e-09,-8.717360167054267e-09,0.0,8.453077384729113e-07,2.417333234916441e-06,2.8255959477974102e-05,2.8199656298966147e-05,,,,,,,,,,,,,,,,,,,,,,,,,,,,,,,,,,,,,,,,,,,,,,,,,,,,,,,,,,,,,,,,,,,,,,,,,,
80,2.826992988586426,0.6108638048171997,1.5707972049713135,0.38999885976314547,0.0,-3.141592675445488,-1.3175105971485745e-11,0.5000051259994507,0.5000051259994507,0.6080771684646606,1.5714703798294067,0.3876417121291161,0.0,-3.1415928542594225,-4.752498625748558e-07,0.5000055432319641,0.5000055432319641,,,,,,,,,,,,,,,,,,,,,,,,,,,,,,,,,,,,,,,,,,,,,,,,,,,,,,,,,,,,,,,,,,,,,,,,,,,,,,,,,,,,,,,,,,,,,,,,,,,,,,,,,,,,,,,,,,,,,,,,,,,,,,,,,,,,,,-2.886579864025407e-12,8.881784197001252e-13,-2.7408630920433552e-12,0.0,1.7419399256368706e-10,1.0298539798725415e-10,-2.5940360501408577e-05,-2.58944091910962e-05,-5.780764755769496e-09,1.4538370507466425e-09,-8.630276937537928e-09,0.0,8.368625685761799e-07,2.3932300337037304e-06,2.797447632474359e-05,2.791887709463481e-05,,,,,,,,,,,,,,,,,,,,,,,,,,,,,,,,,,,,,,,,,,,,,,,,,,,,,,,,,,,,,,,,,,,,,,,,,,
81,2.8485267162323,0.6108638048171997,1.5707972049713135,0.38999885976314547,0.0,-3.141592675445488,-1.3175105971485745e-11,0.5000051259994507,0.5000051259994507,0.6080771684646606,1.5714703798294067,0.3876417121291161,0.0,-3.1415927946547777,-3.9681145835857023e-07,0.5000046491622925,0.5000046491622925,,,,,,,,,,,,,,,,,,,,,,,,,,,,,,,,,,,,,,,,,,,,,,,,,,,,,,,,,,,,,,,,,,,,,,,,,,,,,,,,,,,,,,,,,,,,,,,,,,,,,,,,,,,,,,,,,,,,,,,,,,,,,,,,,,,,,,-2.886579864025407e-12,8.881784197001252e-13,-2.7408630920433552e-12,0.0,1.7419399256368706e-10,1.0298539798725415e-10,-2.5940360501408577e-05,-2.58944091910962e-05,-4.827804822582493e-09,1.2152501227546963e-09,-7.205361196582771e-09,0.0,6.984847118474136e-07,1.9982358026027214e-06,2.3361246348940767e-05,2.3316970327869058e-05,,,,,,,,,,,,,,,,,,,,,,,,,,,,,,,,,,,,,,,,,,,,,,,,,,,,,,,,,,,,,,,,,,,,,,,,,,
82,2.869828224182129,0.6108638048171997,1.5707972049713135,0.38999885976314547,0.0,-3.141592675445488,-9.917835649964069e-12,0.5000042915344238,0.5000042915344238,0.6080771684646606,1.5714703798294067,0.3876417121291161,0.0,-3.1415927946547777,-3.9681145835857023e-07,0.5000046491622925,0.5000046491622925,,,,,,,,,,,,,,,,,,,,,,,,,,,,,,,,,,,,,,,,,,,,,,,,,,,,,,,,,,,,,,,,,,,,,,,,,,,,,,,,,,,,,,,,,,,,,,,,,,,,,,,,,,,,,,,,,,,,,,,,,,,,,,,,,,,,,,-2.55351295663786e-12,9.992007221626409e-13,-2.2620794126737565e-12,0.0,1.5226708782734022e-10,8.035473675338523e-11,-2.166225567634683e-05,-2.1626523448503576e-05,-4.827804822582493e-09,1.2152501227546963e-09,-7.205361196582771e-09,0.0,6.984847118474136e-07,1.9982358026027214e-06,2.3361246348940767e-05,2.3316970327869058e-05,,,,,,,,,,,,,,,,,,,,,,,,,,,,,,,,,,,,,,,,,,,,,,,,,,,,,,,,,,,,,,,,,,,,,,,,,,
83,2.891418933868408,0.6108638048171997,1.5707972049713135,0.38999885976314547,0.0,-3.141592675445488,-7.500407413207899e-12,0.5000036358833313,0.5000036358833313,0.6080771684646606,1.5714703798294067,0.3876417121291161,0.0,-3.1415927946547777,-3.31319029100996e-07,0.5000038743019104,0.5000038743019104,,,,,,,,,,,,,,,,,,,,,,,,,,,,,,,,,,,,,,,,,,,,,,,,,,,,,,,,,,,,,,,,,,,,,,,,,,,,,,,,,,,,,,,,,,,,,,,,,,,,,,,,,,,,,,,,,,,,,,,,,,,,,,,,,,,,,,-2.1094237467877974e-12,6.661338147750939e-13,-1.8041124150158794e-12,0.0,1.337263633161001e-10,6.336723507027742e-11,-1.8271735825692303e-05,-1.824369974201545e-05,-4.032163491984875e-09,1.0151879337172431e-09,-6.015674181014674e-09,0.0,5.829880365126883e-07,1.6684339243511204e-06,1.9508777768351138e-05,1.9473602151265368e-05,,,,,,,,,,,,,,,,,,,,,,,,,,,,,,,,,,,,,,,,,,,,,,,,,,,,,,,,,,,,,,,,,,,,,,,,,,
84,2.9126884937286377,0.6108638048171997,1.5707972049713135,0.38999885976314547,0.0,-3.141592675445488,-7.375196807435369e-12,0.5000035762786865,0.5000035762786865,0.6080771684646606,1.5714703798294067,0.3876417121291161,0.0,-3.1415927946547777,-3.31319029100996e-07,0.5000038743019104,0.5000038743019104,,,,,,,,,,,,,,,,,,,,,,,,,,,,,,,,,,,,,,,,,,,,,,,,,,,,,,,,,,,,,,,,,,,,,,,,,,,,,,,,,,,,,,,,,,,,,,,,,,,,,,,,,,,,,,,,,,,,,,,,,,,,,,,,,,,,,,-1.942890293094024e-12,9.992007221626409e-13,-1.887379141862766e-12,0.0,1.3289369604763124e-10,6.260537921409792e-11,-1.808969864214305e-05,-1.806206455512438e-05,-4.032163491984875e-09,1.0151879337172431e-09,-6.015674181014674e-09,0.0,5.829880365126883e-07,1.6684339243511204e-06,1.9508777768351138e-05,1.9473602151265368e-05,,,,,,,,,,,,,,,,,,,,,,,,,,,,,,,,,,,,,,,,,,,,,,,,,,,,,,,,,,,,,,,,,,,,,,,,,,
85,2.935154914855957,0.6108638048171997,1.5707972049713135,0.38999885976314547,0.0,-3.141592675445488,-5.306440616775765e-12,0.5000029802322388,0.5000029802322388,0.6080771684646606,1.5714703798294067,0.3876417121291161,0.0,-3.1415927946547777,-2.738775606303534e-07,0.5000032186508179,0.5000032186508179,,,,,,,,,,,,,,,,,,,,,,,,,,,,,,,,,,,,,,,,,,,,,,,,,,,,,,,,,,,,,,,,,,,,,,,,,,,,,,,,,,,,,,,,,,,,,,,,,,,,,,,,,,,,,,,,,,,,,,,,,,,,,,,,,,,,,,-1.5543122344752192e-12,5.551115123125783e-13,-1.5126788710517758e-12,0.0,1.1463052729254741e-10,4.777347267781451e-11,-1.4955830010876525e-05,-1.493490799475694e-05,-3.334388321007964e-09,8.404388296412435e-10,-4.972348754961331e-09,0.0,4.817272838408826e-07,1.3791740229862626e-06,1.6129319192259572e-05,1.6101805158541538e-05,,,,,,,,,,,,,,,,,,,,,,,,,,,,,,,,,,,,,,,,,,,,,,,,,,,,,,,,,,,,,,,,,,,,,,,,,,
86,2.9570889472961426,0.6108638048171997,1.5707972049713135,0.38999885976314547,0.0,-3.141592675445488,-5.306440616775765e-12,0.5000029802322388,0.5000029802322388,0.6080771684646606,1.5714703798294067,0.3876417121291161,0.0,-3.141592735050133,-2.2639481755959423e-07,0.5000026226043701,0.5000026226043701,,,,,,,,,,,,,,,,,,,,,,,,,,,,,,,,,,,,,,,,,,,,,,,,,,,,,,,,,,,,,,,,,,,,,,,,,,,,,,,,,,,,,,,,,,,,,,,,,,,,,,,,,,,,,,,,,,,,,,,,,,,,,,,,,,,,,,-1.5543122344752192e-12,5.551115123125783e-13,-1.5126788710517758e-12,0.0,1.1463052729254741e-10,4.777347267781451e-11,-1.4955830010876525e-05,-1.493490799475694e-05,-2.7571278593541138e-09,6.95221658020273e-10,-4.109913742667004e-09,0.0,3.9805513551982585e-07,1.140064114224515e-06,1.3335275070858188e-05,1.3313825547811575e-05,,,,,,,,,,,,,,,,,,,,,,,,,,,,,,,,,,,,,,,,,,,,,,,,,,,,,,,,,,,,,,,,,,,,,,,,,,
87,2.9777612686157227,0.6108638048171997,1.5707972049713135,0.38999885976314547,0.0,-3.141592675445488,-3.804296287712727e-12,0.5000025033950806,0.5000025033950806,0.6080771684646606,1.5714703798294067,0.3876417121291161,0.0,-3.141592735050133,-2.2639481755959423e-07,0.5000026226043701,0.5000026226043701,,,,,,,,,,,,,,,,,,,,,,,,,,,,,,,,,,,,,,,,,,,,,,,,,,,,,,,,,,,,,,,,,,,,,,,,,,,,,,,,,,,,,,,,,,,,,,,,,,,,,,,,,,,,,,,,,,,,,,,,,,,,,,,,,,,,,,-1.3877787807814457e-12,7.771561172376096e-13,-1.2212453270876722e-12,0.0,9.947598300641403e-11,3.6819405163646124e-11,-1.2489303117035888e-05,-1.2473353308450896e-05,-2.7571278593541138e-09,6.95221658020273e-10,-4.109913742667004e-09,0.0,3.9805513551982585e-07,1.140064114224515e-06,1.3335275070858188e-05,1.3313825547811575e-05,,,,,,,,,,,,,,,,,,,,,,,,,,,,,,,,,,,,,,,,,,,,,,,,,,,,,,,,,,,,,,,,,,,,,,,,,,
88,3.000028133392334,0.6108638048171997,1.5707972049713135,0.38999885976314547,0.0,-3.141592675445488,-3.804296287712727e-12,0.5000025033950806,0.5000025033950806,0.6080771684646606,1.5714703798294067,0.3876417121291161,0.0,-3.141592735050133,-1.8902908038853639e-07,0.5000022053718567,0.5000022053718567,,,,,,,,,,,,,,,,,,,,,,,,,,,,,,,,,,,,,,,,,,,,,,,,,,,,,,,,,,,,,,,,,,,,,,,,,,,,,,,,,,,,,,,,,,,,,,,,,,,,,,,,,,,,,,,,,,,,,,,,,,,,,,,,,,,,,,-1.3877787807814457e-12,7.771561172376096e-13,-1.2212453270876722e-12,0.0,9.947598300641403e-11,3.6819405163646124e-11,-1.2489303117035888e-05,-1.2473353308450896e-05,-2.3028245976774997e-09,5.808686864838819e-10,-3.4313247798678503e-09,0.0,3.322348618439719e-07,9.519002333036042e-07,1.1136175089632161e-05,1.1119289410999045e-05,,,,,,,,,,,,,,,,,,,,,,,,,,,,,,,,,,,,,,,,,,,,,,,,,,,,,,,,,,,,,,,,,,,,,,,,,,
89,3.022517681121826,0.6108638048171997,1.5707972049713135,0.38999885976314547,0.0,-3.141592675445488,-2.5981894587190357e-12,0.5000020265579224,0.5000020265579224,0.6080771684646606,1.5714703798294067,0.3876417121291161,0.0,-3.141592735050133,-1.8902908038853639e-07,0.5000022053718567,0.5000022053718567,,,,,,,,,,,,,,,,,,,,,,,,,,,,,,,,,,,,,,,,,,,,,,,,,,,,,,,,,,,,,,,,,,,,,,,,,,,,,,,,,,,,,,,,,,,,,,,,,,,,,,,,,,,,,,,,,,,,,,,,,,,,,,,,,,,,,,-1.3877787807814457e-12,7.771561172376096e-13,-1.033895191682177e-12,0.0,8.593126210598712e-11,2.7496734056331462e-11,-1.032564978231676e-05,-1.0313792699889746e-05,-2.3028245976774997e-09,5.808686864838819e-10,-3.4313247798678503e-09,0.0,3.322348618439719e-07,9.519002333036042e-07,1.1136175089632161e-05,1.1119289410999045e-05,,,,,,,,,,,,,,,,,,,,,,,,,,,,,,,,,,,,,,,,,,,,,,,,,,,,,,,,,,,,,,,,,,,,,,,,,,
90,3.0442802906036377,0.6108638048171997,1.5707972049713135,0.38999885976314547,0.0,-3.141592675445488,-1.6956610811649786e-12,0.5000016689300537,0.5000016689300537,0.6080771684646606,1.5714703798294067,0.3876417121291161,0.0,-3.141592735050133,-1.5625670357621857e-07,0.500001847743988,0.500001847743988,,,,,,,,,,,,,,,,,,,,,,,,,,,,,,,,,,,,,,,,,,,,,,,,,,,,,,,,,,,,,,,,,,,,,,,,,,,,,,,,,,,,,,,,,,,,,,,,,,,,,,,,,,,,,,,,,,,,,,,,,,,,,,,,,,,,,,-9.43689570931383e-13,4.440892098500626e-13,-8.81239525796218e-13,0.0,7.377431998634165e-11,2.0685215693094783e-11,-8.536829227523413e-06,-8.528124453732744e-06,-1.904143509534606e-09,4.807265696626928e-10,-2.8362590054342718e-09,0.0,2.745279061855399e-07,7.868673606026277e-07,9.207082257489674e-06,9.194016456604004e-06,,,,,,,,,,,,,,,,,,,,,,,,,,,,,,,,,,,,,,,,,,,,,,,,,,,,,,,,,,,,,,,,,,,,,,,,,,
91,3.0664772987365723,0.6108638048171997,1.5707972049713135,0.38999885976314547,0.0,-3.141592675445488,-1.6956610811649786e-12,0.5000016689300537,0.5000016689300537,0.6080771684646606,1.5714703798294067,0.3876417121291161,0.0,-3.141592735050133,-1.3046702918018127e-07,0.5000015497207642,0.5000015497207642,,,,,,,,,,,,,,,,,,,,,,,,,,,,,,,,,,,,,,,,,,,,,,,,,,,,,,,,,,,,,,,,,,,,,,,,,,,,,,,,,,,,,,,,,,,,,,,,,,,,,,,,,,,,,,,,,,,,,,,,,,,,,,,,,,,,,,-9.43689570931383e-13,4.440892098500626e-13,-8.81239525796218e-13,0.0,7.377431998634165e-11,2.0685215693094783e-11,-8.536829227523413e-06,-8.528124453732744e-06,-1.5903944827755367e-09,4.020117572167692e-10,-2.3678905503032865e-09,0.0,2.291331071546665e-07,6.569974289050151e-07,7.688755431445315e-06,7.678553629375529e-06,,,,,,,,,,,,,,,,,,,,,,,,,,,,,,,,,,,,,,,,,,,,,,,,,,,,,,,,,,,,,,,,,,,,,,,,,,
92,3.088456869125366,0.6108638048171997,1.5707972049713135,0.38999885976314547,0.0,-3.141592675445488,-1.0273428158527609e-12,0.5000014305114746,0.5000014305114746,0.6080771684646606,1.5714703798294067,0.3876417121291161,0.0,-3.141592735050133,-1.3046702918018127e-07,0.5000015497207642,0.5000015497207642,,,,,,,,,,,,,,,,,,,,,,,,,,,,,,,,,,,,,,,,,,,,,,,,,,,,,,,,,,,,,,,,,,,,,,,,,,,,,,,,,,,,,,,,,,,,,,,,,,,,,,,,,,,,,,,,,,,,,,,,,,,,,,,,,,,,,,-5.551115123125783e-13,1.1102230246251565e-13,-6.314393452555578e-13,0.0,6.306066779870889e-11,1.5168873102044955e-11,-7.057904440443963e-06,-7.051615739328554e-06,-1.5903944827755367e-09,4.020117572167692e-10,-2.3678905503032865e-09,0.0,2.291331071546665e-07,6.569974289050151e-07,7.688755431445315e-06,7.678553629375529e-06,,,,,,,,,,,,,,,,,,,,,,,,,,,,,,,,,,,,,,,,,,,,,,,,,,,,,,,,,,,,,,,,,,,,,,,,,,
93,3.110084056854248,0.6108638048171997,1.5707972049713135,0.38999885976314547,0.0,-3.141592675445488,-1.0273428158527609e-12,0.5000014305114746,0.5000014305114746,0.6080771684646606,1.5714703798294067,0.3876417121291161,0.0,-3.141592735050133,-1.089338539372875e-07,0.5000012516975403,0.5000012516975403,,,,,,,,,,,,,,,,,,,,,,,,,,,,,,,,,,,,,,,,,,,,,,,,,,,,,,,,,,,,,,,,,,,,,,,,,,,,,,,,,,,,,,,,,,,,,,,,,,,,,,,,,,,,,,,,,,,,,,,,,,,,,,,,,,,,,,-5.551115123125783e-13,1.1102230246251565e-13,-6.314393452555578e-13,0.0,6.306066779870889e-11,1.5168873102044955e-11,-7.057904440443963e-06,-7.051615739328554e-06,-1.3282708266615373e-09,3.3584246494910985e-10,-1.976939500991648e-09,0.0,1.9124557582017587e-07,5.485620704348548e-07,6.420813861041097e-06,6.412887159967795e-06,,,,,,,,,,,,,,,,,,,,,,,,,,,,,,,,,,,,,,,,,,,,,,,,,,,,,,,,,,,,,,,,,,,,,,,,,,
94,3.1318788528442383,0.6108638048171997,1.5707972049713135,0.38999885976314547,0.0,-3.141592675445488,-5.388364450811811e-13,0.5000011324882507,0.5000011324882507,0.6080771684646606,1.5714703798294067,0.3876417121291161,0.0,-3.141592735050133,-1.089338539372875e-07,0.5000012516975403,0.5000012516975403,,,,,,,,,,,,,,,,,,,,,,,,,,,,,,,,,,,,,,,,,,,,,,,,,,,,,,,,,,,,,,,,,,,,,,,,,,,,,,,,,,,,,,,,,,,,,,,,,,,,,,,,,,,,,,,,,,,,,,,,,,,,,,,,,,,,,,-5.551115123125783e-13,3.3306690738754696e-13,-5.898059818321144e-13,0.0,5.4067861299245124e-11,1.0912787166972304e-11,-5.835189313074807e-06,-5.830741429235786e-06,-1.3282708266615373e-09,3.3584246494910985e-10,-1.976939500991648e-09,0.0,1.9124557582017587e-07,5.485620704348548e-07,6.420813861041097e-06,6.412887159967795e-06,,,,,,,,,,,,,,,,,,,,,,,,,,,,,,,,,,,,,,,,,,,,,,,,,,,,,,,,,,,,,,,,,,,,,,,,,,
95,3.1539928913116455,0.6108638048171997,1.5707972049713135,0.38999885976314547,0.0,-3.141592675445488,-5.388364450811811e-13,0.5000011324882507,0.5000011324882507,0.6080771684646606,1.5714703798294067,0.3876417121291161,0.0,-3.141592735050133,-9.095465713926387e-08,0.500001072883606,0.500001072883606,,,,,,,,,,,,,,,,,,,,,,,,,,,,,,,,,,,,,,,,,,,,,,,,,,,,,,,,,,,,,,,,,,,,,,,,,,,,,,,,,,,,,,,,,,,,,,,,,,,,,,,,,,,,,,,,,,,,,,,,,,,,,,,,,,,,,,-5.551115123125783e-13,3.3306690738754696e-13,-5.898059818321144e-13,0.0,5.4067861299245124e-11,1.0912787166972304e-11,-5.835189313074807e-06,-5.830741429235786e-06,-1.1093348462054564e-09,2.808864252301646e-10,-1.6505755651152754e-09,0.0,1.5962208976816328e-07,4.5802377712789166e-07,5.361967396311229e-06,5.355841949494788e-06,,,,,,,,,,,,,,,,,,,,,,,,,,,,,,,,,,,,,,,,,,,,,,,,,,,,,,,,,,,,,,,,,,,,,,,,,,
96,3.1760754585266113,0.6108638048171997,1.5707972049713135,0.38999885976314547,0.0,-3.141592675445488,-1.8959508442384365e-13,0.5000009536743164,0.5000009536743164,0.6080771684646606,1.5714703798294067,0.3876417121291161,0.0,-3.141592675445488,-7.594287154688573e-08,0.5000008940696716,0.5000008940696716,,,,,,,,,,,,,,,,,,,,,,,,,,,,,,,,,,,,,,,,,,,,,,,,,,,,,,,,,,,,,,,,,,,,,,,,,,,,,,,,,,,,,,,,,,,,,,,,,,,,,,,,,,,,,,,,,,,,,,,,,,,,,,,,,,,,,,-4.996003610813204e-13,1.1102230246251565e-13,-4.371503159461554e-13,0.0,4.6407322429331543e-11,7.765260656711348e-12,-4.824298230232671e-06,-4.821241873287363e-06,-9.264811140496931e-10,2.345901251032956e-10,-1.3780226959525521e-09,0.0,1.332271466480961e-07,3.824284817710577e-07,4.477733000385342e-06,4.473030912777176e-06,,,,,,,,,,,,,,,,,,,,,,,,,,,,,,,,,,,,,,,,,,,,,,,,,,,,,,,,,,,,,,,,,,,,,,,,,,
97,3.197521686553955,0.6108638048171997,1.5707972049713135,0.38999885976314547,0.0,-3.141592675445488,4.522576228988863e-14,0.5000007748603821,0.5000007748603821,0.6080771684646606,1.5714703798294067,0.3876417121291161,0.0,-3.141592675445488,-7.594287154688573e-08,0.5000008940696716,0.5000008940696716,,,,,,,,,,,,,,,,,,,,,,,,,,,,,,,,,,,,,,,,,,,,,,,,,,,,,,,,,,,,,,,,,,,,,,,,,,,,,,,,,,,,,,,,,,,,,,,,,,,,,,,,,,,,,,,,,,,,,,,,,,,,,,,,,,,,,,-4.996003610813204e-13,1.1102230246251565e-13,-3.400058012914542e-13,0.0,3.980149543281186e-11,5.548319182563377e-12,-4.0286713556270115e-06,-4.026609531138092e-06,-9.264811140496931e-10,2.345901251032956e-10,-1.3780226959525521e-09,0.0,1.332271466480961e-07,3.824284817710577e-07,4.477733000385342e-06,4.473030912777176e-06,,,,,,,,,,,,,,,,,,,,,,,,,,,,,,,,,,,,,,,,,,,,,,,,,,,,,,,,,,,,,,,,,,,,,,,,,,
98,3.2189037799835205,0.6108638048171997,1.5707972049713135,0.38999885976314547,0.0,-3.141592675445488,4.522576228988863e-14,0.5000007748603821,0.5000007748603821,0.6080771684646606,1.5714703798294067,0.3876417121291161,0.0,-3.141592675445488,-6.277648623154164e-08,0.5000007152557373,0.5000007152557373,,,,,,,,,,,,,,,,,,,,,,,,,,,,,,,,,,,,,,,,,,,,,,,,,,,,,,,,,,,,,,,,,,,,,,,,,,,,,,,,,,,,,,,,,,,,,,,,,,,,,,,,,,,,,,,,,,,,,,,,,,,,,,,,,,,,,,-4.996003610813204e-13,1.1102230246251565e-13,-3.400058012914542e-13,0.0,3.980149543281186e-11,5.548319182563377e-12,-4.0286713556270115e-06,-4.026609531138092e-06,-7.661649092938205e-10,1.9395596240201485e-10,-1.138998673155811e-09,0.0,1.1008632583298095e-07,3.161261190598452e-07,3.7020665786258178e-06,3.698538876051316e-06,,,,,,,,,,,,,,,,,,,,,,,,,,,,,,,,,,,,,,,,,,,,,,,,,,,,,,,,,,,,,,,,,,,,,,,,,,
99,3.239881992340088,0.6108638048171997,1.5707972049713135,0.38999885976314547,0.0,-3.141592675445488,2.0736288120631885e-13,0.5000006556510925,0.5000006556510925,0.6080771684646606,1.5714703798294067,0.3876417121291161,0.0,-3.141592675445488,-6.277648623154164e-08,0.5000007152557373,0.5000007152557373,,,,,,,,,,,,,,,,,,,,,,,,,,,,,,,,,,,,,,,,,,,,,,,,,,,,,,,,,,,,,,,,,,,,,,,,,,,,,,,,,,,,,,,,,,,,,,,,,,,,,,,,,,,,,,,,,,,,,,,,,,,,,,,,,,,,,,-3.3306690738754696e-13,3.3306690738754696e-13,-2.983724378680108e-13,0.0,3.469446951953614e-11,3.890588805982587e-12,-3.3642600101302378e-06,-3.362947381901904e-06,-7.661649092938205e-10,1.9395596240201485e-10,-1.138998673155811e-09,0.0,1.1008632583298095e-07,3.161261190598452e-07,3.7020665786258178e-06,3.698538876051316e-06,,,,,,,,,,,,,,,,,,,,,,,,,,,,,,,,,,,,,,,,,,,,,,,,,,,,,,,,,,,,,,,,,,,,,,,,,,
100,3.261514186859131,0.6108638048171997,1.5707972049713135,0.38999885976314547,0.0,-3.141592675445488,2.0736288120631885e-13,0.5000006556510925,0.5000006556510925,0.6080771684646606,1.5714703798294067,0.3876417121291161,0.0,-3.141592675445488,-5.1892779850959414e-08,0.5000005960464478,0.5000005960464478,,,,,,,,,,,,,,,,,,,,,,,,,,,,,,,,,,,,,,,,,,,,,,,,,,,,,,,,,,,,,,,,,,,,,,,,,,,,,,,,,,,,,,,,,,,,,,,,,,,,,,,,,,,,,,,,,,,,,,,,,,,,,,,,,,,,,,-3.3306690738754696e-13,3.3306690738754696e-13,-2.983724378680108e-13,0.0,3.469446951953614e-11,3.890588805982587e-12,-3.3642600101302378e-06,-3.362947381901904e-06,-6.335487690023456e-10,1.6076029396572267e-10,-9.414899970749957e-10,0.0,9.09652939640182e-08,2.6131854724553705e-07,3.0607661756221205e-06,3.0581468308810145e-06,,,,,,,,,,,,,,,,,,,,,,,,,,,,,,,,,,,,,,,,,,,,,,,,,,,,,,,,,,,,,,,,,,,,,,,,,,
101,3.2838294506073,0.6108638048171997,1.5707972049713135,0.38999885976314547,0.0,-3.141592675445488,3.149351439357684e-13,0.500000536441803,0.500000536441803,0.6080771684646606,1.5714703798294067,0.3876417121291161,0.0,-3.141592675445488,-5.1892779850959414e-08,0.5000005960464478,0.5000005960464478,,,,,,,,,,,,,,,,,,,,,,,,,,,,,,,,,,,,,,,,,,,,,,,,,,,,,,,,,,,,,,,,,,,,,,,,,,,,,,,,,,,,,,,,,,,,,,,,,,,,,,,,,,,,,,,,,,,,,,,,,,,,,,,,,,,,,,-3.3306690738754696e-13,1.1102230246251565e-13,-1.8735013540549517e-13,0.0,2.958744360626042e-11,2.6172365056448266e-12,-2.8094234494346892e-06,-2.808669705700595e-06,-6.335487690023456e-10,1.6076029396572267e-10,-9.414899970749957e-10,0.0,9.09652939640182e-08,2.6131854724553705e-07,3.0607661756221205e-06,3.0581468308810145e-06,,,,,,,,,,,,,,,,,,,,,,,,,,,,,,,,,,,,,,,,,,,,,,,,,,,,,,,,,,,,,,,,,,,,,,,,,,
102,3.306424856185913,0.6108638048171997,1.5707972049713135,0.38999885976314547,0.0,-3.141592675445488,3.8103195728819705e-13,0.5000004768371582,0.5000004768371582,0.6080771684646606,1.5714703798294067,0.3876417121291161,0.0,-3.141592675445488,-4.2896004970316426e-08,0.5000004768371582,0.5000004768371582,,,,,,,,,,,,,,,,,,,,,,,,,,,,,,,,,,,,,,,,,,,,,,,,,,,,,,,,,,,,,,,,,,,,,,,,,,,,,,,,,,,,,,,,,,,,,,,,,,,,,,,,,,,,,,,,,,,,,,,,,,,,,,,,,,,,,,-4.996003610813204e-13,2.220446049250313e-13,-2.220446049250313e-13,0.0,2.5701663020072374e-11,1.1962950161731323e-12,-2.346090695937164e-06,-2.345748043808271e-06,-5.238032230181489e-10,1.3278267374516872e-10,-7.781900124292918e-10,0.0,7.516553779396418e-08,2.160131771233864e-07,2.530556685087504e-06,2.528637651266763e-06,,,,,,,,,,,,,,,,,,,,,,,,,,,,,,,,,,,,,,,,,,,,,,,,,,,,,,,,,,,,,,,,,,,,,,,,,,
103,3.32719087600708,0.6108638048171997,1.5707972049713135,0.38999885976314547,0.0,-3.141592675445488,3.8103195728819705e-13,0.5000004768371582,0.5000004768371582,0.6080771684646606,1.5714703798294067,0.3876417121291161,0.0,-3.141592675445488,-3.581615004577543e-08,0.5000004172325134,0.5000004172325134,,,,,,,,,,,,,,,,,,,,,,,,,,,,,,,,,,,,,,,,,,,,,,,,,,,,,,,,,,,,,,,,,,,,,,,,,,,,,,,,,,,,,,,,,,,,,,,,,,,,,,,,,,,,,,,,,,,,,,,,,,,,,,,,,,,,,,-4.996003610813204e-13,2.220446049250313e-13,-2.220446049250313e-13,0.0,2.5701663020072374e-11,1.1962950161731323e-12,-2.346090695937164e-06,-2.345748043808271e-06,-4.375388940047742e-10,1.1102230246251565e-10,-6.496955751167377e-10,0.0,6.273559449709865e-08,1.8036091375961405e-07,2.1132466372364433e-06,2.1118385120644234e-06,,,,,,,,,,,,,,,,,,,,,,,,,,,,,,,,,,,,,,,,,,,,,,,,,,,,,,,,,,,,,,,,,,,,,,,,,,
104,3.3495140075683594,0.6108638048171997,1.5707972049713135,0.38999885976314547,0.0,-3.141592675445488,4.174276484365802e-13,0.5000004172325134,0.5000004172325134,0.6080771684646606,1.5714703798294067,0.3876417121291161,0.0,-3.141592675445488,-3.581615004577543e-08,0.5000004172325134,0.5000004172325134,,,,,,,,,,,,,,,,,,,,,,,,,,,,,,,,,,,,,,,,,,,,,,,,,,,,,,,,,,,,,,,,,,,,,,,,,,,,,,,,,,,,,,,,,,,,,,,,,,,,,,,,,,,,,,,,,,,,,,,,,,,,,,,,,,,,,,-2.7755575615628914e-13,3.3306690738754696e-13,-1.6653345369377348e-13,0.0,2.170486013142181e-11,4.275790875876706e-13,-1.959171413545846e-06,-1.959124119821354e-06,-4.375388940047742e-10,1.1102230246251565e-10,-6.496955751167377e-10,0.0,6.273559449709865e-08,1.8036091375961405e-07,2.1132466372364433e-06,2.1118385120644234e-06,,,,,,,,,,,,,,,,,,,,,,,,,,,,,,,,,,,,,,,,,,,,,,,,,,,,,,,,,,,,,,,,,,,,,,,,,,
105,3.3707339763641357,0.6108638048171997,1.5707972049713135,0.38999885976314547,0.0,-3.141592675445488,4.316753389205924e-13,0.5000003576278687,0.5000003576278687,0.6080771684646606,1.5714703798294067,0.3876417121291161,0.0,-3.141592675445488,-2.990480041376031e-08,0.5000003576278687,0.5000003576278687,,,,,,,,,,,,,,,,,,,,,,,,,,,,,,,,,,,,,,,,,,,,,,,,,,,,,,,,,,,,,,,,,,,,,,,,,,,,,,,,,,,,,,,,,,,,,,,,,,,,,,,,,,,,,,,,,,,,,,,,,,,,,,,,,,,,,,-2.220446049250313e-13,0.0,-9.71445146547012e-14,0.0,1.9262369477246466e-11,2.538825269807199e-13,-1.6525270893907873e-06,-1.6526772697034176e-06,-3.654299085553703e-10,9.259260025373806e-11,-5.424063975745241e-10,0.0,5.236194766666813e-08,1.5059274005579937e-07,1.7647541881160578e-06,1.763741352078796e-06,,,,,,,,,,,,,,,,,,,,,,,,,,,,,,,,,,,,,,,,,,,,,,,,,,,,,,,,,,,,,,,,,,,,,,,,,,
106,3.3918936252593994,0.6108638048171997,1.5707972049713135,0.38999885976314547,0.0,-3.141592675445488,4.3194861207816737e-13,0.5000002980232239,0.5000002980232239,0.6080771684646606,1.5714703798294067,0.3876417121291161,0.0,-3.141592675445488,-2.990480041376031e-08,0.5000003576278687,0.5000003576278687,,,,,,,,,,,,,,,,,,,,,,,,,,,,,,,,,,,,,,,,,,,,,,,,,,,,,,,,,,,,,,,,,,,,,,,,,,,,,,,,,,,,,,,,,,,,,,,,,,,,,,,,,,,,,,,,,,,,,,,,,,,,,,,,,,,,,,-5.551115123125783e-14,1.1102230246251565e-13,-1.3877787807814457e-13,0.0,1.8707257964933888e-11,1.366254386101634e-13,-1.6360629615519429e-06,-1.6362231463062926e-06,-3.654299085553703e-10,9.259260025373806e-11,-5.424063975745241e-10,0.0,5.236194766666813e-08,1.5059274005579937e-07,1.7647541881160578e-06,1.763741352078796e-06,,,,,,,,,,,,,,,,,,,,,,,,,,,,,,,,,,,,,,,,,,,,,,,,,,,,,,,,,,,,,,,,,,,,,,,,,,
107,3.4136364459991455,0.6108638048171997,1.5707972049713135,0.38999885976314547,0.0,-3.141592675445488,4.300971742383225e-13,0.5000002980232239,0.5000002980232239,0.6080771684646606,1.5714703798294067,0.3876417121291161,0.0,-3.141592675445488,-2.4720133495748087e-08,0.5000002980232239,0.5000002980232239,,,,,,,,,,,,,,,,,,,,,,,,,,,,,,,,,,,,,,,,,,,,,,,,,,,,,,,,,,,,,,,,,,,,,,,,,,,,,,,,,,,,,,,,,,,,,,,,,,,,,,,,,,,,,,,,,,,,,,,,,,,,,,,,,,,,,,-5.551115123125783e-14,2.220446049250313e-13,-9.71445146547012e-14,0.0,1.6431300764452317e-11,-3.4167070214752293e-13,-1.3526312159228837e-06,-1.3529370335163549e-06,-3.0225821845419887e-10,7.682743330406083e-11,-4.483843851765812e-10,0.0,4.326678038069076e-08,1.2448408881482464e-07,1.4590502814826323e-06,1.4583541769752628e-06,,,,,,,,,,,,,,,,,,,,,,,,,,,,,,,,,,,,,,,,,,,,,,,,,,,,,,,,,,,,,,,,,,,,,,,,,,
108,3.4344167709350586,0.6108638048171997,1.5707972049713135,0.38999885976314547,0.0,-3.141592675445488,4.300971742383225e-13,0.5000002980232239,0.5000002980232239,0.6080771684646606,1.5714703798294067,0.3876417121291161,0.0,-3.141592675445488,-2.0640147369022088e-08,0.5000002384185791,0.5000002384185791,,,,,,,,,,,,,,,,,,,,,,,,,,,,,,,,,,,,,,,,,,,,,,,,,,,,,,,,,,,,,,,,,,,,,,,,,,,,,,,,,,,,,,,,,,,,,,,,,,,,,,,,,,,,,,,,,,,,,,,,,,,,,,,,,,,,,,-5.551115123125783e-14,2.220446049250313e-13,-9.71445146547012e-14,0.0,1.6431300764452317e-11,-3.4167070214752293e-13,-1.3526312159228837e-06,-1.3529370335163549e-06,-2.523536934972981e-10,6.417089082333405e-11,-3.7432557054017934e-10,0.0,3.61118921432535e-08,1.0393851113121855e-07,1.2184405022708233e-06,1.2179715440652217e-06,,,,,,,,,,,,,,,,,,,,,,,,,,,,,,,,,,,,,,,,,,,,,,,,,,,,,,,,,,,,,,,,,,,,,,,,,,
109,3.4564900398254395,0.6108638048171997,1.5707972049713135,0.38999885976314547,0.0,-3.141592675445488,4.1511466573190825e-13,0.5000002384185791,0.5000002384185791,0.6080771684646606,1.5714703798294067,0.3876417121291161,0.0,-3.141592675445488,-2.0640147369022088e-08,0.5000002384185791,0.5000002384185791,,,,,,,,,,,,,,,,,,,,,,,,,,,,,,,,,,,,,,,,,,,,,,,,,,,,,,,,,,,,,,,,,,,,,,,,,,,,,,,,,,,,,,,,,,,,,,,,,,,,,,,,,,,,,,,,,,,,,,,,,,,,,,,,,,,,,,5.551115123125783e-14,2.220446049250313e-13,-1.1102230246251565e-13,0.0,1.3600232051658168e-11,-3.610715513472501e-13,-1.1183004744452774e-06,-1.1186976962562767e-06,-2.523536934972981e-10,6.417089082333405e-11,-3.7432557054017934e-10,0.0,3.61118921432535e-08,1.0393851113121855e-07,1.2184405022708233e-06,1.2179715440652217e-06,,,,,,,,,,,,,,,,,,,,,,,,,,,,,,,,,,,,,,,,,,,,,,,,,,,,,,,,,,,,,,,,,,,,,,,,,,
110,3.477818012237549,0.6108638048171997,1.5707972049713135,0.38999885976314547,0.0,-3.141592675445488,4.1511466573190825e-13,0.5000002384185791,0.5000002384185791,0.6080771684646606,1.5714703798294067,0.3876417121291161,0.0,-3.141592675445488,-1.7233549698403294e-08,0.5000001788139343,0.5000001788139343,,,,,,,,,,,,,,,,,,,,,,,,,,,,,,,,,,,,,,,,,,,,,,,,,,,,,,,,,,,,,,,,,,,,,,,,,,,,,,,,,,,,,,,,,,,,,,,,,,,,,,,,,,,,,,,,,,,,,,,,,,,,,,,,,,,,,,5.551115123125783e-14,2.220446049250313e-13,-1.1102230246251565e-13,0.0,1.3600232051658168e-11,-3.610715513472501e-13,-1.1183004744452774e-06,-1.1186976962562767e-06,-2.1083135237631723e-10,5.362377208939506e-11,-3.125832925832128e-10,0.0,3.014111271681941e-08,8.678389207261716e-08,1.017509248413262e-06,1.0172109341510804e-06,,,,,,,,,,,,,,,,,,,,,,,,,,,,,,,,,,,,,,,,,,,,,,,,,,,,,,,,,,,,,,,,,,,,,,,,,,
111,3.4995954036712646,0.6108638048171997,1.5707972049713135,0.38999885976314547,0.0,-3.141592675445488,3.9313631560247697e-13,0.5000001788139343,0.5000001788139343,0.6080771684646606,1.5714703798294067,0.3876417121291161,0.0,-3.141592675445488,-1.7233549698403294e-08,0.5000001788139343,0.5000001788139343,,,,,,,,,,,,,,,,,,,,,,,,,,,,,,,,,,,,,,,,,,,,,,,,,,,,,,,,,,,,,,,,,,,,,,,,,,,,,,,,,,,,,,,,,,,,,,,,,,,,,,,,,,,,,,,,,,,,,,,,,,,,,,,,,,,,,,0.0,1.1102230246251565e-13,-6.245004513516506e-14,0.0,1.1601830607332886e-11,-6.812815285875407e-13,-9.245656542589131e-07,-9.250126140614157e-07,-2.1083135237631723e-10,5.362377208939506e-11,-3.125832925832128e-10,0.0,3.014111271681941e-08,8.678389207261716e-08,1.017509248413262e-06,1.0172109341510804e-06,,,,,,,,,,,,,,,,,,,,,,,,,,,,,,,,,,,,,,,,,,,,,,,,,,,,,,,,,,,,,,,,,,,,,,,,,,
112,3.5207605361938477,0.6108638048171997,1.5707972049713135,0.38999885976314547,0.0,-3.141592675445488,3.6829900565936435e-13,0.5000001788139343,0.5000001788139343,0.6080771684646606,1.5714703798294067,0.3876417121291161,0.0,-3.141592675445488,-1.4389203606413048e-08,0.5000001788139343,0.5000001788139343,,,,,,,,,,,,,,,,,,,,,,,,,,,,,,,,,,,,,,,,,,,,,,,,,,,,,,,,,,,,,,,,,,,,,,,,,,,,,,,,,,,,,,,,,,,,,,,,,,,,,,,,,,,,,,,,,,,,,,,,,,,,,,,,,,,,,,0.0,0.0,-9.71445146547012e-14,0.0,1.0103029524088925e-11,-7.349746896159748e-13,-7.798548722348642e-07,-7.803216135471303e-07,-1.7608137170554983e-10,4.5075054799781356e-11,-2.609093496808157e-10,0.0,2.5157209648796197e-08,7.246033106866889e-08,8.497132739648805e-07,8.495430279253924e-07,,,,,,,,,,,,,,,,,,,,,,,,,,,,,,,,,,,,,,,,,,,,,,,,,,,,,,,,,,,,,,,,,,,,,,,,,,
113,3.5425798892974854,0.6108638048171997,1.5707972049713135,0.38999885976314547,0.0,-3.141592675445488,3.6829900565936435e-13,0.5000001788139343,0.5000001788139343,0.6080771684646606,1.5714703798294067,0.3876417121291161,0.0,-3.141592675445488,-1.2014306882690562e-08,0.5000001192092896,0.5000001192092896,,,,,,,,,,,,,,,,,,,,,,,,,,,,,,,,,,,,,,,,,,,,,,,,,,,,,,,,,,,,,,,,,,,,,,,,,,,,,,,,,,,,,,,,,,,,,,,,,,,,,,,,,,,,,,,,,,,,,,,,,,,,,,,,,,,,,,0.0,0.0,-9.71445146547012e-14,0.0,1.0103029524088925e-11,-7.349746896159748e-13,-7.798548722348642e-07,-7.803216135471303e-07,-1.4704903961160198e-10,3.752553823233029e-11,-2.1784657411316743e-10,0.0,2.099692686385879e-08,6.050075285202183e-08,7.095885052876838e-07,7.095113687682897e-07,,,,,,,,,,,,,,,,,,,,,,,,,,,,,,,,,,,,,,,,,,,,,,,,,,,,,,,,,,,,,,,,,,,,,,,,,,
114,3.5651931762695312,0.6108638048171997,1.5707972049713135,0.38999885976314547,0.0,-3.141592675445488,3.399875324848478e-13,0.5000001192092896,0.5000001192092896,0.6080771684646606,1.5714703798294067,0.3876417121291161,0.0,-3.141592675445488,-1.2014306882690562e-08,0.5000001192092896,0.5000001192092896,,,,,,,,,,,,,,,,,,,,,,,,,,,,,,,,,,,,,,,,,,,,,,,,,,,,,,,,,,,,,,,,,,,,,,,,,,,,,,,,,,,,,,,,,,,,,,,,,,,,,,,,,,,,,,,,,,,,,,,,,,,,,,,,,,,,,,0.0,0.0,-6.245004513516506e-14,0.0,8.548717289613705e-12,-8.034119159880393e-13,-6.447526743613707e-07,-6.452210072893649e-07,-1.4704903961160198e-10,3.752553823233029e-11,-2.1784657411316743e-10,0.0,2.099692686385879e-08,6.050075285202183e-08,7.095885052876838e-07,7.095113687682897e-07,,,,,,,,,,,,,,,,,,,,,,,,,,,,,,,,,,,,,,,,,,,,,,,,,,,,,,,,,,,,,,,,,,,,,,,,,,
115,3.586967945098877,0.6108638048171997,1.5707972049713135,0.38999885976314547,0.0,-3.141592675445488,3.399875324848478e-13,0.5000001192092896,0.5000001192092896,0.6080771684646606,1.5714703798294067,0.3876417121291161,0.0,-3.141592675445488,-1.0031379282793296e-08,0.5000001192092896,0.5000001192092896,,,,,,,,,,,,,,,,,,,,,,,,,,,,,,,,,,,,,,,,,,,,,,,,,,,,,,,,,,,,,,,,,,,,,,,,,,,,,,,,,,,,,,,,,,,,,,,,,,,,,,,,,,,,,,,,,,,,,,,,,,,,,,,,,,,,,,0.0,0.0,-6.245004513516506e-14,0.0,8.548717289613705e-12,-8.034119159880393e-13,-6.447526743613707e-07,-6.452210072893649e-07,-1.2284617767477357e-10,3.1308289294429414e-11,-1.8186147032750455e-10,0.0,1.7525591644584892e-08,5.0515431837538927e-08,5.925715527155262e-07,5.925614914303878e-07,,,,,,,,,,,,,,,,,,,,,,,,,,,,,,,,,,,,,,,,,,,,,,,,,,,,,,,,,,,,,,,,,,,,,,,,,,
116,3.608605146408081,0.6108638048171997,1.5707972049713135,0.38999885976314547,0.0,-3.141592675445488,3.1044559826477747e-13,0.5000001192092896,0.5000001192092896,0.6080771684646606,1.5714703798294067,0.3876417121291161,0.0,-3.141592675445488,-8.545289809092083e-09,0.5000001192092896,0.5000001192092896,,,,,,,,,,,,,,,,,,,,,,,,,,,,,,,,,,,,,,,,,,,,,,,,,,,,,,,,,,,,,,,,,,,,,,,,,,,,,,,,,,,,,,,,,,,,,,,,,,,,,,,,,,,,,,,,,,,,,,,,,,,,,,,,,,,,,,0.0,1.1102230246251565e-13,-3.469446951953614e-14,0.0,7.049916206369744e-12,-6.188929577155555e-13,-5.33055754203815e-07,-5.335112973625655e-07,-1.04638520070921e-10,2.6645352591003757e-11,-1.549246841925367e-10,0.0,1.4924173896702086e-08,4.3032251539898425e-08,5.048599405199639e-07,5.048926254858088e-07,,,,,,,,,,,,,,,,,,,,,,,,,,,,,,,,,,,,,,,,,,,,,,,,,,,,,,,,,,,,,,,,,,,,,,,,,,
