MHC-RobotSimulators-Research/Data_Analysis_MotionReplication/mai_plotter/raven_data/the_good_stuff/2arm_a1.csv
,time,jpos0,jpos1,jpos2,jpos3,jpos4,jpos5,jpos6,jpos7,jpos8,jpos9,jpos10,jpos11,jpos12,jpos13,jpos14,jpos15,runlevel,sublevel,last_seq,type0,type1,pos0,pos1,pos2,pos3,pos4,pos5,ori0,ori1,ori2,ori3,ori4,ori5,ori6,ori7,ori8,ori9,ori10,ori11,ori12,ori13,ori14,ori15,ori16,ori17,ori_d0,ori_d1,ori_d2,ori_d3,ori_d4,ori_d5,ori_d6,ori_d7,ori_d8,ori_d9,ori_d10,ori_d11,ori_d12,ori_d13,ori_d14,ori_d15,ori_d16,ori_d17,pos_d0,pos_d1,pos_d2,pos_d3,pos_d4,pos_d5,encVals0,encVals1,encVals2,encVals3,encVals4,encVals5,encVals6,encVals7,encVals8,encVals9,encVals10,encVals11,encVals12,encVals13,encVals14,encVals15,dac_vals0,dac_vals1,dac_vals2,dac_vals3,dac_vals4,dac_vals5,dac_vals6,dac_vals7,dac_vals8,dac_vals9,dac_vals10,dac_vals11,dac_vals12,dac_vals13,dac_vals14,dac_vals15,Tau0,Tau1,Tau2,Tau3,Tau4,Tau5,Tau6,Tau7,Tau8,Tau9,Tau10,Tau11,Tau12,Tau13,Tau14,Tau15,mpos0,mpos1,mpos2,mpos3,mpos4,mpos5,mpos6,mpos7,mpos8,mpos9,mpos10,mpos11,mpos12,mpos13,mpos14,mpos15,mvel0,mvel1,mvel2,mvel3,mvel4,mvel5,mvel6,mvel7,mvel8,mvel9,mvel10,mvel11,mvel12,mvel13,mvel14,mvel15,jvel0,jvel1,jvel2,jvel3,jvel4,jvel5,jvel6,jvel7,jvel8,jvel9,jvel10,jvel11,jvel12,jvel13,jvel14,jvel15,mpos_d0,mpos_d1,mpos_d2,mpos_d3,mpos_d4,mpos_d5,mpos_d6,mpos_d7,mpos_d8,mpos_d9,mpos_d10,mpos_d11,mpos_d12,mpos_d13,mpos_d14,mpos_d15,jpos_d0,jpos_d1,jpos_d2,jpos_d3,jpos_d4,jpos_d5,jpos_d6,jpos_d7,jpos_d8,jpos_d9,jpos_d10,jpos_d11,jpos_d12,jpos_d13,jpos_d14,jpos_d15,grasp_d0,grasp_d1,encoffsets0,encoffsets1,encoffsets2,encoffsets3,encoffsets4,encoffsets5,encoffsets6,encoffsets7,encoffsets8,encoffsets9,encoffsets10,encoffsets11,encoffsets12,encoffsets13,encoffsets14,encoffsets15,jac_vel0,jac_vel1,jac_vel2,jac_vel3,jac_vel4,jac_vel5,jac_vel6,jac_vel7,jac_vel8,jac_vel9,jac_vel10,jac_vel11,jac_f0,jac_f1,jac_f2,jac_f3,jac_f4,jac_f5,jac_f6,jac_f7,jac_f8,jac_f9,jac_f10,jac_f11
0,0.0,0.6108584403991699,1.5707788467407227,0.3900007745623589,0.0,-3.141583913562706,-3.158364889066512e-11,0.7853894233703613,0.7853894233703613,0.6108584403991699,1.5707788467407227,0.3900007745623589,0.0,-3.141583913562706,-1.24994910255527e-11,0.7853894233703613,0.7853894233703613,,,,,,,,,,,,,,,,,,,,,,,,,,,,,,,,,,,,,,,,,,,,,,,,,,,,,,,,,,,,,,,,,,,,,,,,,,,,,,,,,,,,,,,,,,,,,,,,,,,,,,,,,,,,,,,,,,,,,,,,,,,,,,,,,,,,,,0.0,0.0,0.0,0.0,0.0,0.0,0.0,0.0,0.0,0.0,0.0,0.0,0.0,0.0,0.0,0.0,,,,,,,,,,,,,,,,,,,,,,,,,,,,,,,,,,,,,,,,,,,,,,,,,,,,,,,,,,,,,,,,,,,,,,,,,,
1,1.1414670944213867,0.6107974648475647,1.5706220865249634,0.39000777810812,0.0,-3.1415954768637926,-2.7366363610781264e-06,0.5311392545700073,0.5306989550590515,0.6107974648475647,1.570622205734253,0.3900077632069588,0.0,-3.141618245838097,-3.3112079108832404e-05,0.5365176796913147,0.5363245010375977,,,,,,,,,,,,,,,,,,,,,,,,,,,,,,,,,,,,,,,,,,,,,,,,,,,,,,,,,,,,,,,,,,,,,,,,,,,,,,,,,,,,,,,,,,,,,,,,,,,,,,,,,,,,,,,,,,,,,,,,,,,,,,,,,,,,,,-4.009855274489382e-06,6.823328476457391e-06,1.880510239971045e-06,0.0,-0.016978206112980843,-0.0022302414290606976,-0.3128543198108673,-0.32178592681884766,1.136645195742858e-07,-4.806345714314375e-06,5.904792033106787e-07,0.0,0.000844213820528239,0.0024363617412745953,0.1333908885717392,0.11366762220859528,,,,,,,,,,,,,,,,,,,,,,,,,,,,,,,,,,,,,,,,,,,,,,,,,,,,,,,,,,,,,,,,,,,,,,,,,,
2,1.1637532711029053,0.6107974648475647,1.5706220865249634,0.3900077706575394,0.0,-3.141583734748772,-3.635638279320119e-08,0.5237438082695007,0.523551344871521,0.6107974648475647,1.570622205734253,0.3900077706575394,0.0,-3.1416366040686876,-4.909428025712259e-05,0.5270204544067383,0.5266873240470886,,,,,,,,,,,,,,,,,,,,,,,,,,,,,,,,,,,,,,,,,,,,,,,,,,,,,,,,,,,,,,,,,,,,,,,,,,,,,,,,,,,,,,,,,,,,,,,,,,,,,,,,,,,,,,,,,,,,,,,,,,,,,,,,,,,,,,-1.0654829338818672e-06,-3.023741328433971e-06,-5.072979547549039e-07,0.0,0.001120951259508729,4.0289571188623086e-05,-0.121764175593853,-0.1121586337685585,6.606113061025098e-07,1.8111271856469102e-05,-8.333221330758533e-07,0.0,0.012349537573754787,0.007821575738489628,0.31158310174942017,0.3216843605041504,,,,,,,,,,,,,,,,,,,,,,,,,,,,,,,,,,,,,,,,,,,,,,,,,,,,,,,,,,,,,,,,,,,,,,,,,,
3,1.184657335281372,0.6107974648475647,1.5706220865249634,0.3900077706575394,0.0,-3.141583675144127,-1.6710961858734663e-07,0.52326899766922,0.5230979919433594,0.6107974052429199,1.5706220865249634,0.3900077706575394,0.0,-3.1416057884673387,-1.828572385420557e-05,0.5217118263244629,0.5216006636619568,,,,,,,,,,,,,,,,,,,,,,,,,,,,,,,,,,,,,,,,,,,,,,,,,,,,,,,,,,,,,,,,,,,,,,,,,,,,,,,,,,,,,,,,,,,,,,,,,,,,,,,,,,,,,,,,,,,,,,,,,,,,,,,,,,,,,,-1.730179945980126e-07,-1.7597102441868628e-06,1.4393714309335337e-07,0.0,0.00028305573505349457,-2.5792247470235452e-05,-0.1178470179438591,-0.1135316714644432,-4.675679292631685e-07,-1.3431822480924893e-06,6.388776085941572e-08,0.0,9.482169116381556e-05,6.303485861280933e-05,0.10923084616661072,0.10865568369626999,,,,,,,,,,,,,,,,,,,,,,,,,,,,,,,,,,,,,,,,,,,,,,,,,,,,,,,,,,,,,,,,,,,,,,,,,,
4,1.2059733867645264,0.6107974052429199,1.5706220865249634,0.3900077706575394,0.0,-3.141586595771721,-2.5852659746306017e-07,0.5192368626594543,0.5191036462783813,0.6107974052429199,1.5706220865249634,0.3900077706575394,0.0,-3.1416057884673387,-1.828572385420557e-05,0.5217118263244629,0.5216006636619568,,,,,,,,,,,,,,,,,,,,,,,,,,,,,,,,,,,,,,,,,,,,,,,,,,,,,,,,,,,,,,,,,,,,,,,,,,,,,,,,,,,,,,,,,,,,,,,,,,,,,,,,,,,,,,,,,,,,,,,,,,,,,,,,,,,,,,-4.054321891544532e-07,-1.0383961352999904e-06,3.766723821740925e-08,0.0,-2.4825432774377987e-05,6.637105798290577e-07,-0.096786729991436,-0.09606386721134186,-4.675679292631685e-07,-1.3431822480924893e-06,6.388776085941572e-08,0.0,9.482169116381556e-05,6.303485861280933e-05,0.10923084616661072,0.10865568369626999,,,,,,,,,,,,,,,,,,,,,,,,,,,,,,,,,,,,,,,,,,,,,,,,,,,,,,,,,,,,,,,,,,,,,,,,,,
5,1.2269926071166992,0.6107974052429199,1.5706220865249634,0.3900077706575394,0.0,-3.141586595771721,-2.5852659746306017e-07,0.5192368626594543,0.5191036462783813,0.6107974052429199,1.5706220865249634,0.3900077706575394,0.0,-3.141604357955864,-1.5576528312521987e-05,0.5181317329406738,0.518039345741272,,,,,,,,,,,,,,,,,,,,,,,,,,,,,,,,,,,,,,,,,,,,,,,,,,,,,,,,,,,,,,,,,,,,,,,,,,,,,,,,,,,,,,,,,,,,,,,,,,,,,,,,,,,,,,,,,,,,,,,,,,,,,,,,,,,,,,-4.054321891544532e-07,-1.0383961352999904e-06,3.766723821740925e-08,0.0,-2.4825432774377987e-05,6.637105798290577e-07,-0.096786729991436,-0.09606386721134186,-3.721455925642658e-07,-1.0588323675619904e-06,4.017943666667634e-08,0.0,6.260683585423976e-05,8.435177005594596e-05,0.09121961891651154,0.09071110934019089,,,,,,,,,,,,,,,,,,,,,,,,,,,,,,,,,,,,,,,,,,,,,,,,,,,,,,,,,,,,,,,,,,,,,,,,,,
6,1.2487025260925293,0.6107974052429199,1.5706219673156738,0.3900077706575394,0.0,-3.1415876090506822,-2.143070503279887e-07,0.5160642862319946,0.5159549713134766,0.6107974052429199,1.5706220865249634,0.3900077706575394,0.0,-3.141604357955864,-1.5576528312521987e-05,0.5181317329406738,0.518039345741272,,,,,,,,,,,,,,,,,,,,,,,,,,,,,,,,,,,,,,,,,,,,,,,,,,,,,,,,,,,,,,,,,,,,,,,,,,,,,,,,,,,,,,,,,,,,,,,,,,,,,,,,,,,,,,,,,,,,,,,,,,,,,,,,,,,,,,-3.366181715591665e-07,-8.730499416742532e-07,3.132868187094573e-08,0.0,-2.57942210737383e-05,1.2253029808562133e-06,-0.08082735538482666,-0.08022265136241913,-3.721455925642658e-07,-1.0588323675619904e-06,4.017943666667634e-08,0.0,6.260683585423976e-05,8.435177005594596e-05,0.09121961891651154,0.09071110934019089,,,,,,,,,,,,,,,,,,,,,,,,,,,,,,,,,,,,,,,,,,,,,,,,,,,,,,,,,,,,,,,,,,,,,,,,,,
7,1.2708845138549805,0.6107974052429199,1.5706219673156738,0.3900077706575394,0.0,-3.1415876090506822,-2.143070503279887e-07,0.5160642862319946,0.5159549713134766,0.6107974052429199,1.5706219673156738,0.3900077706575394,0.0,-3.1416021525840074,-1.2783138117811177e-05,0.5151416659355164,0.5150659084320068,,,,,,,,,,,,,,,,,,,,,,,,,,,,,,,,,,,,,,,,,,,,,,,,,,,,,,,,,,,,,,,,,,,,,,,,,,,,,,,,,,,,,,,,,,,,,,,,,,,,,,,,,,,,,,,,,,,,,,,,,,,,,,,,,,,,,,-3.366181715591665e-07,-8.730499416742532e-07,3.132868187094573e-08,0.0,-2.57942210737383e-05,1.2253029808562133e-06,-0.08082735538482666,-0.08022265136241913,-3.0937707151679206e-07,-8.812657483758812e-07,3.3681100575222445e-08,0.0,5.5311917094513774e-05,7.068554987199605e-05,0.07617790997028351,0.07575847953557968,,,,,,,,,,,,,,,,,,,,,,,,,,,,,,,,,,,,,,,,,,,,,,,,,,,,,,,,,,,,,,,,,,,,,,,,,,
8,1.2926456928253174,0.6107974052429199,1.5706219673156738,0.3900077706575394,0.0,-3.141588503120354,-1.7292931886458973e-07,0.5132813453674316,0.5131926536560059,0.6107974052429199,1.5706219673156738,0.3900077706575394,0.0,-3.1416003048400194,-1.037152651406359e-05,0.5125187635421753,0.5124573111534119,,,,,,,,,,,,,,,,,,,,,,,,,,,,,,,,,,,,,,,,,,,,,,,,,,,,,,,,,,,,,,,,,,,,,,,,,,,,,,,,,,,,,,,,,,,,,,,,,,,,,,,,,,,,,,,,,,,,,,,,,,,,,,,,,,,,,,-2.7831359261654143e-07,-7.21588321539457e-07,2.600789805740078e-08,0.0,-2.1128542357473634e-05,9.803517286854913e-07,-0.06682486832141876,-0.06633327156305313,-2.558909670824505e-07,-7.275938855855202e-07,2.7892944842733414e-08,0.0,4.439329859451391e-05,5.742833309341222e-05,0.0629819929599762,0.06264111399650574,,,,,,,,,,,,,,,,,,,,,,,,,,,,,,,,,,,,,,,,,,,,,,,,,,,,,,,,,,,,,,,,,,,,,,,,,,
9,1.3145153522491455,0.6107974052429199,1.5706219673156738,0.3900077706575394,0.0,-3.1415891587714464,-1.4276173487814958e-07,0.5112025737762451,0.5111290216445923,0.6107974052429199,1.5706219673156738,0.3900077706575394,0.0,-3.1416003048400194,-1.037152651406359e-05,0.5125187635421753,0.5124573111534119,,,,,,,,,,,,,,,,,,,,,,,,,,,,,,,,,,,,,,,,,,,,,,,,,,,,,,,,,,,,,,,,,,,,,,,,,,,,,,,,,,,,,,,,,,,,,,,,,,,,,,,,,,,,,,,,,,,,,,,,,,,,,,,,,,,,,,-2.347576071315416e-07,-6.085111294851231e-07,2.2016068967900537e-08,0.0,-1.7839829524746165e-05,8.094986014839378e-07,-0.056365642696619034,-0.055957451462745667,-2.558909670824505e-07,-7.275938855855202e-07,2.7892944842733414e-08,0.0,4.439329859451391e-05,5.742833309341222e-05,0.0629819929599762,0.06264111399650574,,,,,,,,,,,,,,,,,,,,,,,,,,,,,,,,,,,,,,,,,,,,,,,,,,,,,,,,,,,,,,,,,,,,,,,,,,
10,1.3363194465637207,0.6107974052429199,1.5706219673156738,0.3900077706575394,0.0,-3.1415891587714464,-1.411609105161915e-07,0.5110909342765808,0.5110182166099548,0.6107974052429199,1.5706219673156738,0.3900077706575394,0.0,-3.1415988147239,-8.411322596657556e-06,0.510350227355957,0.51030033826828,,,,,,,,,,,,,,,,,,,,,,,,,,,,,,,,,,,,,,,,,,,,,,,,,,,,,,,,,,,,,,,,,,,,,,,,,,,,,,,,,,,,,,,,,,,,,,,,,,,,,,,,,,,,,,,,,,,,,,,,,,,,,,,,,,,,,,-2.3241896940362494e-07,-6.024419576533546e-07,2.1801289662448653e-08,0.0,-1.7662605387158692e-05,8.004126925698074e-07,-0.055804088711738586,-0.055400338023900986,-2.1165547536838858e-07,-6.007451247569406e-07,2.3094859358252506e-08,0.0,3.57683929905761e-05,4.667247412726283e-05,0.05207193270325661,0.05179504677653313,,,,,,,,,,,,,,,,,,,,,,,,,,,,,,,,,,,,,,,,,,,,,,,,,,,,,,,,,,,,,,,,,,,,,,,,,,
11,1.3578858375549316,0.6107974052429199,1.5706219673156738,0.39000777810812,0.0,-3.141589754817894,-1.1522988785372945e-07,0.5092618465423584,0.509202241897583,0.6107974052429199,1.5706219673156738,0.3900077706575394,0.0,-3.1415988147239,-8.411322596657556e-06,0.510350227355957,0.51030033826828,,,,,,,,,,,,,,,,,,,,,,,,,,,,,,,,,,,,,,,,,,,,,,,,,,,,,,,,,,,,,,,,,,,,,,,,,,,,,,,,,,,,,,,,,,,,,,,,,,,,,,,,,,,,,,,,,,,,,,,,,,,,,,,,,,,,,,-1.940935732136495e-07,-5.029868930250814e-07,1.8272174884259584e-08,0.0,-1.4755558368051425e-05,6.533754799420421e-07,-0.04660085588693619,-0.04626935347914696,-2.1165547536838858e-07,-6.007451247569406e-07,2.3094859358252506e-08,0.0,3.57683929905761e-05,4.667247412726283e-05,0.05207193270325661,0.05179504677653313,,,,,,,,,,,,,,,,,,,,,,,,,,,,,,,,,,,,,,,,,,,,,,,,,,,,,,,,,,,,,,,,,,,,,,,,,,
12,1.3791325092315674,0.6107974052429199,1.5706219673156738,0.39000777810812,0.0,-3.141589754817894,-1.1522988785372945e-07,0.5092618465423584,0.509202241897583,0.6107974052429199,1.5706219673156738,0.3900077706575394,0.0,-3.1415975630263597,-6.818612746428698e-06,0.5085572600364685,0.5085169076919556,,,,,,,,,,,,,,,,,,,,,,,,,,,,,,,,,,,,,,,,,,,,,,,,,,,,,,,,,,,,,,,,,,,,,,,,,,,,,,,,,,,,,,,,,,,,,,,,,,,,,,,,,,,,,,,,,,,,,,,,,,,,,,,,,,,,,,-1.940935732136495e-07,-5.029868930250814e-07,1.8272174884259584e-08,0.0,-1.4755558368051425e-05,6.533754799420421e-07,-0.04660085588693619,-0.04626935347914696,-1.7506879146367282e-07,-4.960193109582178e-07,1.9118990834954275e-08,0.0,2.8795446269214153e-05,3.7914735003141686e-05,0.043051768094301224,0.04282693564891815,,,,,,,,,,,,,,,,,,,,,,,,,,,,,,,,,,,,,,,,,,,,,,,,,,,,,,,,,,,,,,,,,,,,,,,,,,
13,1.4004604816436768,0.6107974052429199,1.5706219673156738,0.39000777810812,0.0,-3.1415902316550524,-9.405835754705549e-08,0.5077343583106995,0.5076855421066284,0.6107974052429199,1.5706219673156738,0.3900077706575394,0.0,-3.1415975630263597,-6.818612746428698e-06,0.5085572600364685,0.5085169076919556,,,,,,,,,,,,,,,,,,,,,,,,,,,,,,,,,,,,,,,,,,,,,,,,,,,,,,,,,,,,,,,,,,,,,,,,,,,,,,,,,,,,,,,,,,,,,,,,,,,,,,,,,,,,,,,,,,,,,,,,,,,,,,,,,,,,,,-1.6208795727834513e-07,-4.1995872379629873e-07,1.531248727815182e-08,0.0,-1.2324432645982597e-05,5.335374453352415e-07,-0.038915421813726425,-0.03864331915974617,-1.7506879146367282e-07,-4.960193109582178e-07,1.9118990834954275e-08,0.0,2.8795446269214153e-05,3.7914735003141686e-05,0.043051768094301224,0.04282693564891815,,,,,,,,,,,,,,,,,,,,,,,,,,,,,,,,,,,,,,,,,,,,,,,,,,,,,,,,,,,,,,,,,,,,,,,,,,
14,1.4221386909484863,0.6107973456382751,1.5706219673156738,0.39000777810812,0.0,-3.141590589282921,-7.76393704882139e-08,0.5065237879753113,0.5064833760261536,0.6107973456382751,1.5706219673156738,0.39000777810812,0.0,-3.1415966093520433,-5.525028882402694e-06,0.5070749521255493,0.5070422291755676,,,,,,,,,,,,,,,,,,,,,,,,,,,,,,,,,,,,,,,,,,,,,,,,,,,,,,,,,,,,,,,,,,,,,,,,,,,,,,,,,,,,,,,,,,,,,,,,,,,,,,,,,,,,,,,,,,,,,,,,,,,,,,,,,,,,,,-1.3672224952188117e-07,-3.541725845934707e-07,1.295750973184795e-08,0.0,-1.039557628246257e-05,4.4070404214835435e-07,-0.03282449021935463,-0.03259874880313873,-1.448075579446595e-07,-4.095577139651141e-07,1.5825577293071547e-08,0.0,2.3165483071352355e-05,3.078789450228214e-05,0.03559412062168121,0.035411614924669266,,,,,,,,,,,,,,,,,,,,,,,,,,,,,,,,,,,,,,,,,,,,,,,,,,,,,,,,,,,,,,,,,,,,,,,,,,
15,1.4441332817077637,0.6107973456382751,1.5706219673156738,0.39000777810812,0.0,-3.141590648887566,-7.676781876853056e-08,0.5064588189125061,0.5064188241958618,0.6107973456382751,1.5706219673156738,0.39000777810812,0.0,-3.1415958344916612,-4.474816250876756e-06,0.5058493614196777,0.5058228969573975,,,,,,,,,,,,,,,,,,,,,,,,,,,,,,,,,,,,,,,,,,,,,,,,,,,,,,,,,,,,,,,,,,,,,,,,,,,,,,,,,,,,,,,,,,,,,,,,,,,,,,,,,,,,,,,,,,,,,,,,,,,,,,,,,,,,,,-1.3536016751913849e-07,-3.50641187196743e-07,1.2830778217676198e-08,0.0,-1.0291970284015406e-05,4.357783609520993e-07,-0.03249746933579445,-0.032274194061756134,-1.1977790848050063e-07,-3.3817249800449645e-07,1.309801600513083e-08,0.0,1.862221324699931e-05,2.4990564270410687e-05,0.029428323730826378,0.02928023226559162,,,,,,,,,,,,,,,,,,,,,,,,,,,,,,,,,,,,,,,,,,,,,,,,,,,,,,,,,,,,,,,,,,,,,,,,,,
16,1.4660863876342773,0.6107973456382751,1.5706218481063843,0.39000777810812,0.0,-3.1415909469107897,-6.264434659897233e-08,0.5053936243057251,0.5053609013557434,0.6107973456382751,1.5706219673156738,0.39000777810812,0.0,-3.1415958344916612,-4.474816250876756e-06,0.5058493614196777,0.5058228969573975,,,,,,,,,,,,,,,,,,,,,,,,,,,,,,,,,,,,,,,,,,,,,,,,,,,,,,,,,,,,,,,,,,,,,,,,,,,,,,,,,,,,,,,,,,,,,,,,,,,,,,,,,,,,,,,,,,,,,,,,,,,,,,,,,,,,,,-1.130397464521593e-07,-2.927687035025883e-07,1.0750240697632307e-08,0.0,-8.593378879595548e-06,3.559777894679428e-07,-0.027137966826558113,-0.02695481851696968,-1.1977790848050063e-07,-3.3817249800449645e-07,1.309801600513083e-08,0.0,1.862221324699931e-05,2.4990564270410687e-05,0.029428323730826378,0.02928023226559162,,,,,,,,,,,,,,,,,,,,,,,,,,,,,,,,,,,,,,,,,,,,,,,,,,,,,,,,,,,,,,,,,,,,,,,,,,
17,1.489495038986206,0.6107973456382751,1.5706218481063843,0.39000777810812,0.0,-3.1415909469107897,-6.264434659897233e-08,0.5053936243057251,0.5053609013557434,0.6107973456382751,1.5706218481063843,0.39000777810812,0.0,-3.1415951788405687,-3.6225344501872314e-06,0.5048361420631409,0.5048146843910217,,,,,,,,,,,,,,,,,,,,,,,,,,,,,,,,,,,,,,,,,,,,,,,,,,,,,,,,,,,,,,,,,,,,,,,,,,,,,,,,,,,,,,,,,,,,,,,,,,,,,,,,,,,,,,,,,,,,,,,,,,,,,,,,,,,,,,-1.130397464521593e-07,-2.927687035025883e-07,1.0750240697632307e-08,0.0,-8.593378879595548e-06,3.559777894679428e-07,-0.027137966826558113,-0.02695481851696968,-9.907519427088118e-08,-2.792327506995207e-07,1.083959322301098e-08,0.0,1.495800734119257e-05,2.0276589566492476e-05,0.02433059737086296,0.024210473522543907,,,,,,,,,,,,,,,,,,,,,,,,,,,,,,,,,,,,,,,,,,,,,,,,,,,,,,,,,,,,,,,,,,,,,,,,,,
18,1.5117034912109375,0.6107973456382751,1.5706218481063843,0.39000777810812,0.0,-3.1415912449340135,-5.0531731687897263e-08,0.5044592022895813,0.504432737827301,0.6107973456382751,1.5706218481063843,0.39000777810812,0.0,-3.1415951788405687,-3.6225344501872314e-06,0.5048361420631409,0.5048146843910217,,,,,,,,,,,,,,,,,,,,,,,,,,,,,,,,,,,,,,,,,,,,,,,,,,,,,,,,,,,,,,,,,,,,,,,,,,,,,,,,,,,,,,,,,,,,,,,,,,,,,,,,,,,,,,,,,,,,,,,,,,,,,,,,,,,,,,-9.345946239136538e-08,-2.420138400793803e-07,8.918296323656705e-09,0.0,-7.102609743014909e-06,2.8755525249835046e-07,-0.022436577826738358,-0.022288041189312935,-9.907519427088118e-08,-2.792327506995207e-07,1.083959322301098e-08,0.0,1.495800734119257e-05,2.0276589566492476e-05,0.02433059737086296,0.024210473522543907,,,,,,,,,,,,,,,,,,,,,,,,,,,,,,,,,,,,,,,,,,,,,,,,,,,,,,,,,,,,,,,,,,,,,,,,,,
19,1.53413987159729,0.6107973456382751,1.5706218481063843,0.39000777810812,0.0,-3.1415914833525926,-4.1681779805458063e-08,0.5037612915039062,0.5037393569946289,0.6107973456382751,1.5706218481063843,0.39000777810812,0.0,-3.1415947020034105,-2.93116409011418e-06,0.5039983987808228,0.5039810538291931,,,,,,,,,,,,,,,,,,,,,,,,,,,,,,,,,,,,,,,,,,,,,,,,,,,,,,,,,,,,,,,,,,,,,,,,,,,,,,,,,,,,,,,,,,,,,,,,,,,,,,,,,,,,,,,,,,,,,,,,,,,,,,,,,,,,,,-7.883355124249647e-08,-2.0410917045410315e-07,7.544902480560722e-09,0.0,-5.988786597299622e-06,2.3755400491154433e-07,-0.018924865871667862,-0.018801754340529442,-8.195111433906277e-08,-2.3056800557696988e-07,8.969901266198121e-09,0.0,1.2004584277747199e-05,1.6445008441223763e-05,0.020115926861763,0.020018525421619415,,,,,,,,,,,,,,,,,,,,,,,,,,,,,,,,,,,,,,,,,,,,,,,,,,,,,,,,,,,,,,,,,,,,,,,,,,
20,1.5561401844024658,0.6107973456382751,1.5706218481063843,0.39000777810812,0.0,-3.1415914833525926,-4.1681779805458063e-08,0.5037612915039062,0.5037393569946289,0.6107973456382751,1.5706218481063843,0.39000777810812,0.0,-3.141594284770897,-2.397222488070838e-06,0.5033390522003174,0.5033248662948608,,,,,,,,,,,,,,,,,,,,,,,,,,,,,,,,,,,,,,,,,,,,,,,,,,,,,,,,,,,,,,,,,,,,,,,,,,,,,,,,,,,,,,,,,,,,,,,,,,,,,,,,,,,,,,,,,,,,,,,,,,,,,,,,,,,,,,-7.883355124249647e-08,-2.0410917045410315e-07,7.544902480560722e-09,0.0,-5.988786597299622e-06,2.3755400491154433e-07,-0.018924865871667862,-0.018801754340529442,-6.846734379450936e-08,-1.9231450210099865e-07,7.496593568134813e-09,0.0,9.73837904894026e-06,1.3480061170412228e-05,0.016798686236143112,0.01671886071562767,,,,,,,,,,,,,,,,,,,,,,,,,,,,,,,,,,,,,,,,,,,,,,,,,,,,,,,,,,,,,,,,,,,,,,,,,,
21,1.5780057907104492,0.6107973456382751,1.5706218481063843,0.39000777810812,0.0,-3.1415917217711717,-3.3599171445075626e-08,0.5031096935272217,0.5030919313430786,0.6107973456382751,1.5706218481063843,0.39000777810812,0.0,-3.141594284770897,-2.397222488070838e-06,0.5033390522003174,0.5033248662948608,,,,,,,,,,,,,,,,,,,,,,,,,,,,,,,,,,,,,,,,,,,,,,,,,,,,,,,,,,,,,,,,,,,,,,,,,,,,,,,,,,,,,,,,,,,,,,,,,,,,,,,,,,,,,,,,,,,,,,,,,,,,,,,,,,,,,,-6.517836226294094e-08,-1.687273680772705e-07,6.258334295239365e-09,0.0,-4.948851255903719e-06,1.91865851206785e-07,-0.0156463161110878,-0.015546544454991817,-6.846734379450936e-08,-1.9231450210099865e-07,7.496593568134813e-09,0.0,9.73837904894026e-06,1.3480061170412228e-05,0.016798686236143112,0.01671886071562767,,,,,,,,,,,,,,,,,,,,,,,,,,,,,,,,,,,,,,,,,,,,,,,,,,,,,,,,,,,,,,,,,,,,,,,,,,
22,1.5993897914886475,0.6107973456382751,1.5706218481063843,0.39000777810812,0.0,-3.1415917217711717,-3.3599171445075626e-08,0.5031096935272217,0.5030919313430786,0.6107973456382751,1.5706218481063843,0.39000777810812,0.0,-3.141593986747673,-1.9596338916016975e-06,0.5027884244918823,0.5027768015861511,,,,,,,,,,,,,,,,,,,,,,,,,,,,,,,,,,,,,,,,,,,,,,,,,,,,,,,,,,,,,,,,,,,,,,,,,,,,,,,,,,,,,,,,,,,,,,,,,,,,,,,,,,,,,,,,,,,,,,,,,,,,,,,,,,,,,,-6.517836226294094e-08,-1.687273680772705e-07,6.258334295239365e-09,0.0,-4.948851255903719e-06,1.91865851206785e-07,-0.0156463161110878,-0.015546544454991817,-5.720235307649091e-08,-1.604084616246837e-07,6.265036933683632e-09,0.0,7.893187103036325e-06,1.1045406608900521e-05,0.014028479345142841,0.013963082805275917,,,,,,,,,,,,,,,,,,,,,,,,,,,,,,,,,,,,,,,,,,,,,,,,,,,,,,,,,,,,,,,,,,,,,,,,,,
23,1.6207036972045898,0.6107973456382751,1.5706218481063843,0.39000777810812,0.0,-3.1415918409804613,-2.7071656916177744e-08,0.5025709271430969,0.5025566220283508,0.6107973456382751,1.5706218481063843,0.39000777810812,0.0,-3.141593986747673,-1.9596338916016975e-06,0.5027884244918823,0.5027768015861511,,,,,,,,,,,,,,,,,,,,,,,,,,,,,,,,,,,,,,,,,,,,,,,,,,,,,,,,,,,,,,,,,,,,,,,,,,,,,,,,,,,,,,,,,,,,,,,,,,,,,,,,,,,,,,,,,,,,,,,,,,,,,,,,,,,,,,-5.388811530337989e-08,-1.39480320626717e-07,5.190903262786151e-09,0.0,-4.089165940968087e-06,1.549359467389877e-07,-0.012935741804540157,-0.012854919768869877,-5.720235307649091e-08,-1.604084616246837e-07,6.265036933683632e-09,0.0,7.893187103036325e-06,1.1045406608900521e-05,0.014028479345142841,0.013963082805275917,,,,,,,,,,,,,,,,,,,,,,,,,,,,,,,,,,,,,,,,,,,,,,,,,,,,,,,,,,,,,,,,,,,,,,,,,,
24,1.6416394710540771,0.6107973456382751,1.5706218481063843,0.39000777810812,0.0,-3.1415918409804613,-2.7071656916177744e-08,0.5025709271430969,0.5025566220283508,0.6107973456382751,1.5706218481063843,0.39000777810812,0.0,-3.141593748329094,-1.6011510979296872e-06,0.5023285746574402,0.5023190975189209,,,,,,,,,,,,,,,,,,,,,,,,,,,,,,,,,,,,,,,,,,,,,,,,,,,,,,,,,,,,,,,,,,,,,,,,,,,,,,,,,,,,,,,,,,,,,,,,,,,,,,,,,,,,,,,,,,,,,,,,,,,,,,,,,,,,,,-5.388811530337989e-08,-1.39480320626717e-07,5.190903262786151e-09,0.0,-4.089165940968087e-06,1.549359467389877e-07,-0.012935741804540157,-0.012854919768869877,-4.7790880586262574e-08,-1.3379641927713237e-07,5.235534228376082e-09,0.0,6.391765964508522e-06,9.046891136677004e-06,0.011715096421539783,0.01166154071688652,,,,,,,,,,,,,,,,,,,,,,,,,,,,,,,,,,,,,,,,,,,,,,,,,,,,,,,,,,,,,,,,,,,,,,,,,,
25,1.6642615795135498,0.6107973456382751,1.5706218481063843,0.39000777810812,0.0,-3.1415920197943956,-2.1801197291893004e-08,0.5021255612373352,0.5021139979362488,0.6107973456382751,1.5706218481063843,0.39000777810812,0.0,-3.141593509910515,-1.307591901422711e-06,0.5019446015357971,0.5019368529319763,,,,,,,,,,,,,,,,,,,,,,,,,,,,,,,,,,,,,,,,,,,,,,,,,,,,,,,,,,,,,,,,,,,,,,,,,,,,,,,,,,,,,,,,,,,,,,,,,,,,,,,,,,,,,,,,,,,,,,,,,,,,,,,,,,,,,,-4.455408131320837e-08,-1.1530265453529864e-07,4.305299228235526e-09,0.0,-3.3785927371354774e-06,1.250822236897875e-07,-0.010694748722016811,-0.010629303753376007,-3.9927783745952183e-08,-1.1160005897181691e-07,4.375111384291586e-09,0.0,5.170904387341579e-06,7.406958047795342e-06,0.009783204644918442,0.009739362634718418,,,,,,,,,,,,,,,,,,,,,,,,,,,,,,,,,,,,,,,,,,,,,,,,,,,,,,,,,,,,,,,,,,,,,,,,,,
26,1.685835361480713,0.6107973456382751,1.5706218481063843,0.39000777810812,0.0,-3.141592139003685,-1.7748822855878643e-08,0.5017750263214111,0.5017655491828918,0.6107973456382751,1.5706218481063843,0.39000777810812,0.0,-3.141593509910515,-1.307591901422711e-06,0.5019446015357971,0.5019368529319763,,,,,,,,,,,,,,,,,,,,,,,,,,,,,,,,,,,,,,,,,,,,,,,,,,,,,,,,,,,,,,,,,,,,,,,,,,,,,,,,,,,,,,,,,,,,,,,,,,,,,,,,,,,,,,,,,,,,,,,,,,,,,,,,,,,,,,-3.720718311228666e-08,-9.62768780254919e-08,3.60596974502414e-09,0.0,-2.8195356662763515e-06,1.0209600986854639e-07,-0.008930962532758713,-0.008877400308847427,-3.9927783745952183e-08,-1.1160005897181691e-07,4.375111384291586e-09,0.0,5.170904387341579e-06,7.406958047795342e-06,0.009783204644918442,0.009739362634718418,,,,,,,,,,,,,,,,,,,,,,,,,,,,,,,,,,,,,,,,,,,,,,,,,,,,,,,,,,,,,,,,,,,,,,,,,,
27,1.7076189517974854,0.6107973456382751,1.5706218481063843,0.39000777810812,0.0,-3.141592139003685,-1.7748822855878643e-08,0.5017750263214111,0.5017655491828918,0.6107973456382751,1.5706218481063843,0.39000777810812,0.0,-3.1415933310965807,-1.0672976031855796e-06,0.5016239285469055,0.5016176104545593,,,,,,,,,,,,,,,,,,,,,,,,,,,,,,,,,,,,,,,,,,,,,,,,,,,,,,,,,,,,,,,,,,,,,,,,,,,,,,,,,,,,,,,,,,,,,,,,,,,,,,,,,,,,,,,,,,,,,,,,,,,,,,,,,,,,,,-3.720718311228666e-08,-9.62768780254919e-08,3.60596974502414e-09,0.0,-2.8195356662763515e-06,1.0209600986854639e-07,-0.008930962532758713,-0.008877400308847427,-3.335881615385006e-08,-9.308575954491971e-08,3.655936664515025e-09,0.0,4.178892140771495e-06,6.061745807528496e-06,0.00816989317536354,0.008134018629789352,,,,,,,,,,,,,,,,,,,,,,,,,,,,,,,,,,,,,,,,,,,,,,,,,,,,,,,,,,,,,,,,,,,,,,,,,,
28,1.7301201820373535,0.6107973456382751,1.5706218481063843,0.39000777810812,0.0,-3.14159219860833,-1.4276976934013419e-08,0.5014675259590149,0.5014598965644836,0.6107973456382751,1.5706218481063843,0.39000777810812,0.0,-3.1415933310965807,-1.0672976031855796e-06,0.5016239285469055,0.5016176104545593,,,,,,,,,,,,,,,,,,,,,,,,,,,,,,,,,,,,,,,,,,,,,,,,,,,,,,,,,,,,,,,,,,,,,,,,,,,,,,,,,,,,,,,,,,,,,,,,,,,,,,,,,,,,,,,,,,,,,,,,,,,,,,,,,,,,,,-3.076227983456192e-08,-7.958922054740469e-08,2.9905453668988002e-09,0.0,-2.3293530375667615e-06,8.236864346145012e-08,-0.007383759133517742,-0.007340426091104746,-3.335881615385006e-08,-9.308575954491971e-08,3.655936664515025e-09,0.0,4.178892140771495e-06,6.061745807528496e-06,0.00816989317536354,0.008134018629789352,,,,,,,,,,,,,,,,,,,,,,,,,,,,,,,,,,,,,,,,,,,,,,,,,,,,,,,,,,,,,,,,,,,,,,,,,,
29,1.7525532245635986,0.6107973456382751,1.5706218481063843,0.39000777810812,0.0,-3.1415922582129747,-1.187966525151296e-08,0.5012502670288086,0.5012439489364624,0.6107973456382751,1.5706218481063843,0.39000777810812,0.0,-3.141593211887291,-8.806051710052998e-07,0.5013697743415833,0.501364529132843,,,,,,,,,,,,,,,,,,,,,,,,,,,,,,,,,,,,,,,,,,,,,,,,,,,,,,,,,,,,,,,,,,,,,,,,,,,,,,,,,,,,,,,,,,,,,,,,,,,,,,,,,,,,,,,,,,,,,,,,,,,,,,,,,,,,,,-2.6209201919868974e-08,-6.780154393482007e-08,2.5543802628646972e-09,0.0,-1.983243464565021e-06,6.872232916066423e-08,-0.006290745455771685,-0.006254509091377258,-2.814992683397577e-08,-7.842970717319986e-08,3.0856011079549717e-09,0.0,3.413918648220715e-06,5.014387625124073e-06,0.006891276687383652,0.006861603818833828,,,,,,,,,,,,,,,,,,,,,,,,,,,,,,,,,,,,,,,,,,,,,,,,,,,,,,,,,,,,,,,,,,,,,,,,,,
30,1.7738242149353027,0.6107973456382751,1.5706218481063843,0.39000777810812,0.0,-3.1415923178176195,-1.1609404992896089e-08,0.501225471496582,0.5012192726135254,0.6107973456382751,1.5706218481063843,0.39000777810812,0.0,-3.1415930926780016,-7.180010470619891e-07,0.5011438727378845,0.5011396408081055,,,,,,,,,,,,,,,,,,,,,,,,,,,,,,,,,,,,,,,,,,,,,,,,,,,,,,,,,,,,,,,,,,,,,,,,,,,,,,,,,,,,,,,,,,,,,,,,,,,,,,,,,,,,,,,,,,,,,,,,,,,,,,,,,,,,,,-2.56896175443444e-08,-6.645694838880445e-08,2.504704665895474e-09,0.0,-1.9437613900663564e-06,6.718217093748535e-08,-0.006166023667901754,-0.006130589172244072,-2.351863059857351e-08,-6.5418667816175e-08,2.5783055690453693e-09,0.0,2.752831733232597e-06,4.100173100596294e-06,0.005754862446337938,0.005730601958930492,,,,,,,,,,,,,,,,,,,,,,,,,,,,,,,,,,,,,,,,,,,,,,,,,,,,,,,,,,,,,,,,,,,,,,,,,,
31,1.7959778308868408,0.6107973456382751,1.5706218481063843,0.39000777810812,0.0,-3.1415923774222643,-9.325809458005097e-09,0.5010131597518921,0.501008152961731,0.6107973456382751,1.5706218481063843,0.39000777810812,0.0,-3.1415930926780016,-7.180010470619891e-07,0.5011438727378845,0.5011396408081055,,,,,,,,,,,,,,,,,,,,,,,,,,,,,,,,,,,,,,,,,,,,,,,,,,,,,,,,,,,,,,,,,,,,,,,,,,,,,,,,,,,,,,,,,,,,,,,,,,,,,,,,,,,,,,,,,,,,,,,,,,,,,,,,,,,,,,-2.1239898728708795e-08,-5.4938276150551246e-08,2.0770953845783424e-09,0.0,-1.605721763553447e-06,5.415393289354142e-08,-0.005097819026559591,-0.005069179460406303,-2.351863059857351e-08,-6.5418667816175e-08,2.5783055690453693e-09,0.0,2.752831733232597e-06,4.100173100596294e-06,0.005754862446337938,0.005730601958930492,,,,,,,,,,,,,,,,,,,,,,,,,,,,,,,,,,,,,,,,,,,,,,,,,,,,,,,,,,,,,,,,,,,,,,,,,,
32,1.8170533180236816,0.6107973456382751,1.5706218481063843,0.39000777810812,0.0,-3.1415923774222643,-9.325809458005097e-09,0.5010131597518921,0.501008152961731,0.6107973456382751,1.5706218481063843,0.39000777810812,0.0,-3.141593033073357,-5.850741331414611e-07,0.5009552240371704,0.5009517669677734,,,,,,,,,,,,,,,,,,,,,,,,,,,,,,,,,,,,,,,,,,,,,,,,,,,,,,,,,,,,,,,,,,,,,,,,,,,,,,,,,,,,,,,,,,,,,,,,,,,,,,,,,,,,,,,,,,,,,,,,,,,,,,,,,,,,,,-2.1239898728708795e-08,-5.4938276150551246e-08,2.0770953845783424e-09,0.0,-1.605721763553447e-06,5.415393289354142e-08,-0.005097819026559591,-0.005069179460406303,-1.9649281313149913e-08,-5.4566239526820937e-08,2.154415534860732e-09,0.0,2.2169444946484873e-06,3.351072109580855e-06,0.004805849865078926,0.004786023870110512,,,,,,,,,,,,,,,,,,,,,,,,,,,,,,,,,,,,,,,,,,,,,,,,,,,,,,,,,,,,,,,,,,,,,,,,,,
33,1.839087724685669,0.6107973456382751,1.5706218481063843,0.39000777810812,0.0,-3.141592437026909,-7.661061118824364e-09,0.5008546113967896,0.5008504986763,0.6107973456382751,1.5706218481063843,0.39000777810812,0.0,-3.141592973468712,-4.819347623197245e-07,0.5008057355880737,0.5008028745651245,,,,,,,,,,,,,,,,,,,,,,,,,,,,,,,,,,,,,,,,,,,,,,,,,,,,,,,,,,,,,,,,,,,,,,,,,,,,,,,,,,,,,,,,,,,,,,,,,,,,,,,,,,,,,,,,,,,,,,,,,,,,,,,,,,,,,,-1.7916113037586e-08,-4.6335046022250026e-08,1.7567336474400008e-09,0.0,-1.3533865512727061e-06,4.463425895551154e-08,-0.004299921914935112,-0.0042762598022818565,-1.6581180872776713e-08,-4.5974889673061625e-08,1.8182191308113715e-09,0.0,1.8047188632408506e-06,2.768468675640179e-06,0.004053717944771051,0.004037339705973864,,,,,,,,,,,,,,,,,,,,,,,,,,,,,,,,,,,,,,,,,,,,,,,,,,,,,,,,,,,,,,,,,,,,,,,,,,
34,1.8602895736694336,0.6107973456382751,1.5706218481063843,0.39000777810812,0.0,-3.141592437026909,-7.661061118824364e-09,0.5008546113967896,0.5008504986763,0.6107973456382751,1.5706218481063843,0.39000777810812,0.0,-3.141592973468712,-4.710459791112953e-07,0.5007897615432739,0.5007869601249695,,,,,,,,,,,,,,,,,,,,,,,,,,,,,,,,,,,,,,,,,,,,,,,,,,,,,,,,,,,,,,,,,,,,,,,,,,,,,,,,,,,,,,,,,,,,,,,,,,,,,,,,,,,,,,,,,,,,,,,,,,,,,,,,,,,,,,-1.7916113037586e-08,-4.6335046022250026e-08,1.7567336474400008e-09,0.0,-1.3533865512727061e-06,4.463425895551154e-08,-0.004299921914935112,-0.0042762598022818565,-1.6253220991302442e-08,-4.5057401365511396e-08,1.7823104103698029e-09,0.0,1.7614153193790116e-06,2.706879058678169e-06,0.003973355516791344,0.003957341890782118,,,,,,,,,,,,,,,,,,,,,,,,,,,,,,,,,,,,,,,,,,,,,,,,,,,,,,,,,,,,,,,,,,,,,,,,,,
35,1.8834314346313477,0.6107973456382751,1.5706218481063843,0.39000777810812,0.0,-3.141592437026909,-6.216565928696127e-09,0.5007136464118958,0.5007103085517883,0.6107973456382751,1.5706218481063843,0.39000777810812,0.0,-3.1415929138640672,-3.789642732954235e-07,0.5006529688835144,0.5006507039070129,,,,,,,,,,,,,,,,,,,,,,,,,,,,,,,,,,,,,,,,,,,,,,,,,,,,,,,,,,,,,,,,,,,,,,,,,,,,,,,,,,,,,,,,,,,,,,,,,,,,,,,,,,,,,,,,,,,,,,,,,,,,,,,,,,,,,,-1.4961587524453535e-08,-3.869027409564296e-08,1.471156529930795e-09,0.0,-1.1292676163066062e-06,3.635401313317743e-08,-0.0035907751880586147,-0.0035714537370949984,-1.3444300783760355e-08,-3.7205794001238246e-08,1.4744178100656313e-09,0.0,1.3971817907076911e-06,2.185287712563877e-06,0.0032850701827555895,0.0032721434254199266,,,,,,,,,,,,,,,,,,,,,,,,,,,,,,,,,,,,,,,,,,,,,,,,,,,,,,,,,,,,,,,,,,,,,,,,,,
36,1.9051735401153564,0.6107973456382751,1.5706218481063843,0.39000777810812,0.0,-3.141592496631554,-5.0403747842153734e-09,0.5005959868431091,0.5005932450294495,0.6107973456382751,1.5706218481063843,0.39000777810812,0.0,-3.1415929138640672,-3.789642732954235e-07,0.5006529688835144,0.5006507039070129,,,,,,,,,,,,,,,,,,,,,,,,,,,,,,,,,,,,,,,,,,,,,,,,,,,,,,,,,,,,,,,,,,,,,,,,,,,,,,,,,,,,,,,,,,,,,,,,,,,,,,,,,,,,,,,,,,,,,,,,,,,,,,,,,,,,,,-1.2494616008495996e-08,-3.2306601838172355e-08,1.2320700015777675e-09,0.0,-9.422466291653109e-07,2.9593511641223813e-08,-0.0029985818546265364,-0.002982812700793147,-1.3444300783760355e-08,-3.7205794001238246e-08,1.4744178100656313e-09,0.0,1.3971817907076911e-06,2.185287712563877e-06,0.0032850701827555895,0.0032721434254199266,,,,,,,,,,,,,,,,,,,,,,,,,,,,,,,,,,,,,,,,,,,,,,,,,,,,,,,,,,,,,,,,,,,,,,,,,,
37,1.9279310703277588,0.6107973456382751,1.5706218481063843,0.39000777810812,0.0,-3.141592496631554,-5.0403747842153734e-09,0.5005959868431091,0.5005932450294495,0.6107973456382751,1.5706218481063843,0.39000777810812,0.0,-3.1415928542594225,-3.0817435003882565e-07,0.5005452632904053,0.500543475151062,,,,,,,,,,,,,,,,,,,,,,,,,,,,,,,,,,,,,,,,,,,,,,,,,,,,,,,,,,,,,,,,,,,,,,,,,,,,,,,,,,,,,,,,,,,,,,,,,,,,,,,,,,,,,,,,,,,,,,,,,,,,,,,,,,,,,,-1.2494616008495996e-08,-3.2306601838172355e-08,1.2320700015777675e-09,0.0,-9.422466291653109e-07,2.9593511641223813e-08,-0.0029985818546265364,-0.002982812700793147,-1.1232292429497193e-08,-3.103373202861803e-08,1.2319519848702498e-09,0.0,1.1200119161003386e-06,1.7832184084909386e-06,0.002743341727182269,0.0027327940333634615,,,,,,,,,,,,,,,,,,,,,,,,,,,,,,,,,,,,,,,,,,,,,,,,,,,,,,,,,,,,,,,,,,,,,,,,,,
38,1.9494528770446777,0.6107973456382751,1.5706218481063843,0.39000777810812,0.0,-3.141592496631554,-4.083201776694523e-09,0.5004976987838745,0.500495433807373,0.6107973456382751,1.5706218481063843,0.39000777810812,0.0,-3.1415928542594225,-3.0817435003882565e-07,0.5005452632904053,0.500543475151062,,,,,,,,,,,,,,,,,,,,,,,,,,,,,,,,,,,,,,,,,,,,,,,,,,,,,,,,,,,,,,,,,,,,,,,,,,,,,,,,,,,,,,,,,,,,,,,,,,,,,,,,,,,,,,,,,,,,,,,,,,,,,,,,,,,,,,-1.0434209052334609e-08,-2.697597700773713e-08,1.0317371401669106e-09,0.0,-7.861863764446753e-07,2.407568544526839e-08,-0.0025040532927960157,-0.0024911900982260704,-1.1232292429497193e-08,-3.103373202861803e-08,1.2319519848702498e-09,0.0,1.1200119161003386e-06,1.7832184084909386e-06,0.002743341727182269,0.0027327940333634615,,,,,,,,,,,,,,,,,,,,,,,,,,,,,,,,,,,,,,,,,,,,,,,,,,,,,,,,,,,,,,,,,,,,,,,,,,
39,1.9728586673736572,0.6107973456382751,1.5706218481063843,0.39000777810812,0.0,-3.1415925562361986,-3.304746032384287e-09,0.5004156231880188,0.5004137754440308,0.6107973456382751,1.5706218481063843,0.39000777810812,0.0,-3.1415927946547777,-2.475494227383024e-07,0.500450849533081,0.5004493594169617,,,,,,,,,,,,,,,,,,,,,,,,,,,,,,,,,,,,,,,,,,,,,,,,,,,,,,,,,,,,,,,,,,,,,,,,,,,,,,,,,,,,,,,,,,,,,,,,,,,,,,,,,,,,,,,,,,,,,,,,,,,,,,,,,,,,,,-8.713696431073004e-09,-2.25253149466198e-08,8.640102522328164e-10,0.0,-6.559661187566235e-07,1.9574157406054837e-08,-0.0020910827443003654,-0.002080596284940839,-9.291067470940106e-09,-2.5625833899312056e-08,1.0191292254546624e-09,0.0,8.851840789247944e-07,1.4379158983501839e-06,0.002268125768750906,0.002259621163830161,,,,,,,,,,,,,,,,,,,,,,,,,,,,,,,,,,,,,,,,,,,,,,,,,,,,,,,,,,,,,,,,,,,,,,,,,,
40,1.9944658279418945,0.6107973456382751,1.5706218481063843,0.39000777810812,0.0,-3.1415925562361986,-3.304746032384287e-09,0.5004156231880188,0.5004137754440308,0.6107973456382751,1.5706218481063843,0.39000777810812,0.0,-3.1415927946547777,-1.9867984235588665e-07,0.5003727078437805,0.5003715753555298,,,,,,,,,,,,,,,,,,,,,,,,,,,,,,,,,,,,,,,,,,,,,,,,,,,,,,,,,,,,,,,,,,,,,,,,,,,,,,,,,,,,,,,,,,,,,,,,,,,,,,,,,,,,,,,,,,,,,,,,,,,,,,,,,,,,,,-8.713696431073004e-09,-2.25253149466198e-08,8.640102522328164e-10,0.0,-6.559661187566235e-07,1.9574157406054837e-08,-0.0020910827443003654,-0.002080596284940839,-7.685407865665184e-09,-2.1160072805059826e-08,8.431033649003439e-10,0.0,6.981035767239518e-07,1.1587272865654086e-06,0.0018752290634438396,0.0018683763919398189,,,,,,,,,,,,,,,,,,,,,,,,,,,,,,,,,,,,,,,,,,,,,,,,,,,,,,,,,,,,,,,,,,,,,,,,,,
41,2.0165951251983643,0.6107973456382751,1.5706218481063843,0.39000777810812,0.0,-3.1415925562361986,-2.6720581303152358e-09,0.5003470778465271,0.5003455877304077,0.6107973456382751,1.5706218481063843,0.39000777810812,0.0,-3.1415927946547777,-1.9867984235588665e-07,0.5003727078437805,0.5003715753555298,,,,,,,,,,,,,,,,,,,,,,,,,,,,,,,,,,,,,,,,,,,,,,,,,,,,,,,,,,,,,,,,,,,,,,,,,,,,,,,,,,,,,,,,,,,,,,,,,,,,,,,,,,,,,,,,,,,,,,,,,,,,,,,,,,,,,,-7.276790281451895e-09,-1.8808620438903745e-08,7.235392840421184e-10,0.0,-5.473085593621363e-07,1.590346521140873e-08,-0.0017462196992710233,-0.001737675629556179,-7.685407865665184e-09,-2.1160072805059826e-08,8.431033649003439e-10,0.0,6.981035767239518e-07,1.1587272865654086e-06,0.0018752290634438396,0.0018683763919398189,,,,,,,,,,,,,,,,,,,,,,,,,,,,,,,,,,,,,,,,,,,,,,,,,,,,,,,,,,,,,,,,,,,,,,,,,,
42,2.038755178451538,0.6107973456382751,1.5706218481063843,0.39000777810812,0.0,-3.1415925562361986,-2.6720581303152358e-09,0.5003470778465271,0.5003455877304077,0.6107973456382751,1.5706218481063843,0.39000777810812,0.0,-3.141592735050133,-1.611786473176835e-07,0.5003112554550171,0.5003103017807007,,,,,,,,,,,,,,,,,,,,,,,,,,,,,,,,,,,,,,,,,,,,,,,,,,,,,,,,,,,,,,,,,,,,,,,,,,,,,,,,,,,,,,,,,,,,,,,,,,,,,,,,,,,,,,,,,,,,,,,,,,,,,,,,,,,,,,-7.276790281451895e-09,-1.8808620438903745e-08,7.235392840421184e-10,0.0,-5.473085593621363e-07,1.590346521140873e-08,-0.0017462196992710233,-0.001737675629556179,-6.420919351768362e-09,-1.764988155628089e-08,7.044573258063735e-10,0.0,5.562849878515408e-07,9.438228971703211e-07,0.001565992133691907,0.0015604107175022364,,,,,,,,,,,,,,,,,,,,,,,,,,,,,,,,,,,,,,,,,,,,,,,,,,,,,,,,,,,,,,,,,,,,,,,,,,
43,2.0598113536834717,0.6107973456382751,1.5706218481063843,0.39000777810812,0.0,-3.1415925562361986,-2.1840316222210276e-09,0.5002927184104919,0.5002915263175964,0.6107973456382751,1.5706218481063843,0.39000777810812,0.0,-3.141592735050133,-1.611786473176835e-07,0.5003112554550171,0.5003103017807007,,,,,,,,,,,,,,,,,,,,,,,,,,,,,,,,,,,,,,,,,,,,,,,,,,,,,,,,,,,,,,,,,,,,,,,,,,,,,,,,,,,,,,,,,,,,,,,,,,,,,,,,,,,,,,,,,,,,,,,,,,,,,,,,,,,,,,-6.1379790139426404e-09,-1.5863310665054087e-08,6.119271755977707e-10,0.0,-4.6126379515953886e-07,1.3062115833406551e-08,-0.0014729059766978025,-0.0014658687869086862,-6.420919351768362e-09,-1.764988155628089e-08,7.044573258063735e-10,0.0,5.562849878515408e-07,9.438228971703211e-07,0.001565992133691907,0.0015604107175022364,,,,,,,,,,,,,,,,,,,,,,,,,,,,,,,,,,,,,,,,,,,,,,,,,,,,,,,,,,,,,,,,,,,,,,,,,,
44,2.0807278156280518,0.6107973456382751,1.5706218481063843,0.39000777810812,0.0,-3.1415926158408434,-1.7411926345189954e-09,0.5002419948577881,0.5002410411834717,0.6107973456382751,1.5706218481063843,0.39000777810812,0.0,-3.141592735050133,-1.291234781319872e-07,0.5002573728561401,0.5002565979957581,,,,,,,,,,,,,,,,,,,,,,,,,,,,,,,,,,,,,,,,,,,,,,,,,,,,,,,,,,,,,,,,,,,,,,,,,,,,,,,,,,,,,,,,,,,,,,,,,,,,,,,,,,,,,,,,,,,,,,,,,,,,,,,,,,,,,,-5.074884956712822e-09,-1.3114065389174812e-08,5.073927389354083e-10,0.0,-3.8099790344858775e-07,1.0474548339800549e-08,-0.0012177389580756426,-0.0012120777973905206,-5.311251438655518e-09,-1.4574119688859355e-08,5.82728310050129e-10,0.0,4.366227415175672e-07,7.595353395117854e-07,0.001294722780585289,0.0012902314774692059,,,,,,,,,,,,,,,,,,,,,,,,,,,,,,,,,,,,,,,,,,,,,,,,,,,,,,,,,,,,,,,,,,,,,,,,,,
45,2.1026217937469482,0.6107973456382751,1.5706218481063843,0.39000777810812,0.0,-3.1415926158408434,-1.7411926345189954e-09,0.5002419948577881,0.5002410411834717,0.6107973456382751,1.5706218481063843,0.39000777810812,0.0,-3.141592735050133,-1.0579429243762206e-07,0.500217080116272,0.5002164244651794,,,,,,,,,,,,,,,,,,,,,,,,,,,,,,,,,,,,,,,,,,,,,,,,,,,,,,,,,,,,,,,,,,,,,,,,,,,,,,,,,,,,,,,,,,,,,,,,,,,,,,,,,,,,,,,,,,,,,,,,,,,,,,,,,,,,,,-5.074884956712822e-09,-1.3114065389174812e-08,5.073927389354083e-10,0.0,-3.8099790344858775e-07,1.0474548339800549e-08,-0.0012177389580756426,-0.0012120777973905206,-4.481970350411757e-09,-1.2279510741564081e-08,4.917247165003857e-10,0.0,3.5070584658569715e-07,6.249698571991757e-07,0.0010920942295342684,0.001088398857973516,,,,,,,,,,,,,,,,,,,,,,,,,,,,,,,,,,,,,,,,,,,,,,,,,,,,,,,,,,,,,,,,,,,,,,,,,,
46,2.124392509460449,0.6107973456382751,1.5706218481063843,0.39000777810812,0.0,-3.1415926158408434,-1.4030361317196594e-09,0.5002021193504333,0.5002013444900513,0.6107973456382751,1.5706218481063843,0.39000777810812,0.0,-3.141592735050133,-1.0455863730385317e-07,0.5002149343490601,0.5002142786979675,,,,,,,,,,,,,,,,,,,,,,,,,,,,,,,,,,,,,,,,,,,,,,,,,,,,,,,,,,,,,,,,,,,,,,,,,,,,,,,,,,,,,,,,,,,,,,,,,,,,,,,,,,,,,,,,,,,,,,,,,,,,,,,,,,,,,,-4.238109863052841e-09,-1.0950462758785307e-08,4.2483377926672006e-10,0.0,-3.1788056276127463e-07,8.49023695792539e-09,-0.0010169085580855608,-0.0010123050305992365,-4.437450407124288e-09,-1.2156387008133152e-08,4.868883074493624e-10,0.0,3.4618730637703266e-07,6.178299827297451e-07,0.0010812149848788977,0.0010775618720799685,,,,,,,,,,,,,,,,,,,,,,,,,,,,,,,,,,,,,,,,,,,,,,,,,,,,,,,,,,,,,,,,,,,,,,,,,,
47,2.145878553390503,0.6107973456382751,1.5706218481063843,0.39000777810812,0.0,-3.1415926158408434,-1.4030361317196594e-09,0.5002021193504333,0.5002013444900513,0.6107973456382751,1.5706218481063843,0.39000777810812,0.0,-3.141592735050133,-8.458402334099446e-08,0.5001794695854187,0.5001789927482605,,,,,,,,,,,,,,,,,,,,,,,,,,,,,,,,,,,,,,,,,,,,,,,,,,,,,,,,,,,,,,,,,,,,,,,,,,,,,,,,,,,,,,,,,,,,,,,,,,,,,,,,,,,,,,,,,,,,,,,,,,,,,,,,,,,,,,-4.238109863052841e-09,-1.0950462758785307e-08,4.2483377926672006e-10,0.0,-3.1788056276127463e-07,8.49023695792539e-09,-0.0010169085580855608,-0.0010123050305992365,-3.7072567238283227e-09,-1.0139555861599092e-08,4.0679265511656126e-10,0.0,2.737050124324014e-07,5.022043296776246e-07,0.0009029159555211663,0.0008999466663226485,,,,,,,,,,,,,,,,,,,,,,,,,,,,,,,,,,,,,,,,,,,,,,,,,,,,,,,,,,,,,,,,,,,,,,,,,,
48,2.1691808700561523,0.6107973456382751,1.5706218481063843,0.39000777810812,0.0,-3.1415926158408434,-1.1154736023755163e-09,0.5001670718193054,0.5001664757728577,0.6107973456382751,1.5706218481063843,0.39000777810812,0.0,-3.141592735050133,-8.458402334099446e-08,0.5001794695854187,0.5001789927482605,,,,,,,,,,,,,,,,,,,,,,,,,,,,,,,,,,,,,,,,,,,,,,,,,,,,,,,,,,,,,,,,,,,,,,,,,,,,,,,,,,,,,,,,,,,,,,,,,,,,,,,,,,,,,,,,,,,,,,,,,,,,,,,,,,,,,,-3.504085910321919e-09,-9.052314453583676e-09,3.5232927686479343e-10,0.0,-2.6256219598508324e-07,6.795302986972729e-09,-0.0008407387649640441,-0.0008370410068891943,-3.7072567238283227e-09,-1.0139555861599092e-08,4.0679265511656126e-10,0.0,2.737050124324014e-07,5.022043296776246e-07,0.0009029159555211663,0.0008999466663226485,,,,,,,,,,,,,,,,,,,,,,,,,,,,,,,,,,,,,,,,,,,,,,,,,,,,,,,,,,,,,,,,,,,,,,,,,,
49,2.1908559799194336,0.6107973456382751,1.5706218481063843,0.39000777810812,0.0,-3.1415926158408434,-8.963037534392981e-10,0.5001395344734192,0.500139057636261,0.6107973456382751,1.5706218481063843,0.39000777810812,0.0,-3.141592675445488,-6.754736858738397e-08,0.500148355960846,0.5001479983329773,,,,,,,,,,,,,,,,,,,,,,,,,,,,,,,,,,,,,,,,,,,,,,,,,,,,,,,,,,,,,,,,,,,,,,,,,,,,,,,,,,,,,,,,,,,,,,,,,,,,,,,,,,,,,,,,,,,,,,,,,,,,,,,,,,,,,,-2.926159314853294e-09,-7.558842440857916e-09,2.949723798550963e-10,0.0,-2.190623860087726e-07,5.4975952679114926e-09,-0.0007020834600552917,-0.0006990811671130359,-3.0667135497708387e-09,-8.372635917908156e-09,3.3652941544559667e-10,0.0,2.1285761420131166e-07,4.032162337352929e-07,0.0007465081289410591,0.000744124292396009,,,,,,,,,,,,,,,,,,,,,,,,,,,,,,,,,,,,,,,,,,,,,,,,,,,,,,,,,,,,,,,,,,,,,,,,,,
50,2.2123630046844482,0.6107973456382751,1.5706218481063843,0.39000777810812,0.0,-3.1415926158408434,-8.854378896749893e-10,0.5001381635665894,0.5001376271247864,0.6107973456382751,1.5706218481063843,0.39000777810812,0.0,-3.141592675445488,-5.5176233360043625e-08,0.5001251697540283,0.5001248121261597,,,,,,,,,,,,,,,,,,,,,,,,,,,,,,,,,,,,,,,,,,,,,,,,,,,,,,,,,,,,,,,,,,,,,,,,,,,,,,,,,,,,,,,,,,,,,,,,,,,,,,,,,,,,,,,,,,,,,,,,,,,,,,,,,,,,,,-2.8971824939105773e-09,-7.48356931978833e-09,2.921066166727826e-10,0.0,-2.168693526982679e-07,5.432930549886805e-09,-0.0006950887618586421,-0.0006921211024746299,-2.587985381552471e-09,-7.054246076165782e-09,2.839742330174033e-10,0.0,1.6940482794325362e-07,3.3105894203799835e-07,0.0006296769715845585,0.000627719855401665,,,,,,,,,,,,,,,,,,,,,,,,,,,,,,,,,,,,,,,,,,,,,,,,,,,,,,,,,,,,,,,,,,,,,,,,,,
51,2.2340354919433594,0.6107973456382751,1.5706218481063843,0.39000777810812,0.0,-3.1415926158408434,-7.016250358482523e-10,0.5001142024993896,0.500113844871521,0.6107973456382751,1.5706218481063843,0.39000777810812,0.0,-3.141592675445488,-5.452176665698971e-08,0.500123918056488,0.5001235604286194,,,,,,,,,,,,,,,,,,,,,,,,,,,,,,,,,,,,,,,,,,,,,,,,,,,,,,,,,,,,,,,,,,,,,,,,,,,,,,,,,,,,,,,,,,,,,,,,,,,,,,,,,,,,,,,,,,,,,,,,,,,,,,,,,,,,,,-2.3951951533263127e-09,-6.186606782421222e-09,2.4216739724636227e-10,0.0,-1.791272126183685e-07,4.3392263116004415e-09,-0.00057467125589028,-0.0005722917267121375,-2.5620061627762425e-09,-6.983635891799622e-09,2.811501031985131e-10,0.0,1.671261458113804e-07,3.272339483828546e-07,0.0006234042812138796,0.0006214698078110814,,,,,,,,,,,,,,,,,,,,,,,,,,,,,,,,,,,,,,,,,,,,,,,,,,,,,,,,,,,,,,,,,,,,,,,,,,
52,2.2561891078948975,0.6107973456382751,1.5706218481063843,0.39000777810812,0.0,-3.1415926158408434,-7.016250358482523e-10,0.5001142024993896,0.500113844871521,0.6107973456382751,1.5706218481063843,0.39000777810812,0.0,-3.141592675445488,-4.395522523736872e-08,0.5001034736633301,0.500103235244751,,,,,,,,,,,,,,,,,,,,,,,,,,,,,,,,,,,,,,,,,,,,,,,,,,,,,,,,,,,,,,,,,,,,,,,,,,,,,,,,,,,,,,,,,,,,,,,,,,,,,,,,,,,,,,,,,,,,,,,,,,,,,,,,,,,,,,-2.3951951533263127e-09,-6.186606782421222e-09,2.4216739724636227e-10,0.0,-1.791272126183685e-07,4.3392263116004415e-09,-0.00057467125589028,-0.0005722917267121375,-2.1408430583846894e-09,-5.825007143300809e-09,2.3496482537410657e-10,0.0,1.3068951432160247e-07,2.6534584662840643e-07,0.0005206010537222028,0.0005190325318835676,,,,,,,,,,,,,,,,,,,,,,,,,,,,,,,,,,,,,,,,,,,,,,,,,,,,,,,,,,,,,,,,,,,,,,,,,,
53,2.278012752532959,0.6107973456382751,1.5706218481063843,0.39000777810812,0.0,-3.141592675445488,-5.549236070656605e-10,0.5000944137573242,0.5000941157341003,0.6107973456382751,1.5706218481063843,0.39000777810812,0.0,-3.141592675445488,-4.395522523736872e-08,0.5001034736633301,0.500103235244751,,,,,,,,,,,,,,,,,,,,,,,,,,,,,,,,,,,,,,,,,,,,,,,,,,,,,,,,,,,,,,,,,,,,,,,,,,,,,,,,,,,,,,,,,,,,,,,,,,,,,,,,,,,,,,,,,,,,,,,,,,,,,,,,,,,,,,-1.980360320175123e-09,-5.114464407540709e-09,2.0087403962421035e-10,0.0,-1.4795253377997142e-07,3.4607050558577157e-09,-0.0004751149099320173,-0.000473208783660084,-2.1408430583846894e-09,-5.825007143300809e-09,2.3496482537410657e-10,0.0,1.3068951432160247e-07,2.6534584662840643e-07,0.0005206010537222028,0.0005190325318835676,,,,,,,,,,,,,,,,,,,,,,,,,,,,,,,,,,,,,,,,,,,,,,,,,,,,,,,,,,,,,,,,,,,,,,,,,,
54,2.298840284347534,0.6107973456382751,1.5706218481063843,0.39000777810812,0.0,-3.141592675445488,-5.549236070656605e-10,0.5000944137573242,0.5000941157341003,0.6107973456382751,1.5706218481063843,0.39000777810812,0.0,-3.141592675445488,-3.539095061455555e-08,0.5000864267349243,0.5000861883163452,,,,,,,,,,,,,,,,,,,,,,,,,,,,,,,,,,,,,,,,,,,,,,,,,,,,,,,,,,,,,,,,,,,,,,,,,,,,,,,,,,,,,,,,,,,,,,,,,,,,,,,,,,,,,,,,,,,,,,,,,,,,,,,,,,,,,,-1.980360320175123e-09,-5.114464407540709e-09,2.0087403962421035e-10,0.0,-1.4795253377997142e-07,3.4607050558577157e-09,-0.0004751149099320173,-0.000473208783660084,-1.788291736914971e-09,-4.858335955759685e-09,1.9627355296591986e-10,0.0,1.0172473707825702e-07,2.1497034197182074e-07,0.000434750720160082,0.000433480046922341,,,,,,,,,,,,,,,,,,,,,,,,,,,,,,,,,,,,,,,,,,,,,,,,,,,,,,,,,,,,,,,,,,,,,,,,,,
55,2.320033311843872,0.6107973456382751,1.5706218481063843,0.39000777810812,0.0,-3.141592675445488,-4.3798953353046954e-10,0.5000780820846558,0.5000778436660767,0.6107973456382751,1.5706218481063843,0.39000777810812,0.0,-3.141592675445488,-2.8803915697039884e-08,0.5000728964805603,0.500072717666626,,,,,,,,,,,,,,,,,,,,,,,,,,,,,,,,,,,,,,,,,,,,,,,,,,,,,,,,,,,,,,,,,,,,,,,,,,,,,,,,,,,,,,,,,,,,,,,,,,,,,,,,,,,,,,,,,,,,,,,,,,,,,,,,,,,,,,-1.6372458944147184e-09,-4.228062344679984e-09,1.6649182033035004e-10,0.0,-1.2220374401294976e-07,2.7568531901778215e-09,-0.0003928057849407196,-0.00039128042408265173,-1.5091816685242065e-09,-4.093392291792952e-09,1.6565915306188117e-10,0.0,7.989853401113578e-08,1.760537742256929e-07,0.00036671070847660303,0.000365670130122453,,,,,,,,,,,,,,,,,,,,,,,,,,,,,,,,,,,,,,,,,,,,,,,,,,,,,,,,,,,,,,,,,,,,,,,,,,
56,2.341744899749756,0.6107973456382751,1.5706218481063843,0.39000777810812,0.0,-3.141592675445488,-3.4929745207357143e-10,0.5000652074813843,0.5000649690628052,0.6107973456382751,1.5706218481063843,0.39000777810812,0.0,-3.141592675445488,-2.8455930944915053e-08,0.500072181224823,0.5000720024108887,,,,,,,,,,,,,,,,,,,,,,,,,,,,,,,,,,,,,,,,,,,,,,,,,,,,,,,,,,,,,,,,,,,,,,,,,,,,,,,,,,,,,,,,,,,,,,,,,,,,,,,,,,,,,,,,,,,,,,,,,,,,,,,,,,,,,,-1.3673506771283428e-09,-3.530509218307998e-09,1.3940237852949622e-10,0.0,-1.0195583399763564e-07,2.2192925275277275e-09,-0.00032802391797304153,-0.0003267901483923197,-1.4940826353893044e-09,-4.0527581290916714e-09,1.6400769631275125e-10,0.0,7.875855345673699e-08,1.7399247553839814e-07,0.0003630576247815043,0.00036202921182848513,,,,,,,,,,,,,,,,,,,,,,,,,,,,,,,,,,,,,,,,,,,,,,,,,,,,,,,,,,,,,,,,,,,,,,,,,,
57,2.363828659057617,0.6107973456382751,1.5706218481063843,0.39000777810812,0.0,-3.141592675445488,-3.4929745207357143e-10,0.5000652074813843,0.5000649690628052,0.6107973456382751,1.5706218481063843,0.39000777810812,0.0,-3.141592675445488,-2.2845719982456103e-08,0.5000602602958679,0.5000601410865784,,,,,,,,,,,,,,,,,,,,,,,,,,,,,,,,,,,,,,,,,,,,,,,,,,,,,,,,,,,,,,,,,,,,,,,,,,,,,,,,,,,,,,,,,,,,,,,,,,,,,,,,,,,,,,,,,,,,,,,,,,,,,,,,,,,,,,-1.3673506771283428e-09,-3.530509218307998e-09,1.3940237852949622e-10,0.0,-1.0195583399763564e-07,2.2192925275277275e-09,-0.00032802391797304153,-0.0003267901483923197,-1.2484457911909885e-09,-3.380296043076214e-09,1.3701539902655213e-10,0.0,6.060007962105374e-08,1.4068437792502664e-07,0.0003031871747225523,0.0003023557073902339,,,,,,,,,,,,,,,,,,,,,,,,,,,,,,,,,,,,,,,,,,,,,,,,,,,,,,,,,,,,,,,,,,,,,,,,,,
58,2.3862619400024414,0.6107973456382751,1.5706218481063843,0.39000777810812,0.0,-3.141592675445488,-2.7794347379206386e-10,0.5000544190406799,0.5000542998313904,0.6107973456382751,1.5706218481063843,0.39000777810812,0.0,-3.141592675445488,-2.2845719982456103e-08,0.5000602602958679,0.5000601410865784,,,,,,,,,,,,,,,,,,,,,,,,,,,,,,,,,,,,,,,,,,,,,,,,,,,,,,,,,,,,,,,,,,,,,,,,,,,,,,,,,,,,,,,,,,,,,,,,,,,,,,,,,,,,,,,,,,,,,,,,,,,,,,,,,,,,,,-1.1419198919782048e-09,-2.947975197287178e-09,1.1669137878200786e-10,0.0,-8.506301441002506e-08,1.7842934907363883e-09,-0.0002739259507507086,-0.0002729290572460741,-1.2484457911909885e-09,-3.380296043076214e-09,1.3701539902655213e-10,0.0,6.060007962105374e-08,1.4068437792502664e-07,0.0003031871747225523,0.0003023557073902339,,,,,,,,,,,,,,,,,,,,,,,,,,,,,,,,,,,,,,,,,,,,,,,,,,,,,,,,,,,,,,,,,,,,,,,,,,
59,2.4082999229431152,0.6107973456382751,1.5706218481063843,0.39000777810812,0.0,-3.141592675445488,-2.7794347379206386e-10,0.5000544190406799,0.5000542998313904,0.6107973456382751,1.5706218481063843,0.39000777810812,0.0,-3.141592675445488,-1.8311977711960026e-08,0.5000503063201904,0.5000502467155457,,,,,,,,,,,,,,,,,,,,,,,,,,,,,,,,,,,,,,,,,,,,,,,,,,,,,,,,,,,,,,,,,,,,,,,,,,,,,,,,,,,,,,,,,,,,,,,,,,,,,,,,,,,,,,,,,,,,,,,,,,,,,,,,,,,,,,-1.1419198919782048e-09,-2.947975197287178e-09,1.1669137878200786e-10,0.0,-8.506301441002506e-08,1.7842934907363883e-09,-0.0002739259507507086,-0.0002729290572460741,-1.042943509332872e-09,-2.8195223933380476e-09,1.1447093273275755e-10,0.0,4.628891758784448e-08,1.1362923402202796e-07,0.0002531897334847599,0.00025251819170080125,,,,,,,,,,,,,,,,,,,,,,,,,,,,,,,,,,,,,,,,,,,,,,,,,,,,,,,,,,,,,,,,,,,,,,,,,,
60,2.43056321144104,0.6107973456382751,1.5706218481063843,0.39000777810812,0.0,-3.141592675445488,-2.1779174297353876e-10,0.5000450015068054,0.5000448822975159,0.6107973456382751,1.5706218481063843,0.39000777810812,0.0,-3.141592675445488,-1.4652241198120919e-08,0.5000420212745667,0.5000419616699219,,,,,,,,,,,,,,,,,,,,,,,,,,,,,,,,,,,,,,,,,,,,,,,,,,,,,,,,,,,,,,,,,,,,,,,,,,,,,,,,,,,,,,,,,,,,,,,,,,,,,,,,,,,,,,,,,,,,,,,,,,,,,,,,,,,,,,-9.439671266875393e-10,-2.437272605959606e-09,9.680450885340974e-11,0.0,-7.025852255537757e-08,1.4148492377685784e-09,-0.0002264708891743794,-0.00022567584528587759,-8.713030297258229e-10,-2.351563388458544e-09,9.57081636165924e-11,0.0,3.5049851021540235e-08,9.167165870849203e-08,0.00021143717458471656,0.00021089545043651015,,,,,,,,,,,,,,,,,,,,,,,,,,,,,,,,,,,,,,,,,,,,,,,,,,,,,,,,,,,,,,,,,,,,,,,,,,
61,2.453049898147583,0.6107973456382751,1.5706218481063843,0.39000777810812,0.0,-3.141592675445488,-1.7237632154998295e-10,0.5000376105308533,0.5000374913215637,0.6107973456382751,1.5706218481063843,0.39000777810812,0.0,-3.141592675445488,-1.4471078557676265e-08,0.5000416040420532,0.5000415444374084,,,,,,,,,,,,,,,,,,,,,,,,,,,,,,,,,,,,,,,,,,,,,,,,,,,,,,,,,,,,,,,,,,,,,,,,,,,,,,,,,,,,,,,,,,,,,,,,,,,,,,,,,,,,,,,,,,,,,,,,,,,,,,,,,,,,,,-7.884248809375549e-10,-2.035038804137912e-09,8.100464743421298e-11,0.0,-5.8617168008368026e-08,1.133732663305409e-09,-0.00018912112864200026,-0.0001884802768472582,-8.626432901337466e-10,-2.3280266603364907e-09,9.468120731881413e-11,0.0,3.450201191412816e-08,9.058148009444267e-08,0.00020933087216690183,0.00020879559451714158,,,,,,,,,,,,,,,,,,,,,,,,,,,,,,,,,,,,,,,,,,,,,,,,,,,,,,,,,,,,,,,,,,,,,,,,,,
62,2.4742696285247803,0.6107973456382751,1.5706218481063843,0.39000777810812,0.0,-3.141592675445488,-1.7237632154998295e-10,0.5000376105308533,0.5000374913215637,0.6107973456382751,1.5706218481063843,0.39000777810812,0.0,-3.141592675445488,-1.1411363409763453e-08,0.5000343918800354,0.5000343322753906,,,,,,,,,,,,,,,,,,,,,,,,,,,,,,,,,,,,,,,,,,,,,,,,,,,,,,,,,,,,,,,,,,,,,,,,,,,,,,,,,,,,,,,,,,,,,,,,,,,,,,,,,,,,,,,,,,,,,,,,,,,,,,,,,,,,,,-7.884248809375549e-10,-2.035038804137912e-09,8.100464743421298e-11,0.0,-5.8617168008368026e-08,1.133732663305409e-09,-0.00018912112864200026,-0.0001884802768472582,-7.134848267753569e-10,-1.9221291225335335e-09,7.834011217511261e-11,0.0,2.540972943165798e-08,7.210869057416858e-08,0.00017306949303019792,0.0001726433984003961,,,,,,,,,,,,,,,,,,,,,,,,,,,,,,,,,,,,,,,,,,,,,,,,,,,,,,,,,,,,,,,,,,,,,,,,,,
63,2.4963250160217285,0.6107973456382751,1.5706218481063843,0.39000777810812,0.0,-3.141592675445488,-1.3422292444165151e-10,0.500031054019928,0.5000309944152832,0.6107973456382751,1.5706218481063843,0.39000777810812,0.0,-3.141592675445488,-1.1411363409763453e-08,0.5000343918800354,0.5000343322753906,,,,,,,,,,,,,,,,,,,,,,,,,,,,,,,,,,,,,,,,,,,,,,,,,,,,,,,,,,,,,,,,,,,,,,,,,,,,,,,,,,,,,,,,,,,,,,,,,,,,,,,,,,,,,,,,,,,,,,,,,,,,,,,,,,,,,,-6.516454043037356e-10,-1.6825429938194247e-09,6.71962485654376e-11,0.0,-4.841477263539673e-08,8.957348751614802e-10,-0.0001563576952321455,-0.00015584798529744148,-7.134848267753569e-10,-1.9221291225335335e-09,7.834011217511261e-11,0.0,2.540972943165798e-08,7.210869057416858e-08,0.00017306949303019792,0.0001726433984003961,,,,,,,,,,,,,,,,,,,,,,,,,,,,,,,,,,,,,,,,,,,,,,,,,,,,,,,,,,,,,,,,,,,,,,,,,,
64,2.517334461212158,0.6107973456382751,1.5706218481063843,0.39000777810812,0.0,-3.141592675445488,-1.3422292444165151e-10,0.500031054019928,0.5000309944152832,0.6107973456382751,1.5706218481063843,0.39000777810812,0.0,-3.141592675445488,-9.208117823789053e-09,0.5000290274620056,0.5000289678573608,,,,,,,,,,,,,,,,,,,,,,,,,,,,,,,,,,,,,,,,,,,,,,,,,,,,,,,,,,,,,,,,,,,,,,,,,,,,,,,,,,,,,,,,,,,,,,,,,,,,,,,,,,,,,,,,,,,,,,,,,,,,,,,,,,,,,,-6.516454043037356e-10,-1.6825429938194247e-09,6.71962485654376e-11,0.0,-4.841477263539673e-08,8.957348751614802e-10,-0.0001563576952321455,-0.00015584798529744148,-6.020184351029911e-10,-1.6198153929281034e-09,6.607214775300463e-11,0.0,1.9081348057170544e-08,5.8723941265270696e-08,0.00014598351845052093,0.00014563654258381575,,,,,,,,,,,,,,,,,,,,,,,,,,,,,,,,,,,,,,,,,,,,,,,,,,,,,,,,,,,,,,,,,,,,,,,,,,
65,2.5391223430633545,0.6107973456382751,1.5706218481063843,0.39000777810812,0.0,-3.141592675445488,-1.0552574092326239e-10,0.5000259280204773,0.5000258684158325,0.6107973456382751,1.5706218481063843,0.39000777810812,0.0,-3.141592675445488,-7.320629435980663e-09,0.5000242590904236,0.5000241994857788,,,,,,,,,,,,,,,,,,,,,,,,,,,,,,,,,,,,,,,,,,,,,,,,,,,,,,,,,,,,,,,,,,,,,,,,,,,,,,,,,,,,,,,,,,,,,,,,,,,,,,,,,,,,,,,,,,,,,,,,,,,,,,,,,,,,,,-5.445643935786393e-10,-1.404654170755748e-09,5.624667398507199e-11,0.0,-4.03929121262081e-08,7.150851022430516e-10,-0.00013057104661129415,-0.00013016133743803948,-5.032640970625835e-10,-1.350808354061428e-09,5.5240534369005445e-11,0.0,1.3855083302871662e-08,4.718370760770085e-08,0.00012190992856631055,0.00012163116480223835,,,,,,,,,,,,,,,,,,,,,,,,,,,,,,,,,,,,,,,,,,,,,,,,,,,,,,,,,,,,,,,,,,,,,,,,,,
66,2.5621371269226074,0.6107973456382751,1.5706218481063843,0.39000777810812,0.0,-3.141592675445488,-8.26410120891019e-11,0.5000216960906982,0.5000216364860535,0.6107973456382751,1.5706218481063843,0.39000777810812,0.0,-3.141592675445488,-7.227406229048938e-09,0.5000239610671997,0.5000239610671997,,,,,,,,,,,,,,,,,,,,,,,,,,,,,,,,,,,,,,,,,,,,,,,,,,,,,,,,,,,,,,,,,,,,,,,,,,,,,,,,,,,,,,,,,,,,,,,,,,,,,,,,,,,,,,,,,,,,,,,,,,,,,,,,,,,,,,-4.546363285840016e-10,-1.1730616478189404e-09,4.709427292581836e-11,0.0,-3.369948586851024e-08,5.697194938036887e-10,-0.00010903716611210257,-0.00010870831465581432,-4.978795153931515e-10,-1.337263633161001e-09,5.4692361750596774e-11,0.0,1.3603284720886677e-08,4.6611738468982367e-08,0.00012069549120496958,0.00012042010348523036,,,,,,,,,,,,,,,,,,,,,,,,,,,,,,,,,,,,,,,,,,,,,,,,,,,,,,,,,,,,,,,,,,,,,,,,,,
67,2.583723545074463,0.6107973456382751,1.5706218481063843,0.39000777810812,0.0,-3.141592675445488,-8.26410120891019e-11,0.5000216960906982,0.5000216364860535,0.6107973456382751,1.5706218481063843,0.39000777810812,0.0,-3.141592675445488,-5.6566014094983075e-09,0.5000198483467102,0.5000197887420654,,,,,,,,,,,,,,,,,,,,,,,,,,,,,,,,,,,,,,,,,,,,,,,,,,,,,,,,,,,,,,,,,,,,,,,,,,,,,,,,,,,,,,,,,,,,,,,,,,,,,,,,,,,,,,,,,,,,,,,,,,,,,,,,,,,,,,-4.546363285840016e-10,-1.1730616478189404e-09,4.709427292581836e-11,0.0,-3.369948586851024e-08,5.697194938036887e-10,-0.00010903716611210257,-0.00010870831465581432,-4.122258090433206e-10,-1.1042278202921807e-09,4.520689378395559e-11,0.0,9.450162430368891e-09,3.6933396785343575e-08,9.978798334486783e-05,9.956979920389131e-05,,,,,,,,,,,,,,,,,,,,,,,,,,,,,,,,,,,,,,,,,,,,,,,,,,,,,,,,,,,,,,,,,,,,,,,,,,
68,2.6056835651397705,0.6107973456382751,1.5706218481063843,0.39000777810812,0.0,-3.141592675445488,-6.533804747244076e-11,0.500018298625946,0.5000182390213013,0.6107973456382751,1.5706218481063843,0.39000777810812,0.0,-3.141592675445488,-5.6566014094983075e-09,0.5000198483467102,0.5000197887420654,,,,,,,,,,,,,,,,,,,,,,,,,,,,,,,,,,,,,,,,,,,,,,,,,,,,,,,,,,,,,,,,,,,,,,,,,,,,,,,,,,,,,,,,,,,,,,,,,,,,,,,,,,,,,,,,,,,,,,,,,,,,,,,,,,,,,,-3.834155215542978e-10,-9.89097692638552e-10,3.980149543281186e-11,0.0,-2.8400004126183376e-08,4.5837578177554406e-10,-9.197094914270565e-05,-9.170416160486639e-05,-4.122258090433206e-10,-1.1042278202921807e-09,4.520689378395559e-11,0.0,9.450162430368891e-09,3.6933396785343575e-08,9.978798334486783e-05,9.956979920389131e-05,,,,,,,,,,,,,,,,,,,,,,,,,,,,,,,,,,,,,,,,,,,,,,,,,,,,,,,,,,,,,,,,,,,,,,,,,,
69,2.6304783821105957,0.6107973456382751,1.5706218481063843,0.39000777810812,0.0,-3.141592675445488,-5.1426050917680044e-11,0.5000154376029968,0.500015377998352,0.6107973456382751,1.5706218481063843,0.39000777810812,0.0,-3.141592675445488,-4.4715458002997366e-09,0.5000165700912476,0.5000165104866028,,,,,,,,,,,,,,,,,,,,,,,,,,,,,,,,,,,,,,,,,,,,,,,,,,,,,,,,,,,,,,,,,,,,,,,,,,,,,,,,,,,,,,,,,,,,,,,,,,,,,,,,,,,,,,,,,,,,,,,,,,,,,,,,,,,,,,-3.2335245592207684e-10,-8.344436253082677e-10,3.372302437298913e-11,0.0,-2.3933688808597253e-08,3.6818079141021087e-10,-7.757589628454298e-05,-7.735980034340173e-05,-3.442246487850298e-10,-9.211520435314924e-10,3.78239106701983e-11,0.0,6.469602631398175e-09,2.9573547166705794e-08,8.333232835866511e-05,8.315763261634856e-05,,,,,,,,,,,,,,,,,,,,,,,,,,,,,,,,,,,,,,,,,,,,,,,,,,,,,,,,,,,,,,,,,,,,,,,,,,
70,2.6528160572052,0.6107973456382751,1.5706218481063843,0.39000777810812,0.0,-3.141592675445488,-5.069943423419154e-11,0.5000152587890625,0.5000152587890625,0.6107973456382751,1.5706218481063843,0.39000777810812,0.0,-3.141592675445488,-3.4768214973723843e-09,0.5000137090682983,0.5000136494636536,,,,,,,,,,,,,,,,,,,,,,,,,,,,,,,,,,,,,,,,,,,,,,,,,,,,,,,,,,,,,,,,,,,,,,,,,,,,,,,,,,,,,,,,,,,,,,,,,,,,,,,,,,,,,,,,,,,,,,,,,,,,,,,,,,,,,,-3.204103649068202e-10,-8.260059303211165e-10,3.335526299608205e-11,0.0,-2.3694434858612112e-08,3.6330730091016505e-10,-7.680302951484919e-05,-7.658960385015234e-05,-2.8466118351389014e-10,-7.605027718682322e-10,3.126665593100597e-11,0.0,4.108602347230317e-09,2.3343329047520456e-08,6.889706855872646e-05,6.875918916193768e-05,,,,,,,,,,,,,,,,,,,,,,,,,,,,,,,,,,,,,,,,,,,,,,,,,,,,,,,,,,,,,,,,,,,,,,,,,,
71,2.674325704574585,0.6107973456382751,1.5706218481063843,0.39000777810812,0.0,-3.141592675445488,-3.9109892407962477e-11,0.5000127553939819,0.5000126957893372,0.6107973456382751,1.5706218481063843,0.39000777810812,0.0,-3.141592675445488,-3.4768214973723843e-09,0.5000137090682983,0.5000136494636536,,,,,,,,,,,,,,,,,,,,,,,,,,,,,,,,,,,,,,,,,,,,,,,,,,,,,,,,,,,,,,,,,,,,,,,,,,,,,,,,,,,,,,,,,,,,,,,,,,,,,,,,,,,,,,,,,,,,,,,,,,,,,,,,,,,,,,-2.6728619317850644e-10,-6.897815651996098e-10,2.7929047963226594e-11,0.0,-1.976829722138973e-08,2.87413204347331e-10,-6.413660594262183e-05,-6.396620301529765e-05,-2.8466118351389014e-10,-7.605027718682322e-10,3.126665593100597e-11,0.0,4.108602347230317e-09,2.3343329047520456e-08,6.889706855872646e-05,6.875918916193768e-05,,,,,,,,,,,,,,,,,,,,,,,,,,,,,,,,,,,,,,,,,,,,,,,,,,,,,,,,,,,,,,,,,,,,,,,,,,
72,2.696615695953369,0.6107973456382751,1.5706218481063843,0.39000777810812,0.0,-3.141592675445488,-3.9109892407962477e-11,0.5000127553939819,0.5000126957893372,0.6107973456382751,1.5706218481063843,0.39000777810812,0.0,-3.141592675445488,-2.729309445115291e-09,0.5000114440917969,0.5000114440917969,,,,,,,,,,,,,,,,,,,,,,,,,,,,,,,,,,,,,,,,,,,,,,,,,,,,,,,,,,,,,,,,,,,,,,,,,,,,,,,,,,,,,,,,,,,,,,,,,,,,,,,,,,,,,,,,,,,,,,,,,,,,,,,,,,,,,,-2.6728619317850644e-10,-6.897815651996098e-10,2.7929047963226594e-11,0.0,-1.976829722138973e-08,2.87413204347331e-10,-6.413660594262183e-05,-6.396620301529765e-05,-2.3803181647963356e-10,-6.341593916658894e-10,2.609024107869118e-11,0.0,2.4498181261378704e-09,1.861780596357221e-08,5.7535515225026757e-05,5.742555731558241e-05,,,,,,,,,,,,,,,,,,,,,,,,,,,,,,,,,,,,,,,,,,,,,,,,,,,,,,,,,,,,,,,,,,,,,,,,,,
73,2.7182302474975586,0.6107973456382751,1.5706218481063843,0.39000777810812,0.0,-3.141592675445488,-2.9515789118361724e-11,0.5000105500221252,0.5000104904174805,0.6107973456382751,1.5706218481063843,0.39000777810812,0.0,-3.141592675445488,-2.729309445115291e-09,0.5000114440917969,0.5000114440917969,,,,,,,,,,,,,,,,,,,,,,,,,,,,,,,,,,,,,,,,,,,,,,,,,,,,,,,,,,,,,,,,,,,,,,,,,,,,,,,,,,,,,,,,,,,,,,,,,,,,,,,,,,,,,,,,,,,,,,,,,,,,,,,,,,,,,,-2.2104540420286867e-10,-5.703215677499429e-10,2.3175905639050143e-11,0.0,-1.6327049934261595e-08,2.2351082096250252e-10,-5.302555291564204e-05,-5.289149339660071e-05,-2.3803181647963356e-10,-6.341593916658894e-10,2.609024107869118e-11,0.0,2.4498181261378704e-09,1.861780596357221e-08,5.7535515225026757e-05,5.742555731558241e-05,,,,,,,,,,,,,,,,,,,,,,,,,,,,,,,,,,,,,,,,,,,,,,,,,,,,,,,,,,,,,,,,,,,,,,,,,,
74,2.7402212619781494,0.6107973456382751,1.5706218481063843,0.39000777810812,0.0,-3.141592675445488,-2.276816062074527e-11,0.5000088810920715,0.5000088810920715,0.6107973456382751,1.5706218481063843,0.39000777810812,0.0,-3.141592675445488,-2.10452943960604e-09,0.5000094771385193,0.5000094175338745,,,,,,,,,,,,,,,,,,,,,,,,,,,,,,,,,,,,,,,,,,,,,,,,,,,,,,,,,,,,,,,,,,,,,,,,,,,,,,,,,,,,,,,,,,,,,,,,,,,,,,,,,,,,,,,,,,,,,,,,,,,,,,,,,,,,,,-1.8657297928825756e-10,-4.808375919651553e-10,1.9567680809018384e-11,0.0,-1.3759493100451436e-08,1.7767790017053642e-10,-4.4726129999617115e-05,-4.461820572032593e-05,-1.968980534172715e-10,-5.238032230181489e-10,2.1621593404574924e-11,0.0,1.1687317780229023e-09,1.462792020845427e-08,4.756891212309711e-05,4.7482528316322714e-05,,,,,,,,,,,,,,,,,,,,,,,,,,,,,,,,,,,,,,,,,,,,,,,,,,,,,,,,,,,,,,,,,,,,,,,,,,
75,2.763324499130249,0.6107973456382751,1.5706218481063843,0.39000777810812,0.0,-3.141592675445488,-2.2417180958744787e-11,0.5000088214874268,0.500008761882782,0.6107973456382751,1.5706218481063843,0.39000777810812,0.0,-3.141592675445488,-1.6372297961808613e-09,0.5000078678131104,0.5000078678131104,,,,,,,,,,,,,,,,,,,,,,,,,,,,,,,,,,,,,,,,,,,,,,,,,,,,,,,,,,,,,,,,,,,,,,,,,,,,,,,,,,,,,,,,,,,,,,,,,,,,,,,,,,,,,,,,,,,,,,,,,,,,,,,,,,,,,,-1.8457457784393227e-10,-4.762856775641922e-10,1.9387269567516796e-11,0.0,-1.362193646770038e-08,1.7548999753369543e-10,-4.428053580340929e-05,-4.4173983042128384e-05,-1.6442402994698568e-10,-4.368727601899991e-10,1.8034185256254887e-11,0.0,2.982614155655483e-10,1.1611046346615694e-08,3.972450576839037e-05,3.965594441979192e-05,,,,,,,,,,,,,,,,,,,,,,,,,,,,,,,,,,,,,,,,,,,,,,,,,,,,,,,,,,,,,,,,,,,,,,,,,,
76,2.784734010696411,0.6107973456382751,1.5706218481063843,0.39000777810812,0.0,-3.141592675445488,-1.6856517917607228e-11,0.5000073313713074,0.5000073313713074,0.6107973456382751,1.5706218481063843,0.39000777810812,0.0,-3.141592675445488,-1.6372297961808613e-09,0.5000078678131104,0.5000078678131104,,,,,,,,,,,,,,,,,,,,,,,,,,,,,,,,,,,,,,,,,,,,,,,,,,,,,,,,,,,,,,,,,,,,,,,,,,,,,,,,,,,,,,,,,,,,,,,,,,,,,,,,,,,,,,,,,,,,,,,,,,,,,,,,,,,,,,-1.5420997812043424e-10,-3.9768188742073107e-10,1.6243950629046822e-11,0.0,-1.1365242080785265e-08,1.3690104605501574e-10,-3.697775173350237e-05,-3.689328514155932e-05,-1.6442402994698568e-10,-4.368727601899991e-10,1.8034185256254887e-11,0.0,2.982614155655483e-10,1.1611046346615694e-08,3.972450576839037e-05,3.965594441979192e-05,,,,,,,,,,,,,,,,,,,,,,,,,,,,,,,,,,,,,,,,,,,,,,,,,,,,,,,,,,,,,,,,,,,,,,,,,,
77,2.8069698810577393,0.6107973456382751,1.5706218481063843,0.39000777810812,0.0,-3.141592675445488,-1.6856517917607228e-11,0.5000073313713074,0.5000073313713074,0.6107973456382751,1.5706218481063843,0.39000777810812,0.0,-3.141592675445488,-1.2668196491816275e-09,0.5000066161155701,0.5000066161155701,,,,,,,,,,,,,,,,,,,,,,,,,,,,,,,,,,,,,,,,,,,,,,,,,,,,,,,,,,,,,,,,,,,,,,,,,,,,,,,,,,,,,,,,,,,,,,,,,,,,,,,,,,,,,,,,,,,,,,,,,,,,,,,,,,,,,,-1.5420997812043424e-10,-3.9768188742073107e-10,1.6243950629046822e-11,0.0,-1.1365242080785265e-08,1.3690104605501574e-10,-3.697775173350237e-05,-3.689328514155932e-05,-1.3733458814613186e-10,-3.644862189844389e-10,1.5085155347094314e-11,0.0,-3.1674662892555716e-10,9.191021277388245e-09,3.31736882799305e-05,3.311942418804392e-05,,,,,,,,,,,,,,,,,,,,,,,,,,,,,,,,,,,,,,,,,,,,,,,,,,,,,,,,,,,,,,,,,,,,,,,,,,
78,2.8295114040374756,0.6107973456382751,1.5706218481063843,0.39000777810812,0.0,-3.141592675445488,-1.2309336709648289e-11,0.5000060796737671,0.5000060796737671,0.6107973456382751,1.5706218481063843,0.39000777810812,0.0,-3.141592675445488,-1.2668196491816275e-09,0.5000066161155701,0.5000066161155701,,,,,,,,,,,,,,,,,,,,,,,,,,,,,,,,,,,,,,,,,,,,,,,,,,,,,,,,,,,,,,,,,,,,,,,,,,,,,,,,,,,,,,,,,,,,,,,,,,,,,,,,,,,,,,,,,,,,,,,,,,,,,,,,,,,,,,-1.2773115898312426e-10,-3.284039706841213e-10,1.3461454173580023e-11,0.0,-9.38654665105787e-09,1.0536063688171282e-10,-3.057170761167072e-05,-3.0505807444569655e-05,-1.3733458814613186e-10,-3.644862189844389e-10,1.5085155347094314e-11,0.0,-3.1674662892555716e-10,9.191021277388245e-09,3.31736882799305e-05,3.311942418804392e-05,,,,,,,,,,,,,,,,,,,,,,,,,,,,,,,,,,,,,,,,,,,,,,,,,,,,,,,,,,,,,,,,,,,,,,,,,,
79,2.850890636444092,0.6107973456382751,1.5706218481063843,0.39000777810812,0.0,-3.141592675445488,-1.2309336709648289e-11,0.5000060796737671,0.5000060796737671,0.6107973456382751,1.5706218481063843,0.39000777810812,0.0,-3.141592675445488,-9.740520612311343e-10,0.5000054836273193,0.5000054836273193,,,,,,,,,,,,,,,,,,,,,,,,,,,,,,,,,,,,,,,,,,,,,,,,,,,,,,,,,,,,,,,,,,,,,,,,,,,,,,,,,,,,,,,,,,,,,,,,,,,,,,,,,,,,,,,,,,,,,,,,,,,,,,,,,,,,,,-1.2773115898312426e-10,-3.284039706841213e-10,1.3461454173580023e-11,0.0,-9.38654665105787e-09,1.0536063688171282e-10,-3.057170761167072e-05,-3.0505807444569655e-05,-1.1463052729254741e-10,-3.0375701953744283e-10,1.2559397966072083e-11,0.0,-7.37854222165879e-10,7.253329492584726e-09,2.7703141313395463e-05,2.766032048384659e-05,,,,,,,,,,,,,,,,,,,,,,,,,,,,,,,,,,,,,,,,,,,,,,,,,,,,,,,,,,,,,,,,,,,,,,,,,,
80,2.874427556991577,0.6107973456382751,1.5706218481063843,0.39000777810812,0.0,-3.141592675445488,-8.830869195619595e-12,0.5000050067901611,0.5000050067901611,0.6107973456382751,1.5706218481063843,0.39000777810812,0.0,-3.141592675445488,-7.43392181146163e-10,0.5000045895576477,0.5000045895576477,,,,,,,,,,,,,,,,,,,,,,,,,,,,,,,,,,,,,,,,,,,,,,,,,,,,,,,,,,,,,,,,,,,,,,,,,,,,,,,,,,,,,,,,,,,,,,,,,,,,,,,,,,,,,,,,,,,,,,,,,,,,,,,,,,,,,,-1.0541567618815861e-10,-2.717825964282383e-10,1.1171619185290638e-11,0.0,-7.752631425717027e-09,8.037491505685779e-11,-2.527545075281523e-05,-2.5224218916264363e-05,-9.592326932761353e-11,-2.5357493882438575e-10,1.054017984003508e-11,0.0,-1.0105249970138175e-09,5.705106609354971e-09,2.313472214154899e-05,2.3101047190721147e-05,,,,,,,,,,,,,,,,,,,,,,,,,,,,,,,,,,,,,,,,,,,,,,,,,,,,,,,,,,,,,,,,,,,,,,,,,,
81,2.8959059715270996,0.6107973456382751,1.5706218481063843,0.39000777810812,0.0,-3.141592675445488,-6.188773885723586e-12,0.5000041723251343,0.5000041723251343,0.6107973456382751,1.5706218481063843,0.39000777810812,0.0,-3.141592675445488,-7.43392181146163e-10,0.5000045895576477,0.5000045895576477,,,,,,,,,,,,,,,,,,,,,,,,,,,,,,,,,,,,,,,,,,,,,,,,,,,,,,,,,,,,,,,,,,,,,,,,,,,,,,,,,,,,,,,,,,,,,,,,,,,,,,,,,,,,,,,,,,,,,,,,,,,,,,,,,,,,,,-8.72635297355373e-11,-2.2448709557920665e-10,9.26342336171615e-12,0.0,-6.40321129452559e-09,6.067876756610247e-11,-2.089671943394933e-05,-2.0857052732026204e-05,-9.592326932761353e-11,-2.5357493882438575e-10,1.054017984003508e-11,0.0,-1.0105249970138175e-09,5.705106609354971e-09,2.313472214154899e-05,2.3101047190721147e-05,,,,,,,,,,,,,,,,,,,,,,,,,,,,,,,,,,,,,,,,,,,,,,,,,,,,,,,,,,,,,,,,,,,,,,,,,,
82,2.9180150032043457,0.6107973456382751,1.5706218481063843,0.39000777810812,0.0,-3.141592675445488,-6.188773885723586e-12,0.5000041723251343,0.5000041723251343,0.6107973456382751,1.5706218481063843,0.39000777810812,0.0,-3.141592675445488,-5.712582074046679e-10,0.5000038743019104,0.5000038743019104,,,,,,,,,,,,,,,,,,,,,,,,,,,,,,,,,,,,,,,,,,,,,,,,,,,,,,,,,,,,,,,,,,,,,,,,,,,,,,,,,,,,,,,,,,,,,,,,,,,,,,,,,,,,,,,,,,,,,,,,,,,,,,,,,,,,,,-8.72635297355373e-11,-2.2448709557920665e-10,9.26342336171615e-12,0.0,-6.40321129452559e-09,6.067876756610247e-11,-2.089671943394933e-05,-2.0857052732026204e-05,-8.093525849517391e-11,-2.1371793224034263e-10,8.833211939673902e-12,0.0,-1.1665668431248832e-09,4.53130599709084e-09,1.951405829458963e-05,1.9487313693389297e-05,,,,,,,,,,,,,,,,,,,,,,,,,,,,,,,,,,,,,,,,,,,,,,,,,,,,,,,,,,,,,,,,,,,,,,,,,,
83,2.939354181289673,0.6107973456382751,1.5706218481063843,0.39000777810812,0.0,-3.141592675445488,-4.286698166572345e-12,0.500003457069397,0.500003457069397,0.6107973456382751,1.5706218481063843,0.39000777810812,0.0,-3.141592675445488,-4.347948112659594e-10,0.5000032782554626,0.5000032782554626,,,,,,,,,,,,,,,,,,,,,,,,,,,,,,,,,,,,,,,,,,,,,,,,,,,,,,,,,,,,,,,,,,,,,,,,,,,,,,,,,,,,,,,,,,,,,,,,,,,,,,,,,,,,,,,,,,,,,,,,,,,,,,,,,,,,,,-7.277511926417901e-11,-1.8740564655672642e-10,7.771561172376096e-12,0.0,-5.341949105286403e-09,4.627479996410777e-11,-1.7450414816266857e-05,-1.7419417417841032e-05,-6.822320486321587e-11,-1.7985612998927536e-10,7.480127628411992e-12,0.0,-1.2496670365180762e-09,3.5854794688816582e-09,1.6460040569654666e-05,1.643888208491262e-05,,,,,,,,,,,,,,,,,,,,,,,,,,,,,,,,,,,,,,,,,,,,,,,,,,,,,,,,,,,,,,,,,,,,,,,,,,
84,2.961606025695801,0.6107973456382751,1.5706218481063843,0.39000777810812,0.0,-3.141592675445488,-2.913511012309078e-12,0.500002920627594,0.500002920627594,0.6107973456382751,1.5706218481063843,0.39000777810812,0.0,-3.141592675445488,-4.20748769158763e-10,0.5000032186508179,0.5000032186508179,,,,,,,,,,,,,,,,,,,,,,,,,,,,,,,,,,,,,,,,,,,,,,,,,,,,,,,,,,,,,,,,,,,,,,,,,,,,,,,,,,,,,,,,,,,,,,,,,,,,,,,,,,,,,,,,,,,,,,,,,,,,,,,,,,,,,,-6.13398221105399e-11,-1.5853984791647235e-10,6.501743587961073e-12,0.0,-4.5021208983087035e-09,3.573447093785376e-11,-1.4719121281814296e-05,-1.4694670426251832e-05,-6.70019595361282e-11,-1.7641443861293737e-10,7.348288644237755e-12,0.0,-1.2550516181875082e-09,3.487043542804713e-09,1.613373024156317e-05,1.611315383343026e-05,,,,,,,,,,,,,,,,,,,,,,,,,,,,,,,,,,,,,,,,,,,,,,,,,,,,,,,,,,,,,,,,,,,,,,,,,,
85,2.9833719730377197,0.6107973456382751,1.5706218481063843,0.39000777810812,0.0,-3.141592675445488,-2.843372889568818e-12,0.500002920627594,0.500002920627594,0.6107973456382751,1.5706218481063843,0.39000777810812,0.0,-3.141592675445488,-3.052413044546398e-10,0.5000026226043701,0.5000026226043701,,,,,,,,,,,,,,,,,,,,,,,,,,,,,,,,,,,,,,,,,,,,,,,,,,,,,,,,,,,,,,,,,,,,,,,,,,,,,,,,,,,,,,,,,,,,,,,,,,,,,,,,,,,,,,,,,,,,,,,,,,,,,,,,,,,,,,-6.072919944699606e-11,-1.5654144647214707e-10,6.501743587961073e-12,0.0,-4.456601754299072e-09,3.506913509587761e-11,-1.4572478903573938e-05,-1.4548370018019341e-05,-5.545564008002657e-11,-1.454392162258955e-10,6.078471059822732e-12,0.0,-1.2778667013435552e-09,2.668550047602025e-09,1.3338962162379175e-05,1.3323217899596784e-05,,,,,,,,,,,,,,,,,,,,,,,,,,,,,,,,,,,,,,,,,,,,,,,,,,,,,,,,,,,,,,,,,,,,,,,,,,
86,3.005039691925049,0.6107973456382751,1.5706218481063843,0.39000777810812,0.0,-3.141592675445488,-1.7593203369831167e-12,0.5000024437904358,0.5000024437904358,0.6107973456382751,1.5706218481063843,0.39000777810812,0.0,-3.141592675445488,-3.052413044546398e-10,0.5000026226043701,0.5000026226043701,,,,,,,,,,,,,,,,,,,,,,,,,,,,,,,,,,,,,,,,,,,,,,,,,,,,,,,,,,,,,,,,,,,,,,,,,,,,,,,,,,,,,,,,,,,,,,,,,,,,,,,,,,,,,,,,,,,,,,,,,,,,,,,,,,,,,,-5.057065877167588e-11,-1.3100631690576847e-10,5.419276138951545e-12,0.0,-3.7185809986794993e-09,2.615324450061518e-11,-1.2169173714937642e-05,-1.2150524526077788e-05,-5.545564008002657e-11,-1.454392162258955e-10,6.078471059822732e-12,0.0,-1.2778667013435552e-09,2.668550047602025e-09,1.3338962162379175e-05,1.3323217899596784e-05,,,,,,,,,,,,,,,,,,,,,,,,,,,,,,,,,,,,,,,,,,,,,,,,,,,,,,,,,,,,,,,,,,,,,,,,,,
87,3.0269360542297363,0.6107973456382751,1.5706218481063843,0.39000777810812,0.0,-3.141592675445488,-1.7593203369831167e-12,0.5000024437904358,0.5000024437904358,0.6107973456382751,1.5706218481063843,0.39000777810812,0.0,-3.141592675445488,-2.211834326804052e-10,0.5000022053718567,0.5000022053718567,,,,,,,,,,,,,,,,,,,,,,,,,,,,,,,,,,,,,,,,,,,,,,,,,,,,,,,,,,,,,,,,,,,,,,,,,,,,,,,,,,,,,,,,,,,,,,,,,,,,,,,,,,,,,,,,,,,,,,,,,,,,,,,,,,,,,,-5.057065877167588e-11,-1.3100631690576847e-10,5.419276138951545e-12,0.0,-3.7185809986794993e-09,2.615324450061518e-11,-1.2169173714937642e-05,-1.2150524526077788e-05,-4.6351811278100286e-11,-1.2145839889399213e-10,5.051514762044462e-12,0.0,-1.2574385976904523e-09,2.0588704074953057e-09,1.1139284652017523e-05,1.112714107875945e-05,,,,,,,,,,,,,,,,,,,,,,,,,,,,,,,,,,,,,,,,,,,,,,,,,,,,,,,,,,,,,,,,,,,,,,,,,,
88,3.0486502647399902,0.6107973456382751,1.5706218481063843,0.39000777810812,0.0,-3.141592675445488,-9.551414563782612e-13,0.5000020265579224,0.5000020265579224,0.6107973456382751,1.5706218481063843,0.39000777810812,0.0,-3.141592675445488,-2.211834326804052e-10,0.5000022053718567,0.5000022053718567,,,,,,,,,,,,,,,,,,,,,,,,,,,,,,,,,,,,,,,,,,,,,,,,,,,,,,,,,,,,,,,,,,,,,,,,,,,,,,,,,,,,,,,,,,,,,,,,,,,,,,,,,,,,,,,,,,,,,,,,,,,,,,,,,,,,,,-4.2521541843143495e-11,-1.0913492332065289e-10,4.524158825347513e-12,0.0,-3.1022406865588437e-09,1.943330565912227e-11,-1.0162223588849884e-05,-1.014788904285524e-05,-4.6351811278100286e-11,-1.2145839889399213e-10,5.051514762044462e-12,0.0,-1.2574385976904523e-09,2.0588704074953057e-09,1.1139284652017523e-05,1.112714107875945e-05,,,,,,,,,,,,,,,,,,,,,,,,,,,,,,,,,,,,,,,,,,,,,,,,,,,,,,,,,,,,,,,,,,,,,,,,,,
89,3.0717062950134277,0.6107973456382751,1.5706218481063843,0.39000777810812,0.0,-3.141592675445488,-3.6868327401434753e-13,0.5000016689300537,0.5000016689300537,0.6107973456382751,1.5706218481063843,0.39000777810812,0.0,-3.141592675445488,-1.5343995518612985e-10,0.500001847743988,0.500001847743988,,,,,,,,,,,,,,,,,,,,,,,,,,,,,,,,,,,,,,,,,,,,,,,,,,,,,,,,,,,,,,,,,,,,,,,,,,,,,,,,,,,,,,,,,,,,,,,,,,,,,,,,,,,,,,,,,,,,,,,,,,,,,,,,,,,,,,-3.530509218307998e-11,-9.114931032172535e-11,3.760880495917718e-12,0.0,-2.5878188480987774e-09,1.401657522687172e-11,-8.486261322104838e-06,-8.47532555781072e-06,-3.8413716652030416e-11,-1.000310945187266e-10,4.1772141301521515e-12,0.0,-1.205924249347845e-09,1.5541492537352042e-09,9.209679774357937e-06,9.200514796248171e-06,,,,,,,,,,,,,,,,,,,,,,,,,,,,,,,,,,,,,,,,,,,,,,,,,,,,,,,,,,,,,,,,,,,,,,,,,,
90,3.0937068462371826,0.6107973456382751,1.5706218481063843,0.39000777810812,0.0,-3.141592675445488,-3.6868327401434753e-13,0.5000016689300537,0.5000016689300537,0.6107973456382751,1.5706218481063843,0.39000777810812,0.0,-3.141592675445488,-1.0252816651235008e-10,0.5000014901161194,0.5000014901161194,,,,,,,,,,,,,,,,,,,,,,,,,,,,,,,,,,,,,,,,,,,,,,,,,,,,,,,,,,,,,,,,,,,,,,,,,,,,,,,,,,,,,,,,,,,,,,,,,,,,,,,,,,,,,,,,,,,,,,,,,,,,,,,,,,,,,,-3.530509218307998e-11,-9.114931032172535e-11,3.760880495917718e-12,0.0,-2.5878188480987774e-09,1.401657522687172e-11,-8.486261322104838e-06,-8.47532555781072e-06,-3.175237850427948e-11,-8.271161533457416e-11,3.469446951953614e-12,0.0,-1.1343148642595224e-09,1.1627180329654152e-09,7.614331025251886e-06,7.607477982674027e-06,,,,,,,,,,,,,,,,,,,,,,,,,,,,,,,,,,,,,,,,,,,,,,,,,,,,,,,,,,,,,,,,,,,,,,,,,,
91,3.1149303913116455,0.6107973456382751,1.5706218481063843,0.39000777810812,0.0,-3.141592675445488,5.055058747895774e-14,0.5000014305114746,0.5000014305114746,0.6107973456382751,1.5706218481063843,0.39000777810812,0.0,-3.141592675445488,-1.0252816651235008e-10,0.5000014901161194,0.5000014901161194,,,,,,,,,,,,,,,,,,,,,,,,,,,,,,,,,,,,,,,,,,,,,,,,,,,,,,,,,,,,,,,,,,,,,,,,,,,,,,,,,,,,,,,,,,,,,,,,,,,,,,,,,,,,,,,,,,,,,,,,,,,,,,,,,,,,,,-2.964295475749168e-11,-7.616129948928574e-11,3.1988300897012323e-12,0.0,-2.1596058275008545e-09,9.710393079898072e-12,-7.0866999521967955e-06,-7.078431735862978e-06,-3.175237850427948e-11,-8.271161533457416e-11,3.469446951953614e-12,0.0,-1.1343148642595224e-09,1.1627180329654152e-09,7.614331025251886e-06,7.607477982674027e-06,,,,,,,,,,,,,,,,,,,,,,,,,,,,,,,,,,,,,,,,,,,,,,,,,,,,,,,,,,,,,,,,,,,,,,,,,,
92,3.1368796825408936,0.6107973456382751,1.5706218481063843,0.39000777810812,0.0,-3.141592675445488,5.055058747895774e-14,0.5000014305114746,0.5000014305114746,0.6107973456382751,1.5706218481063843,0.39000777810812,0.0,-3.141592675445488,-6.637138755261063e-11,0.5000012516975403,0.5000012516975403,,,,,,,,,,,,,,,,,,,,,,,,,,,,,,,,,,,,,,,,,,,,,,,,,,,,,,,,,,,,,,,,,,,,,,,,,,,,,,,,,,,,,,,,,,,,,,,,,,,,,,,,,,,,,,,,,,,,,,,,,,,,,,,,,,,,,,-2.964295475749168e-11,-7.616129948928574e-11,3.1988300897012323e-12,0.0,-2.1596058275008545e-09,9.710393079898072e-12,-7.0866999521967955e-06,-7.078431735862978e-06,-2.6423307986078726e-11,-6.916689443414725e-11,2.921274333544943e-12,0.0,-1.0559331187209864e-09,8.740543289142977e-10,6.358680820994778e-06,6.3535303524986375e-06,,,,,,,,,,,,,,,,,,,,,,,,,,,,,,,,,,,,,,,,,,,,,,,,,,,,,,,,,,,,,,,,,,,,,,,,,,
93,3.1581811904907227,0.6107973456382751,1.5706218481063843,0.39000777810812,0.0,-3.141592675445488,3.4313944372553473e-13,0.5000011920928955,0.5000011920928955,0.6107973456382751,1.5706218481063843,0.39000777810812,0.0,-3.141592675445488,-6.637138755261063e-11,0.5000012516975403,0.5000012516975403,,,,,,,,,,,,,,,,,,,,,,,,,,,,,,,,,,,,,,,,,,,,,,,,,,,,,,,,,,,,,,,,,,,,,,,,,,,,,,,,,,,,,,,,,,,,,,,,,,,,,,,,,,,,,,,,,,,,,,,,,,,,,,,,,,,,,,-2.4702462297909733e-11,-6.339373470609644e-11,2.6922908347160046e-12,0.0,-1.801447879756779e-09,6.746124492362782e-12,-5.9179560594202485e-06,-5.9117719501955435e-06,-2.6423307986078726e-11,-6.916689443414725e-11,2.921274333544943e-12,0.0,-1.0559331187209864e-09,8.740543289142977e-10,6.358680820994778e-06,6.3535303524986375e-06,,,,,,,,,,,,,,,,,,,,,,,,,,,,,,,,,,,,,,,,,,,,,,,,,,,,,,,,,,,,,,,,,,,,,,,,,,
94,3.1800668239593506,0.6107973456382751,1.5706218481063843,0.39000777810812,0.0,-3.141592675445488,5.36215874220175e-13,0.5000009536743164,0.5000009536743164,0.6107973456382751,1.5706218481063843,0.39000777810812,0.0,-3.141592675445488,-3.935186898562648e-11,0.500001072883606,0.500001072883606,,,,,,,,,,,,,,,,,,,,,,,,,,,,,,,,,,,,,,,,,,,,,,,,,,,,,,,,,,,,,,,,,,,,,,,,,,,,,,,,,,,,,,,,,,,,,,,,,,,,,,,,,,,,,,,,,,,,,,,,,,,,,,,,,,,,,,-2.070565940925917e-11,-5.295763827461997e-11,2.2343238370581275e-12,0.0,-1.503241975342462e-09,4.1781040432953276e-12,-4.94196228828514e-06,-4.937400717608398e-06,-2.1926904736346842e-11,-5.750955267558311e-11,2.4702462297909733e-12,0.0,-9.721667915130183e-10,6.490295523242651e-10,5.310094820742961e-06,5.306272214511409e-06,,,,,,,,,,,,,,,,,,,,,,,,,,,,,,,,,,,,,,,,,,,,,,,,,,,,,,,,,,,,,,,,,,,,,,,,,,
95,3.2013823986053467,0.6107973456382751,1.5706218481063843,0.39000777810812,0.0,-3.141592675445488,5.36215874220175e-13,0.5000009536743164,0.5000009536743164,0.6107973456382751,1.5706218481063843,0.39000777810812,0.0,-3.141592675445488,-1.9438166354301956e-11,0.5000008940696716,0.5000008940696716,,,,,,,,,,,,,,,,,,,,,,,,,,,,,,,,,,,,,,,,,,,,,,,,,,,,,,,,,,,,,,,,,,,,,,,,,,,,,,,,,,,,,,,,,,,,,,,,,,,,,,,,,,,,,,,,,,,,,,,,,,,,,,,,,,,,,,-2.070565940925917e-11,-5.295763827461997e-11,2.2343238370581275e-12,0.0,-1.503241975342462e-09,4.1781040432953276e-12,-4.94196228828514e-06,-4.937400717608398e-06,-1.84297022087776e-11,-4.796163466380676e-11,2.033095913844818e-12,0.0,-8.873457524316564e-10,4.745198123323746e-10,4.434427410160424e-06,4.4316343519312795e-06,,,,,,,,,,,,,,,,,,,,,,,,,,,,,,,,,,,,,,,,,,,,,,,,,,,,,,,,,,,,,,,,,,,,,,,,,,
96,3.2229363918304443,0.6107973456382751,1.5706218481063843,0.39000777810812,0.0,-3.141592675445488,6.626339017420935e-13,0.5000008344650269,0.5000008344650269,0.6107973456382751,1.5706218481063843,0.39000777810812,0.0,-3.141592675445488,-1.8505773302646134e-11,0.5000008940696716,0.5000008940696716,,,,,,,,,,,,,,,,,,,,,,,,,,,,,,,,,,,,,,,,,,,,,,,,,,,,,,,,,,,,,,,,,,,,,,,,,,,,,,,,,,,,,,,,,,,,,,,,,,,,,,,,,,,,,,,,,,,,,,,,,,,,,,,,,,,,,,-1.7208456881689926e-11,-4.3853809472693683e-11,1.880440247958859e-12,0.0,-1.2413403638333875e-09,2.5184142965484213e-12,-4.085813998244703e-06,-4.082568921148777e-06,-1.8041124150158794e-11,-4.7628567756419216e-11,2.0122792321330962e-12,0.0,-8.830158826356183e-10,4.661969699171209e-10,4.390252797747962e-06,4.387508852232713e-06,,,,,,,,,,,,,,,,,,,,,,,,,,,,,,,,,,,,,,,,,,,,,,,,,,,,,,,,,,,,,,,,,,,,,,,,,,
97,3.245668888092041,0.6107973456382751,1.5706218481063843,0.39000777810812,0.0,-3.141592675445488,6.626339017420935e-13,0.5000008344650269,0.5000008344650269,0.6107973456382751,1.5706218481063843,0.39000777810812,0.0,-3.141592675445488,-4.35528392864204e-12,0.5000007152557373,0.5000007152557373,,,,,,,,,,,,,,,,,,,,,,,,,,,,,,,,,,,,,,,,,,,,,,,,,,,,,,,,,,,,,,,,,,,,,,,,,,,,,,,,,,,,,,,,,,,,,,,,,,,,,,,,,,,,,,,,,,,,,,,,,,,,,,,,,,,,,,-1.7208456881689926e-11,-4.3853809472693683e-11,1.880440247958859e-12,0.0,-1.2413403638333875e-09,2.5184142965484213e-12,-4.085813998244703e-06,-4.082568921148777e-06,-1.5154544286133387e-11,-3.952393967665557e-11,1.7139067942650854e-12,0.0,-7.999712003936565e-10,3.335102471968554e-10,3.6662731872638687e-06,3.664312089313171e-06,,,,,,,,,,,,,,,,,,,,,,,,,,,,,,,,,,,,,,,,,,,,,,,,,,,,,,,,,,,,,,,,,,,,,,,,,,
98,3.26806902885437,0.6107973456382751,1.5706218481063843,0.39000777810812,0.0,-3.141592675445488,7.288896049228999e-13,0.5000006556510925,0.5000006556510925,0.6107973456382751,1.5706218481063843,0.39000777810812,0.0,-3.141592675445488,-4.35528392864204e-12,0.5000007152557373,0.5000007152557373,,,,,,,,,,,,,,,,,,,,,,,,,,,,,,,,,,,,,,,,,,,,,,,,,,,,,,,,,,,,,,,,,,,,,,,,,,,,,,,,,,,,,,,,,,,,,,,,,,,,,,,,,,,,,,,,,,,,,,,,,,,,,,,,,,,,,,-1.4210854715202004e-11,-3.61932706027801e-11,1.5543122344752192e-12,0.0,-1.0256240301487196e-09,9.9204563834554e-13,-3.3779854220483685e-06,-3.3757364690245595e-06,-1.5154544286133387e-11,-3.952393967665557e-11,1.7139067942650854e-12,0.0,-7.999712003936565e-10,3.335102471968554e-10,3.6662731872638687e-06,3.664312089313171e-06,,,,,,,,,,,,,,,,,,,,,,,,,,,,,,,,,,,,,,,,,,,,,,,,,,,,,,,,,,,,,,,,,,,,,,,,,,
99,3.289970636367798,0.6107973456382751,1.5706218481063843,0.39000777810812,0.0,-3.141592675445488,7.288896049228999e-13,0.5000006556510925,0.5000006556510925,0.6107973456382751,1.5706218481063843,0.39000777810812,0.0,-3.141592675445488,5.631062890282257e-12,0.5000005960464478,0.5000005960464478,,,,,,,,,,,,,,,,,,,,,,,,,,,,,,,,,,,,,,,,,,,,,,,,,,,,,,,,,,,,,,,,,,,,,,,,,,,,,,,,,,,,,,,,,,,,,,,,,,,,,,,,,,,,,,,,,,,,,,,,,,,,,,,,,,,,,,-1.4210854715202004e-11,-3.61932706027801e-11,1.5543122344752192e-12,0.0,-1.0256240301487196e-09,9.9204563834554e-13,-3.3779854220483685e-06,-3.3757364690245595e-06,-1.2712053631958042e-11,-3.319566843629218e-11,1.394717674685353e-12,0.0,-7.204792318304953e-10,2.3156176975902554e-10,3.0616818094131304e-06,3.0603198410972254e-06,,,,,,,,,,,,,,,,,,,,,,,,,,,,,,,,,,,,,,,,,,,,,,,,,,,,,,,,,,,,,,,,,,,,,,,,,,
100,3.313352108001709,0.6107973456382751,1.5706218481063843,0.39000777810812,0.0,-3.141592675445488,7.524045405812863e-13,0.500000536441803,0.500000536441803,0.6107973456382751,1.5706218481063843,0.39000777810812,0.0,-3.141592675445488,1.244282975265687e-11,0.500000536441803,0.500000536441803,,,,,,,,,,,,,,,,,,,,,,,,,,,,,,,,,,,,,,,,,,,,,,,,,,,,,,,,,,,,,,,,,,,,,,,,,,,,,,,,,,,,,,,,,,,,,,,,,,,,,,,,,,,,,,,,,,,,,,,,,,,,,,,,,,,,,,-1.1712852909795402e-11,-3.008704396734174e-11,1.2975731600306517e-12,0.0,-8.471001677889944e-10,2.590857758368037e-13,-2.792781970128999e-06,-2.791281531244749e-06,-1.071365218763276e-11,-2.7533531010703882e-11,1.1726730697603216e-12,0.0,-6.451505996096785e-10,1.5453832657996713e-10,2.5567912871338194e-06,2.5558847482898273e-06,,,,,,,,,,,,,,,,,,,,,,,,,,,,,,,,,,,,,,,,,,,,,,,,,,,,,,,,,,,,,,,,,,,,,,,,,,
101,3.3343148231506348,0.6107973456382751,1.5706218481063843,0.39000777810812,0.0,-3.141592675445488,7.475746367432978e-13,0.5000004768371582,0.5000004768371582,0.6107973456382751,1.5706218481063843,0.39000777810812,0.0,-3.141592675445488,1.244282975265687e-11,0.500000536441803,0.500000536441803,,,,,,,,,,,,,,,,,,,,,,,,,,,,,,,,,,,,,,,,,,,,,,,,,,,,,,,,,,,,,,,,,,,,,,,,,,,,,,,,,,,,,,,,,,,,,,,,,,,,,,,,,,,,,,,,,,,,,,,,,,,,,,,,,,,,,,-9.936496070395151e-12,-2.531308496145357e-11,1.0894063429134349e-12,0.0,-7.136513602290506e-10,-3.854958615778087e-13,-2.3556629002996488e-06,-2.354668822590611e-06,-1.071365218763276e-11,-2.7533531010703882e-11,1.1726730697603216e-12,0.0,-6.451505996096785e-10,1.5453832657996713e-10,2.5567912871338194e-06,2.5558847482898273e-06,,,,,,,,,,,,,,,,,,,,,,,,,,,,,,,,,,,,,,,,,,,,,,,,,,,,,,,,,,,,,,,,,,,,,,,,,,
102,3.355933666229248,0.6107973456382751,1.5706218481063843,0.39000777810812,0.0,-3.141592675445488,7.475746367432978e-13,0.5000004768371582,0.5000004768371582,0.6107973456382751,1.5706218481063843,0.39000777810812,0.0,-3.141592675445488,1.6853884607370695e-11,0.5000004172325134,0.5000004172325134,,,,,,,,,,,,,,,,,,,,,,,,,,,,,,,,,,,,,,,,,,,,,,,,,,,,,,,,,,,,,,,,,,,,,,,,,,,,,,,,,,,,,,,,,,,,,,,,,,,,,,,,,,,,,,,,,,,,,,,,,,,,,,,,,,,,,,-9.936496070395151e-12,-2.531308496145357e-11,1.0894063429134349e-12,0.0,-7.136513602290506e-10,-3.854958615778087e-13,-2.3556629002996488e-06,-2.354668822590611e-06,-8.93729534823251e-12,-2.3092638912203256e-11,9.783840404509192e-13,0.0,-5.752620602095249e-10,9.66262972412757e-11,2.135160912075662e-06,2.13459566111851e-06,,,,,,,,,,,,,,,,,,,,,,,,,,,,,,,,,,,,,,,,,,,,,,,,,,,,,,,,,,,,,,,,,,,,,,,,,,
103,3.3784842491149902,0.6107973456382751,1.5706218481063843,0.39000777810812,0.0,-3.141592675445488,7.227516653739163e-13,0.5000003576278687,0.5000003576278687,0.6107973456382751,1.5706218481063843,0.39000777810812,0.0,-3.141592675445488,1.6853884607370695e-11,0.5000004172325134,0.5000004172325134,,,,,,,,,,,,,,,,,,,,,,,,,,,,,,,,,,,,,,,,,,,,,,,,,,,,,,,,,,,,,,,,,,,,,,,,,,,,,,,,,,,,,,,,,,,,,,,,,,,,,,,,,,,,,,,,,,,,,,,,,,,,,,,,,,,,,,-8.271161533457416e-12,-2.0650148258027912e-11,9.298117831235686e-13,0.0,-5.894174037734956e-10,-9.236182782132452e-13,-1.9475667158985743e-06,-1.94699509847851e-06,-8.93729534823251e-12,-2.3092638912203256e-11,9.783840404509192e-13,0.0,-5.752620602095249e-10,9.66262972412757e-11,2.135160912075662e-06,2.13459566111851e-06,,,,,,,,,,,,,,,,,,,,,,,,,,,,,,,,,,,,,,,,,,,,,,,,,,,,,,,,,,,,,,,,,,,,,,,,,,
104,3.4005486965179443,0.6107973456382751,1.5706218481063843,0.39000777810812,0.0,-3.141592675445488,7.227516653739163e-13,0.5000003576278687,0.5000003576278687,0.6107973456382751,1.5706218481063843,0.39000777810812,0.0,-3.141592675445488,1.9472940621101387e-11,0.5000003576278687,0.5000003576278687,,,,,,,,,,,,,,,,,,,,,,,,,,,,,,,,,,,,,,,,,,,,,,,,,,,,,,,,,,,,,,,,,,,,,,,,,,,,,,,,,,,,,,,,,,,,,,,,,,,,,,,,,,,,,,,,,,,,,,,,,,,,,,,,,,,,,,-8.271161533457416e-12,-2.0650148258027912e-11,9.298117831235686e-13,0.0,-5.894174037734956e-10,-9.236182782132452e-13,-1.9475667158985743e-06,-1.94699509847851e-06,-7.327471962526033e-12,-1.9095836023552692e-11,8.118505867571457e-13,0.0,-5.10702591327572e-10,5.3567820318400905e-11,1.7830595879786415e-06,1.7827484271037974e-06,,,,,,,,,,,,,,,,,,,,,,,,,,,,,,,,,,,,,,,,,,,,,,,,,,,,,,,,,,,,,,,,,,,,,,,,,,
105,3.4226326942443848,0.6107973456382751,1.5706218481063843,0.39000777810812,0.0,-3.141592675445488,6.84041582058037e-13,0.5000002980232239,0.5000002980232239,0.6107973456382751,1.5706218481063843,0.39000777810812,0.0,-3.141592675445488,2.0769348046956182e-11,0.5000002980232239,0.5000002980232239,,,,,,,,,,,,,,,,,,,,,,,,,,,,,,,,,,,,,,,,,,,,,,,,,,,,,,,,,,,,,,,,,,,,,,,,,,,,,,,,,,,,,,,,,,,,,,,,,,,,,,,,,,,,,,,,,,,,,,,,,,,,,,,,,,,,,,-6.772360450213455e-12,-1.7208456881689926e-11,7.494005416219807e-13,0.0,-4.869993297518249e-10,-1.0025566531471353e-12,-1.6101693063319544e-06,-1.609903620192199e-06,-6.161737786669619e-12,-1.609823385706477e-11,6.800116025829084e-13,0.0,-4.517497487199762e-10,2.194702926339165e-11,1.4890222246322082e-06,1.4888960322423372e-06,,,,,,,,,,,,,,,,,,,,,,,,,,,,,,,,,,,,,,,,,,,,,,,,,,,,,,,,,,,,,,,,,,,,,,,,,,
106,3.4445013999938965,0.6107973456382751,1.5706218481063843,0.39000777810812,0.0,-3.141592675445488,6.406110993235903e-13,0.5000002384185791,0.5000002384185791,0.6107973456382751,1.5706218481063843,0.39000777810812,0.0,-3.141592675445488,2.0769348046956182e-11,0.5000002980232239,0.5000002980232239,,,,,,,,,,,,,,,,,,,,,,,,,,,,,,,,,,,,,,,,,,,,,,,,,,,,,,,,,,,,,,,,,,,,,,,,,,,,,,,,,,,,,,,,,,,,,,,,,,,,,,,,,,,,,,,,,,,,,,,,,,,,,,,,,,,,,,-5.440092820663267e-12,-1.454392162258955e-11,6.38378239159465e-13,0.0,-4.0589753780295723e-10,-1.2831076262251329e-12,-1.344618681287102e-06,-1.3445612694340525e-06,-6.161737786669619e-12,-1.609823385706477e-11,6.800116025829084e-13,0.0,-4.517497487199762e-10,2.194702926339165e-11,1.4890222246322082e-06,1.4888960322423372e-06,,,,,,,,,,,,,,,,,,,,,,,,,,,,,,,,,,,,,,,,,,,,,,,,,,,,,,,,,,,,,,,,,,,,,,,,,,
107,3.4666318893432617,0.6107973456382751,1.5706218481063843,0.39000777810812,0.0,-3.141592675445488,6.406110993235903e-13,0.5000002384185791,0.5000002384185791,0.6107973456382751,1.5706218481063843,0.39000777810812,0.0,-3.141592675445488,2.1105220002204383e-11,0.5000002384185791,0.5000002384185791,,,,,,,,,,,,,,,,,,,,,,,,,,,,,,,,,,,,,,,,,,,,,,,,,,,,,,,,,,,,,,,,,,,,,,,,,,,,,,,,,,,,,,,,,,,,,,,,,,,,,,,,,,,,,,,,,,,,,,,,,,,,,,,,,,,,,,-5.440092820663267e-12,-1.454392162258955e-11,6.38378239159465e-13,0.0,-4.0589753780295723e-10,-1.2831076262251329e-12,-1.344618681287102e-06,-1.3445612694340525e-06,-5.051514762044462e-12,-1.3100631690576847e-11,5.759281940243e-13,0.0,-3.9585001943009956e-10,-1.5675237800480413e-12,1.2310862302911119e-06,1.2310982810959104e-06,,,,,,,,,,,,,,,,,,,,,,,,,,,,,,,,,,,,,,,,,,,,,,,,,,,,,,,,,,,,,,,,,,,,,,,,,,
108,3.488111972808838,0.6107973456382751,1.5706218481063843,0.39000777810812,0.0,-3.141592675445488,5.919006062192478e-13,0.5000002384185791,0.5000002384185791,0.6107973456382751,1.5706218481063843,0.39000777810812,0.0,-3.141592675445488,2.1105220002204383e-11,0.5000002384185791,0.5000002384185791,,,,,,,,,,,,,,,,,,,,,,,,,,,,,,,,,,,,,,,,,,,,,,,,,,,,,,,,,,,,,,,,,,,,,,,,,,,,,,,,,,,,,,,,,,,,,,,,,,,,,,,,,,,,,,,,,,,,,,,,,,,,,,,,,,,,,,-4.6074255521944e-12,-1.176836406102666e-11,6.175615574477433e-13,0.0,-3.38673533661904e-10,-1.6234081136670686e-12,-1.1228632956772344e-06,-1.122952085097495e-06,-5.051514762044462e-12,-1.3100631690576847e-11,5.759281940243e-13,0.0,-3.9585001943009956e-10,-1.5675237800480413e-12,1.2310862302911119e-06,1.2310982810959104e-06,,,,,,,,,,,,,,,,,,,,,,,,,,,,,,,,,,,,,,,,,,,,,,,,,,,,,,,,,,,,,,,,,,,,,,,,,,
109,3.5101826190948486,0.6107973456382751,1.5706218481063843,0.39000777810812,0.0,-3.141592675445488,5.919006062192478e-13,0.5000002384185791,0.5000002384185791,0.6107973456382751,1.5706218481063843,0.39000777810812,0.0,-3.141592675445488,2.070166607581747e-11,0.5000001788139343,0.5000001788139343,,,,,,,,,,,,,,,,,,,,,,,,,,,,,,,,,,,,,,,,,,,,,,,,,,,,,,,,,,,,,,,,,,,,,,,,,,,,,,,,,,,,,,,,,,,,,,,,,,,,,,,,,,,,,,,,,,,,,,,,,,,,,,,,,,,,,,-4.6074255521944e-12,-1.176836406102666e-11,6.175615574477433e-13,0.0,-3.38673533661904e-10,-1.6234081136670686e-12,-1.1228632956772344e-06,-1.122952085097495e-06,-3.9968028886505635e-12,-1.1213252548714081e-11,4.579669976578771e-13,0.0,-3.45778961019505e-10,-1.753963294048866e-11,1.0178308684771764e-06,1.0179381888519856e-06,,,,,,,,,,,,,,,,,,,,,,,,,,,,,,,,,,,,,,,,,,,,,,,,,,,,,,,,,,,,,,,,,,,,,,,,,,
110,3.5324721336364746,0.6107973456382751,1.5706218481063843,0.39000777810812,0.0,-3.141592675445488,5.389485515858161e-13,0.5000001788139343,0.5000001788139343,0.6107973456382751,1.5706218481063843,0.39000777810812,0.0,-3.141592675445488,1.9861714703472977e-11,0.5000001788139343,0.5000001788139343,,,,,,,,,,,,,,,,,,,,,,,,,,,,,,,,,,,,,,,,,,,,,,,,,,,,,,,,,,,,,,,,,,,,,,,,,,,,,,,,,,,,,,,,,,,,,,,,,,,,,,,,,,,,,,,,,,,,,,,,,,,,,,,,,,,,,,-3.941291737419306e-12,-9.992007221626409e-12,4.371503159461554e-13,0.0,-2.7988722450800196e-10,-1.7627820860996457e-12,-9.283376130042598e-07,-9.285305395678733e-07,-3.4416913763379853e-12,-9.103828801926284e-12,3.677613769070831e-13,0.0,-3.03146396873899e-10,-2.75340496930232e-11,8.499845876031031e-07,8.501503998559201e-07,,,,,,,,,,,,,,,,,,,,,,,,,,,,,,,,,,,,,,,,,,,,,,,,,,,,,,,,,,,,,,,,,,,,,,,,,,
111,3.5549840927124023,0.6107973456382751,1.5706218481063843,0.39000777810812,0.0,-3.141592675445488,4.906477242723473e-13,0.5000001788139343,0.5000001788139343,0.6107973456382751,1.5706218481063843,0.39000777810812,0.0,-3.141592675445488,1.9805424661401005e-11,0.5000001788139343,0.5000001788139343,,,,,,,,,,,,,,,,,,,,,,,,,,,,,,,,,,,,,,,,,,,,,,,,,,,,,,,,,,,,,,,,,,,,,,,,,,,,,,,,,,,,,,,,,,,,,,,,,,,,,,,,,,,,,,,,,,,,,,,,,,,,,,,,,,,,,,-3.2751579226442118e-12,-8.215650382226158e-12,3.8163916471489756e-13,0.0,-2.330913240200516e-10,-1.4326490297908445e-12,-7.752357760182349e-07,-7.754908892820822e-07,-3.4416913763379853e-12,-8.881784197001252e-12,4.0245584642661925e-13,0.0,-3.007594173709549e-10,-2.8144819808062493e-11,8.415166803388274e-07,8.416857326665195e-07,,,,,,,,,,,,,,,,,,,,,,,,,,,,,,,,,,,,,,,,,,,,,,,,,,,,,,,,,,,,,,,,,,,,,,,,,,
112,3.575833320617676,0.6107973456382751,1.5706218481063843,0.39000777810812,0.0,-3.141592675445488,4.906477242723473e-13,0.5000001788139343,0.5000001788139343,0.6107973456382751,1.5706218481063843,0.39000777810812,0.0,-3.141592675445488,1.866685972462534e-11,0.5000001192092896,0.5000001192092896,,,,,,,,,,,,,,,,,,,,,,,,,,,,,,,,,,,,,,,,,,,,,,,,,,,,,,,,,,,,,,,,,,,,,,,,,,,,,,,,,,,,,,,,,,,,,,,,,,,,,,,,,,,,,,,,,,,,,,,,,,,,,,,,,,,,,,-3.2751579226442118e-12,-8.215650382226158e-12,3.8163916471489756e-13,0.0,-2.330913240200516e-10,-1.4326490297908445e-12,-7.752357760182349e-07,-7.754908892820822e-07,-2.7755575615628914e-12,-7.438494264988549e-12,3.2612801348363973e-13,0.0,-2.6334490144108713e-10,-3.4235118212544435e-11,7.027456376818009e-07,7.029495918686735e-07,,,,,,,,,,,,,,,,,,,,,,,,,,,,,,,,,,,,,,,,,,,,,,,,,,,,,,,,,,,,,,,,,,,,,,,,,,
113,3.59867262840271,0.6107973456382751,1.5706218481063843,0.39000777810812,0.0,-3.141592675445488,4.434302046645716e-13,0.5000001192092896,0.5000001192092896,0.6107973456382751,1.5706218481063843,0.39000777810812,0.0,-3.141592675445488,1.866685972462534e-11,0.5000001192092896,0.5000001192092896,,,,,,,,,,,,,,,,,,,,,,,,,,,,,,,,,,,,,,,,,,,,,,,,,,,,,,,,,,,,,,,,,,,,,,,,,,,,,,,,,,,,,,,,,,,,,,,,,,,,,,,,,,,,,,,,,,,,,,,,,,,,,,,,,,,,,,-2.609024107869118e-12,-6.994405055138486e-12,3.122502256758253e-13,0.0,-1.9462209621678994e-10,-1.1980178134252117e-12,-6.473829898823169e-07,-6.476749945250049e-07,-2.7755575615628914e-12,-7.438494264988549e-12,3.2612801348363973e-13,0.0,-2.6334490144108713e-10,-3.4235118212544435e-11,7.027456376818009e-07,7.029495918686735e-07,,,,,,,,,,,,,,,,,,,,,,,,,,,,,,,,,,,,,,,,,,,,,,,,,,,,,,,,,,,,,,,,,,,,,,,,,,
114,3.620774507522583,0.6107973456382751,1.5706218481063843,0.39000777810812,0.0,-3.141592675445488,4.0061546744893373e-13,0.5000001192092896,0.5000001192092896,0.6107973456382751,1.5706218481063843,0.39000777810812,0.0,-3.141592675445488,1.7364307908218635e-11,0.5000001192092896,0.5000001192092896,,,,,,,,,,,,,,,,,,,,,,,,,,,,,,,,,,,,,,,,,,,,,,,,,,,,,,,,,,,,,,,,,,,,,,,,,,,,,,,,,,,,,,,,,,,,,,,,,,,,,,,,,,,,,,,,,,,,,,,,,,,,,,,,,,,,,,-2.3869795029440866e-12,-5.88418203051333e-12,2.498001805406602e-13,0.0,-1.6397994073713562e-10,-9.479832283748602e-13,-5.460567535919836e-07,-5.463655838866543e-07,-2.55351295663786e-12,-6.439293542825908e-12,2.5673907444456745e-13,0.0,-2.2964963264371363e-10,-3.7504589711634395e-11,5.868587322765961e-07,5.870815016351116e-07,,,,,,,,,,,,,,,,,,,,,,,,,,,,,,,,,,,,,,,,,,,,,,,,,,,,,,,,,,,,,,,,,,,,,,,,,,
115,3.642420530319214,0.6107973456382751,1.5706218481063843,0.39000777810812,0.0,-3.141592675445488,3.981213958764024e-13,0.5000001192092896,0.5000001192092896,0.6107973456382751,1.5706218481063843,0.39000777810812,0.0,-3.141592675445488,1.598454875406663e-11,0.5000001192092896,0.5000001192092896,,,,,,,,,,,,,,,,,,,,,,,,,,,,,,,,,,,,,,,,,,,,,,,,,,,,,,,,,,,,,,,,,,,,,,,,,,,,,,,,,,,,,,,,,,,,,,,,,,,,,,,,,,,,,,,,,,,,,,,,,,,,,,,,,,,,,,-2.0539125955565396e-12,-5.773159728050814e-12,2.636779683484747e-13,0.0,-1.6259216195635418e-10,-1.2470310157761122e-12,-5.406163836596534e-07,-5.409257823885127e-07,-1.942890293094024e-12,-5.329070518200751e-12,2.3592239273284576e-13,0.0,-2.0056178939853453e-10,-3.879405824358528e-11,4.900820727016253e-07,4.903126296085247e-07,,,,,,,,,,,,,,,,,,,,,,,,,,,,,,,,,,,,,,,,,,,,,,,,,,,,,,,,,,,,,,,,,,,,,,,,,,
116,3.6633503437042236,0.6107973456382751,1.5706218481063843,0.39000777810812,0.0,-3.141592675445488,3.562191774192369e-13,0.5000001192092896,0.5000001192092896,0.6107973456382751,1.5706218481063843,0.39000777810812,0.0,-3.141592675445488,1.5906951103539235e-11,0.5000001192092896,0.5000001192092896,,,,,,,,,,,,,,,,,,,,,,,,,,,,,,,,,,,,,,,,,,,,,,,,,,,,,,,,,,,,,,,,,,,,,,,,,,,,,,,,,,,,,,,,,,,,,,,,,,,,,,,,,,,,,,,,,,,,,,,,,,,,,,,,,,,,,,-2.1094237467877974e-12,-4.9960036108132044e-12,1.3183898417423734e-13,0.0,-1.3539169785303784e-10,-1.152293104683677e-12,-4.5145725380280055e-07,-4.5177117158345936e-07,-1.9984014443252818e-12,-5.10702591327572e-12,2.220446049250313e-13,0.0,-1.9878543255913428e-10,-3.879946364193643e-11,4.85199564081995e-07,4.854304052059888e-07,,,,,,,,,,,,,,,,,,,,,,,,,,,,,,,,,,,,,,,,,,,,,,,,,,,,,,,,,,,,,,,,,,,,,,,,,,
117,3.684580087661743,0.6107973456382751,1.5706218481063843,0.39000777810812,0.0,-3.141592675445488,3.562191774192369e-13,0.5000001192092896,0.5000001192092896,0.6107973456382751,1.5706218481063843,0.39000777810812,0.0,-3.141592675445488,1.4432803042974118e-11,0.5000000596046448,0.5000000596046448,,,,,,,,,,,,,,,,,,,,,,,,,,,,,,,,,,,,,,,,,,,,,,,,,,,,,,,,,,,,,,,,,,,,,,,,,,,,,,,,,,,,,,,,,,,,,,,,,,,,,,,,,,,,,,,,,,,,,,,,,,,,,,,,,,,,,,-2.1094237467877974e-12,-4.9960036108132044e-12,1.3183898417423734e-13,0.0,-1.3539169785303784e-10,-1.152293104683677e-12,-4.5145725380280055e-07,-4.5177117158345936e-07,-1.609823385706477e-12,-4.440892098500626e-12,1.8041124150158794e-13,0.0,-1.7169599075828046e-10,-3.839711881781227e-11,4.011511691714986e-07,4.013798786672851e-07,,,,,,,,,,,,,,,,,,,,,,,,,,,,,,,,,,,,,,,,,,,,,,,,,,,,,,,,,,,,,,,,,,,,,,,,,,
