MHC-RobotSimulators-Research/Data_Analysis_MotionReplication/mai_plotter/raven_data/the_good_stuff/2arm_p1.csv
,time,jpos0,jpos1,jpos2,jpos3,jpos4,jpos5,jpos6,jpos7,jpos8,jpos9,jpos10,jpos11,jpos12,jpos13,jpos14,jpos15,runlevel,sublevel,last_seq,type0,type1,pos0,pos1,pos2,pos3,pos4,pos5,ori0,ori1,ori2,ori3,ori4,ori5,ori6,ori7,ori8,ori9,ori10,ori11,ori12,ori13,ori14,ori15,ori16,ori17,ori_d0,ori_d1,ori_d2,ori_d3,ori_d4,ori_d5,ori_d6,ori_d7,ori_d8,ori_d9,ori_d10,ori_d11,ori_d12,ori_d13,ori_d14,ori_d15,ori_d16,ori_d17,pos_d0,pos_d1,pos_d2,pos_d3,pos_d4,pos_d5,encVals0,encVals1,encVals2,encVals3,encVals4,encVals5,encVals6,encVals7,encVals8,encVals9,encVals10,encVals11,encVals12,encVals13,encVals14,encVals15,dac_vals0,dac_vals1,dac_vals2,dac_vals3,dac_vals4,dac_vals5,dac_vals6,dac_vals7,dac_vals8,dac_vals9,dac_vals10,dac_vals11,dac_vals12,dac_vals13,dac_vals14,dac_vals15,Tau0,Tau1,Tau2,Tau3,Tau4,Tau5,Tau6,Tau7,Tau8,Tau9,Tau10,Tau11,Tau12,Tau13,Tau14,Tau15,mpos0,mpos1,mpos2,mpos3,mpos4,mpos5,mpos6,mpos7,mpos8,mpos9,mpos10,mpos11,mpos12,mpos13,mpos14,mpos15,mvel0,mvel1,mvel2,mvel3,mvel4,mvel5,mvel6,mvel7,mvel8,mvel9,mvel10,mvel11,mvel12,mvel13,mvel14,mvel15,jvel0,jvel1,jvel2,jvel3,jvel4,jvel5,jvel6,jvel7,jvel8,jvel9,jvel10,jvel11,jvel12,jvel13,jvel14,jvel15,mpos_d0,mpos_d1,mpos_d2,mpos_d3,mpos_d4,mpos_d5,mpos_d6,mpos_d7,mpos_d8,mpos_d9,mpos_d10,mpos_d11,mpos_d12,mpos_d13,mpos_d14,mpos_d15,jpos_d0,jpos_d1,jpos_d2,jpos_d3,jpos_d4,jpos_d5,jpos_d6,jpos_d7,jpos_d8,jpos_d9,jpos_d10,jpos_d11,jpos_d12,jpos_d13,jpos_d14,jpos_d15,grasp_d0,grasp_d1,encoffsets0,encoffsets1,encoffsets2,encoffsets3,encoffsets4,encoffsets5,encoffsets6,encoffsets7,encoffsets8,encoffsets9,encoffsets10,encoffsets11,encoffsets12,encoffsets13,encoffsets14,encoffsets15,jac_vel0,jac_vel1,jac_vel2,jac_vel3,jac_vel4,jac_vel5,jac_vel6,jac_vel7,jac_vel8,jac_vel9,jac_vel10,jac_vel11,jac_f0,jac_f1,jac_f2,jac_f3,jac_f4,jac_f5,jac_f6,jac_f7,jac_f8,jac_f9,jac_f10,jac_f11
0,0.0,0.522171,1.57765,0.399626,0.0,0.011429,0.002316,0.779482,0.780491,0.521041,1.576444,0.398377,0.0,0.00067,-0.004315,0.788554,0.787839,3.0,0.0,111.0,0.0,1.0,-78246.0,-25305.0,13726.0,-79441.0,25664.0,13836.0,-0.939127,-0.218331,0.265278,-0.301596,0.15405,-0.940908,0.164563,-0.963639,-0.210521,-0.937855,0.214364,0.272904,0.306666,0.143852,0.940884,0.162434,0.966103,-0.200651,-0.94002,-0.216863,0.263311,-0.299643,0.156052,-0.941202,0.163022,-0.963648,-0.211674,-0.938043,0.214837,0.271881,0.305691,0.143576,0.941243,0.163179,0.966039,-0.200354,-78253.0,-25276.0,13697.0,-79619.0,25686.0,13845.0,18535.0,17233.0,-159426.0,0.0,-49118.0,-54865.0,-54793.0,-55423.0,-15786.0,-12716.0,151115.0,0.0,57388.0,52051.0,52319.0,51794.0,45.0,232.0,-48.0,0.0,-283.0,-147.0,-108.0,482.0,-74.0,-212.0,-170.0,0.0,-500.0,-262.0,-458.0,-723.0,-0.012444,-0.062952,0.013099,0.0,-0.010361,-0.005409,0.003959,0.017665,-0.020195,-0.057598,-0.046028,0.0,-0.018331,-0.00959,0.016777,-0.02646,4074.75,11513.520508,51504.574219,0.0,-17703.541016,-17705.880859,18109.259766,-17305.560547,4065.930176,11503.980469,51347.878906,0.0,17653.410156,17650.980469,-17248.050781,18060.210938,0.0,0.0,0.0,0.0,0.0,0.0,0.0,0.0,0.0,0.0,0.0,0.0,0.0,0.0,0.0,0.0,0.0,0.0,0.0,0.0,0.0,0.0,0.0,0.0,0.0,0.0,0.0,0.0,0.0,0.0,0.0,0.0,4074.690186,11509.875,51504.972656,0.0,-17703.179688,-17704.982422,18108.390625,-17305.707031,4064.303955,11501.313477,51325.691406,0.0,17653.523438,17651.453125,-17248.359375,18060.316406,29.917782,90.362732,22.897293,0.0,0.721861,0.232612,44.514336,44.752487,29.841524,90.303375,22.815311,0.0,0.05942,-0.194747,45.120396,45.17775,1.558,1.576,-63810.0,-145161.0,-412847.0,0.0,147588.0,141867.0,-146421.0,136861.0,-60963.0,-140538.0,-419417.0,0.0,-138761.0,-144071.0,139326.0,-148875.0,0.0,0.0,0.0,0.0,0.0,0.0,0.0,0.0,0.0,0.0,0.0,0.0,0.0,0.0,0.0,0.0,0.0,0.0,0.0,0.0,0.0,0.0,0.0,0.0
1,1.3640589714050293,0.522171,1.57765,0.399626,0.0,0.011429,0.002316,0.520944,0.530685,0.521041,1.576444,0.398377,0.0,-0.048438,-0.029236,0.58347,0.457852,3.0,0.0,111.0,0.0,1.0,-78246.0,-25305.0,13726.0,-79353.0,25964.0,13753.0,-0.940071,-0.214228,0.265278,-0.30092,0.155366,-0.940908,0.160354,-0.964348,-0.210521,-0.943457,0.168753,0.285328,0.317263,0.210148,0.924761,0.096095,0.962995,-0.251805,-0.940071,-0.214228,0.265278,-0.30092,0.155366,-0.940908,0.160354,-0.964348,-0.210521,-0.943457,0.168753,0.285328,0.317263,0.210148,0.924761,0.096095,0.962995,-0.251805,-78246.0,-25305.0,13726.0,-79353.0,25964.0,13753.0,18535.0,17233.0,-159426.0,0.0,-49118.0,-54865.0,-53313.0,-56853.0,-15786.0,-12716.0,151114.0,0.0,57219.0,51908.0,53564.0,49976.0,45.0,232.0,-48.0,0.0,-479.0,-166.0,573.0,-593.0,-74.0,-212.0,-169.0,0.0,-730.0,-630.0,823.0,-1006.0,-0.012444,-0.062952,0.013099,0.0,-0.017541,-0.006082,-0.020977,-0.021719,-0.020195,-0.057598,-0.045799,0.0,-0.026734,-0.02307,-0.030131,-0.036833,4074.75,11513.520508,51504.574219,0.0,-17703.541016,-17705.880859,17976.060547,-17434.259766,4065.930176,11503.980469,51347.792969,0.0,17638.199219,17638.111328,-17360.099609,17896.589844,0.0,0.0,0.0,0.0,0.0,0.0,-89.174942,-180.098419,0.0,0.0,0.0,0.0,0.0,0.0,-89.174942,-180.098419,0.0,0.0,0.0,0.0,0.0,0.0,-0.173088,-0.349569,0.0,0.0,0.0,0.0,0.0,0.0,-0.173088,-0.349569,4074.690186,11509.875,51504.972656,0.0,-17706.695312,-17706.169922,17964.007812,-17448.962891,4064.303955,11501.313477,51325.691406,0.0,17635.058594,17631.640625,-17381.232422,17892.828125,29.917782,90.362732,22.897293,0.0,0.070026,0.100512,28.523373,28.754786,29.841524,90.303375,22.815311,0.0,-3.357589,-2.394598,31.439856,25.454853,1.051,1.041,-63810.0,-145161.0,-412847.0,0.0,147588.0,141867.0,-146421.0,136861.0,-60963.0,-140538.0,-419417.0,0.0,-138761.0,-144071.0,139326.0,-148875.0,0.0,0.0,0.0,0.0,0.0,-0.173088,0.0,0.0,0.0,0.0,0.0,-0.173088,0.0,0.0,0.0,0.0,0.0,-0.173088,0.0,0.0,0.0,0.0,0.0,-0.173088
2,1.3860750198364258,0.522171,1.57765,0.399626,0.0,0.011429,0.002316,0.517448,0.522825,0.521041,1.576444,0.398377,0.0,-0.049021,-0.029762,0.579365,0.451124,3.0,0.0,111.0,0.0,1.0,-78246.0,-25305.0,13726.0,-79351.0,25971.0,13751.0,-0.939601,-0.216279,0.265278,-0.301258,0.154709,-0.940908,0.162458,-0.963996,-0.210521,-0.943541,0.167674,0.285685,0.317434,0.211138,0.924476,0.094692,0.962967,-0.252443,-0.939601,-0.216279,0.265278,-0.301258,0.154709,-0.940908,0.162458,-0.963996,-0.210521,-0.943541,0.167674,0.285685,0.317434,0.211138,0.924476,0.094692,0.962967,-0.252443,-78246.0,-25305.0,13726.0,-79351.0,25971.0,13751.0,18535.0,17233.0,-159426.0,0.0,-49118.0,-54865.0,-53293.0,-56898.0,-15786.0,-12716.0,151114.0,0.0,57217.0,51905.0,53589.0,49939.0,45.0,232.0,-48.0,0.0,-481.0,-166.0,541.0,-508.0,-74.0,-212.0,-169.0,0.0,-725.0,-628.0,785.0,-934.0,-0.012444,-0.062952,0.013099,0.0,-0.01761,-0.00609,-0.019811,-0.018616,-0.020195,-0.057598,-0.045799,0.0,-0.026553,-0.022982,-0.028733,-0.034188,4074.75,11513.520508,51504.574219,0.0,-17703.541016,-17705.880859,17974.259766,-17438.310547,4065.930176,11503.980469,51347.792969,0.0,17638.019531,17637.839844,-17362.349609,17893.259766,0.0,0.0,0.0,0.0,0.0,0.0,0.0,-89.174942,0.0,0.0,0.0,0.0,0.0,-90.92347,-180.098419,-90.92347,0.0,0.0,0.0,0.0,0.0,0.0,0.0,-0.173088,0.0,0.0,0.0,0.0,0.0,-0.176481,-0.261328,-0.264722,4074.690186,11509.875,51504.972656,0.0,-17706.701172,-17706.171875,17963.787109,-17449.181641,4064.303955,11501.313477,51325.691406,0.0,17635.029297,17631.611328,-17381.435547,17892.574219,29.917782,90.362732,22.897293,0.0,0.069034,0.100311,28.499035,28.730436,29.841524,90.303375,22.815311,0.0,-3.362782,-2.397941,31.419065,25.424881,1.04,1.03,-63810.0,-145161.0,-412847.0,0.0,147588.0,141867.0,-146421.0,136861.0,-60963.0,-140538.0,-419417.0,0.0,-138761.0,-144071.0,139326.0,-148875.0,0.0,0.0,0.0,0.0,0.0,0.0,0.0,-0.176481,0.0,-0.096622,-0.147682,-0.261328,0.0,0.0,0.0,0.0,0.0,0.0,0.0,-0.176481,0.0,-0.096622,-0.147682,-0.261328
3,1.4060389995574951,0.522171,1.57765,0.399626,0.0,0.011429,0.002316,0.517275,0.52195,0.521041,1.576444,0.398377,0.0,-0.049309,-0.030112,0.573773,0.448679,3.0,0.0,111.0,0.0,1.0,-78246.0,-25305.0,13726.0,-79350.0,25975.0,13750.0,-0.939525,-0.216609,0.265278,-0.301313,0.154603,-0.940908,0.162797,-0.963939,-0.210521,-0.943183,0.169239,0.285945,0.31807,0.210928,0.924306,0.096115,0.96274,-0.252773,-0.939525,-0.216609,0.265278,-0.301313,0.154603,-0.940908,0.162797,-0.963939,-0.210521,-0.943183,0.169239,0.285945,0.31807,0.210928,0.924306,0.096115,0.96274,-0.252773,-78246.0,-25305.0,13726.0,-79350.0,25975.0,13750.0,18535.0,17233.0,-159426.0,0.0,-49118.0,-54865.0,-53292.0,-56903.0,-15786.0,-12716.0,151114.0,0.0,57216.0,51903.0,53622.0,49926.0,45.0,232.0,-48.0,0.0,-482.0,-166.0,544.0,-502.0,-74.0,-212.0,-169.0,0.0,-723.0,-626.0,722.0,-906.0,-0.012444,-0.062952,0.013099,0.0,-0.017665,-0.006095,-0.019914,-0.018406,-0.020195,-0.057598,-0.045799,0.0,-0.026464,-0.022932,-0.026447,-0.033165,4074.75,11513.520508,51504.574219,0.0,-17703.541016,-17705.880859,17974.171875,-17438.761719,4065.930176,11503.980469,51347.792969,0.0,17637.931641,17637.660156,-17365.320312,17892.089844,0.0,0.0,0.0,0.0,0.0,0.0,0.0,0.0,0.0,0.0,0.0,0.0,0.0,0.0,-180.098419,0.0,0.0,0.0,0.0,0.0,0.0,0.0,0.0,0.0,0.0,0.0,0.0,0.0,0.0,0.0,-0.349569,0.0,4074.690186,11509.875,51504.972656,0.0,-17706.701172,-17706.171875,17963.787109,-17449.181641,4064.303955,11501.313477,51325.691406,0.0,17635.029297,17631.611328,-17381.435547,17892.574219,29.917782,90.362732,22.897293,0.0,0.069034,0.100311,28.499035,28.730436,29.841524,90.303375,22.815311,0.0,-3.362782,-2.397941,31.419065,25.424881,1.039,1.022,-63810.0,-145161.0,-412847.0,0.0,147588.0,141867.0,-146421.0,136861.0,-60963.0,-140538.0,-419417.0,0.0,-138761.0,-144071.0,139326.0,-148875.0,0.0,0.0,0.0,0.0,0.0,0.0,0.0,0.0,0.0,0.0,0.0,-0.349569,0.0,0.0,0.0,0.0,0.0,0.0,0.0,0.0,0.0,0.0,0.0,-0.349569
4,1.4260809421539307,0.522171,1.57765,0.399626,0.0,0.011429,0.002316,0.517275,0.52195,0.521041,1.576444,0.398377,0.0,-0.049603,-0.030461,0.573076,0.448154,3.0,0.0,111.0,0.0,1.0,-78246.0,-25305.0,13726.0,-79349.0,25979.0,13748.0,-0.939525,-0.216609,0.265278,-0.301313,0.154603,-0.940908,0.162797,-0.963939,-0.210521,-0.943075,0.169402,0.286203,0.318392,0.211194,0.924134,0.096106,0.962653,-0.253108,-0.939525,-0.216609,0.265278,-0.301313,0.154603,-0.940908,0.162797,-0.963939,-0.210521,-0.94306,0.169485,0.286203,0.31841,0.211166,0.924134,0.096191,0.962644,-0.253108,-78246.0,-25305.0,13726.0,-79349.0,25979.0,13748.0,18535.0,17233.0,-159426.0,0.0,-49118.0,-54865.0,-53292.0,-56903.0,-15786.0,-12716.0,151114.0,0.0,57215.0,51901.0,53627.0,49924.0,45.0,232.0,-48.0,0.0,-484.0,-166.0,549.0,-507.0,-74.0,-212.0,-169.0,0.0,-720.0,-625.0,719.0,-901.0,-0.012444,-0.062952,0.013099,0.0,-0.01772,-0.0061,-0.020095,-0.018587,-0.020195,-0.057598,-0.045799,0.0,-0.026371,-0.022878,-0.026329,-0.032998,4074.75,11513.520508,51504.574219,0.0,-17703.541016,-17705.880859,17974.171875,-17438.761719,4065.930176,11503.980469,51347.792969,0.0,17637.839844,17637.480469,-17365.771484,17891.910156,0.0,0.0,0.0,0.0,0.0,0.0,0.0,0.0,0.0,0.0,0.0,0.0,0.0,0.0,0.0,-90.92347,0.0,0.0,0.0,0.0,0.0,0.0,0.0,0.0,0.0,0.0,0.0,0.0,0.0,0.0,0.0,-0.176481,4074.690186,11509.875,51504.972656,0.0,-17706.701172,-17706.171875,17963.787109,-17449.181641,4064.303955,11501.313477,51325.691406,0.0,17635.029297,17631.611328,-17381.435547,17892.574219,29.917782,90.362732,22.897293,0.0,0.069034,0.100311,28.499035,28.730436,29.841524,90.303375,22.815311,0.0,-3.362782,-2.397941,31.419065,25.424881,1.039,1.021,-63810.0,-145161.0,-412847.0,0.0,147588.0,141867.0,-146421.0,136861.0,-60963.0,-140538.0,-419417.0,0.0,-138761.0,-144071.0,139326.0,-148875.0,0.0,0.0,0.0,0.0,0.0,0.0,0.0,0.0,0.0,0.0,0.0,0.0,0.0,0.0,0.0,0.0,0.0,0.0,0.0,0.0,0.0,0.0,0.0,0.0
5,1.4480979442596436,0.522171,1.57765,0.399626,0.0,0.011429,0.002316,0.517098,0.52195,0.521041,1.576444,0.398377,0.0,-0.049892,-0.030634,0.573162,0.447718,3.0,0.0,111.0,0.0,1.0,-78246.0,-25305.0,13726.0,-79348.0,25981.0,13748.0,-0.939544,-0.216527,0.265278,-0.301299,0.154629,-0.940908,0.162712,-0.963953,-0.210521,-0.943076,0.169233,0.286299,0.318477,0.211556,0.924022,0.095807,0.962603,-0.253411,-0.939544,-0.216527,0.265278,-0.301299,0.154629,-0.940908,0.162712,-0.963953,-0.210521,-0.943076,0.169233,0.286299,0.318477,0.211556,0.924022,0.095807,0.962603,-0.253411,-78246.0,-25305.0,13726.0,-79348.0,25981.0,13748.0,18535.0,17233.0,-159426.0,0.0,-49118.0,-54865.0,-53291.0,-56903.0,-15786.0,-12716.0,151114.0,0.0,57214.0,51900.0,53627.0,49922.0,45.0,232.0,-48.0,0.0,-485.0,-166.0,552.0,-513.0,-74.0,-212.0,-169.0,0.0,-718.0,-626.0,727.0,-897.0,-0.012444,-0.062952,0.013099,0.0,-0.017781,-0.006105,-0.020215,-0.018788,-0.020195,-0.057598,-0.045799,0.0,-0.026283,-0.022911,-0.02663,-0.032827,4074.75,11513.520508,51504.574219,0.0,-17703.541016,-17705.880859,17974.080078,-17438.761719,4065.930176,11503.980469,51347.792969,0.0,17637.75,17637.390625,-17365.771484,17891.730469,0.0,0.0,0.0,0.0,0.0,0.0,0.0,0.0,0.0,0.0,0.0,0.0,0.0,0.0,0.0,0.0,0.0,0.0,0.0,0.0,0.0,0.0,0.0,0.0,0.0,0.0,0.0,0.0,0.0,0.0,0.0,0.0,4074.690186,11509.875,51504.972656,0.0,-17706.701172,-17706.171875,17963.787109,-17449.181641,4064.303955,11501.313477,51325.691406,0.0,17635.029297,17631.611328,-17381.435547,17892.574219,29.917782,90.362732,22.897293,0.0,0.069034,0.100311,28.499035,28.730436,29.841524,90.303375,22.815311,0.0,-3.362782,-2.397941,31.419065,25.424881,1.039,1.02,-63810.0,-145161.0,-412847.0,0.0,147588.0,141867.0,-146421.0,136861.0,-60963.0,-140538.0,-419417.0,0.0,-138761.0,-144071.0,139326.0,-148875.0,0.0,0.0,0.0,0.0,0.0,0.0,0.0,0.0,0.0,0.0,0.0,0.0,0.0,0.0,0.0,0.0,0.0,0.0,0.0,0.0,0.0,0.0,0.0,0.0
6,1.469031810760498,0.522171,1.57765,0.399626,0.0,0.011429,0.002316,0.516576,0.52195,0.521041,1.576444,0.398377,0.0,-0.050186,-0.030984,0.573337,0.447197,3.0,0.0,111.0,0.0,1.0,-78246.0,-25305.0,13726.0,-79347.0,25985.0,13746.0,-0.939601,-0.216281,0.265278,-0.301259,0.154708,-0.940908,0.16246,-0.963996,-0.210521,-0.943042,0.168987,0.286557,0.318707,0.211961,0.92385,0.095379,0.962557,-0.253746,-0.939601,-0.216281,0.265278,-0.301259,0.154708,-0.940908,0.16246,-0.963996,-0.210521,-0.943042,0.168987,0.286557,0.318707,0.211961,0.92385,0.095379,0.962557,-0.253746,-78246.0,-25305.0,13726.0,-79347.0,25985.0,13746.0,18535.0,17233.0,-159426.0,0.0,-49118.0,-54865.0,-53288.0,-56903.0,-15786.0,-12716.0,151114.0,0.0,57213.0,51898.0,53627.0,49920.0,45.0,232.0,-48.0,0.0,-487.0,-166.0,551.0,-518.0,-74.0,-212.0,-169.0,0.0,-715.0,-624.0,735.0,-892.0,-0.012444,-0.062952,0.013099,0.0,-0.017839,-0.006111,-0.020166,-0.018979,-0.020195,-0.057598,-0.045799,0.0,-0.02619,-0.022859,-0.026917,-0.032654,4074.75,11513.520508,51504.574219,0.0,-17703.541016,-17705.880859,17973.810547,-17438.761719,4065.930176,11503.980469,51347.792969,0.0,17637.660156,17637.210938,-17365.771484,17891.550781,0.0,0.0,0.0,0.0,0.0,0.0,0.0,0.0,0.0,0.0,0.0,0.0,0.0,0.0,0.0,0.0,0.0,0.0,0.0,0.0,0.0,0.0,0.0,0.0,0.0,0.0,0.0,0.0,0.0,0.0,0.0,0.0,4074.690186,11509.875,51504.972656,0.0,-17706.701172,-17706.171875,17963.787109,-17449.181641,4064.303955,11501.313477,51325.691406,0.0,17635.029297,17631.611328,-17381.435547,17892.574219,29.917782,90.362732,22.897293,0.0,0.069034,0.100311,28.499035,28.730436,29.841524,90.303375,22.815311,0.0,-3.362782,-2.397941,31.419065,25.424881,1.038,1.02,-63810.0,-145161.0,-412847.0,0.0,147588.0,141867.0,-146421.0,136861.0,-60963.0,-140538.0,-419417.0,0.0,-138761.0,-144071.0,139326.0,-148875.0,0.0,0.0,0.0,0.0,0.0,0.0,0.0,0.0,0.0,0.0,0.0,0.0,0.0,0.0,0.0,0.0,0.0,0.0,0.0,0.0,0.0,0.0,0.0,0.0
7,1.490060806274414,0.522171,1.57765,0.399626,0.0,0.011429,0.002316,0.51605,0.52195,0.521041,1.576444,0.398377,0.0,-0.050474,-0.031157,0.573074,0.446761,3.0,0.0,111.0,0.0,1.0,-78246.0,-25305.0,13726.0,-79346.0,25987.0,13746.0,-0.939658,-0.216034,0.265278,-0.301218,0.154787,-0.940908,0.162206,-0.964038,-0.210521,-0.943014,0.168982,0.286652,0.31883,0.212268,0.923737,0.095248,0.96249,-0.254048,-0.939658,-0.216034,0.265278,-0.301218,0.154787,-0.940908,0.162206,-0.964038,-0.210521,-0.943014,0.168982,0.286652,0.31883,0.212268,0.923737,0.095248,0.96249,-0.254048,-78246.0,-25305.0,13726.0,-79346.0,25987.0,13746.0,18535.0,17233.0,-159426.0,0.0,-49118.0,-54865.0,-53285.0,-56903.0,-15786.0,-12716.0,151114.0,0.0,57212.0,51897.0,53629.0,49918.0,45.0,232.0,-48.0,0.0,-489.0,-167.0,549.0,-523.0,-74.0,-212.0,-169.0,0.0,-713.0,-625.0,739.0,-887.0,-0.012444,-0.062952,0.013099,0.0,-0.017897,-0.006116,-0.02011,-0.01917,-0.020195,-0.057598,-0.045799,0.0,-0.026097,-0.022883,-0.027045,-0.032477,4074.75,11513.520508,51504.574219,0.0,-17703.541016,-17705.880859,17973.539062,-17438.761719,4065.930176,11503.980469,51347.792969,0.0,17637.570312,17637.121094,-17365.951172,17891.371094,0.0,0.0,0.0,0.0,0.0,0.0,0.0,0.0,0.0,0.0,0.0,0.0,0.0,0.0,0.0,0.0,0.0,0.0,0.0,0.0,0.0,0.0,0.0,0.0,0.0,0.0,0.0,0.0,0.0,0.0,0.0,0.0,4074.690186,11509.875,51504.972656,0.0,-17706.701172,-17706.171875,17963.787109,-17449.181641,4064.303955,11501.313477,51325.691406,0.0,17635.029297,17631.611328,-17381.435547,17892.574219,29.917782,90.362732,22.897293,0.0,0.069034,0.100311,28.499035,28.730436,29.841524,90.303375,22.815311,0.0,-3.362782,-2.397941,31.419065,25.424881,1.037,1.019,-63810.0,-145161.0,-412847.0,0.0,147588.0,141867.0,-146421.0,136861.0,-60963.0,-140538.0,-419417.0,0.0,-138761.0,-144071.0,139326.0,-148875.0,0.0,0.0,0.0,0.0,0.0,0.0,0.0,0.0,0.0,0.0,0.0,0.0,0.0,0.0,0.0,0.0,0.0,0.0,0.0,0.0,0.0,0.0,0.0,0.0
8,1.5100297927856445,0.522171,1.57765,0.399626,0.0,0.011429,0.002316,0.515877,0.52195,0.521041,1.576444,0.398377,0.0,-0.050474,-0.031333,0.572813,0.446496,3.0,0.0,111.0,0.0,1.0,-78246.0,-25305.0,13726.0,-79346.0,25989.0,13745.0,-0.939677,-0.215953,0.265278,-0.301205,0.154813,-0.940908,0.162123,-0.964052,-0.210521,-0.942964,0.168984,0.286817,0.318992,0.212279,0.923678,0.095202,0.962488,-0.254076,-0.939677,-0.215953,0.265278,-0.301205,0.154813,-0.940908,0.162123,-0.964052,-0.210521,-0.942964,0.168984,0.286817,0.318992,0.212279,0.923678,0.095202,0.962488,-0.254076,-78246.0,-25305.0,13726.0,-79346.0,25989.0,13745.0,18535.0,17233.0,-159426.0,0.0,-49118.0,-54865.0,-53284.0,-56903.0,-15786.0,-12716.0,151114.0,0.0,57212.0,51896.0,53631.0,49917.0,45.0,232.0,-48.0,0.0,-490.0,-167.0,552.0,-528.0,-74.0,-212.0,-169.0,0.0,-714.0,-625.0,742.0,-884.0,-0.012444,-0.062952,0.013099,0.0,-0.017952,-0.006121,-0.020201,-0.019351,-0.020195,-0.057598,-0.045799,0.0,-0.026142,-0.022898,-0.027156,-0.032376,4074.75,11513.520508,51504.574219,0.0,-17703.541016,-17705.880859,17973.451172,-17438.761719,4065.930176,11503.980469,51347.792969,0.0,17637.570312,17637.03125,-17366.130859,17891.28125,0.0,0.0,0.0,0.0,0.0,0.0,0.0,0.0,0.0,0.0,0.0,0.0,0.0,0.0,0.0,0.0,0.0,0.0,0.0,0.0,0.0,0.0,0.0,0.0,0.0,0.0,0.0,0.0,0.0,0.0,0.0,0.0,4074.690186,11509.875,51504.972656,0.0,-17706.701172,-17706.171875,17963.787109,-17449.181641,4064.303955,11501.313477,51325.691406,0.0,17635.029297,17631.611328,-17381.435547,17892.574219,29.917782,90.362732,22.897293,0.0,0.069034,0.100311,28.499035,28.730436,29.841524,90.303375,22.815311,0.0,-3.362782,-2.397941,31.419065,25.424881,1.037,1.019,-63810.0,-145161.0,-412847.0,0.0,147588.0,141867.0,-146421.0,136861.0,-60963.0,-140538.0,-419417.0,0.0,-138761.0,-144071.0,139326.0,-148875.0,0.0,0.0,0.0,0.0,0.0,0.0,0.0,0.0,0.0,0.0,0.0,0.0,0.0,0.0,0.0,0.0,0.0,0.0,0.0,0.0,0.0,0.0,0.0,0.0
9,1.5300250053405762,0.522171,1.57765,0.399626,0.0,0.011429,0.002316,0.515527,0.521776,0.521041,1.576444,0.398377,0.0,-0.050768,-0.031683,0.572814,0.446149,3.0,0.0,111.0,0.0,1.0,-78246.0,-25305.0,13726.0,-79344.0,25994.0,13744.0,-0.939696,-0.21587,0.265278,-0.301191,0.15484,-0.940908,0.162038,-0.964067,-0.210521,-0.9429,0.168901,0.287075,0.319258,0.212629,0.923506,0.09494,0.962425,-0.254411,-0.939677,-0.215951,0.265278,-0.301204,0.154814,-0.940908,0.162121,-0.964053,-0.210521,-0.942936,0.168981,0.286911,0.319114,0.21259,0.923565,0.09507,0.962419,-0.254383,-78246.0,-25305.0,13726.0,-79345.0,25992.0,13744.0,18535.0,17233.0,-159426.0,0.0,-49118.0,-54865.0,-53282.0,-56904.0,-15786.0,-12716.0,151114.0,0.0,57211.0,51894.0,53632.0,49916.0,45.0,232.0,-48.0,0.0,-492.0,-167.0,552.0,-531.0,-74.0,-212.0,-169.0,0.0,-711.0,-624.0,747.0,-882.0,-0.012444,-0.062952,0.013099,0.0,-0.018007,-0.006126,-0.020211,-0.019455,-0.020195,-0.057598,-0.045799,0.0,-0.026042,-0.022834,-0.027344,-0.032274,4074.75,11513.520508,51504.574219,0.0,-17703.541016,-17705.880859,17973.271484,-17438.849609,4065.930176,11503.980469,51347.792969,0.0,17637.480469,17636.849609,-17366.220703,17891.191406,0.0,0.0,0.0,0.0,0.0,0.0,-89.174942,0.0,0.0,0.0,0.0,0.0,0.0,-90.92347,0.0,0.0,0.0,0.0,0.0,0.0,0.0,0.0,-0.173088,0.0,0.0,0.0,0.0,0.0,0.0,-0.176481,0.088241,-0.088241,4074.690186,11509.875,51504.972656,0.0,-17706.701172,-17706.171875,17963.787109,-17449.181641,4064.303955,11501.313477,51325.691406,0.0,17635.029297,17631.611328,-17381.435547,17892.574219,29.917782,90.362732,22.897293,0.0,0.069034,0.100311,28.499035,28.730436,29.841524,90.303375,22.815311,0.0,-3.362782,-2.397941,31.419065,25.424881,1.037,1.018,-63810.0,-145161.0,-412847.0,0.0,147588.0,141867.0,-146421.0,136861.0,-60963.0,-140538.0,-419417.0,0.0,-138761.0,-144071.0,139326.0,-148875.0,0.0,0.0,0.0,0.0,0.0,-0.173088,0.0,-0.176481,0.0,-0.095653,-0.148311,0.088241,0.0,0.0,0.0,0.0,0.0,-0.173088,0.0,-0.176481,0.0,-0.095653,-0.148311,0.088241
10,1.5521159172058105,0.522171,1.57765,0.399626,0.0,0.011429,0.002316,0.515351,0.5216,0.521041,1.576444,0.398377,0.0,-0.051057,-0.031856,0.572725,0.445712,3.0,0.0,111.0,0.0,1.0,-78246.0,-25305.0,13726.0,-79344.0,25996.0,13743.0,-0.939696,-0.21587,0.265278,-0.301191,0.15484,-0.940908,0.162038,-0.964067,-0.210521,-0.942887,0.168815,0.28717,0.319362,0.212963,0.923393,0.094726,0.962366,-0.254713,-0.939696,-0.21587,0.265278,-0.301191,0.15484,-0.940908,0.162038,-0.964067,-0.210521,-0.942887,0.168815,0.28717,0.319362,0.212963,0.923393,0.094726,0.962366,-0.254713,-78246.0,-25305.0,13726.0,-79344.0,25996.0,13743.0,18535.0,17233.0,-159426.0,0.0,-49118.0,-54865.0,-53281.0,-56905.0,-15786.0,-12716.0,151114.0,0.0,57210.0,51893.0,53633.0,49914.0,45.0,232.0,-48.0,0.0,-493.0,-167.0,555.0,-534.0,-74.0,-212.0,-169.0,0.0,-709.0,-624.0,753.0,-876.0,-0.012444,-0.062952,0.013099,0.0,-0.018068,-0.006132,-0.020313,-0.019573,-0.020195,-0.057598,-0.045799,0.0,-0.025948,-0.022857,-0.027556,-0.032088,4074.75,11513.520508,51504.574219,0.0,-17703.541016,-17705.880859,17973.179688,-17438.941406,4065.930176,11503.980469,51347.792969,0.0,17637.390625,17636.761719,-17366.310547,17891.011719,0.0,0.0,0.0,0.0,0.0,0.0,0.0,0.0,0.0,0.0,0.0,0.0,0.0,0.0,0.0,0.0,0.0,0.0,0.0,0.0,0.0,0.0,0.0,0.0,0.0,0.0,0.0,0.0,0.0,0.0,0.0,0.0,4074.690186,11509.875,51504.972656,0.0,-17706.701172,-17706.171875,17963.787109,-17449.181641,4064.303955,11501.313477,51325.691406,0.0,17635.029297,17631.611328,-17381.435547,17892.574219,29.917782,90.362732,22.897293,0.0,0.069034,0.100311,28.499035,28.730436,29.841524,90.303375,22.815311,0.0,-3.362782,-2.397941,31.419065,25.424881,1.036,1.018,-63810.0,-145161.0,-412847.0,0.0,147588.0,141867.0,-146421.0,136861.0,-60963.0,-140538.0,-419417.0,0.0,-138761.0,-144071.0,139326.0,-148875.0,0.0,0.0,0.0,0.0,0.0,0.0,0.0,0.0,0.0,0.0,0.0,0.0,0.0,0.0,0.0,0.0,0.0,0.0,0.0,0.0,0.0,0.0,0.0,0.0
11,1.5730798244476318,0.522171,1.57765,0.399626,0.0,0.011429,0.002316,0.515178,0.5216,0.521041,1.576444,0.398377,0.0,-0.051057,-0.032032,0.57264,0.445275,3.0,0.0,111.0,0.0,1.0,-78246.0,-25305.0,13726.0,-79343.0,25998.0,13743.0,-0.939714,-0.215788,0.265278,-0.301178,0.154866,-0.940908,0.161954,-0.964081,-0.210521,-0.942866,0.168651,0.287334,0.319487,0.21303,0.923334,0.094511,0.96238,-0.25474,-0.939714,-0.215788,0.265278,-0.301178,0.154866,-0.940908,0.161954,-0.964081,-0.210521,-0.942866,0.168651,0.287334,0.319487,0.21303,0.923334,0.094511,0.96238,-0.25474,-78246.0,-25305.0,13726.0,-79343.0,25998.0,13743.0,18535.0,17233.0,-159426.0,0.0,-49118.0,-54865.0,-53280.0,-56905.0,-15786.0,-12716.0,151114.0,0.0,57210.0,51892.0,53634.0,49912.0,45.0,232.0,-48.0,0.0,-495.0,-167.0,557.0,-540.0,-74.0,-212.0,-169.0,0.0,-710.0,-625.0,758.0,-871.0,-0.012444,-0.062952,0.013099,0.0,-0.018126,-0.006137,-0.020406,-0.019761,-0.020195,-0.057598,-0.045799,0.0,-0.025991,-0.022872,-0.027754,-0.031901,4074.75,11513.520508,51504.574219,0.0,-17703.541016,-17705.880859,17973.089844,-17438.941406,4065.930176,11503.980469,51347.792969,0.0,17637.390625,17636.669922,-17366.400391,17890.830078,0.0,0.0,0.0,0.0,0.0,0.0,0.0,0.0,0.0,0.0,0.0,0.0,0.0,0.0,0.0,-89.174942,0.0,0.0,0.0,0.0,0.0,0.0,0.0,0.0,0.0,0.0,0.0,0.0,0.0,0.0,0.0,-0.173088,4074.690186,11509.875,51504.972656,0.0,-17706.701172,-17706.171875,17963.787109,-17449.181641,4064.303955,11501.313477,51325.691406,0.0,17635.029297,17631.611328,-17381.435547,17892.574219,29.917782,90.362732,22.897293,0.0,0.069034,0.100311,28.499035,28.730436,29.841524,90.303375,22.815311,0.0,-3.362782,-2.397941,31.419065,25.424881,1.036,1.017,-63810.0,-145161.0,-412847.0,0.0,147588.0,141867.0,-146421.0,136861.0,-60963.0,-140538.0,-419417.0,0.0,-138761.0,-144071.0,139326.0,-148875.0,0.0,0.0,0.0,0.0,0.0,0.0,0.0,0.0,0.0,0.0,0.0,0.0,0.0,0.0,0.0,0.0,0.0,0.0,0.0,0.0,0.0,0.0,0.0,0.0
12,1.5940568447113037,0.522171,1.57765,0.399626,0.0,0.011429,0.002316,0.514828,0.521427,0.521041,1.576444,0.398377,0.0,-0.051345,-0.032206,0.5722,0.445188,3.0,0.0,111.0,0.0,1.0,-78246.0,-25305.0,13726.0,-79342.0,26000.0,13742.0,-0.939733,-0.215705,0.265278,-0.301164,0.154893,-0.940908,0.161869,-0.964095,-0.210521,-0.942793,0.168895,0.287429,0.319665,0.213252,0.923221,0.094633,0.962288,-0.255042,-0.939733,-0.215705,0.265278,-0.301164,0.154893,-0.940908,0.161869,-0.964095,-0.210521,-0.942793,0.168895,0.287429,0.319665,0.213252,0.923221,0.094633,0.962288,-0.255042,-78246.0,-25305.0,13726.0,-79342.0,26000.0,13742.0,18535.0,17233.0,-159426.0,0.0,-49118.0,-54865.0,-53278.0,-56906.0,-15786.0,-12716.0,151114.0,0.0,57209.0,51891.0,53637.0,49912.0,45.0,232.0,-48.0,0.0,-496.0,-167.0,557.0,-543.0,-74.0,-212.0,-169.0,0.0,-707.0,-625.0,759.0,-870.0,-0.012444,-0.062952,0.013099,0.0,-0.018183,-0.006143,-0.020418,-0.01987,-0.020195,-0.057598,-0.045799,0.0,-0.025893,-0.022886,-0.02779,-0.031869,4074.75,11513.520508,51504.574219,0.0,-17703.541016,-17705.880859,17972.910156,-17439.03125,4065.930176,11503.980469,51347.792969,0.0,17637.300781,17636.580078,-17366.671875,17890.830078,0.0,0.0,0.0,0.0,0.0,0.0,0.0,0.0,0.0,0.0,0.0,0.0,0.0,-89.174942,0.0,0.0,0.0,0.0,0.0,0.0,0.0,0.0,0.0,0.0,0.0,0.0,0.0,0.0,0.0,-0.173088,0.086544,-0.086544,4074.690186,11509.875,51504.972656,0.0,-17706.701172,-17706.171875,17963.787109,-17449.181641,4064.303955,11501.313477,51325.691406,0.0,17635.029297,17631.611328,-17381.435547,17892.574219,29.917782,90.362732,22.897293,0.0,0.069034,0.100311,28.499035,28.730436,29.841524,90.303375,22.815311,0.0,-3.362782,-2.397941,31.419065,25.424881,1.036,1.017,-63810.0,-145161.0,-412847.0,0.0,147588.0,141867.0,-146421.0,136861.0,-60963.0,-140538.0,-419417.0,0.0,-138761.0,-144071.0,139326.0,-148875.0,0.0,0.0,0.0,0.0,0.0,0.0,0.0,-0.173088,0.0,-0.093724,-0.145517,0.086544,0.0,0.0,0.0,0.0,0.0,0.0,0.0,-0.173088,0.0,-0.093724,-0.145517,0.086544
13,1.6139769554138184,0.522171,1.57765,0.399626,0.0,0.011429,0.002316,0.514478,0.521254,0.521041,1.576444,0.398377,0.0,-0.051345,-0.032206,0.572027,0.445012,3.0,0.0,111.0,0.0,1.0,-78246.0,-25305.0,13726.0,-79342.0,26000.0,13742.0,-0.939752,-0.215622,0.265278,-0.30115,0.154919,-0.940908,0.161784,-0.964109,-0.210521,-0.942793,0.168893,0.287429,0.319665,0.213253,0.923221,0.094631,0.962288,-0.255042,-0.939752,-0.215622,0.265278,-0.30115,0.154919,-0.940908,0.161784,-0.964109,-0.210521,-0.942793,0.168893,0.287429,0.319665,0.213253,0.923221,0.094631,0.962288,-0.255042,-78246.0,-25305.0,13726.0,-79342.0,26000.0,13742.0,18535.0,17233.0,-159426.0,0.0,-49118.0,-54865.0,-53276.0,-56907.0,-15786.0,-12716.0,151114.0,0.0,57209.0,51891.0,53638.0,49911.0,45.0,232.0,-48.0,0.0,-498.0,-168.0,557.0,-545.0,-74.0,-212.0,-169.0,0.0,-708.0,-627.0,764.0,-867.0,-0.012444,-0.062952,0.013099,0.0,-0.018239,-0.006148,-0.020418,-0.019969,-0.020195,-0.057598,-0.045799,0.0,-0.025933,-0.022973,-0.027969,-0.031758,4074.75,11513.520508,51504.574219,0.0,-17703.541016,-17705.880859,17972.730469,-17439.119141,4065.930176,11503.980469,51347.792969,0.0,17637.300781,17636.580078,-17366.759766,17890.740234,0.0,0.0,0.0,0.0,0.0,0.0,0.0,0.0,0.0,0.0,0.0,0.0,0.0,0.0,0.0,0.0,0.0,0.0,0.0,0.0,0.0,0.0,0.0,0.0,0.0,0.0,0.0,0.0,0.0,0.0,0.0,0.0,4074.690186,11509.875,51504.972656,0.0,-17706.701172,-17706.171875,17963.787109,-17449.181641,4064.303955,11501.313477,51325.691406,0.0,17635.029297,17631.611328,-17381.435547,17892.574219,29.917782,90.362732,22.897293,0.0,0.069034,0.100311,28.499035,28.730436,29.841524,90.303375,22.815311,0.0,-3.362782,-2.397941,31.419065,25.424881,1.035,1.017,-63810.0,-145161.0,-412847.0,0.0,147588.0,141867.0,-146421.0,136861.0,-60963.0,-140538.0,-419417.0,0.0,-138761.0,-144071.0,139326.0,-148875.0,0.0,0.0,0.0,0.0,0.0,0.0,0.0,0.0,0.0,0.0,0.0,0.0,0.0,0.0,0.0,0.0,0.0,0.0,0.0,0.0,0.0,0.0,0.0,0.0
14,1.6359708309173584,0.522171,1.57765,0.399626,0.0,0.011429,0.002316,0.514305,0.521077,0.521041,1.576444,0.398377,0.0,-0.05164,-0.032382,0.571589,0.444923,3.0,0.0,111.0,0.0,1.0,-78246.0,-25305.0,13726.0,-79342.0,26002.0,13741.0,-0.939752,-0.215624,0.265278,-0.301151,0.154919,-0.940908,0.161786,-0.964109,-0.210521,-0.94272,0.169137,0.287526,0.319845,0.213481,0.923106,0.09475,0.962195,-0.25535,-0.939752,-0.215624,0.265278,-0.301151,0.154919,-0.940908,0.161786,-0.964109,-0.210521,-0.94272,0.169137,0.287526,0.319845,0.213481,0.923106,0.09475,0.962195,-0.25535,-78246.0,-25305.0,13726.0,-79342.0,26002.0,13741.0,18535.0,17233.0,-159426.0,0.0,-49118.0,-54865.0,-53275.0,-56908.0,-15786.0,-12716.0,151114.0,0.0,57208.0,51890.0,53641.0,49911.0,45.0,232.0,-48.0,0.0,-500.0,-168.0,560.0,-548.0,-74.0,-212.0,-169.0,0.0,-705.0,-628.0,765.0,-866.0,-0.012444,-0.062952,0.013099,0.0,-0.018299,-0.006153,-0.020511,-0.020082,-0.020195,-0.057598,-0.045799,0.0,-0.025832,-0.022987,-0.028012,-0.031723,4074.75,11513.520508,51504.574219,0.0,-17703.541016,-17705.880859,17972.640625,-17439.210938,4065.930176,11503.980469,51347.792969,0.0,17637.210938,17636.490234,-17367.03125,17890.740234,0.0,0.0,0.0,0.0,0.0,0.0,0.0,0.0,0.0,0.0,0.0,0.0,0.0,0.0,0.0,0.0,0.0,0.0,0.0,0.0,0.0,0.0,0.0,0.0,0.0,0.0,0.0,0.0,0.0,0.0,0.0,0.0,4074.690186,11509.875,51504.972656,0.0,-17706.701172,-17706.171875,17963.787109,-17449.181641,4064.303955,11501.313477,51325.691406,0.0,17635.029297,17631.611328,-17381.435547,17892.574219,29.917782,90.362732,22.897293,0.0,0.069034,0.100311,28.499035,28.730436,29.841524,90.303375,22.815311,0.0,-3.362782,-2.397941,31.419065,25.424881,1.035,1.016,-63810.0,-145161.0,-412847.0,0.0,147588.0,141867.0,-146421.0,136861.0,-60963.0,-140538.0,-419417.0,0.0,-138761.0,-144071.0,139326.0,-148875.0,0.0,0.0,0.0,0.0,0.0,0.0,0.0,0.0,0.0,0.0,0.0,0.0,0.0,0.0,0.0,0.0,0.0,0.0,0.0,0.0,0.0,0.0,0.0,0.0
15,1.6559948921203613,0.522171,1.57765,0.399626,0.0,0.011429,0.002316,0.514129,0.520904,0.521041,1.576444,0.398377,0.0,-0.051928,-0.032555,0.57133,0.444664,3.0,0.0,111.0,0.0,1.0,-78246.0,-25305.0,13726.0,-79341.0,26004.0,13740.0,-0.939752,-0.215622,0.265278,-0.30115,0.154919,-0.940908,0.161784,-0.964109,-0.210521,-0.942677,0.169214,0.287621,0.319986,0.21376,0.922993,0.094701,0.962119,-0.255652,-0.939752,-0.215622,0.265278,-0.30115,0.154919,-0.940908,0.161784,-0.964109,-0.210521,-0.942677,0.169214,0.287621,0.319986,0.21376,0.922993,0.094701,0.962119,-0.255652,-78246.0,-25305.0,13726.0,-79341.0,26004.0,13740.0,18535.0,17233.0,-159426.0,0.0,-49118.0,-54865.0,-53274.0,-56909.0,-15786.0,-12716.0,151114.0,0.0,57207.0,51889.0,53643.0,49910.0,45.0,232.0,-48.0,0.0,-501.0,-168.0,562.0,-551.0,-74.0,-212.0,-169.0,0.0,-703.0,-628.0,768.0,-863.0,-0.012444,-0.062952,0.013099,0.0,-0.018354,-0.006158,-0.020585,-0.020178,-0.020195,-0.057598,-0.045799,0.0,-0.02573,-0.022994,-0.028106,-0.031612,4074.75,11513.520508,51504.574219,0.0,-17703.541016,-17705.880859,17972.550781,-17439.298828,4065.930176,11503.980469,51347.792969,0.0,17637.121094,17636.400391,-17367.208984,17890.650391,0.0,0.0,0.0,0.0,0.0,0.0,0.0,0.0,0.0,0.0,0.0,0.0,0.0,0.0,0.0,0.0,0.0,0.0,0.0,0.0,0.0,0.0,0.0,0.0,0.0,0.0,0.0,0.0,0.0,0.0,0.0,0.0,4074.690186,11509.875,51504.972656,0.0,-17706.701172,-17706.171875,17963.787109,-17449.181641,4064.303955,11501.313477,51325.691406,0.0,17635.029297,17631.611328,-17381.435547,17892.574219,29.917782,90.362732,22.897293,0.0,0.069034,0.100311,28.499035,28.730436,29.841524,90.303375,22.815311,0.0,-3.362782,-2.397941,31.419065,25.424881,1.035,1.015,-63810.0,-145161.0,-412847.0,0.0,147588.0,141867.0,-146421.0,136861.0,-60963.0,-140538.0,-419417.0,0.0,-138761.0,-144071.0,139326.0,-148875.0,0.0,0.0,0.0,0.0,0.0,0.0,0.0,0.0,0.0,0.0,0.0,0.0,0.0,0.0,0.0,0.0,0.0,0.0,0.0,0.0,0.0,0.0,0.0,0.0
16,1.6779699325561523,0.522171,1.57765,0.399626,0.0,0.011429,0.002316,0.513779,0.520728,0.521041,1.576444,0.398377,0.0,-0.051928,-0.032732,0.570892,0.444576,3.0,0.0,111.0,0.0,1.0,-78246.0,-25305.0,13726.0,-79340.0,26006.0,13740.0,-0.939771,-0.215541,0.265278,-0.301137,0.154945,-0.940908,0.161701,-0.964123,-0.210521,-0.942597,0.169382,0.287786,0.320186,0.213714,0.922934,0.094825,0.9621,-0.25568,-0.939771,-0.215541,0.265278,-0.301137,0.154945,-0.940908,0.161701,-0.964123,-0.210521,-0.942597,0.169382,0.287786,0.320186,0.213714,0.922934,0.094825,0.9621,-0.25568,-78246.0,-25305.0,13726.0,-79340.0,26006.0,13740.0,18535.0,17233.0,-159426.0,0.0,-49118.0,-54865.0,-53272.0,-56910.0,-15786.0,-12716.0,151114.0,0.0,57207.0,51888.0,53646.0,49910.0,45.0,232.0,-48.0,0.0,-503.0,-168.0,562.0,-554.0,-74.0,-212.0,-169.0,0.0,-704.0,-628.0,769.0,-862.0,-0.012444,-0.062952,0.013099,0.0,-0.018415,-0.006164,-0.020594,-0.020287,-0.020195,-0.057598,-0.045799,0.0,-0.02577,-0.023005,-0.02814,-0.031576,4074.75,11513.520508,51504.574219,0.0,-17703.541016,-17705.880859,17972.369141,-17439.390625,4065.930176,11503.980469,51347.792969,0.0,17637.121094,17636.310547,-17367.480469,17890.650391,0.0,0.0,0.0,0.0,0.0,0.0,0.0,0.0,0.0,0.0,0.0,0.0,0.0,0.0,0.0,0.0,0.0,0.0,0.0,0.0,0.0,0.0,0.0,0.0,0.0,0.0,0.0,0.0,0.0,0.0,0.0,0.0,4074.690186,11509.875,51504.972656,0.0,-17706.701172,-17706.171875,17963.787109,-17449.181641,4064.303955,11501.313477,51325.691406,0.0,17635.029297,17631.611328,-17381.435547,17892.574219,29.917782,90.362732,22.897293,0.0,0.069034,0.100311,28.499035,28.730436,29.841524,90.303375,22.815311,0.0,-3.362782,-2.397941,31.419065,25.424881,1.034,1.015,-63810.0,-145161.0,-412847.0,0.0,147588.0,141867.0,-146421.0,136861.0,-60963.0,-140538.0,-419417.0,0.0,-138761.0,-144071.0,139326.0,-148875.0,0.0,0.0,0.0,0.0,0.0,0.0,0.0,0.0,0.0,0.0,0.0,0.0,0.0,0.0,0.0,0.0,0.0,0.0,0.0,0.0,0.0,0.0,0.0,0.0
17,1.6979639530181885,0.522171,1.57765,0.399626,0.0,0.011429,0.002316,0.513606,0.520555,0.521041,1.576444,0.398377,0.0,-0.052222,-0.032905,0.570106,0.444489,3.0,0.0,111.0,0.0,1.0,-78246.0,-25305.0,13726.0,-79340.0,26008.0,13739.0,-0.939771,-0.215541,0.265278,-0.301137,0.154945,-0.940908,0.161701,-0.964123,-0.210521,-0.942495,0.16979,0.287879,0.320401,0.213886,0.92282,0.095112,0.96199,-0.255987,-0.939771,-0.215541,0.265278,-0.301137,0.154945,-0.940908,0.161701,-0.964123,-0.210521,-0.94251,0.169708,0.287879,0.320382,0.213914,0.92282,0.095029,0.961998,-0.255987,-78246.0,-25305.0,13726.0,-79340.0,26008.0,13739.0,18535.0,17233.0,-159426.0,0.0,-49118.0,-54865.0,-53271.0,-56911.0,-15786.0,-12716.0,151114.0,0.0,57206.0,51887.0,53651.0,49910.0,45.0,232.0,-48.0,0.0,-504.0,-168.0,564.0,-556.0,-74.0,-212.0,-169.0,0.0,-701.0,-628.0,764.0,-861.0,-0.012444,-0.062952,0.013099,0.0,-0.01847,-0.006169,-0.020665,-0.020379,-0.020195,-0.057598,-0.045799,0.0,-0.025664,-0.023009,-0.027988,-0.031542,4074.75,11513.520508,51504.574219,0.0,-17703.541016,-17705.880859,17972.28125,-17439.480469,4065.930176,11503.980469,51347.792969,0.0,17637.03125,17636.220703,-17367.929688,17890.650391,0.0,0.0,0.0,0.0,0.0,0.0,0.0,0.0,0.0,0.0,0.0,0.0,0.0,0.0,-89.174942,0.0,0.0,0.0,0.0,0.0,0.0,0.0,0.0,0.0,0.0,0.0,0.0,0.0,0.0,0.0,-0.173088,0.0,4074.690186,11509.875,51504.972656,0.0,-17706.701172,-17706.171875,17963.787109,-17449.181641,4064.303955,11501.313477,51325.691406,0.0,17635.029297,17631.611328,-17381.435547,17892.574219,29.917782,90.362732,22.897293,0.0,0.069034,0.100311,28.499035,28.730436,29.841524,90.303375,22.815311,0.0,-3.362782,-2.397941,31.419065,25.424881,1.034,1.014,-63810.0,-145161.0,-412847.0,0.0,147588.0,141867.0,-146421.0,136861.0,-60963.0,-140538.0,-419417.0,0.0,-138761.0,-144071.0,139326.0,-148875.0,0.0,0.0,0.0,0.0,0.0,0.0,0.0,0.0,0.0,0.0,0.0,-0.173088,0.0,0.0,0.0,0.0,0.0,0.0,0.0,0.0,0.0,0.0,0.0,-0.173088
18,1.720005989074707,0.522171,1.57765,0.399626,0.0,0.011429,0.002316,0.513257,0.520205,0.521041,1.576444,0.398377,0.0,-0.052222,-0.033081,0.569668,0.444401,3.0,0.0,111.0,0.0,1.0,-78246.0,-25305.0,13726.0,-79339.0,26010.0,13739.0,-0.939771,-0.215541,0.265278,-0.301137,0.154945,-0.940908,0.161701,-0.964123,-0.210521,-0.942415,0.169958,0.288043,0.320601,0.21384,0.922761,0.095235,0.96197,-0.256015,-0.939771,-0.215541,0.265278,-0.301137,0.154945,-0.940908,0.161701,-0.964123,-0.210521,-0.942415,0.169958,0.288043,0.320601,0.21384,0.922761,0.095235,0.96197,-0.256015,-78246.0,-25305.0,13726.0,-79339.0,26010.0,13739.0,18535.0,17233.0,-159426.0,0.0,-49118.0,-54865.0,-53269.0,-56913.0,-15786.0,-12716.0,151114.0,0.0,57206.0,51886.0,53654.0,49910.0,45.0,232.0,-48.0,0.0,-506.0,-168.0,564.0,-557.0,-74.0,-212.0,-169.0,0.0,-702.0,-629.0,765.0,-860.0,-0.012444,-0.062952,0.013099,0.0,-0.018531,-0.006175,-0.020669,-0.020406,-0.020195,-0.057598,-0.045799,0.0,-0.025702,-0.023017,-0.028008,-0.031505,4074.75,11513.520508,51504.574219,0.0,-17703.541016,-17705.880859,17972.101562,-17439.660156,4065.930176,11503.980469,51347.792969,0.0,17637.03125,17636.128906,-17368.201172,17890.650391,0.0,0.0,0.0,0.0,0.0,0.0,0.0,0.0,0.0,0.0,0.0,0.0,0.0,0.0,0.0,0.0,0.0,0.0,0.0,0.0,0.0,0.0,0.0,0.0,0.0,0.0,0.0,0.0,0.0,0.0,0.0,0.0,4074.690186,11509.875,51504.972656,0.0,-17706.701172,-17706.171875,17963.787109,-17449.181641,4064.303955,11501.313477,51325.691406,0.0,17635.029297,17631.611328,-17381.435547,17892.574219,29.917782,90.362732,22.897293,0.0,0.069034,0.100311,28.499035,28.730436,29.841524,90.303375,22.815311,0.0,-3.362782,-2.397941,31.419065,25.424881,1.033,1.014,-63810.0,-145161.0,-412847.0,0.0,147588.0,141867.0,-146421.0,136861.0,-60963.0,-140538.0,-419417.0,0.0,-138761.0,-144071.0,139326.0,-148875.0,0.0,0.0,0.0,0.0,0.0,0.0,0.0,0.0,0.0,0.0,0.0,0.0,0.0,0.0,0.0,0.0,0.0,0.0,0.0,0.0,0.0,0.0,0.0,0.0
19,1.741029977798462,0.522171,1.57765,0.399626,0.0,0.011429,0.002316,0.51308,0.520029,0.521041,1.576444,0.398377,0.0,-0.052511,-0.033254,0.569405,0.444314,3.0,0.0,111.0,0.0,1.0,-78246.0,-25305.0,13726.0,-79339.0,26012.0,13738.0,-0.939771,-0.215541,0.265278,-0.301137,0.154945,-0.940908,0.161701,-0.964123,-0.210521,-0.942357,0.170118,0.288138,0.32076,0.21409,0.922647,0.095271,0.961886,-0.256317,-0.939771,-0.215541,0.265278,-0.301137,0.154945,-0.940908,0.161701,-0.964123,-0.210521,-0.942357,0.170118,0.288138,0.32076,0.21409,0.922647,0.095271,0.961886,-0.256317,-78246.0,-25305.0,13726.0,-79339.0,26012.0,13738.0,18535.0,17233.0,-159426.0,0.0,-49118.0,-54865.0,-53268.0,-56914.0,-15786.0,-12716.0,151114.0,0.0,57205.0,51885.0,53656.0,49910.0,45.0,232.0,-48.0,0.0,-507.0,-168.0,566.0,-560.0,-74.0,-212.0,-169.0,0.0,-699.0,-629.0,767.0,-860.0,-0.012444,-0.062952,0.013099,0.0,-0.018589,-0.00618,-0.020741,-0.020501,-0.020195,-0.057598,-0.045799,0.0,-0.025598,-0.023021,-0.028092,-0.03147,4074.75,11513.520508,51504.574219,0.0,-17703.541016,-17705.880859,17972.009766,-17439.75,4065.930176,11503.980469,51347.792969,0.0,17636.941406,17636.041016,-17368.380859,17890.650391,0.0,0.0,0.0,0.0,0.0,0.0,0.0,0.0,0.0,0.0,0.0,0.0,0.0,0.0,0.0,0.0,0.0,0.0,0.0,0.0,0.0,0.0,0.0,0.0,0.0,0.0,0.0,0.0,0.0,0.0,0.0,0.0,4074.690186,11509.875,51504.972656,0.0,-17706.701172,-17706.171875,17963.787109,-17449.181641,4064.303955,11501.313477,51325.691406,0.0,17635.029297,17631.611328,-17381.435547,17892.574219,29.917782,90.362732,22.897293,0.0,0.069034,0.100311,28.499035,28.730436,29.841524,90.303375,22.815311,0.0,-3.362782,-2.397941,31.419065,25.424881,1.033,1.013,-63810.0,-145161.0,-412847.0,0.0,147588.0,141867.0,-146421.0,136861.0,-60963.0,-140538.0,-419417.0,0.0,-138761.0,-144071.0,139326.0,-148875.0,0.0,0.0,0.0,0.0,0.0,0.0,0.0,0.0,0.0,0.0,0.0,0.0,0.0,0.0,0.0,0.0,0.0,0.0,0.0,0.0,0.0,0.0,0.0,0.0
20,1.7619729042053223,0.522171,1.57765,0.399626,0.0,0.011429,0.002316,0.512907,0.519679,0.521041,1.576444,0.398377,0.0,-0.052511,-0.033431,0.568971,0.444049,3.0,0.0,111.0,0.0,1.0,-78246.0,-25305.0,13726.0,-79338.0,26014.0,13737.0,-0.939752,-0.215624,0.265278,-0.301151,0.154919,-0.940908,0.161786,-0.964109,-0.210521,-0.942291,0.170201,0.288303,0.320941,0.214073,0.922588,0.095308,0.961875,-0.256344,-0.939752,-0.215624,0.265278,-0.301151,0.154919,-0.940908,0.161786,-0.964109,-0.210521,-0.942291,0.170201,0.288303,0.320941,0.214073,0.922588,0.095308,0.961875,-0.256344,-78246.0,-25305.0,13726.0,-79338.0,26014.0,13737.0,18535.0,17233.0,-159426.0,0.0,-49118.0,-54865.0,-53267.0,-56916.0,-15786.0,-12716.0,151114.0,0.0,57205.0,51884.0,53659.0,49909.0,45.0,232.0,-48.0,0.0,-509.0,-169.0,568.0,-560.0,-74.0,-212.0,-169.0,0.0,-700.0,-629.0,767.0,-856.0,-0.012444,-0.062952,0.013099,0.0,-0.018647,-0.006185,-0.020813,-0.020514,-0.020195,-0.057598,-0.045799,0.0,-0.025633,-0.023022,-0.028094,-0.031355,4074.75,11513.520508,51504.574219,0.0,-17703.541016,-17705.880859,17971.919922,-17439.931641,4065.930176,11503.980469,51347.792969,0.0,17636.941406,17635.949219,-17368.650391,17890.560547,0.0,0.0,0.0,0.0,0.0,0.0,0.0,0.0,0.0,0.0,0.0,0.0,0.0,0.0,0.0,0.0,0.0,0.0,0.0,0.0,0.0,0.0,0.0,0.0,0.0,0.0,0.0,0.0,0.0,0.0,0.0,0.0,4074.690186,11509.875,51504.972656,0.0,-17706.701172,-17706.171875,17963.787109,-17449.181641,4064.303955,11501.313477,51325.691406,0.0,17635.029297,17631.611328,-17381.435547,17892.574219,29.917782,90.362732,22.897293,0.0,0.069034,0.100311,28.499035,28.730436,29.841524,90.303375,22.815311,0.0,-3.362782,-2.397941,31.419065,25.424881,1.032,1.013,-63810.0,-145161.0,-412847.0,0.0,147588.0,141867.0,-146421.0,136861.0,-60963.0,-140538.0,-419417.0,0.0,-138761.0,-144071.0,139326.0,-148875.0,0.0,0.0,0.0,0.0,0.0,0.0,0.0,0.0,0.0,0.0,0.0,0.0,0.0,0.0,0.0,0.0,0.0,0.0,0.0,0.0,0.0,0.0,0.0,0.0
21,1.7819387912750244,0.522171,1.57765,0.399626,0.0,0.011429,0.002316,0.512907,0.519329,0.521041,1.576444,0.398377,0.0,-0.052805,-0.033431,0.568448,0.444049,3.0,0.0,111.0,0.0,1.0,-78246.0,-25305.0,13726.0,-79338.0,26014.0,13737.0,-0.939714,-0.215788,0.265278,-0.301178,0.154866,-0.940908,0.161954,-0.964081,-0.210521,-0.942254,0.170523,0.288235,0.320978,0.214263,0.922531,0.095554,0.961776,-0.256624,-0.939714,-0.215788,0.265278,-0.301178,0.154866,-0.940908,0.161954,-0.964081,-0.210521,-0.942254,0.170523,0.288235,0.320978,0.214263,0.922531,0.095554,0.961776,-0.256624,-78246.0,-25305.0,13726.0,-79338.0,26014.0,13737.0,18535.0,17233.0,-159426.0,0.0,-49118.0,-54865.0,-53267.0,-56918.0,-15786.0,-12716.0,151114.0,0.0,57204.0,51884.0,53662.0,49909.0,45.0,232.0,-48.0,0.0,-511.0,-169.0,572.0,-560.0,-74.0,-212.0,-169.0,0.0,-697.0,-631.0,767.0,-855.0,-0.012444,-0.062952,0.013099,0.0,-0.018702,-0.00619,-0.020955,-0.020517,-0.020195,-0.057598,-0.045799,0.0,-0.025523,-0.023098,-0.02808,-0.03132,4074.75,11513.520508,51504.574219,0.0,-17703.541016,-17705.880859,17971.919922,-17440.111328,4065.930176,11503.980469,51347.792969,0.0,17636.849609,17635.949219,-17368.919922,17890.560547,0.0,0.0,0.0,0.0,0.0,0.0,0.0,0.0,0.0,0.0,0.0,0.0,0.0,0.0,-89.174942,0.0,0.0,0.0,0.0,0.0,0.0,0.0,0.0,0.0,0.0,0.0,0.0,0.0,0.0,0.0,-0.173088,0.0,4074.690186,11509.875,51504.972656,0.0,-17706.701172,-17706.171875,17963.787109,-17449.181641,4064.303955,11501.313477,51325.691406,0.0,17635.029297,17631.611328,-17381.435547,17892.574219,29.917782,90.362732,22.897293,0.0,0.069034,0.100311,28.499035,28.730436,29.841524,90.303375,22.815311,0.0,-3.362782,-2.397941,31.419065,25.424881,1.032,1.012,-63810.0,-145161.0,-412847.0,0.0,147588.0,141867.0,-146421.0,136861.0,-60963.0,-140538.0,-419417.0,0.0,-138761.0,-144071.0,139326.0,-148875.0,0.0,0.0,0.0,0.0,0.0,0.0,0.0,0.0,0.0,0.0,0.0,-0.173088,0.0,0.0,0.0,0.0,0.0,0.0,0.0,0.0,0.0,0.0,0.0,-0.173088
22,1.8019638061523438,0.522171,1.57765,0.399626,0.0,0.011429,0.002316,0.512731,0.518807,0.521041,1.576444,0.398377,0.0,-0.052805,-0.033604,0.568009,0.443963,3.0,0.0,111.0,0.0,1.0,-78246.0,-25305.0,13726.0,-79337.0,26017.0,13737.0,-0.939677,-0.215951,0.265278,-0.301204,0.154814,-0.940908,0.162121,-0.964053,-0.210521,-0.942174,0.170692,0.288396,0.321175,0.214216,0.922474,0.09568,0.961757,-0.256651,-0.939677,-0.215951,0.265278,-0.301204,0.154814,-0.940908,0.162121,-0.964053,-0.210521,-0.942174,0.170692,0.288396,0.321175,0.214216,0.922474,0.09568,0.961757,-0.256651,-78246.0,-25305.0,13726.0,-79337.0,26017.0,13737.0,18535.0,17233.0,-159426.0,0.0,-49118.0,-54865.0,-53266.0,-56921.0,-15786.0,-12716.0,151114.0,0.0,57204.0,51883.0,53665.0,49909.0,45.0,232.0,-48.0,0.0,-512.0,-169.0,574.0,-558.0,-74.0,-212.0,-169.0,0.0,-698.0,-631.0,766.0,-854.0,-0.012444,-0.062952,0.013099,0.0,-0.018757,-0.006196,-0.021018,-0.020438,-0.020195,-0.057598,-0.045799,0.0,-0.025555,-0.023094,-0.02806,-0.031285,4074.75,11513.520508,51504.574219,0.0,-17703.541016,-17705.880859,17971.830078,-17440.380859,4065.930176,11503.980469,51347.792969,0.0,17636.849609,17635.861328,-17369.191406,17890.560547,0.0,0.0,0.0,0.0,0.0,0.0,0.0,0.0,0.0,0.0,0.0,0.0,0.0,0.0,0.0,0.0,0.0,0.0,0.0,0.0,0.0,0.0,0.0,0.0,0.0,0.0,0.0,0.0,0.0,0.0,0.0,0.0,4074.690186,11509.875,51504.972656,0.0,-17706.701172,-17706.171875,17963.787109,-17449.181641,4064.303955,11501.313477,51325.691406,0.0,17635.029297,17631.611328,-17381.435547,17892.574219,29.917782,90.362732,22.897293,0.0,0.069034,0.100311,28.499035,28.730436,29.841524,90.303375,22.815311,0.0,-3.362782,-2.397941,31.419065,25.424881,1.031,1.011,-63810.0,-145161.0,-412847.0,0.0,147588.0,141867.0,-146421.0,136861.0,-60963.0,-140538.0,-419417.0,0.0,-138761.0,-144071.0,139326.0,-148875.0,0.0,0.0,0.0,0.0,0.0,0.0,0.0,0.0,0.0,0.0,0.0,0.0,0.0,0.0,0.0,0.0,0.0,0.0,0.0,0.0,0.0,0.0,0.0,0.0
23,1.824983835220337,0.522171,1.57765,0.399626,0.0,0.011429,0.002316,0.512731,0.518281,0.521041,1.576444,0.398377,0.0,-0.053093,-0.03378,0.567398,0.443875,3.0,0.0,111.0,0.0,1.0,-78246.0,-25305.0,13726.0,-79337.0,26019.0,13736.0,-0.93962,-0.216198,0.265278,-0.301245,0.154735,-0.940908,0.162375,-0.96401,-0.210521,-0.942085,0.171015,0.288494,0.321375,0.214411,0.922359,0.095881,0.961656,-0.256954,-0.93962,-0.216198,0.265278,-0.301245,0.154735,-0.940908,0.162375,-0.96401,-0.210521,-0.942085,0.171015,0.288494,0.321375,0.214411,0.922359,0.095881,0.961656,-0.256954,-78246.0,-25305.0,13726.0,-79337.0,26019.0,13736.0,18535.0,17233.0,-159426.0,0.0,-49118.0,-54865.0,-53266.0,-56924.0,-15786.0,-12716.0,151114.0,0.0,57203.0,51882.0,53669.0,49909.0,45.0,232.0,-48.0,0.0,-514.0,-169.0,578.0,-556.0,-74.0,-212.0,-169.0,0.0,-695.0,-631.0,764.0,-853.0,-0.012444,-0.062952,0.013099,0.0,-0.01882,-0.006201,-0.021179,-0.020375,-0.020195,-0.057598,-0.045799,0.0,-0.025451,-0.023099,-0.027988,-0.031244,4074.75,11513.520508,51504.574219,0.0,-17703.541016,-17705.880859,17971.830078,-17440.650391,4065.930176,11503.980469,51347.792969,0.0,17636.761719,17635.769531,-17369.550781,17890.560547,0.0,0.0,0.0,0.0,0.0,0.0,0.0,0.0,0.0,0.0,0.0,0.0,0.0,0.0,-90.92347,0.0,0.0,0.0,0.0,0.0,0.0,0.0,0.0,0.0,0.0,0.0,0.0,0.0,0.0,0.0,-0.176481,0.0,4074.690186,11509.875,51504.972656,0.0,-17706.701172,-17706.171875,17963.787109,-17449.181641,4064.303955,11501.313477,51325.691406,0.0,17635.029297,17631.611328,-17381.435547,17892.574219,29.917782,90.362732,22.897293,0.0,0.069034,0.100311,28.499035,28.730436,29.841524,90.303375,22.815311,0.0,-3.362782,-2.397941,31.419065,25.424881,1.031,1.011,-63810.0,-145161.0,-412847.0,0.0,147588.0,141867.0,-146421.0,136861.0,-60963.0,-140538.0,-419417.0,0.0,-138761.0,-144071.0,139326.0,-148875.0,0.0,0.0,0.0,0.0,0.0,0.0,0.0,0.0,0.0,0.0,0.0,-0.176481,0.0,0.0,0.0,0.0,0.0,0.0,0.0,0.0,0.0,0.0,0.0,-0.176481
24,1.844985008239746,0.522171,1.57765,0.399626,0.0,0.011429,0.002316,0.512731,0.517758,0.521041,1.576444,0.398377,0.0,-0.053093,-0.03378,0.567048,0.443875,3.0,0.0,111.0,0.0,1.0,-78246.0,-25305.0,13726.0,-79337.0,26019.0,13736.0,-0.939564,-0.216444,0.265278,-0.301286,0.154656,-0.940908,0.162627,-0.963968,-0.210521,-0.942055,0.17118,0.288494,0.321413,0.214355,0.922359,0.096049,0.961639,-0.256954,-0.939564,-0.216444,0.265278,-0.301286,0.154656,-0.940908,0.162627,-0.963968,-0.210521,-0.942055,0.17118,0.288494,0.321413,0.214355,0.922359,0.096049,0.961639,-0.256954,-78246.0,-25305.0,13726.0,-79337.0,26019.0,13736.0,18535.0,17233.0,-159426.0,0.0,-49118.0,-54865.0,-53266.0,-56927.0,-15786.0,-12716.0,151114.0,0.0,57203.0,51882.0,53671.0,49909.0,45.0,232.0,-48.0,0.0,-515.0,-169.0,582.0,-554.0,-74.0,-212.0,-169.0,0.0,-696.0,-633.0,766.0,-852.0,-0.012444,-0.062952,0.013099,0.0,-0.018875,-0.006207,-0.02132,-0.020287,-0.020195,-0.057598,-0.045799,0.0,-0.025481,-0.023172,-0.028037,-0.031209,4074.75,11513.520508,51504.574219,0.0,-17703.541016,-17705.880859,17971.830078,-17440.919922,4065.930176,11503.980469,51347.792969,0.0,17636.761719,17635.769531,-17369.730469,17890.560547,0.0,0.0,0.0,0.0,0.0,0.0,0.0,0.0,0.0,0.0,0.0,0.0,0.0,0.0,0.0,0.0,0.0,0.0,0.0,0.0,0.0,0.0,0.0,0.0,0.0,0.0,0.0,0.0,0.0,0.0,0.0,0.0,4074.690186,11509.875,51504.972656,0.0,-17706.701172,-17706.171875,17963.787109,-17449.181641,4064.303955,11501.313477,51325.691406,0.0,17635.029297,17631.611328,-17381.435547,17892.574219,29.917782,90.362732,22.897293,0.0,0.069034,0.100311,28.499035,28.730436,29.841524,90.303375,22.815311,0.0,-3.362782,-2.397941,31.419065,25.424881,1.03,1.01,-63810.0,-145161.0,-412847.0,0.0,147588.0,141867.0,-146421.0,136861.0,-60963.0,-140538.0,-419417.0,0.0,-138761.0,-144071.0,139326.0,-148875.0,0.0,0.0,0.0,0.0,0.0,0.0,0.0,0.0,0.0,0.0,0.0,0.0,0.0,0.0,0.0,0.0,0.0,0.0,0.0,0.0,0.0,0.0,0.0,0.0
25,1.8659708499908447,0.522171,1.57765,0.399626,0.0,0.011429,0.002316,0.512558,0.517585,0.521041,1.576444,0.398377,0.0,-0.053093,-0.033953,0.566785,0.443788,3.0,0.0,111.0,0.0,1.0,-78246.0,-25305.0,13726.0,-79336.0,26021.0,13735.0,-0.939564,-0.216444,0.265278,-0.301286,0.154656,-0.940908,0.162627,-0.963968,-0.210521,-0.94199,0.171266,0.288655,0.321591,0.214336,0.922301,0.096089,0.961628,-0.25698,-0.939564,-0.216444,0.265278,-0.301286,0.154656,-0.940908,0.162627,-0.963968,-0.210521,-0.94199,0.171266,0.288655,0.321591,0.214336,0.922301,0.096089,0.961628,-0.25698,-78246.0,-25305.0,13726.0,-79336.0,26021.0,13735.0,18535.0,17233.0,-159426.0,0.0,-49118.0,-54865.0,-53265.0,-56928.0,-15786.0,-12716.0,151114.0,0.0,57203.0,51881.0,53673.0,49909.0,45.0,232.0,-48.0,0.0,-517.0,-169.0,584.0,-556.0,-74.0,-212.0,-169.0,0.0,-697.0,-633.0,767.0,-851.0,-0.012444,-0.062952,0.013099,0.0,-0.018933,-0.006212,-0.021388,-0.020359,-0.020195,-0.057598,-0.045799,0.0,-0.025513,-0.023168,-0.028092,-0.031172,4074.75,11513.520508,51504.574219,0.0,-17703.541016,-17705.880859,17971.740234,-17441.009766,4065.930176,11503.980469,51347.792969,0.0,17636.761719,17635.679688,-17369.910156,17890.560547,0.0,0.0,0.0,0.0,0.0,0.0,0.0,0.0,0.0,0.0,0.0,0.0,0.0,0.0,0.0,0.0,0.0,0.0,0.0,0.0,0.0,0.0,0.0,0.0,0.0,0.0,0.0,0.0,0.0,0.0,0.0,0.0,4074.690186,11509.875,51504.972656,0.0,-17706.701172,-17706.171875,17963.787109,-17449.181641,4064.303955,11501.313477,51325.691406,0.0,17635.029297,17631.611328,-17381.435547,17892.574219,29.917782,90.362732,22.897293,0.0,0.069034,0.100311,28.499035,28.730436,29.841524,90.303375,22.815311,0.0,-3.362782,-2.397941,31.419065,25.424881,1.03,1.01,-63810.0,-145161.0,-412847.0,0.0,147588.0,141867.0,-146421.0,136861.0,-60963.0,-140538.0,-419417.0,0.0,-138761.0,-144071.0,139326.0,-148875.0,0.0,0.0,0.0,0.0,0.0,0.0,0.0,0.0,0.0,0.0,0.0,0.0,0.0,0.0,0.0,0.0,0.0,0.0,0.0,0.0,0.0,0.0,0.0,0.0
26,1.8859989643096924,0.522171,1.57765,0.399626,0.0,0.011429,0.002316,0.512381,0.517408,0.521041,1.576444,0.398377,0.0,-0.053387,-0.034126,0.566349,0.443702,3.0,0.0,111.0,0.0,1.0,-78246.0,-25305.0,13726.0,-79335.0,26023.0,13735.0,-0.939564,-0.216444,0.265278,-0.301286,0.154656,-0.940908,0.162627,-0.963968,-0.210521,-0.941918,0.171509,0.288749,0.321769,0.214564,0.922186,0.096208,0.961534,-0.257288,-0.939564,-0.216444,0.265278,-0.301286,0.154656,-0.940908,0.162627,-0.963968,-0.210521,-0.941918,0.171509,0.288749,0.321769,0.214564,0.922186,0.096208,0.961534,-0.257288,-78246.0,-25305.0,13726.0,-79335.0,26023.0,13735.0,18535.0,17233.0,-159426.0,0.0,-49118.0,-54865.0,-53264.0,-56929.0,-15786.0,-12716.0,151114.0,0.0,57202.0,51880.0,53676.0,49909.0,45.0,232.0,-48.0,0.0,-518.0,-169.0,586.0,-558.0,-74.0,-212.0,-169.0,0.0,-694.0,-632.0,766.0,-850.0,-0.012444,-0.062952,0.013099,0.0,-0.018988,-0.006217,-0.021447,-0.020422,-0.020195,-0.057598,-0.045799,0.0,-0.025399,-0.023161,-0.028056,-0.031137,4074.75,11513.520508,51504.574219,0.0,-17703.541016,-17705.880859,17971.650391,-17441.101562,4065.930176,11503.980469,51347.792969,0.0,17636.669922,17635.591797,-17370.179688,17890.560547,0.0,0.0,0.0,0.0,0.0,0.0,0.0,0.0,0.0,0.0,0.0,0.0,0.0,0.0,0.0,0.0,0.0,0.0,0.0,0.0,0.0,0.0,0.0,0.0,0.0,0.0,0.0,0.0,0.0,0.0,0.0,0.0,4074.690186,11509.875,51504.972656,0.0,-17706.701172,-17706.171875,17963.787109,-17449.181641,4064.303955,11501.313477,51325.691406,0.0,17635.029297,17631.611328,-17381.435547,17892.574219,29.917782,90.362732,22.897293,0.0,0.069034,0.100311,28.499035,28.730436,29.841524,90.303375,22.815311,0.0,-3.362782,-2.397941,31.419065,25.424881,1.029,1.01,-63810.0,-145161.0,-412847.0,0.0,147588.0,141867.0,-146421.0,136861.0,-60963.0,-140538.0,-419417.0,0.0,-138761.0,-144071.0,139326.0,-148875.0,0.0,0.0,0.0,0.0,0.0,0.0,0.0,0.0,0.0,0.0,0.0,0.0,0.0,0.0,0.0,0.0,0.0,0.0,0.0,0.0,0.0,0.0,0.0,0.0
27,1.9059669971466064,0.522171,1.57765,0.399626,0.0,0.011429,0.002316,0.512381,0.517235,0.521041,1.576444,0.398377,0.0,-0.053387,-0.034126,0.566,0.443702,3.0,0.0,111.0,0.0,1.0,-78246.0,-25305.0,13726.0,-79335.0,26023.0,13735.0,-0.939545,-0.216525,0.265278,-0.301299,0.15463,-0.940908,0.16271,-0.963954,-0.210521,-0.941888,0.171674,0.288749,0.321806,0.214508,0.922186,0.096376,0.961517,-0.257288,-0.939545,-0.216525,0.265278,-0.301299,0.15463,-0.940908,0.16271,-0.963954,-0.210521,-0.941888,0.171674,0.288749,0.321806,0.214508,0.922186,0.096376,0.961517,-0.257288,-78246.0,-25305.0,13726.0,-79335.0,26023.0,13735.0,18535.0,17233.0,-159426.0,0.0,-49118.0,-54865.0,-53264.0,-56930.0,-15786.0,-12716.0,151114.0,0.0,57202.0,51880.0,53678.0,49909.0,45.0,232.0,-48.0,0.0,-520.0,-170.0,589.0,-559.0,-74.0,-212.0,-169.0,0.0,-694.0,-634.0,767.0,-849.0,-0.012444,-0.062952,0.013099,0.0,-0.019044,-0.006222,-0.021584,-0.020484,-0.020195,-0.057598,-0.045799,0.0,-0.025428,-0.02323,-0.028093,-0.031102,4074.75,11513.520508,51504.574219,0.0,-17703.541016,-17705.880859,17971.650391,-17441.189453,4065.930176,11503.980469,51347.792969,0.0,17636.669922,17635.591797,-17370.361328,17890.560547,0.0,0.0,0.0,0.0,0.0,0.0,0.0,0.0,0.0,0.0,0.0,0.0,0.0,0.0,0.0,0.0,0.0,0.0,0.0,0.0,0.0,0.0,0.0,0.0,0.0,0.0,0.0,0.0,0.0,0.0,0.0,0.0,4074.690186,11509.875,51504.972656,0.0,-17706.701172,-17706.171875,17963.787109,-17449.181641,4064.303955,11501.313477,51325.691406,0.0,17635.029297,17631.611328,-17381.435547,17892.574219,29.917782,90.362732,22.897293,0.0,0.069034,0.100311,28.499035,28.730436,29.841524,90.303375,22.815311,0.0,-3.362782,-2.397941,31.419065,25.424881,1.029,1.009,-63810.0,-145161.0,-412847.0,0.0,147588.0,141867.0,-146421.0,136861.0,-60963.0,-140538.0,-419417.0,0.0,-138761.0,-144071.0,139326.0,-148875.0,0.0,0.0,0.0,0.0,0.0,0.0,0.0,0.0,0.0,0.0,0.0,0.0,0.0,0.0,0.0,0.0,0.0,0.0,0.0,0.0,0.0,0.0,0.0,0.0
28,1.9279727935791016,0.522171,1.57765,0.399626,0.0,0.011429,0.002316,0.512208,0.516886,0.521041,1.576444,0.398377,0.0,-0.053676,-0.034303,0.565565,0.443613,3.0,0.0,111.0,0.0,1.0,-78246.0,-25305.0,13726.0,-79335.0,26025.0,13734.0,-0.939526,-0.216608,0.265278,-0.301313,0.154603,-0.940908,0.162795,-0.963939,-0.210521,-0.941814,0.171914,0.288847,0.321988,0.21473,0.922071,0.096492,0.961424,-0.25759,-0.939526,-0.216608,0.265278,-0.301313,0.154603,-0.940908,0.162795,-0.963939,-0.210521,-0.941814,0.171914,0.288847,0.321988,0.21473,0.922071,0.096492,0.961424,-0.25759,-78246.0,-25305.0,13726.0,-79335.0,26025.0,13734.0,18535.0,17233.0,-159426.0,0.0,-49118.0,-54865.0,-53263.0,-56932.0,-15786.0,-12716.0,151114.0,0.0,57201.0,51879.0,53681.0,49909.0,45.0,232.0,-48.0,0.0,-522.0,-170.0,591.0,-559.0,-74.0,-212.0,-169.0,0.0,-691.0,-634.0,767.0,-848.0,-0.012444,-0.062952,0.013099,0.0,-0.019104,-0.006228,-0.021656,-0.020478,-0.020195,-0.057598,-0.045799,0.0,-0.025319,-0.023226,-0.028068,-0.031063,4074.75,11513.520508,51504.574219,0.0,-17703.541016,-17705.880859,17971.560547,-17441.369141,4065.930176,11503.980469,51347.792969,0.0,17636.580078,17635.5,-17370.628906,17890.560547,0.0,0.0,0.0,0.0,0.0,0.0,0.0,0.0,0.0,0.0,0.0,0.0,0.0,0.0,0.0,0.0,0.0,0.0,0.0,0.0,0.0,0.0,0.0,0.0,0.0,0.0,0.0,0.0,0.0,0.0,0.0,0.0,4074.690186,11509.875,51504.972656,0.0,-17706.701172,-17706.171875,17963.787109,-17449.181641,4064.303955,11501.313477,51325.691406,0.0,17635.029297,17631.611328,-17381.435547,17892.574219,29.917782,90.362732,22.897293,0.0,0.069034,0.100311,28.499035,28.730436,29.841524,90.303375,22.815311,0.0,-3.362782,-2.397941,31.419065,25.424881,1.029,1.009,-63810.0,-145161.0,-412847.0,0.0,147588.0,141867.0,-146421.0,136861.0,-60963.0,-140538.0,-419417.0,0.0,-138761.0,-144071.0,139326.0,-148875.0,0.0,0.0,0.0,0.0,0.0,0.0,0.0,0.0,0.0,0.0,0.0,0.0,0.0,0.0,0.0,0.0,0.0,0.0,0.0,0.0,0.0,0.0,0.0,0.0
29,1.9479649066925049,0.522171,1.57765,0.399626,0.0,0.011429,0.002316,0.512208,0.516536,0.521041,1.576444,0.398377,0.0,-0.053676,-0.034476,0.565126,0.443527,3.0,0.0,111.0,0.0,1.0,-78246.0,-25305.0,13726.0,-79334.0,26027.0,13733.0,-0.939488,-0.216772,0.265278,-0.30134,0.154551,-0.940908,0.162964,-0.963911,-0.210521,-0.941733,0.172083,0.289008,0.322185,0.214683,0.922013,0.096617,0.961405,-0.257617,-0.939488,-0.216772,0.265278,-0.30134,0.154551,-0.940908,0.162964,-0.963911,-0.210521,-0.941733,0.172083,0.289008,0.322185,0.214683,0.922013,0.096617,0.961405,-0.257617,-78246.0,-25305.0,13726.0,-79334.0,26027.0,13733.0,18535.0,17233.0,-159426.0,0.0,-49118.0,-54865.0,-53263.0,-56934.0,-15786.0,-12716.0,151114.0,0.0,57201.0,51878.0,53684.0,49909.0,45.0,232.0,-48.0,0.0,-523.0,-170.0,595.0,-559.0,-74.0,-212.0,-169.0,0.0,-692.0,-634.0,765.0,-847.0,-0.012444,-0.062952,0.013099,0.0,-0.019159,-0.006233,-0.021791,-0.020455,-0.020195,-0.057598,-0.045799,0.0,-0.025346,-0.023216,-0.028017,-0.031028,4074.75,11513.520508,51504.574219,0.0,-17703.541016,-17705.880859,17971.560547,-17441.550781,4065.930176,11503.980469,51347.792969,0.0,17636.580078,17635.412109,-17370.900391,17890.560547,0.0,0.0,0.0,0.0,0.0,0.0,0.0,0.0,0.0,0.0,0.0,0.0,0.0,0.0,0.0,0.0,0.0,0.0,0.0,0.0,0.0,0.0,0.0,0.0,0.0,0.0,0.0,0.0,0.0,0.0,0.0,0.0,4074.690186,11509.875,51504.972656,0.0,-17706.701172,-17706.171875,17963.787109,-17449.181641,4064.303955,11501.313477,51325.691406,0.0,17635.029297,17631.611328,-17381.435547,17892.574219,29.917782,90.362732,22.897293,0.0,0.069034,0.100311,28.499035,28.730436,29.841524,90.303375,22.815311,0.0,-3.362782,-2.397941,31.419065,25.424881,1.028,1.008,-63810.0,-145161.0,-412847.0,0.0,147588.0,141867.0,-146421.0,136861.0,-60963.0,-140538.0,-419417.0,0.0,-138761.0,-144071.0,139326.0,-148875.0,0.0,0.0,0.0,0.0,0.0,0.0,0.0,0.0,0.0,0.0,0.0,0.0,0.0,0.0,0.0,0.0,0.0,0.0,0.0,0.0,0.0,0.0,0.0,0.0
30,1.970005989074707,0.522171,1.57765,0.399626,0.0,0.011429,0.002316,0.512035,0.516187,0.521041,1.576444,0.398377,0.0,-0.05397,-0.034476,0.564603,0.443527,3.0,0.0,111.0,0.0,1.0,-78246.0,-25305.0,13726.0,-79334.0,26027.0,13733.0,-0.939469,-0.216855,0.265278,-0.301353,0.154524,-0.940908,0.163049,-0.963896,-0.210521,-0.941695,0.172404,0.288941,0.322222,0.214873,0.921956,0.096864,0.961305,-0.257897,-0.939469,-0.216855,0.265278,-0.301353,0.154524,-0.940908,0.163049,-0.963896,-0.210521,-0.941695,0.172404,0.288941,0.322222,0.214873,0.921956,0.096864,0.961305,-0.257897,-78246.0,-25305.0,13726.0,-79334.0,26027.0,13733.0,18535.0,17233.0,-159426.0,0.0,-49118.0,-54865.0,-53262.0,-56936.0,-15786.0,-12716.0,151114.0,0.0,57200.0,51878.0,53687.0,49909.0,45.0,232.0,-48.0,0.0,-525.0,-170.0,597.0,-558.0,-74.0,-212.0,-169.0,0.0,-646.0,-636.0,764.0,-846.0,-0.012444,-0.062952,0.013099,0.0,-0.01922,-0.006238,-0.021861,-0.020442,-0.020195,-0.057598,-0.045799,0.0,-0.023646,-0.023289,-0.027982,-0.030989,4074.75,11513.520508,51504.574219,0.0,-17703.541016,-17705.880859,17971.470703,-17441.730469,4065.930176,11503.980469,51347.792969,0.0,17636.490234,17635.412109,-17371.169922,17890.560547,0.0,0.0,0.0,0.0,0.0,0.0,0.0,0.0,0.0,0.0,0.0,0.0,-90.92347,0.0,0.0,0.0,0.0,0.0,0.0,0.0,0.0,0.0,0.0,0.0,0.0,0.0,0.0,0.0,-0.294136,0.0,0.0,0.0,4074.690186,11509.875,51504.972656,0.0,-17706.701172,-17706.171875,17963.787109,-17449.181641,4064.303955,11501.313477,51325.691406,0.0,17635.029297,17631.611328,-17381.435547,17892.574219,29.917782,90.362732,22.897293,0.0,0.069034,0.100311,28.499035,28.730436,29.841524,90.303375,22.815311,0.0,-3.362782,-2.397941,31.419065,25.424881,1.028,1.008,-63810.0,-145161.0,-412847.0,0.0,147588.0,141867.0,-146421.0,136861.0,-60963.0,-140538.0,-419417.0,0.0,-138761.0,-144071.0,139326.0,-148875.0,0.0,0.0,0.0,0.0,0.0,0.0,0.0,0.0,0.0,0.008565,-0.005425,0.293961,0.0,0.0,0.0,0.0,0.0,0.0,0.0,0.0,0.0,0.008565,-0.005425,0.293961
31,1.990968942642212,0.522171,1.57765,0.399626,0.0,0.011429,0.002316,0.512035,0.515837,0.521041,1.576444,0.398377,0.0,-0.05397,-0.034653,0.564342,0.443439,3.0,0.0,111.0,0.0,1.0,-78246.0,-25305.0,13726.0,-79333.0,26029.0,13733.0,-0.939431,-0.217019,0.265278,-0.30138,0.154471,-0.940908,0.163217,-0.963868,-0.210521,-0.94163,0.172489,0.289105,0.322403,0.214855,0.921897,0.096901,0.961293,-0.257924,-0.939431,-0.217019,0.265278,-0.30138,0.154471,-0.940908,0.163217,-0.963868,-0.210521,-0.94163,0.172489,0.289105,0.322403,0.214855,0.921897,0.096901,0.961293,-0.257924,-78246.0,-25305.0,13726.0,-79333.0,26029.0,13733.0,18535.0,17233.0,-159426.0,0.0,-49118.0,-54865.0,-53262.0,-56938.0,-15786.0,-12716.0,151114.0,0.0,57200.0,51877.0,53689.0,49909.0,45.0,232.0,-48.0,0.0,-526.0,-170.0,601.0,-558.0,-74.0,-212.0,-169.0,0.0,-690.0,-636.0,765.0,-845.0,-0.012444,-0.062952,0.013099,0.0,-0.019278,-0.006244,-0.022002,-0.020419,-0.020195,-0.057598,-0.045799,0.0,-0.025259,-0.023278,-0.028012,-0.030952,4074.75,11513.520508,51504.574219,0.0,-17703.541016,-17705.880859,17971.470703,-17441.910156,4065.930176,11503.980469,51347.792969,0.0,17636.490234,17635.320312,-17371.349609,17890.560547,0.0,0.0,0.0,0.0,0.0,0.0,0.0,0.0,0.0,0.0,0.0,0.0,0.0,0.0,0.0,0.0,0.0,0.0,0.0,0.0,0.0,0.0,0.0,0.0,0.0,0.0,0.0,0.0,0.0,0.0,0.0,0.0,4074.690186,11509.875,51504.972656,0.0,-17706.701172,-17706.171875,17963.787109,-17449.181641,4064.303955,11501.313477,51325.691406,0.0,17635.029297,17631.611328,-17381.435547,17892.574219,29.917782,90.362732,22.897293,0.0,0.069034,0.100311,28.499035,28.730436,29.841524,90.303375,22.815311,0.0,-3.362782,-2.397941,31.419065,25.424881,1.027,1.007,-63810.0,-145161.0,-412847.0,0.0,147588.0,141867.0,-146421.0,136861.0,-60963.0,-140538.0,-419417.0,0.0,-138761.0,-144071.0,139326.0,-148875.0,0.0,0.0,0.0,0.0,0.0,0.0,0.0,0.0,0.0,0.0,0.0,0.0,0.0,0.0,0.0,0.0,0.0,0.0,0.0,0.0,0.0,0.0,0.0,0.0
32,2.011971950531006,0.522171,1.57765,0.399626,0.0,0.011429,0.002316,0.511858,0.515488,0.521041,1.576444,0.398377,0.0,-0.05397,-0.034826,0.563902,0.443352,3.0,0.0,111.0,0.0,1.0,-78246.0,-25305.0,13726.0,-79333.0,26031.0,13732.0,-0.939412,-0.217101,0.265278,-0.301394,0.154445,-0.940908,0.163301,-0.963854,-0.210521,-0.941549,0.172658,0.289265,0.322601,0.214807,0.921839,0.097026,0.961274,-0.257951,-0.939412,-0.217101,0.265278,-0.301394,0.154445,-0.940908,0.163301,-0.963854,-0.210521,-0.941549,0.172658,0.289265,0.322601,0.214807,0.921839,0.097026,0.961274,-0.257951,-78246.0,-25305.0,13726.0,-79333.0,26031.0,13732.0,18535.0,17233.0,-159426.0,0.0,-49118.0,-54865.0,-53261.0,-56940.0,-15786.0,-12716.0,151114.0,0.0,57200.0,51876.0,53692.0,49909.0,45.0,232.0,-48.0,0.0,-528.0,-170.0,602.0,-557.0,-74.0,-212.0,-169.0,0.0,-691.0,-635.0,764.0,-844.0,-0.012444,-0.062952,0.013099,0.0,-0.019336,-0.006249,-0.022062,-0.020394,-0.020195,-0.057598,-0.045799,0.0,-0.025286,-0.023267,-0.027958,-0.030916,4074.75,11513.520508,51504.574219,0.0,-17703.541016,-17705.880859,17971.380859,-17442.089844,4065.930176,11503.980469,51347.792969,0.0,17636.490234,17635.230469,-17371.621094,17890.560547,0.0,0.0,0.0,0.0,0.0,0.0,0.0,-89.174942,0.0,0.0,0.0,0.0,0.0,0.0,0.0,0.0,0.0,0.0,0.0,0.0,0.0,0.0,0.0,-0.173088,0.0,0.0,0.0,0.0,0.0,0.0,0.0,0.0,4074.690186,11509.875,51504.972656,0.0,-17706.701172,-17706.171875,17963.787109,-17449.181641,4064.303955,11501.313477,51325.691406,0.0,17635.029297,17631.611328,-17381.435547,17892.574219,29.917782,90.362732,22.897293,0.0,0.069034,0.100311,28.499035,28.730436,29.841524,90.303375,22.815311,0.0,-3.362782,-2.397941,31.419065,25.424881,1.027,1.007,-63810.0,-145161.0,-412847.0,0.0,147588.0,141867.0,-146421.0,136861.0,-60963.0,-140538.0,-419417.0,0.0,-138761.0,-144071.0,139326.0,-148875.0,0.0,0.0,0.0,0.0,0.0,0.0,0.0,0.0,0.0,0.0,0.0,0.0,0.0,0.0,0.0,0.0,0.0,0.0,0.0,0.0,0.0,0.0,0.0,0.0
33,2.031907796859741,0.522171,1.57765,0.399626,0.0,0.011429,0.002316,0.511858,0.515311,0.521041,1.576444,0.398377,0.0,-0.054258,-0.034826,0.56338,0.443352,3.0,0.0,111.0,0.0,1.0,-78246.0,-25305.0,13726.0,-79333.0,26031.0,13732.0,-0.939393,-0.217183,0.265278,-0.301407,0.154419,-0.940908,0.163386,-0.963839,-0.210521,-0.941511,0.172978,0.289199,0.322639,0.214992,0.921782,0.097272,0.961175,-0.258226,-0.939393,-0.217183,0.265278,-0.301407,0.154419,-0.940908,0.163386,-0.963839,-0.210521,-0.941511,0.172978,0.289199,0.322639,0.214992,0.921782,0.097272,0.961175,-0.258226,-78246.0,-25305.0,13726.0,-79333.0,26031.0,13732.0,18535.0,17233.0,-159426.0,0.0,-49118.0,-54865.0,-53261.0,-56941.0,-15786.0,-12716.0,151114.0,0.0,57199.0,51876.0,53695.0,49909.0,45.0,232.0,-48.0,0.0,-529.0,-170.0,606.0,-558.0,-74.0,-212.0,-169.0,0.0,-687.0,-637.0,762.0,-843.0,-0.012444,-0.062952,0.013099,0.0,-0.019391,-0.006254,-0.022195,-0.020438,-0.020195,-0.057598,-0.045799,0.0,-0.02517,-0.023331,-0.027892,-0.03088,4074.75,11513.520508,51504.574219,0.0,-17703.541016,-17705.880859,17971.380859,-17442.181641,4065.930176,11503.980469,51347.792969,0.0,17636.400391,17635.230469,-17371.890625,17890.560547,0.0,0.0,0.0,0.0,0.0,0.0,0.0,0.0,0.0,0.0,0.0,0.0,0.0,0.0,0.0,0.0,0.0,0.0,0.0,0.0,0.0,0.0,0.0,0.0,0.0,0.0,0.0,0.0,0.0,0.0,0.0,0.0,4074.690186,11509.875,51504.972656,0.0,-17706.701172,-17706.171875,17963.787109,-17449.181641,4064.303955,11501.313477,51325.691406,0.0,17635.029297,17631.611328,-17381.435547,17892.574219,29.917782,90.362732,22.897293,0.0,0.069034,0.100311,28.499035,28.730436,29.841524,90.303375,22.815311,0.0,-3.362782,-2.397941,31.419065,25.424881,1.027,1.006,-63810.0,-145161.0,-412847.0,0.0,147588.0,141867.0,-146421.0,136861.0,-60963.0,-140538.0,-419417.0,0.0,-138761.0,-144071.0,139326.0,-148875.0,0.0,0.0,0.0,0.0,0.0,0.0,0.0,0.0,0.0,0.0,0.0,0.0,0.0,0.0,0.0,0.0,0.0,0.0,0.0,0.0,0.0,0.0,0.0,0.0
34,2.0539708137512207,0.522171,1.57765,0.399626,0.0,0.011429,0.002316,0.511685,0.515138,0.521041,1.576444,0.398377,0.0,-0.054258,-0.035002,0.562945,0.443264,3.0,0.0,111.0,0.0,1.0,-78246.0,-25305.0,13726.0,-79332.0,26033.0,13731.0,-0.939393,-0.217183,0.265278,-0.301407,0.154419,-0.940908,0.163386,-0.963839,-0.210521,-0.94143,0.173144,0.289363,0.322838,0.214946,0.921723,0.097393,0.961155,-0.258254,-0.939393,-0.217183,0.265278,-0.301407,0.154419,-0.940908,0.163386,-0.963839,-0.210521,-0.94143,0.173144,0.289363,0.322838,0.214946,0.921723,0.097393,0.961155,-0.258254,-78246.0,-25305.0,13726.0,-79332.0,26033.0,13731.0,18535.0,17233.0,-159426.0,0.0,-49118.0,-54865.0,-53260.0,-56942.0,-15786.0,-12716.0,151114.0,0.0,57199.0,51875.0,53698.0,49909.0,45.0,232.0,-48.0,0.0,-531.0,-171.0,608.0,-560.0,-74.0,-212.0,-169.0,0.0,-688.0,-637.0,760.0,-842.0,-0.012444,-0.062952,0.013099,0.0,-0.019452,-0.00626,-0.022261,-0.020493,-0.020195,-0.057598,-0.045799,0.0,-0.025197,-0.02332,-0.027837,-0.030842,4074.75,11513.520508,51504.574219,0.0,-17703.541016,-17705.880859,17971.291016,-17442.269531,4065.930176,11503.980469,51347.792969,0.0,17636.400391,17635.140625,-17372.160156,17890.560547,0.0,0.0,0.0,0.0,0.0,0.0,0.0,0.0,0.0,0.0,0.0,0.0,0.0,0.0,0.0,0.0,0.0,0.0,0.0,0.0,0.0,0.0,0.0,0.0,0.0,0.0,0.0,0.0,0.0,0.0,0.0,0.0,4074.690186,11509.875,51504.972656,0.0,-17706.701172,-17706.171875,17963.787109,-17449.181641,4064.303955,11501.313477,51325.691406,0.0,17635.029297,17631.611328,-17381.435547,17892.574219,29.917782,90.362732,22.897293,0.0,0.069034,0.100311,28.499035,28.730436,29.841524,90.303375,22.815311,0.0,-3.362782,-2.397941,31.419065,25.424881,1.026,1.006,-63810.0,-145161.0,-412847.0,0.0,147588.0,141867.0,-146421.0,136861.0,-60963.0,-140538.0,-419417.0,0.0,-138761.0,-144071.0,139326.0,-148875.0,0.0,0.0,0.0,0.0,0.0,0.0,0.0,0.0,0.0,0.0,0.0,0.0,0.0,0.0,0.0,0.0,0.0,0.0,0.0,0.0,0.0,0.0,0.0,0.0
35,2.0749709606170654,0.522171,1.57765,0.399626,0.0,0.011429,0.002316,0.511509,0.514965,0.521041,1.576444,0.398377,0.0,-0.054553,-0.035175,0.562506,0.443177,3.0,0.0,111.0,0.0,1.0,-78246.0,-25305.0,13726.0,-79332.0,26035.0,13731.0,-0.939393,-0.217182,0.265278,-0.301407,0.154419,-0.940908,0.163384,-0.96384,-0.210521,-0.941356,0.173388,0.289457,0.323017,0.215172,0.921608,0.097513,0.961061,-0.258561,-0.939393,-0.217182,0.265278,-0.301407,0.154419,-0.940908,0.163384,-0.96384,-0.210521,-0.941356,0.173388,0.289457,0.323017,0.215172,0.921608,0.097513,0.961061,-0.258561,-78246.0,-25305.0,13726.0,-79332.0,26035.0,13731.0,18535.0,17233.0,-159426.0,0.0,-49118.0,-54865.0,-53259.0,-56943.0,-15786.0,-12716.0,151114.0,0.0,57198.0,51874.0,53701.0,49909.0,45.0,232.0,-48.0,0.0,-533.0,-171.0,609.0,-561.0,-74.0,-212.0,-169.0,0.0,-685.0,-636.0,758.0,-841.0,-0.012444,-0.062952,0.013099,0.0,-0.019509,-0.006265,-0.022319,-0.020541,-0.020195,-0.057598,-0.045799,0.0,-0.025078,-0.023306,-0.027768,-0.030805,4074.75,11513.520508,51504.574219,0.0,-17703.541016,-17705.880859,17971.201172,-17442.359375,4065.930176,11503.980469,51347.792969,0.0,17636.310547,17635.050781,-17372.431641,17890.560547,0.0,0.0,0.0,0.0,0.0,0.0,0.0,0.0,0.0,0.0,0.0,0.0,0.0,0.0,0.0,0.0,0.0,0.0,0.0,0.0,0.0,0.0,0.0,0.0,0.0,0.0,0.0,0.0,0.0,0.0,0.0,0.0,4074.690186,11509.875,51504.972656,0.0,-17706.701172,-17706.171875,17963.787109,-17449.181641,4064.303955,11501.313477,51325.691406,0.0,17635.029297,17631.611328,-17381.435547,17892.574219,29.917782,90.362732,22.897293,0.0,0.069034,0.100311,28.499035,28.730436,29.841524,90.303375,22.815311,0.0,-3.362782,-2.397941,31.419065,25.424881,1.026,1.005,-63810.0,-145161.0,-412847.0,0.0,147588.0,141867.0,-146421.0,136861.0,-60963.0,-140538.0,-419417.0,0.0,-138761.0,-144071.0,139326.0,-148875.0,0.0,0.0,0.0,0.0,0.0,0.0,0.0,0.0,0.0,0.0,0.0,0.0,0.0,0.0,0.0,0.0,0.0,0.0,0.0,0.0,0.0,0.0,0.0,0.0
36,2.095815896987915,0.522171,1.57765,0.399626,0.0,0.011429,0.002316,0.511336,0.514788,0.521041,1.576444,0.398377,0.0,-0.054553,-0.035175,0.562156,0.443177,3.0,0.0,111.0,0.0,1.0,-78246.0,-25305.0,13726.0,-79332.0,26035.0,13731.0,-0.939393,-0.217183,0.265278,-0.301407,0.154419,-0.940908,0.163386,-0.963839,-0.210521,-0.941326,0.173553,0.289457,0.323055,0.215115,0.921608,0.097681,0.961044,-0.258561,-0.939393,-0.217183,0.265278,-0.301407,0.154419,-0.940908,0.163386,-0.963839,-0.210521,-0.941326,0.173553,0.289457,0.323055,0.215115,0.921608,0.097681,0.961044,-0.258561,-78246.0,-25305.0,13726.0,-79332.0,26035.0,13731.0,18535.0,17233.0,-159426.0,0.0,-49118.0,-54865.0,-53258.0,-56944.0,-15786.0,-12716.0,151114.0,0.0,57198.0,51874.0,53703.0,49909.0,45.0,232.0,-48.0,0.0,-534.0,-171.0,611.0,-562.0,-74.0,-212.0,-169.0,0.0,-685.0,-638.0,759.0,-840.0,-0.012444,-0.062952,0.013099,0.0,-0.019567,-0.006271,-0.022377,-0.020586,-0.020195,-0.057598,-0.045799,0.0,-0.025102,-0.023369,-0.027774,-0.030768,4074.75,11513.520508,51504.574219,0.0,-17703.541016,-17705.880859,17971.111328,-17442.451172,4065.930176,11503.980469,51347.792969,0.0,17636.310547,17635.050781,-17372.611328,17890.560547,0.0,0.0,0.0,0.0,0.0,0.0,0.0,0.0,0.0,0.0,0.0,0.0,0.0,0.0,0.0,0.0,0.0,0.0,0.0,0.0,0.0,0.0,0.0,0.0,0.0,0.0,0.0,0.0,0.0,0.0,0.0,0.0,4074.690186,11509.875,51504.972656,0.0,-17706.701172,-17706.171875,17963.787109,-17449.181641,4064.303955,11501.313477,51325.691406,0.0,17635.029297,17631.611328,-17381.435547,17892.574219,29.917782,90.362732,22.897293,0.0,0.069034,0.100311,28.499035,28.730436,29.841524,90.303375,22.815311,0.0,-3.362782,-2.397941,31.419065,25.424881,1.026,1.005,-63810.0,-145161.0,-412847.0,0.0,147588.0,141867.0,-146421.0,136861.0,-60963.0,-140538.0,-419417.0,0.0,-138761.0,-144071.0,139326.0,-148875.0,0.0,0.0,0.0,0.0,0.0,0.0,0.0,0.0,0.0,0.0,0.0,0.0,0.0,0.0,0.0,0.0,0.0,0.0,0.0,0.0,0.0,0.0,0.0,0.0
37,2.115851879119873,0.522171,1.57765,0.399626,0.0,0.011429,0.002316,0.510986,0.514615,0.521041,1.576444,0.398377,0.0,-0.054553,-0.035352,0.561722,0.443089,3.0,0.0,111.0,0.0,1.0,-78246.0,-25305.0,13726.0,-79331.0,26037.0,13730.0,-0.939412,-0.217101,0.265278,-0.301394,0.154445,-0.940908,0.163301,-0.963854,-0.210521,-0.941245,0.173719,0.289621,0.323254,0.215069,0.921549,0.097802,0.961024,-0.258588,-0.939412,-0.217101,0.265278,-0.301394,0.154445,-0.940908,0.163301,-0.963854,-0.210521,-0.941245,0.173719,0.289621,0.323254,0.215069,0.921549,0.097802,0.961024,-0.258588,-78246.0,-25305.0,13726.0,-79331.0,26037.0,13730.0,18535.0,17233.0,-159426.0,0.0,-49118.0,-54865.0,-53256.0,-56945.0,-15786.0,-12716.0,151114.0,0.0,57198.0,51873.0,53706.0,49909.0,45.0,232.0,-48.0,0.0,-536.0,-171.0,610.0,-563.0,-74.0,-212.0,-169.0,0.0,-686.0,-638.0,756.0,-839.0,-0.012444,-0.062952,0.013099,0.0,-0.019622,-0.006276,-0.022346,-0.020624,-0.020195,-0.057598,-0.045799,0.0,-0.025124,-0.023349,-0.02769,-0.030733,4074.75,11513.520508,51504.574219,0.0,-17703.541016,-17705.880859,17970.931641,-17442.539062,4065.930176,11503.980469,51347.792969,0.0,17636.310547,17634.960938,-17372.880859,17890.560547,0.0,0.0,0.0,0.0,0.0,0.0,0.0,0.0,0.0,0.0,0.0,0.0,0.0,0.0,0.0,0.0,0.0,0.0,0.0,0.0,0.0,0.0,0.0,0.0,0.0,0.0,0.0,0.0,0.0,0.0,0.0,0.0,4074.690186,11509.875,51504.972656,0.0,-17706.701172,-17706.171875,17963.787109,-17449.181641,4064.303955,11501.313477,51325.691406,0.0,17635.029297,17631.611328,-17381.435547,17892.574219,29.917782,90.362732,22.897293,0.0,0.069034,0.100311,28.499035,28.730436,29.841524,90.303375,22.815311,0.0,-3.362782,-2.397941,31.419065,25.424881,1.025,1.004,-63810.0,-145161.0,-412847.0,0.0,147588.0,141867.0,-146421.0,136861.0,-60963.0,-140538.0,-419417.0,0.0,-138761.0,-144071.0,139326.0,-148875.0,0.0,0.0,0.0,0.0,0.0,0.0,0.0,0.0,0.0,0.0,0.0,0.0,0.0,0.0,0.0,0.0,0.0,0.0,0.0,0.0,0.0,0.0,0.0,0.0
38,2.137852907180786,0.522171,1.57765,0.399626,0.0,0.011429,0.002316,0.510637,0.514439,0.521041,1.576444,0.398377,0.0,-0.054841,-0.035525,0.561459,0.443002,3.0,0.0,111.0,0.0,1.0,-78246.0,-25305.0,13726.0,-79330.0,26039.0,13729.0,-0.939431,-0.217019,0.265278,-0.30138,0.154471,-0.940908,0.163217,-0.963868,-0.210521,-0.941186,0.173878,0.289716,0.323414,0.215319,0.921434,0.097836,0.960939,-0.25889,-0.939431,-0.217019,0.265278,-0.30138,0.154471,-0.940908,0.163217,-0.963868,-0.210521,-0.941186,0.173878,0.289716,0.323414,0.215319,0.921434,0.097836,0.960939,-0.25889,-78246.0,-25305.0,13726.0,-79330.0,26039.0,13729.0,18535.0,17233.0,-159426.0,0.0,-49118.0,-54865.0,-53254.0,-56946.0,-15786.0,-12716.0,151114.0,0.0,57197.0,51872.0,53708.0,49909.0,45.0,232.0,-48.0,0.0,-537.0,-171.0,610.0,-564.0,-74.0,-212.0,-169.0,0.0,-683.0,-637.0,756.0,-838.0,-0.012444,-0.062952,0.013099,0.0,-0.019683,-0.006281,-0.022325,-0.020671,-0.020195,-0.057598,-0.045799,0.0,-0.025007,-0.023335,-0.027695,-0.030694,4074.75,11513.520508,51504.574219,0.0,-17703.541016,-17705.880859,17970.75,-17442.630859,4065.930176,11503.980469,51347.792969,0.0,17636.220703,17634.871094,-17373.060547,17890.560547,0.0,0.0,0.0,0.0,0.0,0.0,0.0,0.0,0.0,0.0,0.0,0.0,0.0,0.0,0.0,0.0,0.0,0.0,0.0,0.0,0.0,0.0,0.0,0.0,0.0,0.0,0.0,0.0,0.0,0.0,0.0,0.0,4074.690186,11509.875,51504.972656,0.0,-17706.701172,-17706.171875,17963.787109,-17449.181641,4064.303955,11501.313477,51325.691406,0.0,17635.029297,17631.611328,-17381.435547,17892.574219,29.917782,90.362732,22.897293,0.0,0.069034,0.100311,28.499035,28.730436,29.841524,90.303375,22.815311,0.0,-3.362782,-2.397941,31.419065,25.424881,1.025,1.004,-63810.0,-145161.0,-412847.0,0.0,147588.0,141867.0,-146421.0,136861.0,-60963.0,-140538.0,-419417.0,0.0,-138761.0,-144071.0,139326.0,-148875.0,0.0,0.0,0.0,0.0,0.0,0.0,0.0,0.0,0.0,0.0,0.0,0.0,0.0,0.0,0.0,0.0,0.0,0.0,0.0,0.0,0.0,0.0,0.0,0.0
39,2.1578588485717773,0.522171,1.57765,0.399626,0.0,0.011429,0.002316,0.510287,0.514266,0.521041,1.576444,0.398377,0.0,-0.054841,-0.035525,0.561109,0.443002,3.0,0.0,111.0,0.0,1.0,-78246.0,-25305.0,13726.0,-79330.0,26039.0,13729.0,-0.93945,-0.216936,0.265278,-0.301367,0.154498,-0.940908,0.163132,-0.963882,-0.210521,-0.941156,0.174043,0.289716,0.323452,0.215262,0.921434,0.098004,0.960922,-0.25889,-0.93945,-0.216936,0.265278,-0.301367,0.154498,-0.940908,0.163132,-0.963882,-0.210521,-0.941156,0.174043,0.289716,0.323452,0.215262,0.921434,0.098004,0.960922,-0.25889,-78246.0,-25305.0,13726.0,-79330.0,26039.0,13729.0,18535.0,17233.0,-159426.0,0.0,-49118.0,-54865.0,-53252.0,-56947.0,-15786.0,-12716.0,151114.0,0.0,57197.0,51872.0,53710.0,49909.0,45.0,232.0,-48.0,0.0,-539.0,-171.0,609.0,-565.0,-74.0,-212.0,-169.0,0.0,-683.0,-639.0,756.0,-837.0,-0.012444,-0.062952,0.013099,0.0,-0.019738,-0.006286,-0.022287,-0.020707,-0.020195,-0.057598,-0.045799,0.0,-0.025028,-0.023392,-0.027683,-0.030659,4074.75,11513.520508,51504.574219,0.0,-17703.541016,-17705.880859,17970.570312,-17442.720703,4065.930176,11503.980469,51347.792969,0.0,17636.220703,17634.871094,-17373.240234,17890.560547,0.0,0.0,0.0,0.0,0.0,0.0,0.0,0.0,0.0,0.0,0.0,0.0,0.0,0.0,0.0,0.0,0.0,0.0,0.0,0.0,0.0,0.0,0.0,0.0,0.0,0.0,0.0,0.0,0.0,0.0,0.0,0.0,4074.690186,11509.875,51504.972656,0.0,-17706.701172,-17706.171875,17963.787109,-17449.181641,4064.303955,11501.313477,51325.691406,0.0,17635.029297,17631.611328,-17381.435547,17892.574219,29.917782,90.362732,22.897293,0.0,0.069034,0.100311,28.499035,28.730436,29.841524,90.303375,22.815311,0.0,-3.362782,-2.397941,31.419065,25.424881,1.024,1.004,-63810.0,-145161.0,-412847.0,0.0,147588.0,141867.0,-146421.0,136861.0,-60963.0,-140538.0,-419417.0,0.0,-138761.0,-144071.0,139326.0,-148875.0,0.0,0.0,0.0,0.0,0.0,0.0,0.0,0.0,0.0,0.0,0.0,0.0,0.0,0.0,0.0,0.0,0.0,0.0,0.0,0.0,0.0,0.0,0.0,0.0
40,2.178858995437622,0.522171,1.57765,0.399626,0.0,0.011429,0.002316,0.509937,0.514089,0.521041,1.576444,0.398377,0.0,-0.055135,-0.035701,0.561021,0.442914,3.0,0.0,111.0,0.0,1.0,-78246.0,-25305.0,13726.0,-79330.0,26041.0,13729.0,-0.939469,-0.216855,0.265278,-0.301353,0.154524,-0.940908,0.163049,-0.963896,-0.210521,-0.941111,0.174121,0.289812,0.323596,0.215545,0.921317,0.097953,0.960844,-0.259197,-0.939469,-0.216855,0.265278,-0.301353,0.154524,-0.940908,0.163049,-0.963896,-0.210521,-0.941111,0.174121,0.289812,0.323596,0.215545,0.921317,0.097953,0.960844,-0.259197,-78246.0,-25305.0,13726.0,-79330.0,26041.0,13729.0,18535.0,17233.0,-159426.0,0.0,-49118.0,-54865.0,-53250.0,-56948.0,-15786.0,-12716.0,151114.0,0.0,57196.0,51871.0,53711.0,49909.0,45.0,232.0,-48.0,0.0,-540.0,-171.0,608.0,-566.0,-74.0,-212.0,-169.0,0.0,-680.0,-638.0,758.0,-836.0,-0.012444,-0.062952,0.013099,0.0,-0.019796,-0.006292,-0.022252,-0.020746,-0.020195,-0.057598,-0.045799,0.0,-0.024906,-0.023371,-0.027753,-0.030622,4074.75,11513.520508,51504.574219,0.0,-17703.541016,-17705.880859,17970.390625,-17442.810547,4065.930176,11503.980469,51347.792969,0.0,17636.128906,17634.779297,-17373.332031,17890.560547,0.0,0.0,0.0,0.0,0.0,0.0,0.0,0.0,0.0,0.0,0.0,0.0,0.0,0.0,0.0,0.0,0.0,0.0,0.0,0.0,0.0,0.0,0.0,0.0,0.0,0.0,0.0,0.0,0.0,0.0,0.0,0.0,4074.690186,11509.875,51504.972656,0.0,-17706.701172,-17706.171875,17963.787109,-17449.181641,4064.303955,11501.313477,51325.691406,0.0,17635.029297,17631.611328,-17381.435547,17892.574219,29.917782,90.362732,22.897293,0.0,0.069034,0.100311,28.499035,28.730436,29.841524,90.303375,22.815311,0.0,-3.362782,-2.397941,31.419065,25.424881,1.024,1.003,-63810.0,-145161.0,-412847.0,0.0,147588.0,141867.0,-146421.0,136861.0,-60963.0,-140538.0,-419417.0,0.0,-138761.0,-144071.0,139326.0,-148875.0,0.0,0.0,0.0,0.0,0.0,0.0,0.0,0.0,0.0,0.0,0.0,0.0,0.0,0.0,0.0,0.0,0.0,0.0,0.0,0.0,0.0,0.0,0.0,0.0
41,2.199908971786499,0.522171,1.57765,0.399626,0.0,0.011429,0.002316,0.509588,0.513916,0.521041,1.576444,0.398377,0.0,-0.055135,-0.035874,0.560934,0.442828,3.0,0.0,111.0,0.0,1.0,-78246.0,-25305.0,13726.0,-79329.0,26044.0,13728.0,-0.939488,-0.216772,0.265278,-0.30134,0.154551,-0.940908,0.162964,-0.963911,-0.210521,-0.941061,0.174124,0.289973,0.323755,0.215555,0.921259,0.097908,0.960842,-0.259224,-0.939488,-0.216772,0.265278,-0.30134,0.154551,-0.940908,0.162964,-0.963911,-0.210521,-0.941061,0.174124,0.289973,0.323755,0.215555,0.921259,0.097908,0.960842,-0.259224,-78246.0,-25305.0,13726.0,-79329.0,26044.0,13728.0,18535.0,17233.0,-159426.0,0.0,-49118.0,-54865.0,-53248.0,-56949.0,-15786.0,-12716.0,151114.0,0.0,57196.0,51870.0,53712.0,49909.0,45.0,232.0,-48.0,0.0,-542.0,-172.0,607.0,-568.0,-74.0,-212.0,-169.0,0.0,-681.0,-638.0,760.0,-835.0,-0.012444,-0.062952,0.013099,0.0,-0.019854,-0.006297,-0.022214,-0.020785,-0.020195,-0.057598,-0.045799,0.0,-0.024926,-0.02335,-0.027822,-0.030585,4074.75,11513.520508,51504.574219,0.0,-17703.541016,-17705.880859,17970.210938,-17442.900391,4065.930176,11503.980469,51347.792969,0.0,17636.128906,17634.691406,-17373.419922,17890.560547,0.0,0.0,0.0,0.0,0.0,0.0,0.0,0.0,0.0,0.0,0.0,0.0,0.0,0.0,0.0,0.0,0.0,0.0,0.0,0.0,0.0,0.0,0.0,0.0,0.0,0.0,0.0,0.0,0.0,0.0,0.0,0.0,4074.690186,11509.875,51504.972656,0.0,-17706.701172,-17706.171875,17963.787109,-17449.181641,4064.303955,11501.313477,51325.691406,0.0,17635.029297,17631.611328,-17381.435547,17892.574219,29.917782,90.362732,22.897293,0.0,0.069034,0.100311,28.499035,28.730436,29.841524,90.303375,22.815311,0.0,-3.362782,-2.397941,31.419065,25.424881,1.023,1.003,-63810.0,-145161.0,-412847.0,0.0,147588.0,141867.0,-146421.0,136861.0,-60963.0,-140538.0,-419417.0,0.0,-138761.0,-144071.0,139326.0,-148875.0,0.0,0.0,0.0,0.0,0.0,0.0,0.0,0.0,0.0,0.0,0.0,0.0,0.0,0.0,0.0,0.0,0.0,0.0,0.0,0.0,0.0,0.0,0.0,0.0
42,2.21988582611084,0.522171,1.57765,0.399626,0.0,0.011429,0.002316,0.509411,0.513916,0.521041,1.576444,0.398377,0.0,-0.055135,-0.036051,0.560846,0.442739,3.0,0.0,111.0,0.0,1.0,-78246.0,-25305.0,13726.0,-79328.0,26046.0,13727.0,-0.939507,-0.216689,0.265278,-0.301326,0.154577,-0.940908,0.162879,-0.963925,-0.210521,-0.94101,0.174127,0.290137,0.323918,0.215564,0.9212,0.097863,0.960839,-0.259251,-0.939507,-0.216689,0.265278,-0.301326,0.154577,-0.940908,0.162879,-0.963925,-0.210521,-0.94101,0.174127,0.290137,0.323918,0.215564,0.9212,0.097863,0.960839,-0.259251,-78246.0,-25305.0,13726.0,-79328.0,26046.0,13727.0,18535.0,17233.0,-159426.0,0.0,-49118.0,-54865.0,-53247.0,-56949.0,-15786.0,-12716.0,151114.0,0.0,57196.0,51869.0,53713.0,49909.0,45.0,232.0,-48.0,0.0,-544.0,-172.0,607.0,-571.0,-74.0,-212.0,-169.0,0.0,-681.0,-637.0,761.0,-834.0,-0.012444,-0.062952,0.013099,0.0,-0.019909,-0.006302,-0.022245,-0.020894,-0.020195,-0.057598,-0.045799,0.0,-0.024945,-0.023325,-0.027882,-0.03055,4074.75,11513.520508,51504.574219,0.0,-17703.541016,-17705.880859,17970.119141,-17442.900391,4065.930176,11503.980469,51347.792969,0.0,17636.128906,17634.599609,-17373.511719,17890.560547,0.0,0.0,0.0,0.0,0.0,0.0,0.0,0.0,0.0,0.0,0.0,0.0,0.0,-90.92347,0.0,0.0,0.0,0.0,0.0,0.0,0.0,0.0,0.0,0.0,0.0,0.0,0.0,0.0,0.0,-0.176481,0.088241,-0.088241,4074.690186,11509.875,51504.972656,0.0,-17706.701172,-17706.171875,17963.787109,-17449.181641,4064.303955,11501.313477,51325.691406,0.0,17635.029297,17631.611328,-17381.435547,17892.574219,29.917782,90.362732,22.897293,0.0,0.069034,0.100311,28.499035,28.730436,29.841524,90.303375,22.815311,0.0,-3.362782,-2.397941,31.419065,25.424881,1.023,1.003,-63810.0,-145161.0,-412847.0,0.0,147588.0,141867.0,-146421.0,136861.0,-60963.0,-140538.0,-419417.0,0.0,-138761.0,-144071.0,139326.0,-148875.0,0.0,0.0,0.0,0.0,0.0,0.0,0.0,-0.176481,0.0,-0.093871,-0.149445,0.088241,0.0,0.0,0.0,0.0,0.0,0.0,0.0,-0.176481,0.0,-0.093871,-0.149445,0.088241
43,2.2408599853515625,0.522171,1.57765,0.399626,0.0,0.01114,0.002316,0.509238,0.51374,0.521041,1.576444,0.398377,0.0,-0.055424,-0.036051,0.5605,0.442739,3.0,0.0,111.0,0.0,1.0,-78246.0,-25305.0,13726.0,-79328.0,26046.0,13727.0,-0.939507,-0.216614,0.265341,-0.301327,0.154306,-0.940953,0.16288,-0.963986,-0.210243,-0.940987,0.174364,0.290071,0.323937,0.215777,0.921143,0.098023,0.960749,-0.259526,-0.939507,-0.216614,0.265341,-0.301327,0.154306,-0.940953,0.16288,-0.963986,-0.210243,-0.940987,0.174364,0.290071,0.323937,0.215777,0.921143,0.098023,0.960749,-0.259526,-78246.0,-25305.0,13726.0,-79328.0,26046.0,13727.0,18535.0,17233.0,-159426.0,0.0,-49119.0,-54865.0,-53246.0,-56950.0,-15786.0,-12716.0,151114.0,0.0,57195.0,51869.0,53715.0,49909.0,45.0,232.0,-48.0,0.0,-541.0,-172.0,608.0,-571.0,-74.0,-212.0,-169.0,0.0,-678.0,-638.0,761.0,-833.0,-0.012444,-0.062952,0.013099,0.0,-0.019826,-0.006307,-0.022282,-0.020929,-0.020195,-0.057598,-0.045799,0.0,-0.024824,-0.023379,-0.027869,-0.030513,4074.75,11513.520508,51504.574219,0.0,-17703.630859,-17705.880859,17970.03125,-17442.990234,4065.930176,11503.980469,51347.792969,0.0,17636.041016,17634.599609,-17373.689453,17890.560547,0.0,0.0,0.0,0.0,0.0,0.0,0.0,0.0,0.0,0.0,0.0,0.0,0.0,0.0,0.0,0.0,0.0,0.0,0.0,0.0,0.0,0.0,0.0,0.0,0.0,0.0,0.0,0.0,0.0,0.0,0.0,0.0,4074.690186,11509.875,51504.972656,0.0,-17706.701172,-17706.171875,17963.787109,-17449.181641,4064.303955,11501.313477,51325.691406,0.0,17635.029297,17631.611328,-17381.435547,17892.574219,29.917782,90.362732,22.897293,0.0,0.069034,0.100311,28.499035,28.730436,29.841524,90.303375,22.815311,0.0,-3.362782,-2.397941,31.419065,25.424881,1.022,1.003,-63810.0,-145161.0,-412847.0,0.0,147588.0,141867.0,-146421.0,136861.0,-60963.0,-140538.0,-419417.0,0.0,-138761.0,-144071.0,139326.0,-148875.0,0.0,0.0,0.0,0.0,0.0,0.0,0.0,0.0,0.0,0.0,0.0,0.0,0.0,0.0,0.0,0.0,0.0,0.0,0.0,0.0,0.0,0.0,0.0,0.0
44,2.2628629207611084,0.522171,1.57765,0.399626,0.0,0.01114,0.002316,0.509062,0.51339,0.521041,1.576444,0.398377,0.0,-0.055424,-0.036224,0.56041,0.442653,3.0,0.0,111.0,0.0,1.0,-78246.0,-25305.0,13726.0,-79328.0,26048.0,13727.0,-0.939488,-0.216695,0.265341,-0.30134,0.154279,-0.940953,0.162963,-0.963972,-0.210243,-0.940936,0.174368,0.290232,0.324097,0.215786,0.921085,0.09798,0.960746,-0.259553,-0.939488,-0.216695,0.265341,-0.30134,0.154279,-0.940953,0.162963,-0.963972,-0.210243,-0.940936,0.174368,0.290232,0.324097,0.215786,0.921085,0.09798,0.960746,-0.259553,-78246.0,-25305.0,13726.0,-79328.0,26048.0,13727.0,18535.0,17233.0,-159426.0,0.0,-49119.0,-54865.0,-53245.0,-56952.0,-15786.0,-12716.0,151114.0,0.0,57195.0,51868.0,53716.0,49909.0,45.0,232.0,-48.0,0.0,-543.0,-172.0,609.0,-570.0,-74.0,-212.0,-169.0,0.0,-678.0,-638.0,763.0,-832.0,-0.012444,-0.062952,0.013099,0.0,-0.019885,-0.006313,-0.022321,-0.020889,-0.020195,-0.057598,-0.045799,0.0,-0.024843,-0.023358,-0.027938,-0.030474,4074.75,11513.520508,51504.574219,0.0,-17703.630859,-17705.880859,17969.939453,-17443.171875,4065.930176,11503.980469,51347.792969,0.0,17636.041016,17634.509766,-17373.78125,17890.560547,0.0,0.0,0.0,0.0,0.0,0.0,0.0,-90.92347,0.0,0.0,0.0,0.0,0.0,0.0,0.0,0.0,0.0,0.0,0.0,0.0,0.0,0.0,0.0,-0.176481,0.0,0.0,0.0,0.0,0.0,0.0,0.0,0.0,4074.690186,11509.875,51504.972656,0.0,-17706.701172,-17706.171875,17963.787109,-17449.181641,4064.303955,11501.313477,51325.691406,0.0,17635.029297,17631.611328,-17381.435547,17892.574219,29.917782,90.362732,22.897293,0.0,0.069034,0.100311,28.499035,28.730436,29.841524,90.303375,22.815311,0.0,-3.362782,-2.397941,31.419065,25.424881,1.022,1.003,-63810.0,-145161.0,-412847.0,0.0,147588.0,141867.0,-146421.0,136861.0,-60963.0,-140538.0,-419417.0,0.0,-138761.0,-144071.0,139326.0,-148875.0,0.0,0.0,0.0,0.0,0.0,0.0,0.0,0.0,0.0,0.0,0.0,0.0,0.0,0.0,0.0,0.0,0.0,0.0,0.0,0.0,0.0,0.0,0.0,0.0
45,2.282824993133545,0.522171,1.57765,0.399626,0.0,0.01114,0.002316,0.508889,0.513217,0.521041,1.576444,0.398377,0.0,-0.055718,-0.036224,0.560237,0.442653,3.0,0.0,111.0,0.0,1.0,-78246.0,-25305.0,13726.0,-79328.0,26048.0,13727.0,-0.939488,-0.216695,0.265341,-0.30134,0.154279,-0.940953,0.162963,-0.963972,-0.210243,-0.940928,0.174525,0.290164,0.324097,0.216031,0.921027,0.098058,0.960662,-0.259833,-0.939488,-0.216695,0.265341,-0.30134,0.154279,-0.940953,0.162963,-0.963972,-0.210243,-0.940928,0.174525,0.290164,0.324097,0.216031,0.921027,0.098058,0.960662,-0.259833,-78246.0,-25305.0,13726.0,-79328.0,26048.0,13727.0,18535.0,17233.0,-159426.0,0.0,-49119.0,-54865.0,-53244.0,-56953.0,-15786.0,-12716.0,151114.0,0.0,57194.0,51868.0,53717.0,49909.0,45.0,232.0,-48.0,0.0,-544.0,-172.0,610.0,-571.0,-74.0,-212.0,-169.0,0.0,-675.0,-639.0,765.0,-831.0,-0.012444,-0.062952,0.013099,0.0,-0.019939,-0.006318,-0.022349,-0.020916,-0.020195,-0.057598,-0.045799,0.0,-0.024718,-0.023409,-0.027993,-0.030439,4074.75,11513.520508,51504.574219,0.0,-17703.630859,-17705.880859,17969.849609,-17443.259766,4065.930176,11503.980469,51347.792969,0.0,17635.949219,17634.509766,-17373.869141,17890.560547,0.0,0.0,0.0,0.0,0.0,0.0,0.0,0.0,0.0,0.0,0.0,0.0,0.0,0.0,0.0,0.0,0.0,0.0,0.0,0.0,0.0,0.0,0.0,0.0,0.0,0.0,0.0,0.0,0.0,0.0,0.0,0.0,4074.690186,11509.875,51504.972656,0.0,-17706.701172,-17706.171875,17963.787109,-17449.181641,4064.303955,11501.313477,51325.691406,0.0,17635.029297,17631.611328,-17381.435547,17892.574219,29.917782,90.362732,22.897293,0.0,0.069034,0.100311,28.499035,28.730436,29.841524,90.303375,22.815311,0.0,-3.362782,-2.397941,31.419065,25.424881,1.022,1.002,-63810.0,-145161.0,-412847.0,0.0,147588.0,141867.0,-146421.0,136861.0,-60963.0,-140538.0,-419417.0,0.0,-138761.0,-144071.0,139326.0,-148875.0,0.0,0.0,0.0,0.0,0.0,0.0,0.0,0.0,0.0,0.0,0.0,0.0,0.0,0.0,0.0,0.0,0.0,0.0,0.0,0.0,0.0,0.0,0.0,0.0
46,2.3038599491119385,0.522171,1.57765,0.399626,0.0,0.01114,0.002316,0.508716,0.513041,0.521041,1.576444,0.398377,0.0,-0.055718,-0.0364,0.560149,0.442565,3.0,0.0,111.0,0.0,1.0,-78246.0,-25305.0,13726.0,-79327.0,26050.0,13726.0,-0.939487,-0.216697,0.265341,-0.30134,0.154279,-0.940953,0.162965,-0.963971,-0.210243,-0.940877,0.174528,0.290328,0.324259,0.216041,0.920968,0.098012,0.960659,-0.25986,-0.939487,-0.216697,0.265341,-0.30134,0.154279,-0.940953,0.162965,-0.963971,-0.210243,-0.940877,0.174528,0.290328,0.324259,0.216041,0.920968,0.098012,0.960659,-0.25986,-78246.0,-25305.0,13726.0,-79327.0,26050.0,13726.0,18535.0,17233.0,-159426.0,0.0,-49119.0,-54865.0,-53243.0,-56954.0,-15786.0,-12716.0,151114.0,0.0,57194.0,51867.0,53718.0,49909.0,45.0,232.0,-48.0,0.0,-546.0,-172.0,611.0,-572.0,-74.0,-212.0,-169.0,0.0,-675.0,-638.0,766.0,-830.0,-0.012444,-0.062952,0.013099,0.0,-0.019995,-0.006324,-0.022382,-0.020945,-0.020195,-0.057598,-0.045799,0.0,-0.024735,-0.023381,-0.028052,-0.030402,4074.75,11513.520508,51504.574219,0.0,-17703.630859,-17705.880859,17969.761719,-17443.351562,4065.930176,11503.980469,51347.792969,0.0,17635.949219,17634.419922,-17373.960938,17890.560547,0.0,0.0,0.0,0.0,0.0,0.0,-89.174942,0.0,0.0,0.0,0.0,0.0,0.0,0.0,0.0,0.0,0.0,0.0,0.0,0.0,0.0,0.0,-0.173088,0.0,0.0,0.0,0.0,0.0,0.0,0.0,0.0,0.0,4074.690186,11509.875,51504.972656,0.0,-17706.701172,-17706.171875,17963.787109,-17449.181641,4064.303955,11501.313477,51325.691406,0.0,17635.029297,17631.611328,-17381.435547,17892.574219,29.917782,90.362732,22.897293,0.0,0.069034,0.100311,28.499035,28.730436,29.841524,90.303375,22.815311,0.0,-3.362782,-2.397941,31.419065,25.424881,1.021,1.002,-63810.0,-145161.0,-412847.0,0.0,147588.0,141867.0,-146421.0,136861.0,-60963.0,-140538.0,-419417.0,0.0,-138761.0,-144071.0,139326.0,-148875.0,0.0,0.0,0.0,0.0,0.0,-0.173088,0.0,0.0,0.0,0.0,0.0,0.0,0.0,0.0,0.0,0.0,0.0,-0.173088,0.0,0.0,0.0,0.0,0.0,0.0
47,2.324054002761841,0.522171,1.57765,0.399626,0.0,0.010846,0.002316,0.508716,0.512868,0.521041,1.576444,0.398377,0.0,-0.055718,-0.036573,0.559885,0.442478,3.0,0.0,111.0,0.0,1.0,-78246.0,-25305.0,13726.0,-79326.0,26052.0,13725.0,-0.939469,-0.216699,0.265406,-0.301354,0.153976,-0.940998,0.163047,-0.964019,-0.209959,-0.940811,0.174614,0.290489,0.324437,0.216022,0.92091,0.098052,0.960648,-0.259887,-0.939469,-0.216699,0.265406,-0.301354,0.153976,-0.940998,0.163047,-0.964019,-0.209959,-0.940827,0.174531,0.290489,0.324418,0.21605,0.92091,0.097967,0.960657,-0.259887,-78246.0,-25305.0,13726.0,-79326.0,26052.0,13725.0,18535.0,17233.0,-159426.0,0.0,-49120.0,-54865.0,-53243.0,-56955.0,-15786.0,-12716.0,151114.0,0.0,57194.0,51866.0,53720.0,49909.0,45.0,232.0,-48.0,0.0,-543.0,-172.0,614.0,-573.0,-74.0,-212.0,-169.0,0.0,-676.0,-638.0,765.0,-829.0,-0.012444,-0.062952,0.013099,0.0,-0.019906,-0.006329,-0.022487,-0.020969,-0.020195,-0.057598,-0.045799,0.0,-0.024751,-0.023352,-0.028024,-0.030367,4074.75,11513.520508,51504.574219,0.0,-17703.720703,-17705.880859,17969.761719,-17443.439453,4065.930176,11503.980469,51347.792969,0.0,17635.949219,17634.330078,-17374.140625,17890.560547,0.0,0.0,0.0,0.0,0.0,0.0,0.0,0.0,0.0,0.0,0.0,0.0,0.0,0.0,-90.92347,0.0,0.0,0.0,0.0,0.0,0.0,0.0,0.0,0.0,0.0,0.0,0.0,0.0,0.0,0.0,-0.176481,0.0,4074.690186,11509.875,51504.972656,0.0,-17706.701172,-17706.171875,17963.787109,-17449.181641,4064.303955,11501.313477,51325.691406,0.0,17635.029297,17631.611328,-17381.435547,17892.574219,29.917782,90.362732,22.897293,0.0,0.069034,0.100311,28.499035,28.730436,29.841524,90.303375,22.815311,0.0,-3.362782,-2.397941,31.419065,25.424881,1.021,1.002,-63810.0,-145161.0,-412847.0,0.0,147588.0,141867.0,-146421.0,136861.0,-60963.0,-140538.0,-419417.0,0.0,-138761.0,-144071.0,139326.0,-148875.0,0.0,0.0,0.0,0.0,0.0,0.0,0.0,0.0,0.0,0.0,0.0,-0.176481,0.0,0.0,0.0,0.0,0.0,0.0,0.0,0.0,0.0,0.0,0.0,-0.176481
48,2.346061944961548,0.522171,1.57765,0.399626,0.0,0.010846,0.002316,0.508539,0.512691,0.521041,1.576444,0.398377,0.0,-0.056006,-0.036573,0.559536,0.442478,3.0,0.0,111.0,0.0,1.0,-78246.0,-25305.0,13726.0,-79326.0,26052.0,13725.0,-0.939469,-0.216699,0.265406,-0.301354,0.153976,-0.940998,0.163047,-0.964019,-0.209959,-0.940788,0.174852,0.290423,0.324457,0.216233,0.920853,0.098214,0.960557,-0.260162,-0.939469,-0.216699,0.265406,-0.301354,0.153976,-0.940998,0.163047,-0.964019,-0.209959,-0.940788,0.174852,0.290423,0.324457,0.216233,0.920853,0.098214,0.960557,-0.260162,-78246.0,-25305.0,13726.0,-79326.0,26052.0,13725.0,18535.0,17233.0,-159426.0,0.0,-49120.0,-54865.0,-53242.0,-56956.0,-15786.0,-12716.0,151114.0,0.0,57193.0,51866.0,53722.0,49909.0,45.0,232.0,-48.0,0.0,-545.0,-173.0,615.0,-573.0,-74.0,-212.0,-169.0,0.0,-673.0,-639.0,765.0,-828.0,-0.012444,-0.062952,0.013099,0.0,-0.019963,-0.006334,-0.022522,-0.020999,-0.020195,-0.057598,-0.045799,0.0,-0.024628,-0.023404,-0.028006,-0.030328,4074.75,11513.520508,51504.574219,0.0,-17703.720703,-17705.880859,17969.669922,-17443.53125,4065.930176,11503.980469,51347.792969,0.0,17635.861328,17634.330078,-17374.320312,17890.560547,0.0,0.0,0.0,0.0,0.0,0.0,0.0,0.0,0.0,0.0,0.0,0.0,0.0,0.0,-90.92347,0.0,0.0,0.0,0.0,0.0,0.0,0.0,0.0,0.0,0.0,0.0,0.0,0.0,0.0,0.0,-0.176481,0.0,4074.690186,11509.875,51504.972656,0.0,-17706.701172,-17706.171875,17963.787109,-17449.181641,4064.303955,11501.313477,51325.691406,0.0,17635.029297,17631.611328,-17381.435547,17892.574219,29.917782,90.362732,22.897293,0.0,0.069034,0.100311,28.499035,28.730436,29.841524,90.303375,22.815311,0.0,-3.362782,-2.397941,31.419065,25.424881,1.021,1.002,-63810.0,-145161.0,-412847.0,0.0,147588.0,141867.0,-146421.0,136861.0,-60963.0,-140538.0,-419417.0,0.0,-138761.0,-144071.0,139326.0,-148875.0,0.0,0.0,0.0,0.0,0.0,0.0,0.0,0.0,0.0,0.0,0.0,-0.176481,0.0,0.0,0.0,0.0,0.0,0.0,0.0,0.0,0.0,0.0,0.0,-0.176481
49,2.3660168647766113,0.522171,1.57765,0.399626,0.0,0.010846,0.002316,0.508539,0.512518,0.521041,1.576444,0.398377,0.0,-0.056006,-0.03675,0.559275,0.44239,3.0,0.0,111.0,0.0,1.0,-78246.0,-25305.0,13726.0,-79326.0,26054.0,13725.0,-0.93945,-0.21678,0.265406,-0.301367,0.15395,-0.940998,0.163131,-0.964005,-0.209959,-0.940721,0.174936,0.290587,0.324638,0.216215,0.920794,0.098251,0.960546,-0.260189,-0.93945,-0.21678,0.265406,-0.301367,0.15395,-0.940998,0.163131,-0.964005,-0.209959,-0.940721,0.174936,0.290587,0.324638,0.216215,0.920794,0.098251,0.960546,-0.260189,-78246.0,-25305.0,13726.0,-79326.0,26054.0,13725.0,18535.0,17233.0,-159426.0,0.0,-49120.0,-54865.0,-53242.0,-56957.0,-15786.0,-12716.0,151114.0,0.0,57193.0,51865.0,53724.0,49909.0,45.0,232.0,-48.0,0.0,-546.0,-173.0,618.0,-574.0,-74.0,-212.0,-169.0,0.0,-673.0,-638.0,764.0,-827.0,-0.012444,-0.062952,0.013099,0.0,-0.020015,-0.006339,-0.022624,-0.02102,-0.020195,-0.057598,-0.045799,0.0,-0.024643,-0.023371,-0.027972,-0.030293,4074.75,11513.520508,51504.574219,0.0,-17703.720703,-17705.880859,17969.669922,-17443.621094,4065.930176,11503.980469,51347.792969,0.0,17635.861328,17634.240234,-17374.501953,17890.560547,0.0,0.0,0.0,0.0,0.0,0.0,0.0,0.0,0.0,0.0,0.0,0.0,0.0,0.0,0.0,0.0,0.0,0.0,0.0,0.0,0.0,0.0,0.0,0.0,0.0,0.0,0.0,0.0,0.0,0.0,0.0,0.0,4074.690186,11509.875,51504.972656,0.0,-17706.701172,-17706.171875,17963.787109,-17449.181641,4064.303955,11501.313477,51325.691406,0.0,17635.029297,17631.611328,-17381.435547,17892.574219,29.917782,90.362732,22.897293,0.0,0.069034,0.100311,28.499035,28.730436,29.841524,90.303375,22.815311,0.0,-3.362782,-2.397941,31.419065,25.424881,1.021,1.001,-63810.0,-145161.0,-412847.0,0.0,147588.0,141867.0,-146421.0,136861.0,-60963.0,-140538.0,-419417.0,0.0,-138761.0,-144071.0,139326.0,-148875.0,0.0,0.0,0.0,0.0,0.0,0.0,0.0,0.0,0.0,0.0,0.0,0.0,0.0,0.0,0.0,0.0,0.0,0.0,0.0,0.0,0.0,0.0,0.0,0.0
50,2.3880629539489746,0.522171,1.57765,0.399626,0.0,0.010846,0.002316,0.508366,0.512341,0.521041,1.576444,0.398377,0.0,-0.056006,-0.03675,0.559102,0.44239,3.0,0.0,111.0,0.0,1.0,-78246.0,-25305.0,13726.0,-79326.0,26054.0,13725.0,-0.939449,-0.216782,0.265406,-0.301368,0.15395,-0.940998,0.163132,-0.964005,-0.209959,-0.940706,0.175018,0.290587,0.324657,0.216187,0.920794,0.098334,0.960537,-0.260189,-0.939449,-0.216782,0.265406,-0.301368,0.15395,-0.940998,0.163132,-0.964005,-0.209959,-0.940706,0.175018,0.290587,0.324657,0.216187,0.920794,0.098334,0.960537,-0.260189,-78246.0,-25305.0,13726.0,-79326.0,26054.0,13725.0,18535.0,17233.0,-159426.0,0.0,-49120.0,-54865.0,-53241.0,-56958.0,-15786.0,-12716.0,151114.0,0.0,57193.0,51865.0,53725.0,49909.0,45.0,232.0,-48.0,0.0,-548.0,-173.0,619.0,-575.0,-74.0,-212.0,-169.0,0.0,-673.0,-640.0,765.0,-826.0,-0.012444,-0.062952,0.013099,0.0,-0.020072,-0.006345,-0.022658,-0.021047,-0.020195,-0.057598,-0.045799,0.0,-0.024658,-0.023422,-0.028027,-0.030254,4074.75,11513.520508,51504.574219,0.0,-17703.720703,-17705.880859,17969.582031,-17443.710938,4065.930176,11503.980469,51347.792969,0.0,17635.861328,17634.240234,-17374.589844,17890.560547,0.0,0.0,0.0,0.0,0.0,0.0,0.0,0.0,0.0,0.0,0.0,0.0,0.0,0.0,0.0,0.0,0.0,0.0,0.0,0.0,0.0,0.0,0.0,0.0,0.0,0.0,0.0,0.0,0.0,0.0,0.0,0.0,4074.690186,11509.875,51504.972656,0.0,-17706.701172,-17706.171875,17963.787109,-17449.181641,4064.303955,11501.313477,51325.691406,0.0,17635.029297,17631.611328,-17381.435547,17892.574219,29.917782,90.362732,22.897293,0.0,0.069034,0.100311,28.499035,28.730436,29.841524,90.303375,22.815311,0.0,-3.362782,-2.397941,31.419065,25.424881,1.02,1.001,-63810.0,-145161.0,-412847.0,0.0,147588.0,141867.0,-146421.0,136861.0,-60963.0,-140538.0,-419417.0,0.0,-138761.0,-144071.0,139326.0,-148875.0,0.0,0.0,0.0,0.0,0.0,0.0,0.0,0.0,0.0,0.0,0.0,0.0,0.0,0.0,0.0,0.0,0.0,0.0,0.0,0.0,0.0,0.0,0.0,0.0
