MHC-RobotSimulators-Research/Data_Analysis_MotionReplication/mai_plotter/raven_data/the_good_stuff/2arm_a3.csv
,time,jpos0,jpos1,jpos2,jpos3,jpos4,jpos5,jpos6,jpos7,jpos8,jpos9,jpos10,jpos11,jpos12,jpos13,jpos14,jpos15,runlevel,sublevel,last_seq,type0,type1,pos0,pos1,pos2,pos3,pos4,pos5,ori0,ori1,ori2,ori3,ori4,ori5,ori6,ori7,ori8,ori9,ori10,ori11,ori12,ori13,ori14,ori15,ori16,ori17,ori_d0,ori_d1,ori_d2,ori_d3,ori_d4,ori_d5,ori_d6,ori_d7,ori_d8,ori_d9,ori_d10,ori_d11,ori_d12,ori_d13,ori_d14,ori_d15,ori_d16,ori_d17,pos_d0,pos_d1,pos_d2,pos_d3,pos_d4,pos_d5,encVals0,encVals1,encVals2,encVals3,encVals4,encVals5,encVals6,encVals7,encVals8,encVals9,encVals10,encVals11,encVals12,encVals13,encVals14,encVals15,dac_vals0,dac_vals1,dac_vals2,dac_vals3,dac_vals4,dac_vals5,dac_vals6,dac_vals7,dac_vals8,dac_vals9,dac_vals10,dac_vals11,dac_vals12,dac_vals13,dac_vals14,dac_vals15,Tau0,Tau1,Tau2,Tau3,Tau4,Tau5,Tau6,Tau7,Tau8,Tau9,Tau10,Tau11,Tau12,Tau13,Tau14,Tau15,mpos0,mpos1,mpos2,mpos3,mpos4,mpos5,mpos6,mpos7,mpos8,mpos9,mpos10,mpos11,mpos12,mpos13,mpos14,mpos15,mvel0,mvel1,mvel2,mvel3,mvel4,mvel5,mvel6,mvel7,mvel8,mvel9,mvel10,mvel11,mvel12,mvel13,mvel14,mvel15,jvel0,jvel1,jvel2,jvel3,jvel4,jvel5,jvel6,jvel7,jvel8,jvel9,jvel10,jvel11,jvel12,jvel13,jvel14,jvel15,mpos_d0,mpos_d1,mpos_d2,mpos_d3,mpos_d4,mpos_d5,mpos_d6,mpos_d7,mpos_d8,mpos_d9,mpos_d10,mpos_d11,mpos_d12,mpos_d13,mpos_d14,mpos_d15,jpos_d0,jpos_d1,jpos_d2,jpos_d3,jpos_d4,jpos_d5,jpos_d6,jpos_d7,jpos_d8,jpos_d9,jpos_d10,jpos_d11,jpos_d12,jpos_d13,jpos_d14,jpos_d15,grasp_d0,grasp_d1,encoffsets0,encoffsets1,encoffsets2,encoffsets3,encoffsets4,encoffsets5,encoffsets6,encoffsets7,encoffsets8,encoffsets9,encoffsets10,encoffsets11,encoffsets12,encoffsets13,encoffsets14,encoffsets15,jac_vel0,jac_vel1,jac_vel2,jac_vel3,jac_vel4,jac_vel5,jac_vel6,jac_vel7,jac_vel8,jac_vel9,jac_vel10,jac_vel11,jac_f0,jac_f1,jac_f2,jac_f3,jac_f4,jac_f5,jac_f6,jac_f7,jac_f8,jac_f9,jac_f10,jac_f11
0,0.0,0.6109181642532349,1.5708619356155396,0.3899600049853325,0.0,-3.141592675445488,-1.2127365634951475e-15,0.7853038311004639,0.7853038311004639,0.6109061241149902,1.5708431005477905,0.3899612417817116,0.0,-3.141592675445488,2.763583268545794e-15,0.7853038311004639,0.7853038311004639,,,,,,,,,,,,,,,,,,,,,,,,,,,,,,,,,,,,,,,,,,,,,,,,,,,,,,,,,,,,,,,,,,,,,,,,,,,,,,,,,,,,,,,,,,,,,,,,,,,,,,,,,,,,,,,,,,,,,,,,,,,,,,,,,,,,,,0.0,0.0,0.0,0.0,0.0,0.0,0.0,0.0,0.0,0.0,0.0,0.0,0.0,0.0,0.0,0.0,,,,,,,,,,,,,,,,,,,,,,,,,,,,,,,,,,,,,,,,,,,,,,,,,,,,,,,,,,,,,,,,,,,,,,,,,,
1,1.1140844821929932,0.6145532131195068,1.5753729343414307,0.3872142127156258,0.0,-3.1415964901427538,-1.4776408079342218e-06,0.5336326956748962,0.5332732200622559,0.6132493019104004,1.5735151767730713,0.38774548381567003,0.0,-3.141669684646538,-4.222711140755564e-05,0.5286732316017151,0.5283822417259216,,,,,,,,,,,,,,,,,,,,,,,,,,,,,,,,,,,,,,,,,,,,,,,,,,,,,,,,,,,,,,,,,,,,,,,,,,,,,,,,,,,,,,,,,,,,,,,,,,,,,,,,,,,,,,,,,,,,,,,,,,,,,,,,,,,,,,4.0841081499820575e-05,6.385507731465623e-05,-6.027641938999295e-05,0.0,0.0046996986493468285,0.0005282080383040011,-0.21076804399490356,-0.1839258074760437,2.742311335168779e-05,5.357872214517556e-05,-3.850739085464738e-05,0.0,-0.01907639019191265,-0.013817747123539448,0.3522954285144806,0.39281514286994934,,,,,,,,,,,,,,,,,,,,,,,,,,,,,,,,,,,,,,,,,,,,,,,,,,,,,,,,,,,,,,,,,,,,,,,,,,
2,1.1351966857910156,0.6145546436309814,1.5753746032714844,0.3872122457623482,0.0,-3.141596370933464,-2.994327701344446e-07,0.5243918895721436,0.5241208672523499,0.6132493615150452,1.5735152959823608,0.38774540185928347,0.0,-3.1416451275328905,-2.6712066755862907e-05,0.5280504822731018,0.5277388691902161,,,,,,,,,,,,,,,,,,,,,,,,,,,,,,,,,,,,,,,,,,,,,,,,,,,,,,,,,,,,,,,,,,,,,,,,,,,,,,,,,,,,,,,,,,,,,,,,,,,,,,,,,,,,,,,,,,,,,,,,,,,,,,,,,,,,,,3.445343463681638e-05,3.830428249784745e-05,-4.5454791688825935e-05,0.0,0.003781873732805252,0.0005234582931734622,-0.13920070230960846,-0.10981938242912292,2.4725859475438483e-05,4.717338379123248e-05,-4.086224362254143e-05,0.0,0.012277618981897831,0.007757522165775299,0.31136906147003174,0.321677565574646,,,,,,,,,,,,,,,,,,,,,,,,,,,,,,,,,,,,,,,,,,,,,,,,,,,,,,,,,,,,,,,,,,,,,,,,,,
3,1.1559584140777588,0.6145546436309814,1.5753746032714844,0.3872122457623482,0.0,-3.141596370933464,-2.994327701344446e-07,0.5243918895721436,0.5241208672523499,0.6132501363754272,1.5735161304473877,0.38774402350187304,0.0,-3.141612643001488,-1.031125862027693e-06,0.5219302177429199,0.5218345522880554,,,,,,,,,,,,,,,,,,,,,,,,,,,,,,,,,,,,,,,,,,,,,,,,,,,,,,,,,,,,,,,,,,,,,,,,,,,,,,,,,,,,,,,,,,,,,,,,,,,,,,,,,,,,,,,,,,,,,,,,,,,,,,,,,,,,,,3.445343463681638e-05,3.830428249784745e-05,-4.5454791688825935e-05,0.0,0.003781873732805252,0.0005234582931734622,-0.13920070230960846,-0.10981938242912292,1.93858468264807e-05,2.2161279048305005e-05,-3.305178688606247e-05,0.0,0.00015136344882193953,-3.5049273719778284e-05,0.11031799018383026,0.10986328125,,,,,,,,,,,,,,,,,,,,,,,,,,,,,,,,,,,,,,,,,,,,,,,,,,,,,,,,,,,,,,,,,,,,,,,,,,
4,1.177321195602417,0.6145557165145874,1.575376033782959,0.38721069604158403,0.0,-3.1415948212127,-2.3157062400969153e-07,0.5203443765640259,0.5202064514160156,0.6132501363754272,1.5735161304473877,0.38774402350187304,0.0,-3.141612643001488,-1.031125862027693e-06,0.5219302177429199,0.5218345522880554,,,,,,,,,,,,,,,,,,,,,,,,,,,,,,,,,,,,,,,,,,,,,,,,,,,,,,,,,,,,,,,,,,,,,,,,,,,,,,,,,,,,,,,,,,,,,,,,,,,,,,,,,,,,,,,,,,,,,,,,,,,,,,,,,,,,,,2.8117634428781457e-05,3.49486326740589e-05,-3.945457865484059e-05,0.0,1.571809480083175e-05,-8.01323551513633e-07,-0.10234781354665756,-0.10164215415716171,1.93858468264807e-05,2.2161279048305005e-05,-3.305178688606247e-05,0.0,0.00015136344882193953,-3.5049273719778284e-05,0.11031799018383026,0.10986328125,,,,,,,,,,,,,,,,,,,,,,,,,,,,,,,,,,,,,,,,,,,,,,,,,,,,,,,,,,,,,,,,,,,,,,,,,,
5,1.1986660957336426,0.6145557165145874,1.575376033782959,0.38721069604158403,0.0,-3.1415948212127,-2.3157062400969153e-07,0.5203443765640259,0.5202064514160156,0.613250732421875,1.573516845703125,0.38774299532175066,0.0,-3.141610497234276,-1.265162723029789e-06,0.5184983611106873,0.5184178948402405,,,,,,,,,,,,,,,,,,,,,,,,,,,,,,,,,,,,,,,,,,,,,,,,,,,,,,,,,,,,,,,,,,,,,,,,,,,,,,,,,,,,,,,,,,,,,,,,,,,,,,,,,,,,,,,,,,,,,,,,,,,,,,,,,,,,,,2.8117634428781457e-05,3.49486326740589e-05,-3.945457865484059e-05,0.0,1.571809480083175e-05,-8.01323551513633e-07,-0.10234781354665756,-0.10164215415716171,1.638098547118716e-05,1.8766862922348082e-05,-2.7862077331519686e-05,0.0,8.981739665614441e-05,1.1622568308666814e-05,0.09306396543979645,0.09261507540941238,,,,,,,,,,,,,,,,,,,,,,,,,,,,,,,,,,,,,,,,,,,,,,,,,,,,,,,,,,,,,,,,,,,,,,,,,,
6,1.2196002006530762,0.6145566701889038,1.5753772258758545,0.3872093400359154,0.0,-3.1415944039801866,-2.0476878148656397e-07,0.5168200135231018,0.5167077779769897,0.613250732421875,1.573516845703125,0.38774299532175066,0.0,-3.141610497234276,-1.265162723029789e-06,0.5184983611106873,0.5184178948402405,,,,,,,,,,,,,,,,,,,,,,,,,,,,,,,,,,,,,,,,,,,,,,,,,,,,,,,,,,,,,,,,,,,,,,,,,,,,,,,,,,,,,,,,,,,,,,,,,,,,,,,,,,,,,,,,,,,,,,,,,,,,,,,,,,,,,,2.325973218830768e-05,2.8872334951302037e-05,-3.26108347508125e-05,0.0,8.002870345080737e-06,1.1642115396170993e-06,-0.08462956547737122,-0.0840081200003624,1.638098547118716e-05,1.8766862922348082e-05,-2.7862077331519686e-05,0.0,8.981739665614441e-05,1.1622568308666814e-05,0.09306396543979645,0.09261507540941238,,,,,,,,,,,,,,,,,,,,,,,,,,,,,,,,,,,,,,,,,,,,,,,,,,,,,,,,,,,,,,,,,,,,,,,,,,
7,1.2415313720703125,0.6145574450492859,1.575378179550171,0.38720826715230944,0.0,-3.1415941059569628,-1.6733713437133702e-07,0.5140460133552551,0.5139539837837219,0.6132513284683228,1.5735174417495728,0.38774204164743425,0.0,-3.141607099769524,-8.062956453613879e-07,0.5152940154075623,0.5152289271354675,,,,,,,,,,,,,,,,,,,,,,,,,,,,,,,,,,,,,,,,,,,,,,,,,,,,,,,,,,,,,,,,,,,,,,,,,,,,,,,,,,,,,,,,,,,,,,,,,,,,,,,,,,,,,,,,,,,,,,,,,,,,,,,,,,,,,,1.9425393475103192e-05,2.4114800908137113e-05,-2.722637145780027e-05,0.0,7.168679076130502e-06,9.382705457028351e-07,-0.07067251950502396,-0.07016162574291229,1.354703363176668e-05,1.5522622561547905e-05,-2.3029570002108812e-05,0.0,8.019401866476983e-05,1.0576694876363035e-05,0.0769442692399025,0.07657825201749802,,,,,,,,,,,,,,,,,,,,,,,,,,,,,,,,,,,,,,,,,,,,,,,,,,,,,,,,,,,,,,,,,,,,,,,,,,
8,1.2627544403076172,0.6145575046539307,1.575378179550171,0.38720821499824526,0.0,-3.1415941059569628,-1.654815378060448e-07,0.5139060616493225,0.5138151049613953,0.6132517457008362,1.573517918586731,0.38774128168821337,0.0,-3.1416045367697985,-4.804543891623325e-07,0.5127719044685364,0.5127187371253967,,,,,,,,,,,,,,,,,,,,,,,,,,,,,,,,,,,,,,,,,,,,,,,,,,,,,,,,,,,,,,,,,,,,,,,,,,,,,,,,,,,,,,,,,,,,,,,,,,,,,,,,,,,,,,,,,,,,,,,,,,,,,,,,,,,,,,1.9231956684961915e-05,2.3874785256339237e-05,-2.6954776330967434e-05,0.0,7.09597179593402e-06,9.277977142119198e-07,-0.06996843218803406,-0.0694630965590477,1.1314237781334668e-05,1.2966209396836348e-05,-1.9227125449106097e-05,0.0,6.563608621945605e-05,7.833365089027211e-06,0.06425569206476212,0.06395571678876877,,,,,,,,,,,,,,,,,,,,,,,,,,,,,,,,,,,,,,,,,,,,,,,,,,,,,,,,,,,,,,,,,,,,,,,,,,
9,1.285541296005249,0.6145581007003784,1.5753788948059082,0.3872073805332184,0.0,-3.1415938675383837,-1.3690899436369364e-07,0.5117295384407043,0.5116541385650635,0.6132517457008362,1.573517918586731,0.38774128168821337,0.0,-3.1416045367697985,-4.804543891623325e-07,0.5127719044685364,0.5127187371253967,,,,,,,,,,,,,,,,,,,,,,,,,,,,,,,,,,,,,,,,,,,,,,,,,,,,,,,,,,,,,,,,,,,,,,,,,,,,,,,,,,,,,,,,,,,,,,,,,,,,,,,,,,,,,,,,,,,,,,,,,,,,,,,,,,,,,,1.6223157217609696e-05,2.0141298591624945e-05,-2.2730948330718093e-05,0.0,5.96281279285904e-06,7.673110076211742e-07,-0.05901717767119408,-0.05859769135713577,1.1314237781334668e-05,1.2966209396836348e-05,-1.9227125449106097e-05,0.0,6.563608621945605e-05,7.833365089027211e-06,0.06425569206476212,0.06395571678876877,,,,,,,,,,,,,,,,,,,,,,,,,,,,,,,,,,,,,,,,,,,,,,,,,,,,,,,,,,,,,,,,,,,,,,,,,,
10,1.3063323497772217,0.6145581007003784,1.5753788948059082,0.3872073805332184,0.0,-3.1415938675383837,-1.3690899436369364e-07,0.5117295384407043,0.5116541385650635,0.6132521033287048,1.5735183954238892,0.3877406558394432,0.0,-3.1416023910025865,-2.3969769813447783e-07,0.510665774345398,0.5106222629547119,,,,,,,,,,,,,,,,,,,,,,,,,,,,,,,,,,,,,,,,,,,,,,,,,,,,,,,,,,,,,,,,,,,,,,,,,,,,,,,,,,,,,,,,,,,,,,,,,,,,,,,,,,,,,,,,,,,,,,,,,,,,,,,,,,,,,,1.6223157217609696e-05,2.0141298591624945e-05,-2.2730948330718093e-05,0.0,5.96281279285904e-06,7.673110076211742e-07,-0.05901717767119408,-0.05859769135713577,9.449446224607527e-06,1.0830777682713233e-05,-1.6052514183684252e-05,0.0,5.390418664319441e-05,5.7445295169600286e-06,0.05365953594446182,0.05341385677456856,,,,,,,,,,,,,,,,,,,,,,,,,,,,,,,,,,,,,,,,,,,,,,,,,,,,,,,,,,,,,,,,,,,,,,,,,,
11,1.3280611038208008,0.6145586371421814,1.5753796100616455,0.3872065982222557,0.0,-3.1415936887244493,-1.1079259110147177e-07,0.5096974968910217,0.509636402130127,0.6132521033287048,1.5735183954238892,0.3877406558394432,0.0,-3.1416023910025865,-2.3969769813447783e-07,0.510665774345398,0.5106222629547119,,,,,,,,,,,,,,,,,,,,,,,,,,,,,,,,,,,,,,,,,,,,,,,,,,,,,,,,,,,,,,,,,,,,,,,,,,,,,,,,,,,,,,,,,,,,,,,,,,,,,,,,,,,,,,,,,,,,,,,,,,,,,,,,,,,,,,1.3413883607427124e-05,1.6655059880577028e-05,-1.8788470697472803e-05,0.0,4.925595476379385e-06,6.20241110027564e-07,-0.04879302531480789,-0.0484524667263031,9.449446224607527e-06,1.0830777682713233e-05,-1.6052514183684252e-05,0.0,5.390418664319441e-05,5.7445295169600286e-06,0.05365953594446182,0.05341385677456856,,,,,,,,,,,,,,,,,,,,,,,,,,,,,,,,,,,,,,,,,,,,,,,,,,,,,,,,,,,,,,,,,,,,,,,,,,
12,1.3494935035705566,0.6145586371421814,1.5753796100616455,0.3872065982222557,0.0,-3.1415936887244493,-1.1079259110147177e-07,0.5096974968910217,0.509636402130127,0.6132524013519287,1.5735187530517578,0.38774015665054323,0.0,-3.141600722072533,-7.315040306821174e-08,0.5089965462684631,0.5089606046676636,,,,,,,,,,,,,,,,,,,,,,,,,,,,,,,,,,,,,,,,,,,,,,,,,,,,,,,,,,,,,,,,,,,,,,,,,,,,,,,,,,,,,,,,,,,,,,,,,,,,,,,,,,,,,,,,,,,,,,,,,,,,,,,,,,,,,,1.3413883607427124e-05,1.6655059880577028e-05,-1.8788470697472803e-05,0.0,4.925595476379385e-06,6.20241110027564e-07,-0.04879302531480789,-0.0484524667263031,7.971365448611323e-06,9.13792882784037e-06,-1.3537103768612724e-05,0.0,4.4738462747773156e-05,4.205535333312582e-06,0.04526163637638092,0.045058250427246094,,,,,,,,,,,,,,,,,,,,,,,,,,,,,,,,,,,,,,,,,,,,,,,,,,,,,,,,,,,,,,,,,,,,,,,,,,
13,1.370720624923706,0.6145591139793396,1.5753802061080933,0.3872059500217438,0.0,-3.141593509910515,-8.967491282874107e-08,0.5080174803733826,0.507968008518219,0.6132526993751526,1.573518991470337,0.3877396872639656,0.0,-3.1415991723517687,5.9030757171285586e-08,0.5074381232261658,0.5074091553688049,,,,,,,,,,,,,,,,,,,,,,,,,,,,,,,,,,,,,,,,,,,,,,,,,,,,,,,,,,,,,,,,,,,,,,,,,,,,,,,,,,,,,,,,,,,,,,,,,,,,,,,,,,,,,,,,,,,,,,,,,,,,,,,,,,,,,,1.1091075066360645e-05,1.3772241800324991e-05,-1.5529782103840262e-05,0.0,4.071953298989683e-06,5.01686770348897e-07,-0.040340106934309006,-0.04006372019648552,6.591253622900695e-06,7.557038316008402e-06,-1.1189241376996506e-05,0.0,3.631514482549392e-05,2.882923581637442e-06,0.037421178072690964,0.03725658357143402,,,,,,,,,,,,,,,,,,,,,,,,,,,,,,,,,,,,,,,,,,,,,,,,,,,,,,,,,,,,,,,,,,,,,,,,,,
14,1.3926522731781006,0.6145594716072083,1.5753806829452515,0.3872054135799408,0.0,-3.1415933310965807,-7.258908141238862e-08,0.5066285729408264,0.5065885186195374,0.6132526993751526,1.573518991470337,0.3877396872639656,0.0,-3.1415991723517687,5.9030757171285586e-08,0.5074381232261658,0.5074091553688049,,,,,,,,,,,,,,,,,,,,,,,,,,,,,,,,,,,,,,,,,,,,,,,,,,,,,,,,,,,,,,,,,,,,,,,,,,,,,,,,,,,,,,,,,,,,,,,,,,,,,,,,,,,,,,,,,,,,,,,,,,,,,,,,,,,,,,9.170495104626752e-06,1.1388402526790742e-05,-1.283628535020398e-05,0.0,3.3684991649352014e-06,4.059994012095558e-07,-0.03335157036781311,-0.033127348870038986,6.591253622900695e-06,7.557038316008402e-06,-1.1189241376996506e-05,0.0,3.631514482549392e-05,2.882923581637442e-06,0.037421178072690964,0.03725658357143402,,,,,,,,,,,,,,,,,,,,,,,,,,,,,,,,,,,,,,,,,,,,,,,,,,,,,,,,,,,,,,,,,,,,,,,,,,
15,1.4137585163116455,0.6145594716072083,1.5753806829452515,0.3872054135799408,0.0,-3.1415933310965807,-7.258908141238862e-08,0.5066285729408264,0.5065885186195374,0.6132528781890869,1.573519229888916,0.38773933708667757,0.0,-3.141598039863518,1.4016227112279012e-07,0.5062739849090576,0.5062500834465027,,,,,,,,,,,,,,,,,,,,,,,,,,,,,,,,,,,,,,,,,,,,,,,,,,,,,,,,,,,,,,,,,,,,,,,,,,,,,,,,,,,,,,,,,,,,,,,,,,,,,,,,,,,,,,,,,,,,,,,,,,,,,,,,,,,,,,9.170495104626752e-06,1.1388402526790742e-05,-1.283628535020398e-05,0.0,3.3684991649352014e-06,4.059994012095558e-07,-0.03335157036781311,-0.033127348870038986,5.560249519476201e-06,6.37586208540597e-06,-9.435902939003427e-06,0.0,3.0123666874715127e-05,1.981581362997531e-06,0.031564634293317795,0.03142848610877991,,,,,,,,,,,,,,,,,,,,,,,,,,,,,,,,,,,,,,,,,,,,,,,,,,,,,,,,,,,,,,,,,,,,,,,,,,
16,1.4370081424713135,0.6145597696304321,1.5753810405731201,0.3872049963474274,0.0,-3.141593271491936,-5.9416631614794824e-08,0.505535364151001,0.5055025815963745,0.6132528781890869,1.573519229888916,0.38773933708667757,0.0,-3.141598039863518,1.4016227112279012e-07,0.5062739849090576,0.5062500834465027,,,,,,,,,,,,,,,,,,,,,,,,,,,,,,,,,,,,,,,,,,,,,,,,,,,,,,,,,,,,,,,,,,,,,,,,,,,,,,,,,,,,,,,,,,,,,,,,,,,,,,,,,,,,,,,,,,,,,,,,,,,,,,,,,,,,,,7.658756658202037e-06,9.51185302255908e-06,-1.0716855285863858e-05,0.0,2.8159540761407698e-06,3.323592920878582e-07,-0.027851205319166183,-0.027667351067066193,5.560249519476201e-06,6.37586208540597e-06,-9.435902939003427e-06,0.0,3.0123666874715127e-05,1.981581362997531e-06,0.031564634293317795,0.03142848610877991,,,,,,,,,,,,,,,,,,,,,,,,,,,,,,,,,,,,,,,,,,,,,,,,,,,,,,,,,,,,,,,,,,,,,,,,,,
17,1.4601836204528809,0.6145597696304321,1.5753810405731201,0.3872049963474274,0.0,-3.141593271491936,-5.9416631614794824e-08,0.505535364151001,0.5055025815963745,0.613253116607666,1.5735194683074951,0.3877390167117119,0.0,-3.1415970265845568,1.9952300078784901e-07,0.5051872134208679,0.5051679015159607,,,,,,,,,,,,,,,,,,,,,,,,,,,,,,,,,,,,,,,,,,,,,,,,,,,,,,,,,,,,,,,,,,,,,,,,,,,,,,,,,,,,,,,,,,,,,,,,,,,,,,,,,,,,,,,,,,,,,,,,,,,,,,,,,,,,,,7.658756658202037e-06,9.51185302255908e-06,-1.0716855285863858e-05,0.0,2.8159540761407698e-06,3.323592920878582e-07,-0.027851205319166183,-0.027667351067066193,4.597582119458821e-06,5.272807811707025e-06,-7.799351806170307e-06,0.0,2.4436236344627105e-05,1.2209952728881035e-06,0.026096845045685768,0.02598676085472107,,,,,,,,,,,,,,,,,,,,,,,,,,,,,,,,,,,,,,,,,,,,,,,,,,,,,,,,,,,,,,,,,,,,,,,,,,
18,1.4813296794891357,0.614560067653656,1.5753813982009888,0.38720463871955874,0.0,-3.1415931522826464,-4.863198554971859e-08,0.5046224594116211,0.5045956373214722,0.6132532358169556,1.5735197067260742,0.3877387484908104,0.0,-3.14159619211953,2.3421006289936486e-07,0.5042886137962341,0.5042731165885925,,,,,,,,,,,,,,,,,,,,,,,,,,,,,,,,,,,,,,,,,,,,,,,,,,,,,,,,,,,,,,,,,,,,,,,,,,,,,,,,,,,,,,,,,,,,,,,,,,,,,,,,,,,,,,,,,,,,,,,,,,,,,,,,,,,,,,6.396225217031315e-06,7.944512617541477e-06,-8.947370588430203e-06,0.0,2.3550039713882143e-06,2.721415626183443e-07,-0.023257961496710777,-0.023107260465621948,3.8015839436411625e-06,4.3605841710814275e-06,-6.4466421463293955e-06,0.0,1.9815435734926723e-05,6.634635951741075e-07,0.021576212719082832,0.021487250924110413,,,,,,,,,,,,,,,,,,,,,,,,,,,,,,,,,,,,,,,,,,,,,,,,,,,,,,,,,,,,,,,,,,,,,,,,,,
19,1.5036296844482422,0.6145602464675903,1.5753816366195679,0.38720434814691546,0.0,-3.1415930926780016,-3.980055751640066e-08,0.5038601160049438,0.5038381814956665,0.6132532358169556,1.5735197067260742,0.3877387484908104,0.0,-3.14159619211953,2.3421006289936486e-07,0.5042886137962341,0.5042731165885925,,,,,,,,,,,,,,,,,,,,,,,,,,,,,,,,,,,,,,,,,,,,,,,,,,,,,,,,,,,,,,,,,,,,,,,,,,,,,,,,,,,,,,,,,,,,,,,,,,,,,,,,,,,,,,,,,,,,,,,,,,,,,,,,,,,,,,5.341819814930204e-06,6.635432328039315e-06,-7.47004969525733e-06,0.0,1.9701733435795177e-06,2.228692750350092e-07,-0.019422240555286407,-0.01929875835776329,3.8015839436411625e-06,4.3605841710814275e-06,-6.4466421463293955e-06,0.0,1.9815435734926723e-05,6.634635951741075e-07,0.021576212719082832,0.021487250924110413,,,,,,,,,,,,,,,,,,,,,,,,,,,,,,,,,,,,,,,,,,,,,,,,,,,,,,,,,,,,,,,,,,,,,,,,,,
20,1.5249478816986084,0.6145602464675903,1.5753816366195679,0.38720434814691546,0.0,-3.1415930926780016,-3.980055751640066e-08,0.5038601160049438,0.5038381814956665,0.6132534146308899,1.5735198259353638,0.3877385249733925,0.0,-3.1415955364684374,2.509594878574717e-07,0.5035457611083984,0.5035332441329956,,,,,,,,,,,,,,,,,,,,,,,,,,,,,,,,,,,,,,,,,,,,,,,,,,,,,,,,,,,,,,,,,,,,,,,,,,,,,,,,,,,,,,,,,,,,,,,,,,,,,,,,,,,,,,,,,,,,,,,,,,,,,,,,,,,,,,5.341819814930204e-06,6.635432328039315e-06,-7.47004969525733e-06,0.0,1.9701733435795177e-06,2.228692750350092e-07,-0.019422240555286407,-0.01929875835776329,3.1434001357411034e-06,3.6061778700968716e-06,-5.3285452850104775e-06,0.0,1.6062345821410418e-05,2.617745735733479e-07,0.01783866621553898,0.017766812816262245,,,,,,,,,,,,,,,,,,,,,,,,,,,,,,,,,,,,,,,,,,,,,,,,,,,,,,,,,,,,,,,,,,,,,,,,,,
21,1.5463855266571045,0.6145604252815247,1.575381875038147,0.38720410227775576,0.0,-3.141593033073357,-3.256775471527362e-08,0.5032235383987427,0.5032055974006653,0.6132534146308899,1.5735198259353638,0.3877385249733925,0.0,-3.1415955364684374,2.509594878574717e-07,0.5035457611083984,0.5035332441329956,,,,,,,,,,,,,,,,,,,,,,,,,,,,,,,,,,,,,,,,,,,,,,,,,,,,,,,,,,,,,,,,,,,,,,,,,,,,,,,,,,,,,,,,,,,,,,,,,,,,,,,,,,,,,,,,,,,,,,,,,,,,,,,,,,,,,,4.461231128516374e-06,5.54205826119869e-06,-6.236653007363202e-06,0.0,1.6486878848809283e-06,1.825327871074478e-07,-0.016219107434153557,-0.016117967665195465,3.1434001357411034e-06,3.6061778700968716e-06,-5.3285452850104775e-06,0.0,1.6062345821410418e-05,2.617745735733479e-07,0.01783866621553898,0.017766812816262245,,,,,,,,,,,,,,,,,,,,,,,,,,,,,,,,,,,,,,,,,,,,,,,,,,,,,,,,,,,,,,,,,,,,,,,,,,
22,1.5677735805511475,0.6145604252815247,1.575381875038147,0.38720410227775576,0.0,-3.141593033073357,-3.256775471527362e-08,0.5032235383987427,0.5032055974006653,0.6132534742355347,1.5735199451446533,0.3877383387088776,0.0,-3.1415950000266344,2.549238047322433e-07,0.502931535243988,0.502921462059021,,,,,,,,,,,,,,,,,,,,,,,,,,,,,,,,,,,,,,,,,,,,,,,,,,,,,,,,,,,,,,,,,,,,,,,,,,,,,,,,,,,,,,,,,,,,,,,,,,,,,,,,,,,,,,,,,,,,,,,,,,,,,,,,,,,,,,4.461231128516374e-06,5.54205826119869e-06,-6.236653007363202e-06,0.0,1.6486878848809283e-06,1.825327871074478e-07,-0.016219107434153557,-0.016117967665195465,2.5991701022576308e-06,2.9822863325534854e-06,-4.4043699745088816e-06,0.0,1.3014972864766605e-05,-2.1119346271802897e-08,0.014748559333384037,0.014690556563436985,,,,,,,,,,,,,,,,,,,,,,,,,,,,,,,,,,,,,,,,,,,,,,,,,,,,,,,,,,,,,,,,,,,,,,,,,,
23,1.5896928310394287,0.614560604095459,1.5753819942474365,0.38720390111207964,0.0,-3.141592973468712,-2.664391907103436e-08,0.5026918649673462,0.5026772618293762,0.6132534742355347,1.5735199451446533,0.3877383387088776,0.0,-3.1415950000266344,2.549238047322433e-07,0.502931535243988,0.502921462059021,,,,,,,,,,,,,,,,,,,,,,,,,,,,,,,,,,,,,,,,,,,,,,,,,,,,,,,,,,,,,,,,,,,,,,,,,,,,,,,,,,,,,,,,,,,,,,,,,,,,,,,,,,,,,,,,,,,,,,,,,,,,,,,,,,,,,,3.725805299836793e-06,4.628847364074318e-06,-5.206905370869208e-06,0.0,1.379979607918358e-06,1.494989589900797e-07,-0.013544238172471523,-0.013461428694427013,2.5991701022576308e-06,2.9822863325534854e-06,-4.4043699745088816e-06,0.0,1.3014972864766605e-05,-2.1119346271802897e-08,0.014748559333384037,0.014690556563436985,,,,,,,,,,,,,,,,,,,,,,,,,,,,,,,,,,,,,,,,,,,,,,,,,,,,,,,,,,,,,,,,,,,,,,,,,,
24,1.6123790740966797,0.6145607233047485,1.5753822326660156,0.3872037297487259,0.0,-3.1415929138640672,-2.1792240900708748e-08,0.5022479295730591,0.502236008644104,0.6132535934448242,1.5735200643539429,0.38773818969726564,0.0,-3.141594523189476,2.5001531867019366e-07,0.5024237036705017,0.502415657043457,,,,,,,,,,,,,,,,,,,,,,,,,,,,,,,,,,,,,,,,,,,,,,,,,,,,,,,,,,,,,,,,,,,,,,,,,,,,,,,,,,,,,,,,,,,,,,,,,,,,,,,,,,,,,,,,,,,,,,,,,,,,,,,,,,,,,,3.111613523287815e-06,3.866113274852978e-06,-4.3471823119034525e-06,0.0,1.1552855312402244e-06,1.2243781100096385e-07,-0.011310510337352753,-0.011242736130952835,2.1491648567462107e-06,2.466331352479756e-06,-3.6404824186320184e-06,0.0,1.0541420124354772e-05,-2.1417486095742788e-07,0.01219373568892479,0.012146941386163235,,,,,,,,,,,,,,,,,,,,,,,,,,,,,,,,,,,,,,,,,,,,,,,,,,,,,,,,,,,,,,,,,,,,,,,,,,
25,1.6340975761413574,0.6145607233047485,1.5753822326660156,0.3872037297487259,0.0,-3.1415929138640672,-2.1792240900708748e-08,0.5022479295730591,0.502236008644104,0.613253653049469,1.5735201835632324,0.3877380630373955,0.0,-3.1415941655616075,2.3917925773275783e-07,0.5020038485527039,0.5019973516464233,,,,,,,,,,,,,,,,,,,,,,,,,,,,,,,,,,,,,,,,,,,,,,,,,,,,,,,,,,,,,,,,,,,,,,,,,,,,,,,,,,,,,,,,,,,,,,,,,,,,,,,,,,,,,,,,,,,,,,,,,,,,,,,,,,,,,,3.111613523287815e-06,3.866113274852978e-06,-4.3471823119034525e-06,0.0,1.1552855312402244e-06,1.2243781100096385e-07,-0.011310510337352753,-0.011242736130952835,1.7770706790543045e-06,2.0396387299115304e-06,-3.009082774951821e-06,0.0,8.53431447467301e-06,-3.399279364657559e-07,0.010081471875309944,0.010043743997812271,,,,,,,,,,,,,,,,,,,,,,,,,,,,,,,,,,,,,,,,,,,,,,,,,,,,,,,,,,,,,,,,,,,,,,,,,,
26,1.6556687355041504,0.6145607829093933,1.5753823518753052,0.38720359563827517,0.0,-3.1415928542594225,-1.80194881238549e-08,0.50189608335495,0.501886248588562,0.613253653049469,1.5735201835632324,0.3877380630373955,0.0,-3.1415941655616075,2.3917925773275783e-07,0.5020038485527039,0.5019973516464233,,,,,,,,,,,,,,,,,,,,,,,,,,,,,,,,,,,,,,,,,,,,,,,,,,,,,,,,,,,,,,,,,,,,,,,,,,,,,,,,,,,,,,,,,,,,,,,,,,,,,,,,,,,,,,,,,,,,,,,,,,,,,,,,,,,,,,2.624807393658557e-06,3.2615237159916433e-06,-3.665978965727845e-06,0.0,9.76914520833816e-07,1.0138478501175996e-07,-0.009540216997265816,-0.009484149515628815,1.7770706790543045e-06,2.0396387299115304e-06,-3.009082774951821e-06,0.0,8.53431447467301e-06,-3.399279364657559e-07,0.010081471875309944,0.010043743997812271,,,,,,,,,,,,,,,,,,,,,,,,,,,,,,,,,,,,,,,,,,,,,,,,,,,,,,,,,,,,,,,,,,,,,,,,,,
27,1.6773245334625244,0.6145609021186829,1.5753823518753052,0.3872034764289856,0.0,-3.1415928542594225,-1.4729622854758873e-08,0.5015833973884583,0.5015753507614136,0.6132537126541138,1.5735201835632324,0.38773796617984774,0.0,-3.1415939271430284,2.2544141131675133e-07,0.5016734004020691,0.5016681551933289,,,,,,,,,,,,,,,,,,,,,,,,,,,,,,,,,,,,,,,,,,,,,,,,,,,,,,,,,,,,,,,,,,,,,,,,,,,,,,,,,,,,,,,,,,,,,,,,,,,,,,,,,,,,,,,,,,,,,,,,,,,,,,,,,,,,,,2.1921132429270074e-06,2.724093974393327e-06,-3.06068136524118e-06,0.0,8.180767281373846e-07,8.301352494299863e-08,-0.007966835983097553,-0.007920986972749233,1.4841755273664603e-06,1.7037151565091335e-06,-2.5122524220932974e-06,0.0,6.983718776609749e-06,-4.1284957319476234e-07,0.008418974466621876,0.008388226851820946,,,,,,,,,,,,,,,,,,,,,,,,,,,,,,,,,,,,,,,,,,,,,,,,,,,,,,,,,,,,,,,,,,,,,,,,,,
28,1.699441909790039,0.6145609021186829,1.5753823518753052,0.387203468978405,0.0,-3.1415928542594225,-1.4565429751201009e-08,0.5015676021575928,0.5015596747398376,0.6132537126541138,1.5735201835632324,0.38773796617984774,0.0,-3.1415939271430284,2.2544141131675133e-07,0.5016734004020691,0.5016681551933289,,,,,,,,,,,,,,,,,,,,,,,,,,,,,,,,,,,,,,,,,,,,,,,,,,,,,,,,,,,,,,,,,,,,,,,,,,,,,,,,,,,,,,,,,,,,,,,,,,,,,,,,,,,,,,,,,,,,,,,,,,,,,,,,,,,,,,2.1702840058424044e-06,2.6969796635967214e-06,-3.030150082850014e-06,0.0,8.100550417111663e-07,8.209626400912384e-08,-0.007887464016675949,-0.007842125371098518,1.4841755273664603e-06,1.7037151565091335e-06,-2.5122524220932974e-06,0.0,6.983718776609749e-06,-4.1284957319476234e-07,0.008418974466621876,0.008388226851820946,,,,,,,,,,,,,,,,,,,,,,,,,,,,,,,,,,,,,,,,,,,,,,,,,,,,,,,,,,,,,,,,,,,,,,,,,,
29,1.7216227054595947,0.6145609617233276,1.5753824710845947,0.38720336467027666,0.0,-3.1415927946547777,-1.1768798380273893e-08,0.5012960433959961,0.5012896656990051,0.6132537722587585,1.573520302772522,0.38773788422346117,0.0,-3.1415936887244493,2.0973946845970204e-07,0.501397430896759,0.50139319896698,,,,,,,,,,,,,,,,,,,,,,,,,,,,,,,,,,,,,,,,,,,,,,,,,,,,,,,,,,,,,,,,,,,,,,,,,,,,,,,,,,,,,,,,,,,,,,,,,,,,,,,,,,,,,,,,,,,,,,,,,,,,,,,,,,,,,,1.7944677210834925e-06,2.2301539956970373e-06,-2.504599478925229e-06,0.0,6.717739893247199e-07,6.646334327342629e-08,-0.006521034985780716,-0.006484390236437321,1.2395548765198328e-06,1.423116941623448e-06,-2.0974539438611828e-06,0.0,5.7124552768073045e-06,-4.5256967950990656e-07,0.007030632812529802,0.007005590014159679,,,,,,,,,,,,,,,,,,,,,,,,,,,,,,,,,,,,,,,,,,,,,,,,,,,,,,,,,,,,,,,,,,,,,,,,,,
30,1.7444610595703125,0.6145609617233276,1.5753824710845947,0.38720336467027666,0.0,-3.1415927946547777,-1.1768798380273893e-08,0.5012960433959961,0.5012896656990051,0.6132538318634033,1.573520302772522,0.3877378171682358,0.0,-3.141593509910515,1.9309199217332207e-07,0.5011669993400574,0.5011635422706604,,,,,,,,,,,,,,,,,,,,,,,,,,,,,,,,,,,,,,,,,,,,,,,,,,,,,,,,,,,,,,,,,,,,,,,,,,,,,,,,,,,,,,,,,,,,,,,,,,,,,,,,,,,,,,,,,,,,,,,,,,,,,,,,,,,,,,1.7944677210834925e-06,2.2301539956970373e-06,-2.504599478925229e-06,0.0,6.717739893247199e-07,6.646334327342629e-08,-0.006521034985780716,-0.006484390236437321,1.03525258055015e-06,1.188732539958437e-06,-1.7511430314698373e-06,0.0,4.6705599743290804e-06,-4.68027764100043e-07,0.005871237255632877,0.005850853864103556,,,,,,,,,,,,,,,,,,,,,,,,,,,,,,,,,,,,,,,,,,,,,,,,,,,,,,,,,,,,,,,,,,,,,,,,,,
31,1.7662653923034668,0.6145610213279724,1.5753825902938843,0.3872032752633095,0.0,-3.1415927946547777,-9.50498968421698e-09,0.5010715126991272,0.5010663866996765,0.6132538318634033,1.573520302772522,0.3877378171682358,0.0,-3.141593509910515,1.9309199217332207e-07,0.5011669993400574,0.5011635422706604,,,,,,,,,,,,,,,,,,,,,,,,,,,,,,,,,,,,,,,,,,,,,,,,,,,,,,,,,,,,,,,,,,,,,,,,,,,,,,,,,,,,,,,,,,,,,,,,,,,,,,,,,,,,,,,,,,,,,,,,,,,,,,,,,,,,,,1.4837298749625916e-06,1.844131588768505e-06,-2.0702007077488815e-06,0.0,5.571507699642098e-07,5.379365930480162e-08,-0.005391326732933521,-0.005361724179238081,1.03525258055015e-06,1.188732539958437e-06,-1.7511430314698373e-06,0.0,4.6705599743290804e-06,-4.68027764100043e-07,0.005871237255632877,0.005850853864103556,,,,,,,,,,,,,,,,,,,,,,,,,,,,,,,,,,,,,,,,,,,,,,,,,,,,,,,,,,,,,,,,,,,,,,,,,,
32,1.787254810333252,0.6145610213279724,1.5753825902938843,0.3872032752633095,0.0,-3.1415927946547777,-9.50498968421698e-09,0.5010715126991272,0.5010663866996765,0.6132538318634033,1.573520302772522,0.387737757563591,0.0,-3.1415933310965807,1.7716816103074962e-07,0.5009843707084656,0.5009815096855164,,,,,,,,,,,,,,,,,,,,,,,,,,,,,,,,,,,,,,,,,,,,,,,,,,,,,,,,,,,,,,,,,,,,,,,,,,,,,,,,,,,,,,,,,,,,,,,,,,,,,,,,,,,,,,,,,,,,,,,,,,,,,,,,,,,,,,1.4837298749625916e-06,1.844131588768505e-06,-2.0702007077488815e-06,0.0,5.571507699642098e-07,5.379365930480162e-08,-0.005391326732933521,-0.005361724179238081,8.733177310205065e-07,1.0029278882939252e-06,-1.4767423408557079e-06,0.0,3.8600396692345385e-06,-4.665906203626946e-07,0.00495236786082387,0.004935596603900194,,,,,,,,,,,,,,,,,,,,,,,,,,,,,,,,,,,,,,,,,,,,,,,,,,,,,,,,,,,,,,,,,,,,,,,,,,
33,1.8086113929748535,0.6145610809326172,1.5753825902938843,0.3872032082080841,0.0,-3.1415927946547777,-7.672998236785133e-09,0.5008859038352966,0.5008817315101624,0.6132538914680481,1.5735204219818115,0.38773771286010744,0.0,-3.141593211887291,1.6059567542470177e-07,0.5008220672607422,0.500819742679596,,,,,,,,,,,,,,,,,,,,,,,,,,,,,,,,,,,,,,,,,,,,,,,,,,,,,,,,,,,,,,,,,,,,,,,,,,,,,,,,,,,,,,,,,,,,,,,,,,,,,,,,,,,,,,,,,,,,,,,,,,,,,,,,,,,,,,1.2268004638826824e-06,1.5249264606609358e-06,-1.711144250293728e-06,0.0,4.6212051074689953e-07,4.352614269009791e-08,-0.004457329865545034,-0.004433429799973965,7.293779731298855e-07,8.377476774512616e-07,-1.2329171568126185e-06,0.0,3.1531460535916267e-06,-4.531742661129101e-07,0.004135691095143557,0.0041220588609576225,,,,,,,,,,,,,,,,,,,,,,,,,,,,,,,,,,,,,,,,,,,,,,,,,,,,,,,,,,,,,,,,,,,,,,,,,,
34,1.8293614387512207,0.614561140537262,1.5753827095031738,0.38720314860343935,0.0,-3.141592735050133,-6.261342555546889e-09,0.5007397532463074,0.5007364153862,0.6132538914680481,1.5735204219818115,0.38773771286010744,0.0,-3.141593211887291,1.6059567542470177e-07,0.5008220672607422,0.500819742679596,,,,,,,,,,,,,,,,,,,,,,,,,,,,,,,,,,,,,,,,,,,,,,,,,,,,,,,,,,,,,,,,,,,,,,,,,,,,,,,,,,,,,,,,,,,,,,,,,,,,,,,,,,,,,,,,,,,,,,,,,,,,,,,,,,,,,,1.02456442618859e-06,1.2736506960209226e-06,-1.428613700227288e-06,0.0,3.871117257858714e-07,3.56018645675249e-08,-0.0037222225219011307,-0.0037027180660516024,7.293779731298855e-07,8.377476774512616e-07,-1.2329171568126185e-06,0.0,3.1531460535916267e-06,-4.531742661129101e-07,0.004135691095143557,0.0041220588609576225,,,,,,,,,,,,,,,,,,,,,,,,,,,,,,,,,,,,,,,,,,,,,,,,,,,,,,,,,,,,,,,,,,,,,,,,,,
35,1.8511178493499756,0.614561140537262,1.5753827095031738,0.38720314860343935,0.0,-3.141592735050133,-6.1909304349683225e-09,0.500732421875,0.5007290840148926,0.6132538914680481,1.5735204219818115,0.38773766815662386,0.0,-3.1415930926780016,1.446733364218744e-07,0.5006864666938782,0.5006846189498901,,,,,,,,,,,,,,,,,,,,,,,,,,,,,,,,,,,,,,,,,,,,,,,,,,,,,,,,,,,,,,,,,,,,,,,,,,,,,,,,,,,,,,,,,,,,,,,,,,,,,,,,,,,,,,,,,,,,,,,,,,,,,,,,,,,,,,1.0143620556846145e-06,1.2609734767465852e-06,-1.414362827745208e-06,0.0,3.8332220242409676e-07,3.5206209503257924e-08,-0.0036851391196250916,-0.0036658537574112415,6.09162555065268e-07,6.997719310675166e-07,-1.0293499599356437e-06,0.0,2.5744268441485474e-06,-4.315171224789083e-07,0.0034536898601800203,0.0034426169004291296,,,,,,,,,,,,,,,,,,,,,,,,,,,,,,,,,,,,,,,,,,,,,,,,,,,,,,,,,,,,,,,,,,,,,,,,,,
36,1.8723993301391602,0.614561140537262,1.5753827095031738,0.3872030964493752,0.0,-3.141592735050133,-5.049308526849927e-09,0.5006116032600403,0.5006089210510254,0.6132538914680481,1.5735204219818115,0.38773766815662386,0.0,-3.1415930926780016,1.446733364218744e-07,0.5006864666938782,0.5006846189498901,,,,,,,,,,,,,,,,,,,,,,,,,,,,,,,,,,,,,,,,,,,,,,,,,,,,,,,,,,,,,,,,,,,,,,,,,,,,,,,,,,,,,,,,,,,,,,,,,,,,,,,,,,,,,,,,,,,,,,,,,,,,,,,,,,,,,,8.471462820125453e-07,1.0531914540479193e-06,-1.1808343742814031e-06,0.0,3.2111836389958626e-07,2.8786583783357855e-08,-0.0030773822218179703,-0.0030616531148552895,6.09162555065268e-07,6.997719310675166e-07,-1.0293499599356437e-06,0.0,2.5744268441485474e-06,-4.315171224789083e-07,0.0034536898601800203,0.0034426169004291296,,,,,,,,,,,,,,,,,,,,,,,,,,,,,,,,,,,,,,,,,,,,,,,,,,,,,,,,,,,,,,,,,,,,,,,,,,
37,1.8940472602844238,0.614561140537262,1.5753827095031738,0.3872030964493752,0.0,-3.141592735050133,-5.049308526849927e-09,0.5006116032600403,0.5006089210510254,0.6132538914680481,1.5735204219818115,0.3877376383543015,0.0,-3.141593033073357,1.288304929403239e-07,0.5005675554275513,0.5005660653114319,,,,,,,,,,,,,,,,,,,,,,,,,,,,,,,,,,,,,,,,,,,,,,,,,,,,,,,,,,,,,,,,,,,,,,,,,,,,,,,,,,,,,,,,,,,,,,,,,,,,,,,,,,,,,,,,,,,,,,,,,,,,,,,,,,,,,,8.471462820125453e-07,1.0531914540479193e-06,-1.1808343742814031e-06,0.0,3.2111836389958626e-07,2.8786583783357855e-08,-0.0030773822218179703,-0.0030616531148552895,5.036956736148568e-07,5.787056238659716e-07,-8.508213227287342e-07,0.0,2.077202225336805e-06,-4.0310231952389586e-07,0.0028554233722388744,0.002846540417522192,,,,,,,,,,,,,,,,,,,,,,,,,,,,,,,,,,,,,,,,,,,,,,,,,,,,,,,,,,,,,,,,,,,,,,,,,,
38,1.915708065032959,0.6145612001419067,1.5753828287124634,0.3872030591964722,0.0,-3.141592735050133,-4.1160315156218985e-09,0.5005107522010803,0.5005085468292236,0.6132538914680481,1.5735204219818115,0.3877376383543015,0.0,-3.141593033073357,1.288304929403239e-07,0.5005675554275513,0.5005660653114319,,,,,,,,,,,,,,,,,,,,,,,,,,,,,,,,,,,,,,,,,,,,,,,,,,,,,,,,,,,,,,,,,,,,,,,,,,,,,,,,,,,,,,,,,,,,,,,,,,,,,,,,,,,,,,,,,,,,,,,,,,,,,,,,,,,,,,7.074957579789043e-07,8.796475867711706e-07,-9.858644034466124e-07,0.0,2.690175335828826e-07,2.352866879107296e-08,-0.002569857519119978,-0.002557035768404603,5.036956736148568e-07,5.787056238659716e-07,-8.508213227287342e-07,0.0,2.077202225336805e-06,-4.0310231952389586e-07,0.0028554233722388744,0.002846540417522192,,,,,,,,,,,,,,,,,,,,,,,,,,,,,,,,,,,,,,,,,,,,,,,,,,,,,,,,,,,,,,,,,,,,,,,,,,
39,1.9380221366882324,0.6145612001419067,1.5753828287124634,0.3872030293941498,0.0,-3.141592735050133,-3.3918168274027494e-09,0.5004308223724365,0.5004290342330933,0.6132539510726929,1.5735204219818115,0.3877376085519791,0.0,-3.141592973468712,1.1413639811053145e-07,0.5004692673683167,0.5004680752754211,,,,,,,,,,,,,,,,,,,,,,,,,,,,,,,,,,,,,,,,,,,,,,,,,,,,,,,,,,,,,,,,,,,,,,,,,,,,,,,,,,,,,,,,,,,,,,,,,,,,,,,,,,,,,,,,,,,,,,,,,,,,,,,,,,,,,,5.968096274955315e-07,7.420858310069889e-07,-8.313796797665418e-07,0.0,2.2760332285542972e-07,1.9440950183025052e-08,-0.0021676295436918736,-0.0021570646204054356,4.1648857518339355e-07,4.78585036489676e-07,-7.032563189568464e-07,0.0,1.674990244282526e-06,-3.7159503563088947e-07,0.002360791666433215,0.0023536724038422108,,,,,,,,,,,,,,,,,,,,,,,,,,,,,,,,,,,,,,,,,,,,,,,,,,,,,,,,,,,,,,,,,,,,,,,,,,
40,1.9608261585235596,0.6145612001419067,1.5753828287124634,0.3872030293941498,0.0,-3.141592735050133,-3.3533693599707703e-09,0.5004265308380127,0.5004247426986694,0.6132539510726929,1.5735204219818115,0.3877375787496567,0.0,-3.1415929138640672,1.0066807476505346e-07,0.500387966632843,0.5003870129585266,,,,,,,,,,,,,,,,,,,,,,,,,,,,,,,,,,,,,,,,,,,,,,,,,,,,,,,,,,,,,,,,,,,,,,,,,,,,,,,,,,,,,,,,,,,,,,,,,,,,,,,,,,,,,,,,,,,,,,,,,,,,,,,,,,,,,,5.90866250149702e-07,7.346998813773098e-07,-8.230862817981688e-07,0.0,2.2537560084856523e-07,1.922370884699376e-08,-0.00214603403583169,-0.00213558878749609,3.4438014040460985e-07,3.957858609737741e-07,-5.81284780309943e-07,0.0,1.3497946156348917e-06,-3.3891583939293923e-07,0.0019518428016453981,0.001946142641827464,,,,,,,,,,,,,,,,,,,,,,,,,,,,,,,,,,,,,,,,,,,,,,,,,,,,,,,,,,,,,,,,,,,,,,,,,,
41,1.982771873474121,0.6145612001419067,1.5753828287124634,0.3872029995918274,0.0,-3.141592735050133,-2.7617890197007e-09,0.5003597736358643,0.5003582835197449,0.6132539510726929,1.5735204219818115,0.3877375787496567,0.0,-3.1415929138640672,1.0066807476505346e-07,0.500387966632843,0.5003870129585266,,,,,,,,,,,,,,,,,,,,,,,,,,,,,,,,,,,,,,,,,,,,,,,,,,,,,,,,,,,,,,,,,,,,,,,,,,,,,,,,,,,,,,,,,,,,,,,,,,,,,,,,,,,,,,,,,,,,,,,,,,,,,,,,,,,,,,4.984265729035542e-07,6.198055189088336e-07,-6.941087917766708e-07,0.0,1.9068363599217264e-07,1.587724796081602e-08,-0.001810142071917653,-0.0018015401437878609,3.4438014040460985e-07,3.957858609737741e-07,-5.81284780309943e-07,0.0,1.3497946156348917e-06,-3.3891583939293923e-07,0.0019518428016453981,0.001946142641827464,,,,,,,,,,,,,,,,,,,,,,,,,,,,,,,,,,,,,,,,,,,,,,,,,,,,,,,,,,,,,,,,,,,,,,,,,,
42,2.003607749938965,0.6145612001419067,1.5753828287124634,0.3872029995918274,0.0,-3.141592735050133,-2.7617890197007e-09,0.5003597736358643,0.5003582835197449,0.6132539510726929,1.5735204219818115,0.3877375638484955,0.0,-3.1415928542594225,8.905436743589235e-08,0.500324010848999,0.5003232359886169,,,,,,,,,,,,,,,,,,,,,,,,,,,,,,,,,,,,,,,,,,,,,,,,,,,,,,,,,,,,,,,,,,,,,,,,,,,,,,,,,,,,,,,,,,,,,,,,,,,,,,,,,,,,,,,,,,,,,,,,,,,,,,,,,,,,,,4.984265729035542e-07,6.198055189088336e-07,-6.941087917766708e-07,0.0,1.9068363599217264e-07,1.587724796081602e-08,-0.001810142071917653,-0.0018015401437878609,2.8761965609191975e-07,3.3060021564779163e-07,-4.853088171330455e-07,0.0,1.099478708965762e-06,-3.0810338103037793e-07,0.0016299716662615538,0.0016253585927188396,,,,,,,,,,,,,,,,,,,,,,,,,,,,,,,,,,,,,,,,,,,,,,,,,,,,,,,,,,,,,,,,,,,,,,,,,,
43,2.025592565536499,0.6145612597465515,1.5753828287124634,0.3872029772400856,0.0,-3.141592735050133,-2.2473671812406337e-09,0.500300407409668,0.5002992153167725,0.6132539510726929,1.5735204219818115,0.3877375638484955,0.0,-3.1415928542594225,8.905436743589235e-08,0.500324010848999,0.5003232359886169,,,,,,,,,,,,,,,,,,,,,,,,,,,,,,,,,,,,,,,,,,,,,,,,,,,,,,,,,,,,,,,,,,,,,,,,,,,,,,,,,,,,,,,,,,,,,,,,,,,,,,,,,,,,,,,,,,,,,,,,,,,,,,,,,,,,,,4.162619120506861e-07,5.176741524337558e-07,-5.795031370325887e-07,0.0,1.597556007482126e-07,1.2961094419949859e-08,-0.0015116116264835,-0.0015046127373352647,2.8761965609191975e-07,3.3060021564779163e-07,-4.853088171330455e-07,0.0,1.099478708965762e-06,-3.0810338103037793e-07,0.0016299716662615538,0.0016253585927188396,,,,,,,,,,,,,,,,,,,,,,,,,,,,,,,,,,,,,,,,,,,,,,,,,,,,,,,,,,,,,,,,,,,,,,,,,,
44,2.0471436977386475,0.6145612597465515,1.5753828287124634,0.38720296233892443,0.0,-3.141592675445488,-1.8066249607429086e-09,0.500248372554779,0.5002474188804626,0.6132539510726929,1.573520541191101,0.3877375489473343,0.0,-3.1415928542594225,7.798054468821647e-08,0.5002678632736206,0.5002672672271729,,,,,,,,,,,,,,,,,,,,,,,,,,,,,,,,,,,,,,,,,,,,,,,,,,,,,,,,,,,,,,,,,,,,,,,,,,,,,,,,,,,,,,,,,,,,,,,,,,,,,,,,,,,,,,,,,,,,,,,,,,,,,,,,,,,,,,3.4418002314851037e-07,4.280690291125211e-07,-4.789939112015418e-07,0.0,1.3253593067474867e-07,1.0456021826144024e-08,-0.0012497389689087868,-0.0012441135477274656,2.378226469090805e-07,2.7340374231243914e-07,-4.011376120161003e-07,0.0,8.848236348057981e-07,-2.7662088086799486e-07,0.001347619341686368,0.0013439336325973272,,,,,,,,,,,,,,,,,,,,,,,,,,,,,,,,,,,,,,,,,,,,,,,,,,,,,,,,,,,,,,,,,,,,,,,,,,
45,2.0688116550445557,0.6145612597465515,1.5753828287124634,0.38720296233892443,0.0,-3.141592675445488,-1.8066249607429086e-09,0.500248372554779,0.5002474188804626,0.6132539510726929,1.573520541191101,0.3877375340461731,0.0,-3.1415927946547777,6.856487999584715e-08,0.500223696231842,0.5002232193946838,,,,,,,,,,,,,,,,,,,,,,,,,,,,,,,,,,,,,,,,,,,,,,,,,,,,,,,,,,,,,,,,,,,,,,,,,,,,,,,,,,,,,,,,,,,,,,,,,,,,,,,,,,,,,,,,,,,,,,,,,,,,,,,,,,,,,,3.4418002314851037e-07,4.280690291125211e-07,-4.789939112015418e-07,0.0,1.3253593067474867e-07,1.0456021826144024e-08,-0.0012497389689087868,-0.0012441135477274656,1.9862500266754068e-07,2.2837443225398601e-07,-3.349057919876941e-07,0.0,7.197666036518058e-07,-2.4832388589857146e-07,0.0011253884295001626,0.0011224120389670134,,,,,,,,,,,,,,,,,,,,,,,,,,,,,,,,,,,,,,,,,,,,,,,,,,,,,,,,,,,,,,,,,,,,,,,,,,
46,2.0896525382995605,0.6145612597465515,1.5753828287124634,0.38720294743776323,0.0,-3.141592675445488,-1.4511644108594624e-09,0.5002053380012512,0.5002046227455139,0.6132539510726929,1.573520541191101,0.3877375340461731,0.0,-3.1415927946547777,6.856487999584715e-08,0.500223696231842,0.5002232193946838,,,,,,,,,,,,,,,,,,,,,,,,,,,,,,,,,,,,,,,,,,,,,,,,,,,,,,,,,,,,,,,,,,,,,,,,,,,,,,,,,,,,,,,,,,,,,,,,,,,,,,,,,,,,,,,,,,,,,,,,,,,,,,,,,,,,,,2.8458023848543235e-07,3.5397306419326924e-07,-3.959170840062143e-07,0.0,1.0995465515861724e-07,8.430254716529362e-09,-0.00103323336225003,-0.0010287155164405704,1.9862500266754068e-07,2.2837443225398601e-07,-3.349057919876941e-07,0.0,7.197666036518058e-07,-2.4832388589857146e-07,0.0011253884295001626,0.0011224120389670134,,,,,,,,,,,,,,,,,,,,,,,,,,,,,,,,,,,,,,,,,,,,,,,,,,,,,,,,,,,,,,,,,,,,,,,,,,
47,2.111140489578247,0.6145612597465515,1.5753828287124634,0.38720294743776323,0.0,-3.141592675445488,-1.4511644108594624e-09,0.5002053380012512,0.5002046227455139,0.6132539510726929,1.573520541191101,0.3877375191450119,0.0,-3.1415927946547777,5.969334182509556e-08,0.500184953212738,0.5001845359802246,,,,,,,,,,,,,,,,,,,,,,,,,,,,,,,,,,,,,,,,,,,,,,,,,,,,,,,,,,,,,,,,,,,,,,,,,,,,,,,,,,,,,,,,,,,,,,,,,,,,,,,,,,,,,,,,,,,,,,,,,,,,,,,,,,,,,,2.8458023848543235e-07,3.5397306419326924e-07,-3.959170840062143e-07,0.0,1.0995465515861724e-07,8.430254716529362e-09,-0.00103323336225003,-0.0010287155164405704,1.642360132336762e-07,1.8886380814819859e-07,-2.76820316003068e-07,0.0,5.78376273097092e-07,-2.204241269510021e-07,0.0009304427076131105,0.0009280704543925822,,,,,,,,,,,,,,,,,,,,,,,,,,,,,,,,,,,,,,,,,,,,,,,,,,,,,,,,,,,,,,,,,,,,,,,,,,
48,2.132050037384033,0.6145612597465515,1.575382947921753,0.38720293253660204,0.0,-3.141592675445488,-1.1919816245153925e-09,0.5001732110977173,0.5001726150512695,0.6132539510726929,1.573520541191101,0.3877375191450119,0.0,-3.1415927946547777,5.969334182509556e-08,0.500184953212738,0.5001845359802246,,,,,,,,,,,,,,,,,,,,,,,,,,,,,,,,,,,,,,,,,,,,,,,,,,,,,,,,,,,,,,,,,,,,,,,,,,,,,,,,,,,,,,,,,,,,,,,,,,,,,,,,,,,,,,,,,,,,,,,,,,,,,,,,,,,,,,2.400581422534742e-07,2.986181186770409e-07,-3.338767839977663e-07,0.0,9.303263936999429e-08,6.9494197063590946e-09,-0.0008715142030268908,-0.0008678039303049445,1.642360132336762e-07,1.8886380814819859e-07,-2.76820316003068e-07,0.0,5.78376273097092e-07,-2.204241269510021e-07,0.0009304427076131105,0.0009280704543925822,,,,,,,,,,,,,,,,,,,,,,,,,,,,,,,,,,,,,,,,,,,,,,,,,,,,,,,,,,,,,,,,,,,,,,,,,,
49,2.1537861824035645,0.6145612597465515,1.575382947921753,0.38720293253660204,0.0,-3.141592675445488,-1.1919816245153925e-09,0.5001732110977173,0.5001726150512695,0.6132540106773376,1.573520541191101,0.3877375116944313,0.0,-3.141592735050133,5.222753785005807e-08,0.500154435634613,0.5001541376113892,,,,,,,,,,,,,,,,,,,,,,,,,,,,,,,,,,,,,,,,,,,,,,,,,,,,,,,,,,,,,,,,,,,,,,,,,,,,,,,,,,,,,,,,,,,,,,,,,,,,,,,,,,,,,,,,,,,,,,,,,,,,,,,,,,,,,,2.400581422534742e-07,2.986181186770409e-07,-3.338767839977663e-07,0.0,9.303263936999429e-08,6.9494197063590946e-09,-0.0008715142030268908,-0.0008678039303049445,1.371667792682274e-07,1.5775781037064007e-07,-2.3111445557333354e-07,0.0,4.697800477515557e-07,-1.96035628619029e-07,0.0007770068477839231,0.000775095890276134,,,,,,,,,,,,,,,,,,,,,,,,,,,,,,,,,,,,,,,,,,,,,,,,,,,,,,,,,,,,,,,,,,,,,,,,,,
50,2.1766014099121094,0.6145612597465515,1.575382947921753,0.38720291763544085,0.0,-3.141592675445488,-9.558719371582924e-10,0.5001432299613953,0.5001426935195923,0.6132540106773376,1.573520541191101,0.38773750424385073,0.0,-3.141592735050133,4.594822300418855e-08,0.500130295753479,0.5001300573348999,,,,,,,,,,,,,,,,,,,,,,,,,,,,,,,,,,,,,,,,,,,,,,,,,,,,,,,,,,,,,,,,,,,,,,,,,,,,,,,,,,,,,,,,,,,,,,,,,,,,,,,,,,,,,,,,,,,,,,,,,,,,,,,,,,,,,,1.9848856425142003e-07,2.469294884122064e-07,-2.7596922791417455e-07,0.0,7.718231387343621e-08,5.5963456091490116e-09,-0.000720532494597137,-0.0007175577338784933,1.1571105318353148e-07,1.330996468595913e-07,-1.9489931446514674e-07,0.0,3.857269064155844e-07,-1.748845193105808e-07,0.0006554024876095355,0.0006538464804179966,,,,,,,,,,,,,,,,,,,,,,,,,,,,,,,,,,,,,,,,,,,,,,,,,,,,,,,,,,,,,,,,,,,,,,,,,,
51,2.1974055767059326,0.6145612597465515,1.575382947921753,0.38720291018486025,0.0,-3.141592675445488,-7.657972034280647e-10,0.5001183748245239,0.5001180171966553,0.6132540106773376,1.573520541191101,0.38773750424385073,0.0,-3.141592735050133,4.56008280025344e-08,0.500128984451294,0.5001287460327148,,,,,,,,,,,,,,,,,,,,,,,,,,,,,,,,,,,,,,,,,,,,,,,,,,,,,,,,,,,,,,,,,,,,,,,,,,,,,,,,,,,,,,,,,,,,,,,,,,,,,,,,,,,,,,,,,,,,,,,,,,,,,,,,,,,,,,1.6411732417509484e-07,2.0418778490238765e-07,-2.2810506550285936e-07,0.0,6.403255525810891e-08,4.503982520276395e-09,-0.0005957069806754589,-0.0005933242500759661,1.1455908577318041e-07,1.3177580626688723e-07,-1.9295518427497882e-07,0.0,3.8127140555843653e-07,-1.736971455557068e-07,0.0006488735089078546,0.0006473362445831299,,,,,,,,,,,,,,,,,,,,,,,,,,,,,,,,,,,,,,,,,,,,,,,,,,,,,,,,,,,,,,,,,,,,,,,,,,
52,2.2195544242858887,0.6145612597465515,1.575382947921753,0.38720291018486025,0.0,-3.141592675445488,-7.657972034280647e-10,0.5001183748245239,0.5001180171966553,0.6132540106773376,1.573520541191101,0.38773749679327013,0.0,-3.141592735050133,4.004626674714018e-08,0.5001087784767151,0.5001085996627808,,,,,,,,,,,,,,,,,,,,,,,,,,,,,,,,,,,,,,,,,,,,,,,,,,,,,,,,,,,,,,,,,,,,,,,,,,,,,,,,,,,,,,,,,,,,,,,,,,,,,,,,,,,,,,,,,,,,,,,,,,,,,,,,,,,,,,1.6411732417509484e-07,2.0418778490238765e-07,-2.2810506550285936e-07,0.0,6.403255525810891e-08,4.503982520276395e-09,-0.0005957069806754589,-0.0005933242500759661,9.663963851380686e-08,1.111781813278867e-07,-1.6271944502932456e-07,0.0,3.1280589496418543e-07,-1.5447113810296287e-07,0.0005473225028254092,0.0005460724350996315,,,,,,,,,,,,,,,,,,,,,,,,,,,,,,,,,,,,,,,,,,,,,,,,,,,,,,,,,,,,,,,,,,,,,,,,,,
53,2.240962028503418,0.6145613193511963,1.575382947921753,0.38720290273427965,0.0,-3.141592675445488,-6.128915153169601e-10,0.5000978708267212,0.5000975728034973,0.6132540106773376,1.573520541191101,0.38773749679327013,0.0,-3.141592735050133,4.004626674714018e-08,0.5001087784767151,0.5001085996627808,,,,,,,,,,,,,,,,,,,,,,,,,,,,,,,,,,,,,,,,,,,,,,,,,,,,,,,,,,,,,,,,,,,,,,,,,,,,,,,,,,,,,,,,,,,,,,,,,,,,,,,,,,,,,,,,,,,,,,,,,,,,,,,,,,,,,,1.356981158551207e-07,1.6884405340533704e-07,-1.8854230177112186e-07,0.0,5.312328354989404e-08,3.621656086139069e-09,-0.0004925063112750649,-0.0004905997775495052,9.663963851380686e-08,1.111781813278867e-07,-1.6271944502932456e-07,0.0,3.1280589496418543e-07,-1.5447113810296287e-07,0.0005473225028254092,0.0005460724350996315,,,,,,,,,,,,,,,,,,,,,,,,,,,,,,,,,,,,,,,,,,,,,,,,,,,,,,,,,,,,,,,,,,,,,,,,,,
54,2.261873960494995,0.6145613193511963,1.575382947921753,0.38720290273427965,0.0,-3.141592675445488,-6.128915153169601e-10,0.5000978708267212,0.5000975728034973,0.6132540106773376,1.573520541191101,0.38773749679327013,0.0,-3.141592735050133,3.484137423015454e-08,0.5000908374786377,0.5000907182693481,,,,,,,,,,,,,,,,,,,,,,,,,,,,,,,,,,,,,,,,,,,,,,,,,,,,,,,,,,,,,,,,,,,,,,,,,,,,,,,,,,,,,,,,,,,,,,,,,,,,,,,,,,,,,,,,,,,,,,,,,,,,,,,,,,,,,,1.356981158551207e-07,1.6884405340533704e-07,-1.8854230177112186e-07,0.0,5.312328354989404e-08,3.621656086139069e-09,-0.0004925063112750649,-0.0004905997775495052,8.071171464507643e-08,9.286726765367348e-08,-1.3585287206296925e-07,0.0,2.5344604637211887e-07,-1.3603521153982e-07,0.0004570655873976648,0.0004560629022307694,,,,,,,,,,,,,,,,,,,,,,,,,,,,,,,,,,,,,,,,,,,,,,,,,,,,,,,,,,,,,,,,,,,,,,,,,,
55,2.283266067504883,0.6145613193511963,1.575382947921753,0.38720289528369906,0.0,-3.141592675445488,-4.899798899948848e-10,0.500080943107605,0.5000807046890259,0.6132540106773376,1.573520541191101,0.38773748934268953,0.0,-3.141592735050133,3.0503088055411354e-08,0.5000766515731812,0.5000765323638916,,,,,,,,,,,,,,,,,,,,,,,,,,,,,,,,,,,,,,,,,,,,,,,,,,,,,,,,,,,,,,,,,,,,,,,,,,,,,,,,,,,,,,,,,,,,,,,,,,,,,,,,,,,,,,,,,,,,,,,,,,,,,,,,,,,,,,1.121999133602003e-07,1.3961832223685633e-07,-1.5584147661229508e-07,0.0,4.407257847560686e-08,2.910135021849669e-09,-0.00040718415402807295,-0.00040566036477684975,6.808659236412495e-08,7.835166115910397e-08,-1.1456496196160515e-07,0.0,2.0758544394539058e-07,-1.2035133067911374e-07,0.00038553320337086916,0.0003847202751785517,,,,,,,,,,,,,,,,,,,,,,,,,,,,,,,,,,,,,,,,,,,,,,,,,,,,,,,,,,,,,,,,,,,,,,,,,,
56,2.304107666015625,0.6145613193511963,1.575382947921753,0.38720289528369906,0.0,-3.141592675445488,-4.899798899948848e-10,0.500080943107605,0.5000807046890259,0.6132540106773376,1.573520541191101,0.38773748934268953,0.0,-3.141592735050133,3.026412898066155e-08,0.5000758767127991,0.5000757575035095,,,,,,,,,,,,,,,,,,,,,,,,,,,,,,,,,,,,,,,,,,,,,,,,,,,,,,,,,,,,,,,,,,,,,,,,,,,,,,,,,,,,,,,,,,,,,,,,,,,,,,,,,,,,,,,,,,,,,,,,,,,,,,,,,,,,,,1.121999133602003e-07,1.3961832223685633e-07,-1.5584147661229508e-07,0.0,4.407257847560686e-08,2.910135021849669e-09,-0.00040718415402807295,-0.00040566036477684975,6.740869196164567e-08,7.757217446169307e-08,-1.1342216055254539e-07,0.0,2.0515689413969085e-07,-1.1947896894071164e-07,0.00038169260369613767,0.0003808896872214973,,,,,,,,,,,,,,,,,,,,,,,,,,,,,,,,,,,,,,,,,,,,,,,,,,,,,,,,,,,,,,,,,,,,,,,,,,
57,2.32643461227417,0.6145613193511963,1.575382947921753,0.38720288783311846,0.0,-3.141592675445488,-3.9593134326665336e-10,0.5000675916671753,0.5000673532485962,0.6132540106773376,1.573520541191101,0.38773748189210894,0.0,-3.141592675445488,2.6041238498919483e-08,0.5000627040863037,0.5000626444816589,,,,,,,,,,,,,,,,,,,,,,,,,,,,,,,,,,,,,,,,,,,,,,,,,,,,,,,,,,,,,,,,,,,,,,,,,,,,,,,,,,,,,,,,,,,,,,,,,,,,,,,,,,,,,,,,,,,,,,,,,,,,,,,,,,,,,,9.370410225528758e-08,1.1661216348102244e-07,-1.301102372508467e-07,0.0,3.6924628687984296e-08,2.363713003106227e-09,-0.0003400309360586107,-0.0003387999313417822,5.573819095161525e-08,6.415157116634873e-08,-9.375044385251385e-08,0.0,1.639511850726194e-07,-1.0391151050725966e-07,0.0003155737940687686,0.00031493999995291233,,,,,,,,,,,,,,,,,,,,,,,,,,,,,,,,,,,,,,,,,,,,,,,,,,,,,,,,,,,,,,,,,,,,,,,,,,
58,2.3476758003234863,0.6145613193511963,1.575382947921753,0.38720288783311846,0.0,-3.141592675445488,-3.195745057471555e-10,0.5000564455986023,0.500056266784668,0.6132540106773376,1.573520541191101,0.38773748189210894,0.0,-3.141592675445488,2.6041238498919483e-08,0.5000627040863037,0.5000626444816589,,,,,,,,,,,,,,,,,,,,,,,,,,,,,,,,,,,,,,,,,,,,,,,,,,,,,,,,,,,,,,,,,,,,,,,,,,,,,,,,,,,,,,,,,,,,,,,,,,,,,,,,,,,,,,,,,,,,,,,,,,,,,,,,,,,,,,7.825706660469223e-08,9.739687101273375e-08,-1.0862748922590981e-07,0.0,3.0935865424908116e-08,1.918365688524659e-09,-0.0002839527151081711,-0.00028295934316702187,5.573819095161525e-08,6.415157116634873e-08,-9.375044385251385e-08,0.0,1.639511850726194e-07,-1.0391151050725966e-07,0.0003155737940687686,0.00031493999995291233,,,,,,,,,,,,,,,,,,,,,,,,,,,,,,,,,,,,,,,,,,,,,,,,,,,,,,,,,,,,,,,,,,,,,,,,,,
59,2.36885142326355,0.6145613193511963,1.575382947921753,0.38720288783311846,0.0,-3.141592675445488,-3.195745057471555e-10,0.5000564455986023,0.500056266784668,0.6132540106773376,1.573520541191101,0.38773748189210894,0.0,-3.141592675445488,2.237325347209662e-08,0.5000518560409546,0.5000517964363098,,,,,,,,,,,,,,,,,,,,,,,,,,,,,,,,,,,,,,,,,,,,,,,,,,,,,,,,,,,,,,,,,,,,,,,,,,,,,,,,,,,,,,,,,,,,,,,,,,,,,,,,,,,,,,,,,,,,,,,,,,,,,,,,,,,,,,7.825706660469223e-08,9.739687101273375e-08,-1.0862748922590981e-07,0.0,3.0935865424908116e-08,1.918365688524659e-09,-0.0002839527151081711,-0.00028295934316702187,4.6087912153325306e-08,5.305278349965192e-08,-7.749048336336273e-08,0.0,1.3086342676160712e-07,-9.015229807118885e-08,0.0002609084185678512,0.0002604092296678573,,,,,,,,,,,,,,,,,,,,,,,,,,,,,,,,,,,,,,,,,,,,,,,,,,,,,,,,,,,,,,,,,,,,,,,,,,
60,2.390180826187134,0.6145613193511963,1.575382947921753,0.38720288038253786,0.0,-3.141592675445488,-2.607442317614783e-10,0.5000476241111755,0.5000474452972412,0.6132540106773376,1.573520541191101,0.38773748189210894,0.0,-3.141592675445488,2.237325347209662e-08,0.5000518560409546,0.5000517964363098,,,,,,,,,,,,,,,,,,,,,,,,,,,,,,,,,,,,,,,,,,,,,,,,,,,,,,,,,,,,,,,,,,,,,,,,,,,,,,,,,,,,,,,,,,,,,,,,,,,,,,,,,,,,,,,,,,,,,,,,,,,,,,,,,,,,,,6.601364077596372e-08,8.216571956154439e-08,-9.16055356015022e-08,0.0,2.6174229006414862e-08,1.5737490199896342e-09,-0.00023950911418069154,-0.00023869883443694562,4.6087912153325306e-08,5.305278349965192e-08,-7.749048336336273e-08,0.0,1.3086342676160712e-07,-9.015229807118885e-08,0.0002609084185678512,0.0002604092296678573,,,,,,,,,,,,,,,,,,,,,,,,,,,,,,,,,,,,,,,,,,,,,,,,,,,,,,,,,,,,,,,,,,,,,,,,,,
61,2.4119479656219482,0.6145613193511963,1.575382947921753,0.38720288038253786,0.0,-3.141592675445488,-2.1249819959212601e-10,0.5000401735305786,0.5000400543212891,0.6132540106773376,1.573520541191101,0.38773748189210894,0.0,-3.141592675445488,1.9194636990960134e-08,0.5000428557395935,0.5000427961349487,,,,,,,,,,,,,,,,,,,,,,,,,,,,,,,,,,,,,,,,,,,,,,,,,,,,,,,,,,,,,,,,,,,,,,,,,,,,,,,,,,,,,,,,,,,,,,,,,,,,,,,,,,,,,,,,,,,,,,,,,,,,,,,,,,,,,,5.568606553651989e-08,6.931644236374268e-08,-7.7250959407138e-08,0.0,2.214528649346903e-08,1.289856443875692e-09,-0.00020202173618599772,-0.00020136154489591718,3.810835025319648e-08,4.3874127442222743e-08,-6.405071673043494e-08,0.0,1.043203283757066e-07,-7.804179347203899e-08,0.00021571248362306505,0.00021532030950766057,,,,,,,,,,,,,,,,,,,,,,,,,,,,,,,,,,,,,,,,,,,,,,,,,,,,,,,,,,,,,,,,,,,,,,,,,,
62,2.4338324069976807,0.6145613193511963,1.575382947921753,0.38720288038253786,0.0,-3.141592675445488,-2.099476009709278e-10,0.5000397562980652,0.5000396370887756,0.6132540106773376,1.573520541191101,0.38773747444152834,0.0,-3.141592675445488,1.6716644068992537e-08,0.5000361800193787,0.5000361204147339,,,,,,,,,,,,,,,,,,,,,,,,,,,,,,,,,,,,,,,,,,,,,,,,,,,,,,,,,,,,,,,,,,,,,,,,,,,,,,,,,,,,,,,,,,,,,,,,,,,,,,,,,,,,,,,,,,,,,,,,,,,,,,,,,,,,,,5.513139811341716e-08,6.862654799988377e-08,-7.648039712648824e-08,0.0,2.1929292159938996e-08,1.2753016420674612e-09,-0.00020000904623884708,-0.000199356785742566,3.214756105762717e-08,3.7016391729594034e-08,-5.4014098083143836e-08,0.0,8.506956561404877e-08,-6.847434974588396e-08,0.0001819527242332697,0.00018163741333410144,,,,,,,,,,,,,,,,,,,,,,,,,,,,,,,,,,,,,,,,,,,,,,,,,,,,,,,,,,,,,,,,,,,,,,,,,,
63,2.4558322429656982,0.6145613193511963,1.575382947921753,0.38720288038253786,0.0,-3.141592675445488,-1.6677186021052393e-10,0.5000328421592712,0.5000327825546265,0.6132540106773376,1.573520541191101,0.38773747444152834,0.0,-3.141592675445488,1.6580752770778417e-08,0.50003582239151,0.5000357627868652,,,,,,,,,,,,,,,,,,,,,,,,,,,,,,,,,,,,,,,,,,,,,,,,,,,,,,,,,,,,,,,,,,,,,,,,,,,,,,,,,,,,,,,,,,,,,,,,,,,,,,,,,,,,,,,,,,,,,,,,,,,,,,,,,,,,,,4.5584812369270367e-08,5.6747719412442166e-08,-6.321565138023288e-08,0.0,1.8192004347383772e-08,1.0201327560466211e-09,-0.00016535933536943048,-0.00016484135994687676,3.1827262603201234e-08,3.664812808779061e-08,-5.347524378862545e-08,0.0,8.405154261481584e-08,-6.794603280013689e-08,0.00018014013767242432,0.00017982887220568955,,,,,,,,,,,,,,,,,,,,,,,,,,,,,,,,,,,,,,,,,,,,,,,,,,,,,,,,,,,,,,,,,,,,,,,,,,
64,2.4772589206695557,0.6145613193511963,1.575382947921753,0.38720288038253786,0.0,-3.141592675445488,-1.6677186021052393e-10,0.5000328421592712,0.5000327825546265,0.6132540106773376,1.573520541191101,0.38773747444152834,0.0,-3.141592675445488,1.4306985818279827e-08,0.5000299215316772,0.5000298619270325,,,,,,,,,,,,,,,,,,,,,,,,,,,,,,,,,,,,,,,,,,,,,,,,,,,,,,,,,,,,,,,,,,,,,,,,,,,,,,,,,,,,,,,,,,,,,,,,,,,,,,,,,,,,,,,,,,,,,,,,,,,,,,,,,,,,,,4.5584812369270367e-08,5.6747719412442166e-08,-6.321565138023288e-08,0.0,1.8192004347383772e-08,1.0201327560466211e-09,-0.00016535933536943048,-0.00016484135994687676,2.658157072232825e-08,3.0612401502594366e-08,-4.464593317266008e-08,0.0,6.76307365665707e-08,-5.905815214646282e-08,0.0001504339015809819,0.00015018752310425043,,,,,,,,,,,,,,,,,,,,,,,,,,,,,,,,,,,,,,,,,,,,,,,,,,,,,,,,,,,,,,,,,,,,,,,,,,
65,2.49853777885437,0.6145613193511963,1.575382947921753,0.38720287293195726,0.0,-3.141592675445488,-1.3388362640753826e-10,0.5000274181365967,0.5000273585319519,0.6132540106773376,1.573520541191101,0.38773747444152834,0.0,-3.141592675445488,1.4306985818279827e-08,0.5000299215316772,0.5000298619270325,,,,,,,,,,,,,,,,,,,,,,,,,,,,,,,,,,,,,,,,,,,,,,,,,,,,,,,,,,,,,,,,,,,,,,,,,,,,,,,,,,,,,,,,,,,,,,,,,,,,,,,,,,,,,,,,,,,,,,,,,,,,,,,,,,,,,,3.8070268715273414e-08,4.7396863323001526e-08,-5.277791359503681e-08,0.0,1.5241031547930106e-08,8.246751614926495e-10,-0.0001380881149088964,-0.00013767241034656763,2.658157072232825e-08,3.0612401502594366e-08,-4.464593317266008e-08,0.0,6.76307365665707e-08,-5.905815214646282e-08,0.0001504339015809819,0.00015018752310425043,,,,,,,,,,,,,,,,,,,,,,,,,,,,,,,,,,,,,,,,,,,,,,,,,,,,,,,,,,,,,,,,,,,,,,,,,,
66,2.5201449394226074,0.6145613193511963,1.575382947921753,0.38720287293195726,0.0,-3.141592675445488,-1.3388362640753826e-10,0.5000274181365967,0.5000273585319519,0.6132540106773376,1.573520541191101,0.38773747444152834,0.0,-3.141592675445488,1.2332241894341678e-08,0.5000249743461609,0.5000249147415161,,,,,,,,,,,,,,,,,,,,,,,,,,,,,,,,,,,,,,,,,,,,,,,,,,,,,,,,,,,,,,,,,,,,,,,,,,,,,,,,,,,,,,,,,,,,,,,,,,,,,,,,,,,,,,,,,,,,,,,,,,,,,,,,,,,,,,3.8070268715273414e-08,4.7396863323001526e-08,-5.277791359503681e-08,0.0,1.5241031547930106e-08,8.246751614926495e-10,-0.0001380881149088964,-0.00013767241034656763,2.22005187566765e-08,2.5570212613956755e-08,-3.7274482167504175e-08,0.0,5.433964389567336e-08,-5.125377100512196e-08,0.0001256264076801017,0.0001254319940926507,,,,,,,,,,,,,,,,,,,,,,,,,,,,,,,,,,,,,,,,,,,,,,,,,,,,,,,,,,,,,,,,,,,,,,,,,,
67,2.5415804386138916,0.6145613193511963,1.575382947921753,0.38720287293195726,0.0,-3.141592675445488,-1.0598795452398946e-10,0.5000227093696594,0.5000226497650146,0.6132540106773376,1.573520541191101,0.38773747444152834,0.0,-3.141592675445488,1.0708565589823138e-08,0.5000210404396057,0.5000210404396057,,,,,,,,,,,,,,,,,,,,,,,,,,,,,,,,,,,,,,,,,,,,,,,,,,,,,,,,,,,,,,,,,,,,,,,,,,,,,,,,,,,,,,,,,,,,,,,,,,,,,,,,,,,,,,,,,,,,,,,,,,,,,,,,,,,,,,3.1477821238468096e-08,3.9192538991983383e-08,-4.362403416280358e-08,0.0,1.2643608826579111e-08,6.58064158720606e-10,-0.00011416563211241737,-0.00011383664241293445,1.8727908113191916e-08,2.1573409725306192e-08,-3.143362548030382e-08,0.0,4.4131532206392876e-08,-4.477358217513938e-08,0.00010596543143037707,0.00010581046080915257,,,,,,,,,,,,,,,,,,,,,,,,,,,,,,,,,,,,,,,,,,,,,,,,,,,,,,,,,,,,,,,,,,,,,,,,,,
68,2.5636682510375977,0.6145613193511963,1.575382947921753,0.38720287293195726,0.0,-3.141592675445488,-8.584955663026861e-11,0.5000191330909729,0.5000190734863281,0.6132540106773376,1.573520541191101,0.38773747444152834,0.0,-3.141592675445488,1.0619731760641571e-08,0.5000208616256714,0.5000208616256714,,,,,,,,,,,,,,,,,,,,,,,,,,,,,,,,,,,,,,,,,,,,,,,,,,,,,,,,,,,,,,,,,,,,,,,,,,,,,,,,,,,,,,,,,,,,,,,,,,,,,,,,,,,,,,,,,,,,,,,,,,,,,,,,,,,,,,2.6553149012897848e-08,3.306377394096671e-08,-3.678816895558157e-08,0.0,1.0697442931473233e-08,5.374949929581874e-10,-9.629670967115089e-05,-9.603030048310757e-05,1.8541335577992868e-08,2.1359136681553537e-08,-3.112010560357703e-08,0.0,4.359374017326445e-08,-4.441706380475807e-08,0.00010490982822375372,0.00010475692397449166,,,,,,,,,,,,,,,,,,,,,,,,,,,,,,,,,,,,,,,,,,,,,,,,,,,,,,,,,,,,,,,,,,,,,,,,,,
69,2.5860302448272705,0.6145613193511963,1.575382947921753,0.38720287293195726,0.0,-3.141592675445488,-8.584955663026861e-11,0.5000191330909729,0.5000190734863281,0.6132540106773376,1.573520541191101,0.38773747444152834,0.0,-3.141592675445488,9.136666534459437e-09,0.5000174045562744,0.5000174045562744,,,,,,,,,,,,,,,,,,,,,,,,,,,,,,,,,,,,,,,,,,,,,,,,,,,,,,,,,,,,,,,,,,,,,,,,,,,,,,,,,,,,,,,,,,,,,,,,,,,,,,,,,,,,,,,,,,,,,,,,,,,,,,,,,,,,,,2.6553149012897848e-08,3.306377394096671e-08,-3.678816895558157e-08,0.0,1.0697442931473233e-08,5.374949929581874e-10,-9.629670967115089e-05,-9.603030048310757e-05,1.5485445814533705e-08,1.7841173871602223e-08,-2.5981869100633048e-08,0.0,3.491384958920207e-08,-3.844175822109719e-08,8.76095364219509e-05,8.748974505579099e-05,,,,,,,,,,,,,,,,,,,,,,,,,,,,,,,,,,,,,,,,,,,,,,,,,,,,,,,,,,,,,,,,,,,,,,,,,,
70,2.607142210006714,0.6145613193511963,1.575382947921753,0.38720287293195726,0.0,-3.141592675445488,-6.76961681156385e-11,0.5000157952308655,0.5000157952308655,0.6132540106773376,1.573520541191101,0.38773747444152834,0.0,-3.141592675445488,9.136666534459437e-09,0.5000174045562744,0.5000174045562744,,,,,,,,,,,,,,,,,,,,,,,,,,,,,,,,,,,,,,,,,,,,,,,,,,,,,,,,,,,,,,,,,,,,,,,,,,,,,,,,,,,,,,,,,,,,,,,,,,,,,,,,,,,,,,,,,,,,,,,,,,,,,,,,,,,,,,2.1954994267048278e-08,2.7340464114899987e-08,-3.040764795514406e-08,0.0,8.874068591069317e-09,4.280480969676148e-10,-7.961419760249555e-05,-7.940419163787737e-05,1.5485445814533705e-08,1.7841173871602223e-08,-2.5981869100633048e-08,0.0,3.491384958920207e-08,-3.844175822109719e-08,8.76095364219509e-05,8.748974505579099e-05,,,,,,,,,,,,,,,,,,,,,,,,,,,,,,,,,,,,,,,,,,,,,,,,,,,,,,,,,,,,,,,,,,,,,,,,,,
71,2.628387451171875,0.6145613193511963,1.575382947921753,0.38720287293195726,0.0,-3.141592675445488,-6.76961681156385e-11,0.5000157952308655,0.5000157952308655,0.6132540106773376,1.573520541191101,0.38773747444152834,0.0,-3.141592675445488,7.853944161695381e-09,0.5000145435333252,0.5000145435333252,,,,,,,,,,,,,,,,,,,,,,,,,,,,,,,,,,,,,,,,,,,,,,,,,,,,,,,,,,,,,,,,,,,,,,,,,,,,,,,,,,,,,,,,,,,,,,,,,,,,,,,,,,,,,,,,,,,,,,,,,,,,,,,,,,,,,,2.1954994267048278e-08,2.7340464114899987e-08,-3.040764795514406e-08,0.0,8.874068591069317e-09,4.280480969676148e-10,-7.961419760249555e-05,-7.940419163787737e-05,1.2933210058463374e-08,1.490263557002436e-08,-2.169198154433616e-08,0.0,2.7910674660347468e-08,-3.3229213158847415e-08,7.316217670449987e-05,7.306873158086091e-05,,,,,,,,,,,,,,,,,,,,,,,,,,,,,,,,,,,,,,,,,,,,,,,,,,,,,,,,,,,,,,,,,,,,,,,,,,
72,2.649949789047241,0.6145613193511963,1.575382947921753,0.38720287293195726,0.0,-3.141592675445488,-5.3254605586472437e-11,0.5000130534172058,0.5000130534172058,0.6132540106773376,1.573520541191101,0.38773746699094774,0.0,-3.141592675445488,6.803198004945443e-09,0.5000122785568237,0.5000122785568237,,,,,,,,,,,,,,,,,,,,,,,,,,,,,,,,,,,,,,,,,,,,,,,,,,,,,,,,,,,,,,,,,,,,,,,,,,,,,,,,,,,,,,,,,,,,,,,,,,,,,,,,,,,,,,,,,,,,,,,,,,,,,,,,,,,,,,1.8153311742707956e-08,2.2608137584256838e-08,-2.5133735093163523e-08,0.0,7.3617778539869505e-09,3.401487702614503e-10,-6.582178320968524e-05,-6.565662624780089e-05,1.0909828596084026e-08,1.2573275753879898e-08,-1.82928605596544e-08,0.0,2.2550239009433426e-08,-2.8926272932494612e-08,6.171203858684748e-05,6.163847137941048e-05,,,,,,,,,,,,,,,,,,,,,,,,,,,,,,,,,,,,,,,,,,,,,,,,,,,,,,,,,,,,,,,,,,,,,,,,,,
73,2.6713359355926514,0.6145613193511963,1.575382947921753,0.38720287293195726,0.0,-3.141592675445488,-4.232506012336046e-11,0.5000109076499939,0.5000109076499939,0.6132540106773376,1.573520541191101,0.38773746699094774,0.0,-3.141592675445488,6.745816794051507e-09,0.5000121593475342,0.5000121593475342,,,,,,,,,,,,,,,,,,,,,,,,,,,,,,,,,,,,,,,,,,,,,,,,,,,,,,,,,,,,,,,,,,,,,,,,,,,,,,,,,,,,,,,,,,,,,,,,,,,,,,,,,,,,,,,,,,,,,,,,,,,,,,,,,,,,,,1.5160706468009266e-08,1.8882895247429587e-08,-2.0983852877520803e-08,0.0,6.167621968700132e-09,2.731123938115587e-10,-5.496638914337382e-05,-5.483517816173844e-05,1.0801748828725977e-08,1.2448375663609568e-08,-1.811044292310271e-08,0.0,2.2268132227054593e-08,-2.8690676501241796e-08,6.109727110015228e-05,6.102474799263291e-05,,,,,,,,,,,,,,,,,,,,,,,,,,,,,,,,,,,,,,,,,,,,,,,,,,,,,,,,,,,,,,,,,,,,,,,,,,
74,2.6942946910858154,0.6145613193511963,1.575382947921753,0.38720287293195726,0.0,-3.141592675445488,-4.232506012336046e-11,0.5000109076499939,0.5000109076499939,0.6132540106773376,1.573520541191101,0.38773746699094774,0.0,-3.141592675445488,5.74050140755844e-09,0.5000100135803223,0.5000100135803223,,,,,,,,,,,,,,,,,,,,,,,,,,,,,,,,,,,,,,,,,,,,,,,,,,,,,,,,,,,,,,,,,,,,,,,,,,,,,,,,,,,,,,,,,,,,,,,,,,,,,,,,,,,,,,,,,,,,,,,,,,,,,,,,,,,,,,1.5160706468009266e-08,1.8882895247429587e-08,-2.0983852877520803e-08,0.0,6.167621968700132e-09,2.731123938115587e-10,-5.496638914337382e-05,-5.483517816173844e-05,8.931467121442438e-09,1.0294765040441689e-08,-1.496938750733534e-08,0.0,1.7503332117030368e-08,-2.4541657595023025e-08,5.051368134445511e-05,5.0458522309781983e-05,,,,,,,,,,,,,,,,,,,,,,,,,,,,,,,,,,,,,,,,,,,,,,,,,,,,,,,,,,,,,,,,,,,,,,,,,,
75,2.7161264419555664,0.6145613193511963,1.575382947921753,0.38720286548137667,0.0,-3.141592675445488,-3.35499961146013e-11,0.5000091195106506,0.5000091195106506,0.6132540106773376,1.573520541191101,0.38773746699094774,0.0,-3.141592675445488,5.74050140755844e-09,0.5000100135803223,0.5000100135803223,,,,,,,,,,,,,,,,,,,,,,,,,,,,,,,,,,,,,,,,,,,,,,,,,,,,,,,,,,,,,,,,,,,,,,,,,,,,,,,,,,,,,,,,,,,,,,,,,,,,,,,,,,,,,,,,,,,,,,,,,,,,,,,,,,,,,,1.2661483417275576e-08,1.577127406449108e-08,-1.751917366732414e-08,0.0,5.166644889698091e-09,2.1926453708243088e-10,-4.5901277189841494e-05,-4.579730375553481e-05,8.931467121442438e-09,1.0294765040441689e-08,-1.496938750733534e-08,0.0,1.7503332117030368e-08,-2.4541657595023025e-08,5.051368134445511e-05,5.0458522309781983e-05,,,,,,,,,,,,,,,,,,,,,,,,,,,,,,,,,,,,,,,,,,,,,,,,,,,,,,,,,,,,,,,,,,,,,,,,,,
76,2.7376937866210938,0.6145613193511963,1.575382947921753,0.38720286548137667,0.0,-3.141592675445488,-3.35499961146013e-11,0.5000091195106506,0.5000091195106506,0.6132540106773376,1.573520541191101,0.38773746699094774,0.0,-3.141592675445488,4.881057336092454e-09,0.5000082850456238,0.5000082850456238,,,,,,,,,,,,,,,,,,,,,,,,,,,,,,,,,,,,,,,,,,,,,,,,,,,,,,,,,,,,,,,,,,,,,,,,,,,,,,,,,,,,,,,,,,,,,,,,,,,,,,,,,,,,,,,,,,,,,,,,,,,,,,,,,,,,,,1.2661483417275576e-08,1.577127406449108e-08,-1.751917366732414e-08,0.0,5.166644889698091e-09,2.1926453708243088e-10,-4.5901277189841494e-05,-4.579730375553481e-05,7.3850370263528475e-09,8.513301175128163e-09,-1.237310964796734e-08,0.0,1.3720580227527535e-08,-2.0969368463852334e-08,4.1763432818697765e-05,4.1721803427208215e-05,,,,,,,,,,,,,,,,,,,,,,,,,,,,,,,,,,,,,,,,,,,,,,,,,,,,,,,,,,,,,,,,,,,,,,,,,,
77,2.7597978115081787,0.6145613193511963,1.575382947921753,0.38720286548137667,0.0,-3.141592675445488,-2.6517728984876143e-11,0.5000076293945312,0.5000076293945312,0.6132540106773376,1.573520541191101,0.38773746699094774,0.0,-3.141592675445488,4.881057336092454e-09,0.5000082850456238,0.5000082850456238,,,,,,,,,,,,,,,,,,,,,,,,,,,,,,,,,,,,,,,,,,,,,,,,,,,,,,,,,,,,,,,,,,,,,,,,,,,,,,,,,,,,,,,,,,,,,,,,,,,,,,,,,,,,,,,,,,,,,,,,,,,,,,,,,,,,,,1.0574208175739841e-08,1.3172352097967632e-08,-1.4626487576663294e-08,0.0,4.32809343919871e-09,1.7549807440619958e-10,-3.833119262708351e-05,-3.8249039789661765e-05,7.3850370263528475e-09,8.513301175128163e-09,-1.237310964796734e-08,0.0,1.3720580227527535e-08,-2.0969368463852334e-08,4.1763432818697765e-05,4.1721803427208215e-05,,,,,,,,,,,,,,,,,,,,,,,,,,,,,,,,,,,,,,,,,,,,,,,,,,,,,,,,,,,,,,,,,,,,,,,,,,
78,2.78188419342041,0.6145613193511963,1.575382947921753,0.38720286548137667,0.0,-3.141592675445488,-2.089199820087817e-11,0.500006377696991,0.500006377696991,0.6132540106773376,1.573520541191101,0.38773746699094774,0.0,-3.141592675445488,4.147113319419304e-09,0.5000068545341492,0.5000068545341492,,,,,,,,,,,,,,,,,,,,,,,,,,,,,,,,,,,,,,,,,,,,,,,,,,,,,,,,,,,,,,,,,,,,,,,,,,,,,,,,,,,,,,,,,,,,,,,,,,,,,,,,,,,,,,,,,,,,,,,,,,,,,,,,,,,,,,8.831213982318786e-09,1.1001755062522989e-08,-1.2211544664353369e-08,0.0,3.6258773761232987e-09,1.4052514707429964e-10,-3.200957507942803e-05,-3.1944873626343906e-05,6.106448680043286e-09,7.040590332962893e-09,-1.02272013080551e-08,0.0,1.0723145038582516e-08,-1.789834414012148e-08,3.452895180089399e-05,3.4497814340284094e-05,,,,,,,,,,,,,,,,,,,,,,,,,,,,,,,,,,,,,,,,,,,,,,,,,,,,,,,,,,,,,,,,,,,,,,,,,,
79,2.8038079738616943,0.6145613193511963,1.575382947921753,0.38720286548137667,0.0,-3.141592675445488,-2.089199820087817e-11,0.500006377696991,0.500006377696991,0.6132540106773376,1.573520541191101,0.38773746699094774,0.0,-3.141592675445488,3.5515037577482644e-09,0.5000057220458984,0.5000057220458984,,,,,,,,,,,,,,,,,,,,,,,,,,,,,,,,,,,,,,,,,,,,,,,,,,,,,,,,,,,,,,,,,,,,,,,,,,,,,,,,,,,,,,,,,,,,,,,,,,,,,,,,,,,,,,,,,,,,,,,,,,,,,,,,,,,,,,8.831213982318786e-09,1.1001755062522989e-08,-1.2211544664353369e-08,0.0,3.6258773761232987e-09,1.4052514707429964e-10,-3.200957507942803e-05,-3.1944873626343906e-05,5.100198041674275e-09,5.881073406044379e-09,-8.538530771318165e-09,0.0,8.464451362044656e-09,-1.539076954770735e-08,2.883490924432408e-05,2.8811507945647463e-05,,,,,,,,,,,,,,,,,,,,,,,,,,,,,,,,,,,,,,,,,,,,,,,,,,,,,,,,,,,,,,,,,,,,,,,,,,
80,2.825594425201416,0.6145613193511963,1.575382947921753,0.38720286548137667,0.0,-3.141592675445488,-1.6400308194830515e-11,0.500005304813385,0.500005304813385,0.6132540106773376,1.573520541191101,0.38773746699094774,0.0,-3.141592675445488,3.5515037577482644e-09,0.5000057220458984,0.5000057220458984,,,,,,,,,,,,,,,,,,,,,,,,,,,,,,,,,,,,,,,,,,,,,,,,,,,,,,,,,,,,,,,,,,,,,,,,,,,,,,,,,,,,,,,,,,,,,,,,,,,,,,,,,,,,,,,,,,,,,,,,,,,,,,,,,,,,,,7.3753225748873774e-09,9.189093930217496e-09,-1.0195219779518538e-08,0.0,3.037681217676891e-09,1.1169817848433183e-10,-2.6730524041340686e-05,-2.6679754228098318e-05,5.100198041674275e-09,5.881073406044379e-09,-8.538530771318165e-09,0.0,8.464451362044656e-09,-1.539076954770735e-08,2.883490924432408e-05,2.8811507945647463e-05,,,,,,,,,,,,,,,,,,,,,,,,,,,,,,,,,,,,,,,,,,,,,,,,,,,,,,,,,,,,,,,,,,,,,,,,,,
81,2.847217559814453,0.6145613193511963,1.575382947921753,0.38720286548137667,0.0,-3.141592675445488,-1.6400308194830515e-11,0.500005304813385,0.500005304813385,0.6132540106773376,1.573520541191101,0.38773746699094774,0.0,-3.141592675445488,3.0395566064100876e-09,0.500004768371582,0.500004768371582,,,,,,,,,,,,,,,,,,,,,,,,,,,,,,,,,,,,,,,,,,,,,,,,,,,,,,,,,,,,,,,,,,,,,,,,,,,,,,,,,,,,,,,,,,,,,,,,,,,,,,,,,,,,,,,,,,,,,,,,,,,,,,,,,,,,,,7.3753225748873774e-09,9.189093930217496e-09,-1.0195219779518538e-08,0.0,3.037681217676891e-09,1.1169817848433183e-10,-2.6730524041340686e-05,-2.6679754228098318e-05,4.259537167428107e-09,4.912292794756468e-09,-7.128728274352625e-09,0.0,6.658340545584451e-09,-1.3223561801112282e-08,2.4079852664726786e-05,2.406247949693352e-05,,,,,,,,,,,,,,,,,,,,,,,,,,,,,,,,,,,,,,,,,,,,,,,,,,,,,,,,,,,,,,,,,,,,,,,,,,
82,2.8702449798583984,0.6145613193511963,1.575382947921753,0.38720286548137667,0.0,-3.141592675445488,-1.2821402793627978e-11,0.5000044107437134,0.5000044107437134,0.6132540106773376,1.573520541191101,0.38773746699094774,0.0,-3.141592675445488,3.0395566064100876e-09,0.500004768371582,0.500004768371582,,,,,,,,,,,,,,,,,,,,,,,,,,,,,,,,,,,,,,,,,,,,,,,,,,,,,,,,,,,,,,,,,,,,,,,,,,,,,,,,,,,,,,,,,,,,,,,,,,,,,,,,,,,,,,,,,,,,,,,,,,,,,,,,,,,,,,6.159461829469137e-09,7.67508279153617e-09,-8.511906735009234e-09,0.0,2.5446311724408588e-09,8.896575143246821e-11,-2.23220995394513e-05,-2.228242374258116e-05,4.259537167428107e-09,4.912292794756468e-09,-7.128728274352625e-09,0.0,6.658340545584451e-09,-1.3223561801112282e-08,2.4079852664726786e-05,2.406247949693352e-05,,,,,,,,,,,,,,,,,,,,,,,,,,,,,,,,,,,,,,,,,,,,,,,,,,,,,,,,,,,,,,,,,,,,,,,,,,
83,2.8918986320495605,0.6145613193511963,1.575382947921753,0.38720286548137667,0.0,-3.141592675445488,-9.836964576237506e-12,0.5000036954879761,0.5000036358833313,0.6132540106773376,1.573520541191101,0.38773746699094774,0.0,-3.141592675445488,2.5773634337866724e-09,0.5000039339065552,0.5000039339065552,,,,,,,,,,,,,,,,,,,,,,,,,,,,,,,,,,,,,,,,,,,,,,,,,,,,,,,,,,,,,,,,,,,,,,,,,,,,,,,,,,,,,,,,,,,,,,,,,,,,,,,,,,,,,,,,,,,,,,,,,,,,,,,,,,,,,,5.093037103165443e-09,6.346367875664782e-09,-7.035545923628206e-09,0.0,2.11086703671981e-09,6.970851673671064e-11,-1.845500446506776e-05,-1.8424576410325244e-05,3.5218494787159216e-09,4.062972180918223e-09,-5.892279553165736e-09,0.0,5.1471604756159195e-09,-1.1256621412769618e-08,1.990861346712336e-05,1.989614247577265e-05,,,,,,,,,,,,,,,,,,,,,,,,,,,,,,,,,,,,,,,,,,,,,,,,,,,,,,,,,,,,,,,,,,,,,,,,,,
84,2.9127864837646484,0.6145613193511963,1.575382947921753,0.38720286548137667,0.0,-3.141592675445488,-9.836964576237506e-12,0.5000036954879761,0.5000036358833313,0.6132540106773376,1.573520541191101,0.38773746699094774,0.0,-3.141592675445488,2.203237592368623e-09,0.5000032782554626,0.5000032782554626,,,,,,,,,,,,,,,,,,,,,,,,,,,,,,,,,,,,,,,,,,,,,,,,,,,,,,,,,,,,,,,,,,,,,,,,,,,,,,,,,,,,,,,,,,,,,,,,,,,,,,,,,,,,,,,,,,,,,,,,,,,,,,,,,,,,,,5.093037103165443e-09,6.346367875664782e-09,-7.035545923628206e-09,0.0,2.11086703671981e-09,6.970851673671064e-11,-1.845500446506776e-05,-1.8424576410325244e-05,2.9415359037443523e-09,3.3932856524643285e-09,-4.919411988879574e-09,0.0,4.015066057405647e-09,-9.656538679791993e-09,1.6625557691440918e-05,1.6616641005384736e-05,,,,,,,,,,,,,,,,,,,,,,,,,,,,,,,,,,,,,,,,,,,,,,,,,,,,,,,,,,,,,,,,,,,,,,,,,,
85,2.934426784515381,0.6145613193511963,1.575382947921753,0.38720286548137667,0.0,-3.141592675445488,-7.501237478391154e-12,0.5000030398368835,0.5000030398368835,0.6132540106773376,1.573520541191101,0.38773746699094774,0.0,-3.141592675445488,2.203237592368623e-09,0.5000032782554626,0.5000032782554626,,,,,,,,,,,,,,,,,,,,,,,,,,,,,,,,,,,,,,,,,,,,,,,,,,,,,,,,,,,,,,,,,,,,,,,,,,,,,,,,,,,,,,,,,,,,,,,,,,,,,,,,,,,,,,,,,,,,,,,,,,,,,,,,,,,,,,4.2112424658569125e-09,5.24780219279819e-09,-5.815341097559212e-09,0.0,1.7509882432875656e-09,5.4567961260687525e-11,-1.5257847735483665e-05,-1.5234654711093754e-05,2.9415359037443523e-09,3.3932856524643285e-09,-4.919411988879574e-09,0.0,4.015066057405647e-09,-9.656538679791993e-09,1.6625557691440918e-05,1.6616641005384736e-05,,,,,,,,,,,,,,,,,,,,,,,,,,,,,,,,,,,,,,,,,,,,,,,,,,,,,,,,,,,,,,,,,,,,,,,,,,
86,2.95570707321167,0.6145613193511963,1.575382947921753,0.38720286548137667,0.0,-3.141592675445488,-7.501237478391154e-12,0.5000030398368835,0.5000030398368835,0.6132540106773376,1.573520541191101,0.38773746699094774,0.0,-3.141592675445488,1.8824146685858523e-09,0.5000027418136597,0.5000027418136597,,,,,,,,,,,,,,,,,,,,,,,,,,,,,,,,,,,,,,,,,,,,,,,,,,,,,,,,,,,,,,,,,,,,,,,,,,,,,,,,,,,,,,,,,,,,,,,,,,,,,,,,,,,,,,,,,,,,,,,,,,,,,,,,,,,,,,4.2112424658569125e-09,5.24780219279819e-09,-5.815341097559212e-09,0.0,1.7509882432875656e-09,5.4567961260687525e-11,-1.5257847735483665e-05,-1.5234654711093754e-05,2.456590486588084e-09,2.834510404170487e-09,-4.107193696256672e-09,0.0,3.1166180747277394e-09,-8.277979191007034e-09,1.3883899555366952e-05,1.3877704986953177e-05,,,,,,,,,,,,,,,,,,,,,,,,,,,,,,,,,,,,,,,,,,,,,,,,,,,,,,,,,,,,,,,,,,,,,,,,,,
87,2.9765615463256836,0.6145613193511963,1.575382947921753,0.38720286548137667,0.0,-3.141592675445488,-5.679591345841839e-12,0.5000025033950806,0.5000025033950806,0.6132540106773376,1.573520541191101,0.38773746699094774,0.0,-3.141592675445488,1.8824146685858523e-09,0.5000027418136597,0.5000027418136597,,,,,,,,,,,,,,,,,,,,,,,,,,,,,,,,,,,,,,,,,,,,,,,,,,,,,,,,,,,,,,,,,,,,,,,,,,,,,,,,,,,,,,,,,,,,,,,,,,,,,,,,,,,,,,,,,,,,,,,,,,,,,,,,,,,,,,3.481936960980647e-09,4.339195669444962e-09,-4.806655073963384e-09,0.0,1.4522827385121673e-09,4.2279554857138635e-11,-1.2614566912816372e-05,-1.2597015484061558e-05,2.456590486588084e-09,2.834510404170487e-09,-4.107193696256672e-09,0.0,3.1166180747277394e-09,-8.277979191007034e-09,1.3883899555366952e-05,1.3877704986953177e-05,,,,,,,,,,,,,,,,,,,,,,,,,,,,,,,,,,,,,,,,,,,,,,,,,,,,,,,,,,,,,,,,,,,,,,,,,,
88,2.997425079345703,0.6145613193511963,1.575382947921753,0.38720286548137667,0.0,-3.141592675445488,-4.46376876434007e-12,0.5000021457672119,0.5000021457672119,0.6132540106773376,1.573520541191101,0.38773746699094774,0.0,-3.141592675445488,1.6074883646410854e-09,0.5000023245811462,0.5000023245811462,,,,,,,,,,,,,,,,,,,,,,,,,,,,,,,,,,,,,,,,,,,,,,,,,,,,,,,,,,,,,,,,,,,,,,,,,,,,,,,,,,,,,,,,,,,,,,,,,,,,,,,,,,,,,,,,,,,,,,,,,,,,,,,,,,,,,,2.966682455252112e-09,3.697819828119009e-09,-4.094412364707978e-09,0.0,1.2404521854136874e-09,3.440614113059404e-11,-1.0747237865871284e-05,-1.0733449016697705e-05,2.0516921495072893e-09,2.367883666920534e-09,-3.4290557060501214e-09,0.0,2.405131649396708e-09,-7.091477627341192e-09,1.1594357602007221e-05,1.1590228496061172e-05,,,,,,,,,,,,,,,,,,,,,,,,,,,,,,,,,,,,,,,,,,,,,,,,,,,,,,,,,,,,,,,,,,,,,,,,,,
89,3.0198209285736084,0.6145613193511963,1.575382947921753,0.38720286548137667,0.0,-3.141592675445488,-4.3959267649607e-12,0.5000020861625671,0.5000020861625671,0.6132540106773376,1.573520541191101,0.38773746699094774,0.0,-3.141592675445488,1.3720460323440875e-09,0.5000019073486328,0.5000019073486328,,,,,,,,,,,,,,,,,,,,,,,,,,,,,,,,,,,,,,,,,,,,,,,,,,,,,,,,,,,,,,,,,,,,,,,,,,,,,,,,,,,,,,,,,,,,,,,,,,,,,,,,,,,,,,,,,,,,,,,,,,,,,,,,,,,,,,2.937150522797083e-09,3.6605163344916036e-09,-4.053549051974414e-09,0.0,1.2289058659575858e-09,3.39210708133475e-11,-1.0640166692610364e-05,-1.0626586117723491e-05,1.7135737273576979e-09,1.977529251462329e-09,-2.8628834858324126e-09,0.0,1.8433587989363787e-09,-6.071098734850011e-09,9.682375093689188e-06,9.679799404693767e-06,,,,,,,,,,,,,,,,,,,,,,,,,,,,,,,,,,,,,,,,,,,,,,,,,,,,,,,,,,,,,,,,,,,,,,,,,,
90,3.0408527851104736,0.6145613193511963,1.575382947921753,0.38720286548137667,0.0,-3.141592675445488,-3.269674895417518e-12,0.5000017285346985,0.5000017285346985,0.6132540106773376,1.573520541191101,0.38773746699094774,0.0,-3.141592675445488,1.3720460323440875e-09,0.5000019073486328,0.5000019073486328,,,,,,,,,,,,,,,,,,,,,,,,,,,,,,,,,,,,,,,,,,,,,,,,,,,,,,,,,,,,,,,,,,,,,,,,,,,,,,,,,,,,,,,,,,,,,,,,,,,,,,,,,,,,,,,,,,,,,,,,,,,,,,,,,,,,,,2.428446332913836e-09,3.0272451212454143e-09,-3.3504656826721657e-09,0.0,1.0191847366058937e-09,2.6156632415563763e-11,-8.796856491244398e-06,-8.78676200954942e-06,1.7135737273576979e-09,1.977529251462329e-09,-2.8628834858324126e-09,0.0,1.8433587989363787e-09,-6.071098734850011e-09,9.682375093689188e-06,9.679799404693767e-06,,,,,,,,,,,,,,,,,,,,,,,,,,,,,,,,,,,,,,,,,,,,,,,,,,,,,,,,,,,,,,,,,,,,,,,,,,
91,3.0630452632904053,0.6145613193511963,1.575382947921753,0.38720286548137667,0.0,-3.141592675445488,-3.269674895417518e-12,0.5000017285346985,0.5000017285346985,0.6132540106773376,1.573520541191101,0.38773746699094774,0.0,-3.141592675445488,1.170540886441529e-09,0.5000016093254089,0.5000016093254089,,,,,,,,,,,,,,,,,,,,,,,,,,,,,,,,,,,,,,,,,,,,,,,,,,,,,,,,,,,,,,,,,,,,,,,,,,,,,,,,,,,,,,,,,,,,,,,,,,,,,,,,,,,,,,,,,,,,,,,,,,,,,,,,,,,,,,2.428446332913836e-09,3.0272451212454143e-09,-3.3504656826721657e-09,0.0,1.0191847366058937e-09,2.6156632415563763e-11,-8.796856491244398e-06,-8.78676200954942e-06,1.4311885010442893e-09,1.6519008383397704e-09,-2.390192266332747e-09,0.0,1.4013790128331038e-09,-5.1944897272449e-09,8.085690751613583e-06,8.08426830190001e-06,,,,,,,,,,,,,,,,,,,,,,,,,,,,,,,,,,,,,,,,,,,,,,,,,,,,,,,,,,,,,,,,,,,,,,,,,,
92,3.0855319499969482,0.6145613193511963,1.575382947921753,0.38720286548137667,0.0,-3.141592675445488,-2.4009360038296235e-12,0.5000014305114746,0.5000014305114746,0.6132540106773376,1.573520541191101,0.38773746699094774,0.0,-3.141592675445488,1.170540886441529e-09,0.5000016093254089,0.5000016093254089,,,,,,,,,,,,,,,,,,,,,,,,,,,,,,,,,,,,,,,,,,,,,,,,,,,,,,,,,,,,,,,,,,,,,,,,,,,,,,,,,,,,,,,,,,,,,,,,,,,,,,,,,,,,,,,,,,,,,,,,,,,,,,,,,,,,,,2.007727317732133e-09,2.503330875924803e-09,-2.7693611848178534e-09,0.0,8.447686994372816e-10,1.9963530828448484e-11,-7.2728830673440825e-06,-7.265472959261388e-06,1.4311885010442893e-09,1.6519008383397704e-09,-2.390192266332747e-09,0.0,1.4013790128331038e-09,-5.1944897272449e-09,8.085690751613583e-06,8.08426830190001e-06,,,,,,,,,,,,,,,,,,,,,,,,,,,,,,,,,,,,,,,,,,,,,,,,,,,,,,,,,,,,,,,,,,,,,,,,,,
93,3.1073644161224365,0.6145613193511963,1.575382947921753,0.38720286548137667,0.0,-3.141592675445488,-2.4009360038296235e-12,0.5000014305114746,0.5000014305114746,0.6132540106773376,1.573520541191101,0.38773746699094774,0.0,-3.141592675445488,9.981838688943867e-10,0.5000013709068298,0.5000013709068298,,,,,,,,,,,,,,,,,,,,,,,,,,,,,,,,,,,,,,,,,,,,,,,,,,,,,,,,,,,,,,,,,,,,,,,,,,,,,,,,,,,,,,,,,,,,,,,,,,,,,,,,,,,,,,,,,,,,,,,,,,,,,,,,,,,,,,2.007727317732133e-09,2.503330875924803e-09,-2.7693611848178534e-09,0.0,8.447686994372816e-10,1.9963530828448484e-11,-7.2728830673440825e-06,-7.265472959261388e-06,1.1952661083114435e-09,1.379896197306607e-09,-1.995542620036872e-09,0.0,1.0554890295111363e-09,-4.441925938181157e-09,6.752310127922101e-06,6.75172987030237e-06,,,,,,,,,,,,,,,,,,,,,,,,,,,,,,,,,,,,,,,,,,,,,,,,,,,,,,,,,,,,,,,,,,,,,,,,,,
94,3.1298067569732666,0.6145613193511963,1.575382947921753,0.38720286548137667,0.0,-3.141592675445488,-1.7659007936488003e-12,0.5000011920928955,0.5000011920928955,0.6132540106773376,1.573520541191101,0.38773746699094774,0.0,-3.141592675445488,8.433140297192665e-10,0.5000011324882507,0.5000011324882507,,,,,,,,,,,,,,,,,,,,,,,,,,,,,,,,,,,,,,,,,,,,,,,,,,,,,,,,,,,,,,,,,,,,,,,,,,,,,,,,,,,,,,,,,,,,,,,,,,,,,,,,,,,,,,,,,,,,,,,,,,,,,,,,,,,,,,1.6768808563938364e-09,2.0905499553691698e-09,-2.312067204357504e-09,0.0,7.081557562571561e-10,1.5750406187620136e-11,-6.073432359698927e-06,-6.067984486435307e-06,9.883760476725456e-10,1.141309269314661e-09,-1.6494167143221716e-09,0.0,7.722156247780276e-10,-3.762979705612679e-09,5.582639460044447e-06,5.582690391747747e-06,,,,,,,,,,,,,,,,,,,,,,,,,,,,,,,,,,,,,,,,,,,,,,,,,,,,,,,,,,,,,,,,,,,,,,,,,,
95,3.151519536972046,0.6145613193511963,1.575382947921753,0.38720286548137667,0.0,-3.141592675445488,-1.2751245372089048e-12,0.5000010132789612,0.5000010132789612,0.6132540106773376,1.573520541191101,0.38773746699094774,0.0,-3.141592675445488,8.433140297192665e-10,0.5000011324882507,0.5000011324882507,,,,,,,,,,,,,,,,,,,,,,,,,,,,,,,,,,,,,,,,,,,,,,,,,,,,,,,,,,,,,,,,,,,,,,,,,,,,,,,,,,,,,,,,,,,,,,,,,,,,,,,,,,,,,,,,,,,,,,,,,,,,,,,,,,,,,,1.400546345564635e-09,1.7461587731304462e-09,-1.930379411874128e-09,0.0,5.927480728473711e-10,1.188599826201786e-11,-5.071795385447331e-06,-5.067865004093619e-06,9.883760476725456e-10,1.141309269314661e-09,-1.6494167143221716e-09,0.0,7.722156247780276e-10,-3.762979705612679e-09,5.582639460044447e-06,5.582690391747747e-06,,,,,,,,,,,,,,,,,,,,,,,,,,,,,,,,,,,,,,,,,,,,,,,,,,,,,,,,,,,,,,,,,,,,,,,,,,
96,3.1728458404541016,0.6145613193511963,1.575382947921753,0.38720286548137667,0.0,-3.141592675445488,-1.2751245372089048e-12,0.5000010132789612,0.5000010132789612,0.6132540106773376,1.573520541191101,0.38773746699094774,0.0,-3.141592675445488,7.121462308745663e-10,0.5000008940696716,0.5000008940696716,,,,,,,,,,,,,,,,,,,,,,,,,,,,,,,,,,,,,,,,,,,,,,,,,,,,,,,,,,,,,,,,,,,,,,,,,,,,,,,,,,,,,,,,,,,,,,,,,,,,,,,,,,,,,,,,,,,,,,,,,,,,,,,,,,,,,,1.400546345564635e-09,1.7461587731304462e-09,-1.930379411874128e-09,0.0,5.927480728473711e-10,1.188599826201786e-11,-5.071795385447331e-06,-5.067865004093619e-06,8.173461907290402e-10,9.438005932338456e-10,-1.3633816298153079e-09,0.0,5.557221349761221e-10,-3.1862528171444637e-09,4.615585112333065e-06,4.616066235030303e-06,,,,,,,,,,,,,,,,,,,,,,,,,,,,,,,,,,,,,,,,,,,,,,,,,,,,,,,,,,,,,,,,,,,,,,,,,,
97,3.1940383911132812,0.6145613193511963,1.575382947921753,0.38720286548137667,0.0,-3.141592675445488,-8.979611759024619e-13,0.5000008344650269,0.5000008344650269,0.6132540106773376,1.573520541191101,0.38773746699094774,0.0,-3.141592675445488,7.121462308745663e-10,0.5000008940696716,0.5000008940696716,,,,,,,,,,,,,,,,,,,,,,,,,,,,,,,,,,,,,,,,,,,,,,,,,,,,,,,,,,,,,,,,,,,,,,,,,,,,,,,,,,,,,,,,,,,,,,,,,,,,,,,,,,,,,,,,,,,,,,,,,,,,,,,,,,,,,,1.1696199564426024e-09,1.4586110097525307e-09,-1.6116622481021636e-09,0.0,4.972688927296076e-10,9.337240182427653e-12,-4.2353499338787515e-06,-4.232583705743309e-06,8.173461907290402e-10,9.438005932338456e-10,-1.3633816298153079e-09,0.0,5.557221349761221e-10,-3.1862528171444637e-09,4.615585112333065e-06,4.616066235030303e-06,,,,,,,,,,,,,,,,,,,,,,,,,,,,,,,,,,,,,,,,,,,,,,,,,,,,,,,,,,,,,,,,,,,,,,,,,,
98,3.2156267166137695,0.6145613193511963,1.575382947921753,0.38720286548137667,0.0,-3.141592675445488,-8.979611759024619e-13,0.5000008344650269,0.5000008344650269,0.6132540106773376,1.573520541191101,0.38773746699094774,0.0,-3.141592675445488,6.011167119623906e-10,0.5000007748603821,0.5000007748603821,,,,,,,,,,,,,,,,,,,,,,,,,,,,,,,,,,,,,,,,,,,,,,,,,,,,,,,,,,,,,,,,,,,,,,,,,,,,,,,,,,,,,,,,,,,,,,,,,,,,,,,,,,,,,,,,,,,,,,,,,,,,,,,,,,,,,,1.1696199564426024e-09,1.4586110097525307e-09,-1.6116622481021636e-09,0.0,4.972688927296076e-10,9.337240182427653e-12,-4.2353499338787515e-06,-4.232583705743309e-06,6.757927550893328e-10,7.803757640090225e-10,-1.126952753338628e-09,0.0,3.9046543776066756e-10,-2.696352918718503e-09,3.8160492294991855e-06,3.816809567069868e-06,,,,,,,,,,,,,,,,,,,,,,,,,,,,,,,,,,,,,,,,,,,,,,,,,,,,,,,,,,,,,,,,,,,,,,,,,,
99,3.238464117050171,0.6145613193511963,1.575382947921753,0.38720286548137667,0.0,-3.141592675445488,-6.101716354400821e-13,0.5000007152557373,0.5000007152557373,0.6132540106773376,1.573520541191101,0.38773746699094774,0.0,-3.141592675445488,5.163477978520348e-10,0.5000006556510925,0.5000006556510925,,,,,,,,,,,,,,,,,,,,,,,,,,,,,,,,,,,,,,,,,,,,,,,,,,,,,,,,,,,,,,,,,,,,,,,,,,,,,,,,,,,,,,,,,,,,,,,,,,,,,,,,,,,,,,,,,,,,,,,,,,,,,,,,,,,,,,9.76829728216444e-10,1.2180256803162592e-09,-1.345514033523898e-09,0.0,4.1588954502458364e-10,7.117437715586927e-12,-3.5368523185752565e-06,-3.5349728477740427e-06,5.700995231450179e-10,6.585842982076429e-10,-9.503092757157106e-10,0.0,2.778333119124454e-10,-2.321189684906244e-09,3.2188236218644306e-06,3.219739028281765e-06,,,,,,,,,,,,,,,,,,,,,,,,,,,,,,,,,,,,,,,,,,,,,,,,,,,,,,,,,,,,,,,,,,,,,,,,,,
100,3.2604165077209473,0.6145613193511963,1.575382947921753,0.38720286548137667,0.0,-3.141592675445488,-3.9294731205875844e-13,0.5000005960464478,0.5000005960464478,0.6132540106773376,1.573520541191101,0.38773746699094774,0.0,-3.141592675445488,5.117462564818709e-10,0.5000006556510925,0.5000006556510925,,,,,,,,,,,,,,,,,,,,,,,,,,,,,,,,,,,,,,,,,,,,,,,,,,,,,,,,,,,,,,,,,,,,,,,,,,,,,,,,,,,,,,,,,,,,,,,,,,,,,,,,,,,,,,,,,,,,,,,,,,,,,,,,,,,,,,8.15791878494565e-10,1.017519402068956e-09,-1.1234139174476354e-09,0.0,3.4861002973229915e-10,5.137630772200641e-12,-2.953551074824645e-06,-2.952341446871287e-06,5.643818745681983e-10,6.519229600598919e-10,-9.40865496623644e-10,0.0,2.7228219678931964e-10,-2.300759582851697e-09,3.1867584766587242e-06,3.187680704286322e-06,,,,,,,,,,,,,,,,,,,,,,,,,,,,,,,,,,,,,,,,,,,,,,,,,,,,,,,,,,,,,,,,,,,,,,,,,,
101,3.2814242839813232,0.6145613193511963,1.575382947921753,0.38720286548137667,0.0,-3.141592675445488,-3.9294731205875844e-13,0.5000005960464478,0.5000005960464478,0.6132540106773376,1.573520541191101,0.38773746699094774,0.0,-3.141592675445488,4.3550360540045574e-10,0.500000536441803,0.500000536441803,,,,,,,,,,,,,,,,,,,,,,,,,,,,,,,,,,,,,,,,,,,,,,,,,,,,,,,,,,,,,,,,,,,,,,,,,,,,,,,,,,,,,,,,,,,,,,,,,,,,,,,,,,,,,,,,,,,,,,,,,,,,,,,,,,,,,,8.15791878494565e-10,1.017519402068956e-09,-1.1234139174476354e-09,0.0,3.4861002973229915e-10,5.137630772200641e-12,-2.953551074824645e-06,-2.952341446871287e-06,4.712341628021477e-10,5.444533712761768e-10,-7.854550343466826e-10,0.0,1.8213208718975693e-10,-1.9625518987709256e-09,2.661241978785256e-06,2.6622517452778993e-06,,,,,,,,,,,,,,,,,,,,,,,,,,,,,,,,,,,,,,,,,,,,,,,,,,,,,,,,,,,,,,,,,,,,,,,,,,
102,3.3037312030792236,0.6145613193511963,1.575382947921753,0.38720286548137667,0.0,-3.141592675445488,-2.315770188457411e-13,0.5000004768371582,0.5000004768371582,0.6132540106773376,1.573520541191101,0.38773746699094774,0.0,-3.141592675445488,4.3550360540045574e-10,0.500000536441803,0.500000536441803,,,,,,,,,,,,,,,,,,,,,,,,,,,,,,,,,,,,,,,,,,,,,,,,,,,,,,,,,,,,,,,,,,,,,,,,,,,,,,,,,,,,,,,,,,,,,,,,,,,,,,,,,,,,,,,,,,,,,,,,,,,,,,,,,,,,,,6.813438702124586e-10,8.498757253505573e-10,-9.379234056083874e-10,0.0,2.9204416662764743e-10,3.904600167498051e-12,-2.4664479951752583e-06,-2.4657392714289017e-06,4.712341628021477e-10,5.444533712761768e-10,-7.854550343466826e-10,0.0,1.8213208718975693e-10,-1.9625518987709256e-09,2.661241978785256e-06,2.6622517452778993e-06,,,,,,,,,,,,,,,,,,,,,,,,,,,,,,,,,,,,,,,,,,,,,,,,,,,,,,,,,,,,,,,,,,,,,,,,,,
103,3.3258650302886963,0.6145613193511963,1.575382947921753,0.38720286548137667,0.0,-3.141592675445488,-1.18627506364051e-13,0.5000004172325134,0.5000004172325134,0.6132540106773376,1.573520541191101,0.38773746699094774,0.0,-3.141592675445488,3.671733472820904e-10,0.5000004172325134,0.5000004172325134,,,,,,,,,,,,,,,,,,,,,,,,,,,,,,,,,,,,,,,,,,,,,,,,,,,,,,,,,,,,,,,,,,,,,,,,,,,,,,,,,,,,,,,,,,,,,,,,,,,,,,,,,,,,,,,,,,,,,,,,,,,,,,,,,,,,,,5.748179709996748e-10,7.167599846980011e-10,-7.909714550002889e-10,0.0,2.4702462297909733e-10,2.858915795073136e-12,-2.0804054656764492e-06,-2.0800471247639507e-06,3.898548150971237e-10,4.50417481090426e-10,-6.492445470129837e-10,0.0,1.1068923555512811e-10,-1.6583577844286879e-09,2.20024799091334e-06,2.2012911813362734e-06,,,,,,,,,,,,,,,,,,,,,,,,,,,,,,,,,,,,,,,,,,,,,,,,,,,,,,,,,,,,,,,,,,,,,,,,,,
104,3.347317695617676,0.6145613193511963,1.575382947921753,0.38720286548137667,0.0,-3.141592675445488,-1.0688332001147077e-13,0.5000004172325134,0.5000004172325134,0.6132540106773376,1.573520541191101,0.38773746699094774,0.0,-3.141592675445488,3.671733472820904e-10,0.5000004172325134,0.5000004172325134,,,,,,,,,,,,,,,,,,,,,,,,,,,,,,,,,,,,,,,,,,,,,,,,,,,,,,,,,,,,,,,,,,,,,,,,,,,,,,,,,,,,,,,,,,,,,,,,,,,,,,,,,,,,,,,,,,,,,,,,,,,,,,,,,,,,,,5.634381849972669e-10,7.026601522852616e-10,-7.752201658384195e-10,0.0,2.421951528219779e-10,2.9493807569835884e-12,-2.0391596535773715e-06,-2.0388349639688386e-06,3.898548150971237e-10,4.50417481090426e-10,-6.492445470129837e-10,0.0,1.1068923555512811e-10,-1.6583577844286879e-09,2.20024799091334e-06,2.2012911813362734e-06,,,,,,,,,,,,,,,,,,,,,,,,,,,,,,,,,,,,,,,,,,,,,,,,,,,,,,,,,,,,,,,,,,,,,,,,,,
105,3.3702287673950195,0.6145613193511963,1.575382947921753,0.38720286548137667,0.0,-3.141592675445488,-1.76049733330904e-14,0.5000003576278687,0.5000003576278687,0.6132540106773376,1.573520541191101,0.38773746699094774,0.0,-3.141592675445488,3.1224911545280065e-10,0.5000003576278687,0.5000003576278687,,,,,,,,,,,,,,,,,,,,,,,,,,,,,,,,,,,,,,,,,,,,,,,,,,,,,,,,,,,,,,,,,,,,,,,,,,,,,,,,,,,,,,,,,,,,,,,,,,,,,,,,,,,,,,,,,,,,,,,,,,,,,,,,,,,,,,4.657385588302532e-10,5.809797087863444e-10,-6.407444019806974e-10,0.0,2.0045076709607201e-10,1.7693582059566393e-12,-1.6858938352015684e-06,-1.6858429034982692e-06,3.256284131225584e-10,3.7614356074300304e-10,-5.420872084549444e-10,0.0,6.161737786669619e-11,-1.4132591763527103e-09,1.8374126966591575e-06,1.838450202740205e-06,,,,,,,,,,,,,,,,,,,,,,,,,,,,,,,,,,,,,,,,,,,,,,,,,,,,,,,,,,,,,,,,,,,,,,,,,,
106,3.3930773735046387,0.6145613193511963,1.575382947921753,0.38720286548137667,0.0,-3.141592675445488,-1.76049733330904e-14,0.5000003576278687,0.5000003576278687,0.6132540106773376,1.573520541191101,0.38773746699094774,0.0,-3.141592675445488,2.654546304992067e-10,0.5000002980232239,0.5000002980232239,,,,,,,,,,,,,,,,,,,,,,,,,,,,,,,,,,,,,,,,,,,,,,,,,,,,,,,,,,,,,,,,,,,,,,,,,,,,,,,,,,,,,,,,,,,,,,,,,,,,,,,,,,,,,,,,,,,,,,,,,,,,,,,,,,,,,,4.657385588302532e-10,5.809797087863444e-10,-6.407444019806974e-10,0.0,2.0045076709607201e-10,1.7693582059566393e-12,-1.6858938352015684e-06,-1.6858429034982692e-06,2.717825964282383e-10,3.141931159689193e-10,-4.5254772151892553e-10,0.0,2.531308496145357e-11,-1.2036074359400573e-09,1.534412263026752e-06,1.535416458864347e-06,,,,,,,,,,,,,,,,,,,,,,,,,,,,,,,,,,,,,,,,,,,,,,,,,,,,,,,,,,,,,,,,,,,,,,,,,,
107,3.414645195007324,0.6145613193511963,1.575382947921753,0.38720286548137667,0.0,-3.141592675445488,4.405060571952696e-14,0.5000002980232239,0.5000002980232239,0.6132540106773376,1.573520541191101,0.38773746699094774,0.0,-3.141592675445488,2.654546304992067e-10,0.5000002980232239,0.5000002980232239,,,,,,,,,,,,,,,,,,,,,,,,,,,,,,,,,,,,,,,,,,,,,,,,,,,,,,,,,,,,,,,,,,,,,,,,,,,,,,,,,,,,,,,,,,,,,,,,,,,,,,,,,,,,,,,,,,,,,,,,,,,,,,,,,,,,,,3.850253449400043e-10,4.805045250577678e-10,-5.295763827461997e-10,0.0,1.6647794254254222e-10,1.4861637311416875e-12,-1.3938287111159298e-06,-1.3939652490080334e-06,2.717825964282383e-10,3.141931159689193e-10,-4.5254772151892553e-10,0.0,2.531308496145357e-11,-1.2036074359400573e-09,1.534412263026752e-06,1.535416458864347e-06,,,,,,,,,,,,,,,,,,,,,,,,,,,,,,,,,,,,,,,,,,,,,,,,,,,,,,,,,,,,,,,,,,,,,,,,,,
108,3.436394214630127,0.6145613193511963,1.575382947921753,0.38720286548137667,0.0,-3.141592675445488,4.405060571952696e-14,0.5000002980232239,0.5000002980232239,0.6132540106773376,1.573520541191101,0.38773746699094774,0.0,-3.141592675445488,2.25602286851867e-10,0.5000002384185791,0.5000002384185791,,,,,,,,,,,,,,,,,,,,,,,,,,,,,,,,,,,,,,,,,,,,,,,,,,,,,,,,,,,,,,,,,,,,,,,,,,,,,,,,,,,,,,,,,,,,,,,,,,,,,,,,,,,,,,,,,,,,,,,,,,,,,,,,,,,,,,3.850253449400043e-10,4.805045250577678e-10,-5.295763827461997e-10,0.0,1.6647794254254222e-10,1.4861637311416875e-12,-1.3938287111159298e-06,-1.3939652490080334e-06,2.2709611968707577e-10,2.62456723021387e-10,-3.7778113970432514e-10,0.0,-1.3877787807814457e-12,-1.0249571191778273e-09,1.2813779903808609e-06,1.2823325050703716e-06,,,,,,,,,,,,,,,,,,,,,,,,,,,,,,,,,,,,,,,,,,,,,,,,,,,,,,,,,,,,,,,,,,,,,,,,,,
109,3.4592232704162598,0.6145613193511963,1.575382947921753,0.38720286548137667,0.0,-3.141592675445488,8.119609720908319e-14,0.5000002384185791,0.5000002384185791,0.6132540106773376,1.573520541191101,0.38773746699094774,0.0,-3.141592675445488,1.916747316421663e-10,0.5000002384185791,0.5000002384185791,,,,,,,,,,,,,,,,,,,,,,,,,,,,,,,,,,,,,,,,,,,,,,,,,,,,,,,,,,,,,,,,,,,,,,,,,,,,,,,,,,,,,,,,,,,,,,,,,,,,,,,,,,,,,,,,,,,,,,,,,,,,,,,,,,,,,,3.2479574585408955e-10,4.0523140398818214e-10,-4.466635394884122e-10,0.0,1.4049872376631356e-10,9.350548764094913e-13,-1.1756699223042233e-06,-1.1759204880945617e-06,1.8973711490843925e-10,2.1960211427085596e-10,-3.154421168716226e-10,0.0,-1.8984813721090177e-11,-8.725344335935858e-10,1.070070766218123e-06,1.0709636626415886e-06,,,,,,,,,,,,,,,,,,,,,,,,,,,,,,,,,,,,,,,,,,,,,,,,,,,,,,,,,,,,,,,,,,,,,,,,,,
110,3.480379343032837,0.6145613193511963,1.575382947921753,0.38720286548137667,0.0,-3.141592675445488,1.083396203695533e-13,0.5000001788139343,0.5000001788139343,0.6132540106773376,1.573520541191101,0.38773746699094774,0.0,-3.141592675445488,1.916747316421663e-10,0.5000002384185791,0.5000002384185791,,,,,,,,,,,,,,,,,,,,,,,,,,,,,,,,,,,,,,,,,,,,,,,,,,,,,,,,,,,,,,,,,,,,,,,,,,,,,,,,,,,,,,,,,,,,,,,,,,,,,,,,,,,,,,,,,,,,,,,,,,,,,,,,,,,,,,2.685074385055941e-10,3.352873534367973e-10,-3.6916997236957627e-10,0.0,1.1629586182948515e-10,5.259417575932679e-13,-9.71995973486628e-07,-9.723286211738014e-07,1.8973711490843925e-10,2.1960211427085596e-10,-3.154421168716226e-10,0.0,-1.8984813721090177e-11,-8.725344335935858e-10,1.070070766218123e-06,1.0709636626415886e-06,,,,,,,,,,,,,,,,,,,,,,,,,,,,,,,,,,,,,,,,,,,,,,,,,,,,,,,,,,,,,,,,,,,,,,,,,,
111,3.5028493404388428,0.6145613193511963,1.575382947921753,0.38720286548137667,0.0,-3.141592675445488,1.083396203695533e-13,0.5000001788139343,0.5000001788139343,0.6132540106773376,1.573520541191101,0.38773746699094774,0.0,-3.141592675445488,1.628024659527938e-10,0.5000001788139343,0.5000001788139343,,,,,,,,,,,,,,,,,,,,,,,,,,,,,,,,,,,,,,,,,,,,,,,,,,,,,,,,,,,,,,,,,,,,,,,,,,,,,,,,,,,,,,,,,,,,,,,,,,,,,,,,,,,,,,,,,,,,,,,,,,,,,,,,,,,,,,2.685074385055941e-10,3.352873534367973e-10,-3.6916997236957627e-10,0.0,1.1629586182948515e-10,5.259417575932679e-13,-9.71995973486628e-07,-9.723286211738014e-07,1.5831780331154732e-10,1.8285373215576328e-10,-2.634004125923184e-10,0.0,-3.1807889655510735e-11,-7.423712200527177e-10,8.936096946854377e-07,8.944356295614853e-07,,,,,,,,,,,,,,,,,,,,,,,,,,,,,,,,,,,,,,,,,,,,,,,,,,,,,,,,,,,,,,,,,,,,,,,,,,
112,3.5246987342834473,0.6145613193511963,1.575382947921753,0.38720286548137667,0.0,-3.141592675445488,1.2346663947303271e-13,0.5000001788139343,0.5000001788139343,0.6132540106773376,1.573520541191101,0.38773746699094774,0.0,-3.141592675445488,1.628024659527938e-10,0.5000001788139343,0.5000001788139343,,,,,,,,,,,,,,,,,,,,,,,,,,,,,,,,,,,,,,,,,,,,,,,,,,,,,,,,,,,,,,,,,,,,,,,,,,,,,,,,,,,,,,,,,,,,,,,,,,,,,,,,,,,,,,,,,,,,,,,,,,,,,,,,,,,,,,2.2210011607626257e-10,2.7700064464397656e-10,-3.051864316816477e-10,0.0,9.686695889854491e-11,1.999254982485571e-13,-8.03606383215083e-07,-8.039850172281149e-07,1.5831780331154732e-10,1.8285373215576328e-10,-2.634004125923184e-10,0.0,-3.1807889655510735e-11,-7.423712200527177e-10,8.936096946854377e-07,8.944356295614853e-07,,,,,,,,,,,,,,,,,,,,,,,,,,,,,,,,,,,,,,,,,,,,,,,,,,,,,,,,,,,,,,,,,,,,,,,,,,
113,3.545377492904663,0.6145613193511963,1.575382947921753,0.38720286548137667,0.0,-3.141592675445488,1.2346663947303271e-13,0.5000001788139343,0.5000001788139343,0.6132540106773376,1.573520541191101,0.38773746699094774,0.0,-3.141592675445488,1.3824004441165272e-10,0.5000001192092896,0.5000001192092896,,,,,,,,,,,,,,,,,,,,,,,,,,,,,,,,,,,,,,,,,,,,,,,,,,,,,,,,,,,,,,,,,,,,,,,,,,,,,,,,,,,,,,,,,,,,,,,,,,,,,,,,,,,,,,,,,,,,,,,,,,,,,,,,,,,,,,2.2210011607626257e-10,2.7700064464397656e-10,-3.051864316816477e-10,0.0,9.686695889854491e-11,1.999254982485571e-13,-8.03606383215083e-07,-8.039850172281149e-07,1.3233858453531866e-10,1.5298873279334657e-10,-2.1989354781482007e-10,0.0,-3.824718319833664e-11,-6.315596934314271e-10,7.462476219188829e-07,7.470046057278523e-07,,,,,,,,,,,,,,,,,,,,,,,,,,,,,,,,,,,,,,,,,,,,,,,,,,,,,,,,,,,,,,,,,,,,,,,,,,
114,3.5670206546783447,0.6145613193511963,1.575382947921753,0.38720286548137667,0.0,-3.141592675445488,1.2981629660124838e-13,0.5000001192092896,0.5000001192092896,0.6132540106773376,1.573520541191101,0.38773746699094774,0.0,-3.141592675445488,1.173513647367841e-10,0.5000001192092896,0.5000001192092896,,,,,,,,,,,,,,,,,,,,,,,,,,,,,,,,,,,,,,,,,,,,,,,,,,,,,,,,,,,,,,,,,,,,,,,,,,,,,,,,,,,,,,,,,,,,,,,,,,,,,,,,,,,,,,,,,,,,,,,,,,,,,,,,,,,,,,1.854627562636324e-10,2.3170354523927017e-10,-2.5470597853072263e-10,0.0,8.143485885625523e-11,2.549066643528497e-13,-6.710749858029885e-07,-6.714730602652708e-07,1.1052270210143433e-10,1.2789769243681803e-10,-1.835545604400579e-10,0.0,-4.3021142204224816e-11,-5.369992783776922e-10,6.231870202100254e-07,6.238746550479846e-07,,,,,,,,,,,,,,,,,,,,,,,,,,,,,,,,,,,,,,,,,,,,,,,,,,,,,,,,,,,,,,,,,,,,,,,,,,
115,3.588644504547119,0.6145613193511963,1.575382947921753,0.38720286548137667,0.0,-3.141592675445488,1.308327496904807e-13,0.5000001192092896,0.5000001192092896,0.6132540106773376,1.573520541191101,0.38773746699094774,0.0,-3.141592675445488,1.1628702167865157e-10,0.5000001192092896,0.5000001192092896,,,,,,,,,,,,,,,,,,,,,,,,,,,,,,,,,,,,,,,,,,,,,,,,,,,,,,,,,,,,,,,,,,,,,,,,,,,,,,,,,,,,,,,,,,,,,,,,,,,,,,,,,,,,,,,,,,,,,,,,,,,,,,,,,,,,,,1.5482060078397808e-10,1.9340085088970227e-10,-2.1264934257914092e-10,0.0,6.777911565336581e-11,-1.2750969713686694e-14,-5.60400962967833e-07,-5.608015385405452e-07,1.0941247907680918e-10,1.2634338020234281e-10,-1.8177820360065766e-10,0.0,-4.3021142204224816e-11,-5.321728613338905e-10,6.169788093757234e-07,6.176633178256452e-07,,,,,,,,,,,,,,,,,,,,,,,,,,,,,,,,,,,,,,,,,,,,,,,,,,,,,,,,,,,,,,,,,,,,,,,,,,
116,3.610769510269165,0.6145613193511963,1.575382947921753,0.38720286548137667,0.0,-3.141592675445488,1.308327496904807e-13,0.5000001192092896,0.5000001192092896,0.6132540106773376,1.573520541191101,0.38773746699094774,0.0,-3.141592675445488,9.779176773916376e-11,0.5000001192092896,0.5000001192092896,,,,,,,,,,,,,,,,,,,,,,,,,,,,,,,,,,,,,,,,,,,,,,,,,,,,,,,,,,,,,,,,,,,,,,,,,,,,,,,,,,,,,,,,,,,,,,,,,,,,,,,,,,,,,,,,,,,,,,,,,,,,,,,,,,,,,,1.5482060078397808e-10,1.9340085088970227e-10,-2.1264934257914092e-10,0.0,6.777911565336581e-11,-1.2750969713686694e-14,-5.60400962967833e-07,-5.608015385405452e-07,9.026113190202523e-11,1.0480505352461478e-10,-1.502201141256876e-10,0.0,-4.463096558993129e-11,-4.4819645217408777e-10,5.101026090414962e-07,5.107166884954495e-07,,,,,,,,,,,,,,,,,,,,,,,,,,,,,,,,,,,,,,,,,,,,,,,,,,,,,,,,,,,,,,,,,,,,,,,,,,
117,3.632063627243042,0.6145613193511963,1.575382947921753,0.38720286548137667,0.0,-3.141592675445488,1.2796614625148334e-13,0.5000001192092896,0.5000001192092896,0.6132540106773376,1.573520541191101,0.38773746699094774,0.0,-3.141592675445488,9.779176773916376e-11,0.5000001192092896,0.5000001192092896,,,,,,,,,,,,,,,,,,,,,,,,,,,,,,,,,,,,,,,,,,,,,,,,,,,,,,,,,,,,,,,,,,,,,,,,,,,,,,,,,,,,,,,,,,,,,,,,,,,,,,,,,,,,,,,,,,,,,,,,,,,,,,,,,,,,,,1.2934098236883074e-10,1.616484723854228e-10,-1.7755935610708207e-10,0.0,5.678790770957676e-11,-1.9257949998140872e-13,-4.679792766637547e-07,-4.683700183250039e-07,9.026113190202523e-11,1.0480505352461478e-10,-1.502201141256876e-10,0.0,-4.463096558993129e-11,-4.4819645217408777e-10,5.101026090414962e-07,5.107166884954495e-07,,,,,,,,,,,,,,,,,,,,,,,,,,,,,,,,,,,,,,,,,,,,,,,,,,,,,,,,,,,,,,,,,,,,,,,,,,
