MHC-RobotSimulators-Research/Data_Analysis_MotionReplication/mai_plotter/raven_data/the_good_stuff/2arm_p2.csv
,time,jpos0,jpos1,jpos2,jpos3,jpos4,jpos5,jpos6,jpos7,jpos8,jpos9,jpos10,jpos11,jpos12,jpos13,jpos14,jpos15,runlevel,sublevel,last_seq,type0,type1,pos0,pos1,pos2,pos3,pos4,pos5,ori0,ori1,ori2,ori3,ori4,ori5,ori6,ori7,ori8,ori9,ori10,ori11,ori12,ori13,ori14,ori15,ori16,ori17,ori_d0,ori_d1,ori_d2,ori_d3,ori_d4,ori_d5,ori_d6,ori_d7,ori_d8,ori_d9,ori_d10,ori_d11,ori_d12,ori_d13,ori_d14,ori_d15,ori_d16,ori_d17,pos_d0,pos_d1,pos_d2,pos_d3,pos_d4,pos_d5,encVals0,encVals1,encVals2,encVals3,encVals4,encVals5,encVals6,encVals7,encVals8,encVals9,encVals10,encVals11,encVals12,encVals13,encVals14,encVals15,dac_vals0,dac_vals1,dac_vals2,dac_vals3,dac_vals4,dac_vals5,dac_vals6,dac_vals7,dac_vals8,dac_vals9,dac_vals10,dac_vals11,dac_vals12,dac_vals13,dac_vals14,dac_vals15,Tau0,Tau1,Tau2,Tau3,Tau4,Tau5,Tau6,Tau7,Tau8,Tau9,Tau10,Tau11,Tau12,Tau13,Tau14,Tau15,mpos0,mpos1,mpos2,mpos3,mpos4,mpos5,mpos6,mpos7,mpos8,mpos9,mpos10,mpos11,mpos12,mpos13,mpos14,mpos15,mvel0,mvel1,mvel2,mvel3,mvel4,mvel5,mvel6,mvel7,mvel8,mvel9,mvel10,mvel11,mvel12,mvel13,mvel14,mvel15,jvel0,jvel1,jvel2,jvel3,jvel4,jvel5,jvel6,jvel7,jvel8,jvel9,jvel10,jvel11,jvel12,jvel13,jvel14,jvel15,mpos_d0,mpos_d1,mpos_d2,mpos_d3,mpos_d4,mpos_d5,mpos_d6,mpos_d7,mpos_d8,mpos_d9,mpos_d10,mpos_d11,mpos_d12,mpos_d13,mpos_d14,mpos_d15,jpos_d0,jpos_d1,jpos_d2,jpos_d3,jpos_d4,jpos_d5,jpos_d6,jpos_d7,jpos_d8,jpos_d9,jpos_d10,jpos_d11,jpos_d12,jpos_d13,jpos_d14,jpos_d15,grasp_d0,grasp_d1,encoffsets0,encoffsets1,encoffsets2,encoffsets3,encoffsets4,encoffsets5,encoffsets6,encoffsets7,encoffsets8,encoffsets9,encoffsets10,encoffsets11,encoffsets12,encoffsets13,encoffsets14,encoffsets15,jac_vel0,jac_vel1,jac_vel2,jac_vel3,jac_vel4,jac_vel5,jac_vel6,jac_vel7,jac_vel8,jac_vel9,jac_vel10,jac_vel11,jac_f0,jac_f1,jac_f2,jac_f3,jac_f4,jac_f5,jac_f6,jac_f7,jac_f8,jac_f9,jac_f10,jac_f11
0,0.0,0.52299,1.577867,0.400067,0.0,-0.019006,0.008508,0.839195,0.776153,0.521722,1.57641,0.400332,0.0,0.042641,0.003399,0.789214,0.847275,3.0,1.0,111.0,0.0,1.0,-77830.0,-25160.0,13681.0,-77616.0,25030.0,13532.0,-0.933307,-0.240324,0.2668,-0.300388,0.115456,-0.946804,0.196736,-0.963802,-0.179946,-0.93339,0.230471,0.275073,0.302959,0.095219,0.948235,0.192348,0.968409,-0.158699,-0.933332,-0.240036,0.266972,-0.300511,0.115472,-0.946763,0.196429,-0.963872,-0.179908,-0.933399,0.230244,0.275235,0.303117,0.095375,0.948169,0.19206,0.968448,-0.158814,-77832.0,-25158.0,13657.0,-77649.0,25042.0,13534.0,18271.0,17332.0,-160713.0,0.0,-55237.0,-55233.0,-56767.0,-53932.0,-15406.0,-12591.0,155912.0,0.0,53974.0,53713.0,52436.0,55814.0,46.0,212.0,-44.0,0.0,-75.0,55.0,-4.0,81.0,-45.0,-170.0,3.0,0.0,125.0,-164.0,-72.0,48.0,-0.012509,-0.057385,0.012125,0.0,-0.002749,0.002047,0.000159,0.002986,-0.012343,-0.046164,0.000845,0.0,0.004604,-0.00602,0.002647,0.001768,4081.140137,11515.860352,51560.191406,0.0,-17732.070312,-17721.810547,18160.740234,-17328.511719,4071.23999,11504.430664,51590.25,0.0,17749.710938,17738.28125,-17329.048828,18172.171875,0.0,0.0,0.0,0.0,0.0,0.0,0.0,0.0,0.0,0.0,0.0,0.0,0.0,0.0,0.0,0.0,0.0,0.0,0.0,0.0,0.0,0.0,0.0,0.0,0.0,0.0,0.0,0.0,0.0,0.0,0.0,0.0,4081.12085,11513.291016,51560.21875,0.0,-17732.160156,-17721.902344,18160.607422,-17328.558594,4071.175293,11503.96582,51585.96875,0.0,17749.697266,17738.177734,-17329.117188,18171.988281,29.965,90.383972,22.922344,0.0,-1.10595,0.477424,48.072594,44.460091,29.891975,90.317856,22.935377,0.0,2.440542,0.183268,45.216858,48.519039,1.615,1.636,-63617.0,-145286.0,-412178.0,0.0,141786.0,141676.0,-145019.0,138607.0,-60642.0,-140418.0,-417313.0,0.0,-143245.0,-143379.0,140109.0,-146099.0,0.0,0.0,0.0,0.0,0.0,0.0,0.0,0.0,0.0,0.0,0.0,0.0,0.0,0.0,0.0,0.0,0.0,0.0,0.0,0.0,0.0,0.0,0.0,0.0
1,1.4126930236816406,0.52299,1.577867,0.400067,0.0,-0.019006,0.006937,0.493571,0.520671,0.521722,1.57641,0.400332,0.0,0.038563,0.003399,0.520365,0.532137,3.0,1.0,111.0,0.0,1.0,-77824.0,-25179.0,13677.0,-77616.0,25030.0,13533.0,-0.942767,-0.198035,0.268277,-0.296368,0.128893,-0.946336,0.152829,-0.971683,-0.180208,-0.938465,0.209941,0.274242,0.300699,0.106066,0.947803,0.169895,0.971944,-0.162669,-0.942767,-0.198035,0.268277,-0.296368,0.128893,-0.946336,0.152829,-0.971683,-0.180208,-0.938465,0.209941,0.274242,0.300699,0.106066,0.947803,0.169895,0.971944,-0.162669,-77824.0,-25179.0,13677.0,-77616.0,25030.0,13533.0,18271.0,17332.0,-160713.0,0.0,-55237.0,-55242.0,-54784.0,-55390.0,-15406.0,-12591.0,155912.0,0.0,53960.0,53713.0,53975.0,54010.0,46.0,212.0,-44.0,0.0,270.0,-93.0,601.0,-600.0,-45.0,-170.0,3.0,0.0,-507.0,-178.0,808.0,-964.0,-0.012509,-0.057385,0.012125,0.0,0.009896,-0.003405,-0.022021,-0.021985,-0.012343,-0.046164,0.000845,0.0,-0.018562,-0.006523,-0.029574,-0.0353,4081.140137,11515.860352,51560.191406,0.0,-17732.070312,-17722.621094,17982.269531,-17459.730469,4071.23999,11504.430664,51590.25,0.0,17748.449219,17738.28125,-17467.560547,18009.810547,0.0,0.0,0.0,0.0,0.0,0.0,-180.098419,-180.098419,0.0,0.0,0.0,0.0,0.0,0.0,-180.098419,-178.349884,0.0,0.0,0.0,0.0,0.0,0.0,-0.349569,-0.349569,0.0,0.0,0.0,0.0,0.0,0.0,-0.349569,-0.346175,4081.12085,11513.291016,51560.21875,0.0,-17726.320312,-17726.169922,17975.400391,-17468.001953,4071.175293,11503.96582,51585.96875,0.0,17738.064453,17737.923828,-17479.738281,17995.599609,29.965,90.383972,22.922344,0.0,-0.023344,0.002656,27.713041,28.715105,29.891975,90.317856,22.935377,0.0,0.28436,0.155129,28.480297,28.888937,1.014,1.052,-63617.0,-145286.0,-412178.0,0.0,141786.0,141676.0,-145019.0,138607.0,-60642.0,-140418.0,-417313.0,0.0,-143245.0,-143379.0,140109.0,-146099.0,0.0,0.0,0.0,0.0,0.0,-0.349569,0.0,0.0,0.0,0.0,0.0,-0.349569,0.0,0.0,0.0,0.0,0.0,-0.349569,0.0,0.0,0.0,0.0,0.0,-0.349569
2,1.433495044708252,0.52299,1.577867,0.400067,0.0,-0.019006,0.006937,0.486933,0.514731,0.521722,1.57641,0.400332,0.0,0.038275,0.003399,0.515301,0.526544,3.0,1.0,111.0,0.0,1.0,-77824.0,-25179.0,13677.0,-77616.0,25030.0,13533.0,-0.942836,-0.197706,0.268277,-0.296323,0.128997,-0.946336,0.152489,-0.971737,-0.180208,-0.93852,0.209773,0.274183,0.300672,0.106419,0.947772,0.169639,0.971942,-0.162949,-0.942836,-0.197706,0.268277,-0.296323,0.128997,-0.946336,0.152489,-0.971737,-0.180208,-0.93852,0.209773,0.274183,0.300672,0.106419,0.947772,0.169639,0.971942,-0.162949,-77824.0,-25179.0,13677.0,-77616.0,25030.0,13533.0,18271.0,17332.0,-160713.0,0.0,-55237.0,-55242.0,-54746.0,-55424.0,-15406.0,-12591.0,155912.0,0.0,53959.0,53713.0,54004.0,53978.0,46.0,212.0,-44.0,0.0,273.0,-94.0,529.0,-536.0,-45.0,-170.0,3.0,0.0,-466.0,-178.0,756.0,-908.0,-0.012509,-0.057385,0.012125,0.0,0.010015,-0.003476,-0.019368,-0.019614,-0.012343,-0.046164,0.000845,0.0,-0.017083,-0.006529,-0.02769,-0.033246,4081.140137,11515.860352,51560.191406,0.0,-17732.070312,-17722.621094,17978.849609,-17462.791016,4071.23999,11504.430664,51590.25,0.0,17748.361328,17738.28125,-17470.169922,18006.929688,0.0,0.0,0.0,0.0,0.0,0.0,-90.92347,-90.92347,0.0,0.0,0.0,0.0,-89.174942,0.0,-89.174942,-90.92347,0.0,0.0,0.0,0.0,0.0,0.0,-0.176481,-0.176481,0.0,0.0,0.0,0.0,-0.288479,0.0,-0.173088,-0.176481,4081.12085,11513.291016,51560.21875,0.0,-17726.3125,-17726.177734,17975.126953,-17468.207031,4071.175293,11503.96582,51585.96875,0.0,17738.046875,17737.923828,-17479.960938,17995.339844,29.965,90.383972,22.922344,0.0,-0.02175,0.001957,27.683056,28.691917,29.891975,90.317856,22.935377,0.0,0.281189,0.155087,28.455685,28.860069,1.001,1.041,-63617.0,-145286.0,-412178.0,0.0,141786.0,141676.0,-145019.0,138607.0,-60642.0,-140418.0,-417313.0,0.0,-143245.0,-143379.0,140109.0,-146099.0,0.0,0.0,0.0,0.0,0.0,-0.176481,0.0,0.0,0.0,-0.000853,0.000483,0.11539,0.0,0.0,0.0,0.0,0.0,-0.176481,0.0,0.0,0.0,-0.000853,0.000483,0.11539
3,1.4535260200500488,0.52299,1.577867,0.400067,0.0,-0.019006,0.006764,0.486497,0.514645,0.521722,1.57641,0.400332,0.0,0.038275,0.003399,0.514252,0.525671,3.0,1.0,111.0,0.0,1.0,-77824.0,-25181.0,13677.0,-77616.0,25030.0,13533.0,-0.942824,-0.197542,0.26844,-0.296464,0.129051,-0.946285,0.152288,-0.971763,-0.180236,-0.938501,0.209856,0.274183,0.300682,0.106392,0.947772,0.169724,0.971927,-0.162949,-0.942824,-0.197542,0.26844,-0.296464,0.129051,-0.946285,0.152288,-0.971763,-0.180236,-0.938501,0.209856,0.274183,0.300682,0.106392,0.947772,0.169724,0.971927,-0.162949,-77824.0,-25181.0,13677.0,-77616.0,25030.0,13533.0,18271.0,17332.0,-160713.0,0.0,-55237.0,-55243.0,-54743.0,-55424.0,-15406.0,-12591.0,155912.0,0.0,53959.0,53713.0,54010.0,53973.0,46.0,212.0,-44.0,0.0,276.0,-94.0,524.0,-538.0,-45.0,-170.0,3.0,0.0,-514.0,-178.0,748.0,-903.0,-0.012509,-0.057385,0.012125,0.0,0.010116,-0.003459,-0.019193,-0.019708,-0.012343,-0.046164,0.000845,0.0,-0.01882,-0.006535,-0.027382,-0.033049,4081.140137,11515.860352,51560.191406,0.0,-17732.070312,-17722.708984,17978.580078,-17462.791016,4071.23999,11504.430664,51590.25,0.0,17748.361328,17738.28125,-17470.710938,18006.480469,0.0,0.0,0.0,0.0,0.0,0.0,0.0,0.0,0.0,0.0,0.0,0.0,0.0,0.0,0.0,0.0,0.0,0.0,0.0,0.0,0.0,0.0,0.0,0.0,0.0,0.0,0.0,0.0,0.0,0.0,0.0,0.0,4081.12085,11513.291016,51560.21875,0.0,-17726.3125,-17726.177734,17975.126953,-17468.207031,4071.175293,11503.96582,51585.96875,0.0,17738.046875,17737.923828,-17479.960938,17995.339844,29.965,90.383972,22.922344,0.0,-0.02175,0.001957,27.683056,28.691917,29.891975,90.317856,22.935377,0.0,0.281189,0.155087,28.455685,28.860069,1.001,1.039,-63617.0,-145286.0,-412178.0,0.0,141786.0,141676.0,-145019.0,138607.0,-60642.0,-140418.0,-417313.0,0.0,-143245.0,-143379.0,140109.0,-146099.0,0.0,0.0,0.0,0.0,0.0,0.0,0.0,0.0,0.0,0.0,0.0,0.0,0.0,0.0,0.0,0.0,0.0,0.0,0.0,0.0,0.0,0.0,0.0,0.0
4,1.4735300540924072,0.52299,1.577867,0.400067,0.0,-0.019006,0.006764,0.486497,0.514645,0.521722,1.57641,0.400332,0.0,0.038275,0.003399,0.514252,0.525671,3.0,1.0,111.0,0.0,1.0,-77824.0,-25181.0,13677.0,-77616.0,25030.0,13533.0,-0.942824,-0.197542,0.26844,-0.296464,0.129051,-0.946285,0.152288,-0.971763,-0.180236,-0.938501,0.209856,0.274183,0.300682,0.106392,0.947772,0.169724,0.971927,-0.162949,-0.942824,-0.197542,0.26844,-0.296464,0.129051,-0.946285,0.152288,-0.971763,-0.180236,-0.938501,0.209856,0.274183,0.300682,0.106392,0.947772,0.169724,0.971927,-0.162949,-77824.0,-25181.0,13677.0,-77616.0,25030.0,13533.0,18271.0,17332.0,-160713.0,0.0,-55237.0,-55243.0,-54743.0,-55424.0,-15406.0,-12591.0,155912.0,0.0,53959.0,53713.0,54010.0,53973.0,46.0,212.0,-44.0,0.0,279.0,-96.0,526.0,-541.0,-45.0,-170.0,3.0,0.0,-519.0,-178.0,752.0,-908.0,-0.012509,-0.057385,0.012125,0.0,0.010216,-0.00352,-0.019254,-0.019803,-0.012343,-0.046164,0.000845,0.0,-0.019,-0.006542,-0.027543,-0.033244,4081.140137,11515.860352,51560.191406,0.0,-17732.070312,-17722.708984,17978.580078,-17462.791016,4071.23999,11504.430664,51590.25,0.0,17748.361328,17738.28125,-17470.710938,18006.480469,0.0,0.0,0.0,0.0,0.0,0.0,0.0,0.0,0.0,0.0,0.0,0.0,0.0,0.0,0.0,0.0,0.0,0.0,0.0,0.0,0.0,0.0,0.0,0.0,0.0,0.0,0.0,0.0,0.0,0.0,0.0,0.0,4081.12085,11513.291016,51560.21875,0.0,-17726.3125,-17726.177734,17975.126953,-17468.207031,4071.175293,11503.96582,51585.96875,0.0,17738.046875,17737.923828,-17479.960938,17995.339844,29.965,90.383972,22.922344,0.0,-0.02175,0.001957,27.683056,28.691917,29.891975,90.317856,22.935377,0.0,0.281189,0.155087,28.455685,28.860069,1.001,1.039,-63617.0,-145286.0,-412178.0,0.0,141786.0,141676.0,-145019.0,138607.0,-60642.0,-140418.0,-417313.0,0.0,-143245.0,-143379.0,140109.0,-146099.0,0.0,0.0,0.0,0.0,0.0,0.0,0.0,0.0,0.0,0.0,0.0,0.0,0.0,0.0,0.0,0.0,0.0,0.0,0.0,0.0,0.0,0.0,0.0,0.0
5,1.4955060482025146,0.52299,1.577867,0.400067,0.0,-0.019006,0.006764,0.486497,0.514645,0.521722,1.57641,0.400332,0.0,0.037981,0.003399,0.513903,0.525322,3.0,1.0,111.0,0.0,1.0,-77824.0,-25181.0,13677.0,-77616.0,25030.0,13533.0,-0.942824,-0.197542,0.26844,-0.296464,0.129051,-0.946285,0.152288,-0.971763,-0.180236,-0.9385,0.209937,0.274123,0.300683,0.106671,0.94774,0.169725,0.971878,-0.163235,-0.942824,-0.197542,0.26844,-0.296464,0.129051,-0.946285,0.152288,-0.971763,-0.180236,-0.9385,0.209937,0.274123,0.300683,0.106671,0.94774,0.169725,0.971878,-0.163235,-77824.0,-25181.0,13677.0,-77616.0,25030.0,13533.0,18271.0,17332.0,-160713.0,0.0,-55237.0,-55243.0,-54743.0,-55424.0,-15406.0,-12591.0,155912.0,0.0,53958.0,53713.0,54012.0,53971.0,46.0,212.0,-44.0,0.0,282.0,-98.0,527.0,-544.0,-45.0,-170.0,3.0,0.0,-520.0,-178.0,753.0,-909.0,-0.012509,-0.057385,0.012125,0.0,0.010327,-0.003586,-0.01932,-0.019907,-0.012343,-0.046164,0.000845,0.0,-0.019054,-0.006549,-0.027562,-0.033299,4081.140137,11515.860352,51560.191406,0.0,-17732.070312,-17722.708984,17978.580078,-17462.791016,4071.23999,11504.430664,51590.25,0.0,17748.269531,17738.28125,-17470.890625,18006.300781,0.0,0.0,0.0,0.0,0.0,0.0,0.0,0.0,0.0,0.0,0.0,0.0,0.0,0.0,0.0,0.0,0.0,0.0,0.0,0.0,0.0,0.0,0.0,0.0,0.0,0.0,0.0,0.0,0.0,0.0,0.0,0.0,4081.12085,11513.291016,51560.21875,0.0,-17726.3125,-17726.177734,17975.126953,-17468.207031,4071.175293,11503.96582,51585.96875,0.0,17738.046875,17737.923828,-17479.960938,17995.339844,29.965,90.383972,22.922344,0.0,-0.02175,0.001957,27.683056,28.691917,29.891975,90.317856,22.935377,0.0,0.281189,0.155087,28.455685,28.860069,1.001,1.039,-63617.0,-145286.0,-412178.0,0.0,141786.0,141676.0,-145019.0,138607.0,-60642.0,-140418.0,-417313.0,0.0,-143245.0,-143379.0,140109.0,-146099.0,0.0,0.0,0.0,0.0,0.0,0.0,0.0,0.0,0.0,0.0,0.0,0.0,0.0,0.0,0.0,0.0,0.0,0.0,0.0,0.0,0.0,0.0,0.0,0.0
6,1.5154919624328613,0.52299,1.577867,0.400067,0.0,-0.019006,0.006764,0.486497,0.514645,0.521722,1.57641,0.400332,0.0,0.037981,0.003399,0.513553,0.525149,3.0,1.0,111.0,0.0,1.0,-77824.0,-25181.0,13677.0,-77616.0,25030.0,13533.0,-0.942824,-0.197542,0.26844,-0.296464,0.129051,-0.946285,0.152288,-0.971763,-0.180236,-0.938482,0.21002,0.274123,0.300693,0.106644,0.94774,0.169811,0.971863,-0.163235,-0.942824,-0.197542,0.26844,-0.296464,0.129051,-0.946285,0.152288,-0.971763,-0.180236,-0.938482,0.21002,0.274123,0.300693,0.106644,0.94774,0.169811,0.971863,-0.163235,-77824.0,-25181.0,13677.0,-77616.0,25030.0,13533.0,18271.0,17332.0,-160713.0,0.0,-55237.0,-55243.0,-54743.0,-55424.0,-15406.0,-12591.0,155912.0,0.0,53958.0,53713.0,54014.0,53970.0,46.0,212.0,-44.0,0.0,284.0,-99.0,529.0,-546.0,-45.0,-170.0,3.0,0.0,-525.0,-179.0,753.0,-913.0,-0.012509,-0.057385,0.012125,0.0,0.010427,-0.003647,-0.01938,-0.020001,-0.012343,-0.046164,0.000845,0.0,-0.019232,-0.006555,-0.027561,-0.033411,4081.140137,11515.860352,51560.191406,0.0,-17732.070312,-17722.708984,17978.580078,-17462.791016,4071.23999,11504.430664,51590.25,0.0,17748.269531,17738.28125,-17471.070312,18006.210938,0.0,0.0,0.0,0.0,0.0,0.0,0.0,0.0,0.0,0.0,0.0,0.0,0.0,0.0,0.0,0.0,0.0,0.0,0.0,0.0,0.0,0.0,0.0,0.0,0.0,0.0,0.0,0.0,0.0,0.0,0.0,0.0,4081.12085,11513.291016,51560.21875,0.0,-17726.3125,-17726.177734,17975.126953,-17468.207031,4071.175293,11503.96582,51585.96875,0.0,17738.046875,17737.923828,-17479.960938,17995.339844,29.965,90.383972,22.922344,0.0,-0.02175,0.001957,27.683056,28.691917,29.891975,90.317856,22.935377,0.0,0.281189,0.155087,28.455685,28.860069,1.001,1.038,-63617.0,-145286.0,-412178.0,0.0,141786.0,141676.0,-145019.0,138607.0,-60642.0,-140418.0,-417313.0,0.0,-143245.0,-143379.0,140109.0,-146099.0,0.0,0.0,0.0,0.0,0.0,0.0,0.0,0.0,0.0,0.0,0.0,0.0,0.0,0.0,0.0,0.0,0.0,0.0,0.0,0.0,0.0,0.0,0.0,0.0
7,1.5356841087341309,0.52299,1.577867,0.400067,0.0,-0.019006,0.006587,0.486585,0.514557,0.521722,1.57641,0.400332,0.0,0.037981,0.003399,0.513204,0.524972,3.0,1.0,111.0,0.0,1.0,-77823.0,-25184.0,13676.0,-77616.0,25030.0,13533.0,-0.942759,-0.197626,0.268606,-0.296643,0.129027,-0.946232,0.152342,-0.971749,-0.180266,-0.938464,0.210101,0.274123,0.300702,0.106618,0.94774,0.169895,0.971849,-0.163235,-0.942759,-0.197626,0.268606,-0.296643,0.129027,-0.946232,0.152342,-0.971749,-0.180266,-0.938464,0.210101,0.274123,0.300702,0.106618,0.94774,0.169895,0.971849,-0.163235,-77823.0,-25184.0,13676.0,-77616.0,25030.0,13533.0,18271.0,17332.0,-160713.0,0.0,-55237.0,-55244.0,-54743.0,-55424.0,-15406.0,-12591.0,155912.0,0.0,53958.0,53713.0,54016.0,53969.0,46.0,212.0,-44.0,0.0,287.0,-99.0,531.0,-549.0,-45.0,-170.0,3.0,0.0,-530.0,-179.0,753.0,-916.0,-0.012509,-0.057385,0.012125,0.0,0.010528,-0.003627,-0.01944,-0.020096,-0.012343,-0.046164,0.000845,0.0,-0.019411,-0.006561,-0.027557,-0.033521,4081.140137,11515.860352,51560.191406,0.0,-17732.070312,-17722.800781,17978.580078,-17462.791016,4071.23999,11504.430664,51590.25,0.0,17748.269531,17738.28125,-17471.25,18006.121094,0.0,0.0,0.0,0.0,0.0,0.0,0.0,0.0,0.0,0.0,0.0,0.0,0.0,0.0,0.0,0.0,0.0,0.0,0.0,0.0,0.0,0.0,0.0,0.0,0.0,0.0,0.0,0.0,0.0,0.0,0.0,0.0,4081.12085,11513.291016,51560.21875,0.0,-17726.3125,-17726.177734,17975.126953,-17468.207031,4071.175293,11503.96582,51585.96875,0.0,17738.046875,17737.923828,-17479.960938,17995.339844,29.965,90.383972,22.922344,0.0,-0.02175,0.001957,27.683056,28.691917,29.891975,90.317856,22.935377,0.0,0.281189,0.155087,28.455685,28.860069,1.001,1.038,-63617.0,-145286.0,-412178.0,0.0,141786.0,141676.0,-145019.0,138607.0,-60642.0,-140418.0,-417313.0,0.0,-143245.0,-143379.0,140109.0,-146099.0,0.0,0.0,0.0,0.0,0.0,0.0,0.0,0.0,0.0,0.0,0.0,0.0,0.0,0.0,0.0,0.0,0.0,0.0,0.0,0.0,0.0,0.0,0.0,0.0
8,1.5575449466705322,0.52299,1.577867,0.400067,0.0,-0.019006,0.006587,0.486585,0.514557,0.521722,1.57641,0.400332,0.0,0.037692,0.003399,0.512854,0.524623,3.0,1.0,111.0,0.0,1.0,-77823.0,-25184.0,13676.0,-77616.0,25030.0,13533.0,-0.942759,-0.197626,0.268606,-0.296643,0.129027,-0.946232,0.152342,-0.971749,-0.180266,-0.938463,0.210181,0.274064,0.300704,0.106891,0.947709,0.169896,0.971801,-0.163516,-0.942759,-0.197626,0.268606,-0.296643,0.129027,-0.946232,0.152342,-0.971749,-0.180266,-0.938463,0.210181,0.274064,0.300704,0.106891,0.947709,0.169896,0.971801,-0.163516,-77823.0,-25184.0,13676.0,-77616.0,25030.0,13533.0,18271.0,17332.0,-160713.0,0.0,-55237.0,-55244.0,-54743.0,-55424.0,-15406.0,-12591.0,155912.0,0.0,53957.0,53713.0,54018.0,53967.0,46.0,212.0,-44.0,0.0,290.0,-100.0,533.0,-552.0,-45.0,-170.0,3.0,0.0,-531.0,-179.0,753.0,-917.0,-0.012509,-0.057385,0.012125,0.0,0.010638,-0.003692,-0.019507,-0.0202,-0.012343,-0.046164,0.000845,0.0,-0.019465,-0.006568,-0.027566,-0.033569,4081.140137,11515.860352,51560.191406,0.0,-17732.070312,-17722.800781,17978.580078,-17462.791016,4071.23999,11504.430664,51590.25,0.0,17748.181641,17738.28125,-17471.431641,18005.939453,0.0,0.0,0.0,0.0,0.0,0.0,0.0,0.0,0.0,0.0,0.0,0.0,0.0,0.0,0.0,0.0,0.0,0.0,0.0,0.0,0.0,0.0,0.0,0.0,0.0,0.0,0.0,0.0,0.0,0.0,0.0,0.0,4081.12085,11513.291016,51560.21875,0.0,-17726.3125,-17726.177734,17975.126953,-17468.207031,4071.175293,11503.96582,51585.96875,0.0,17738.046875,17737.923828,-17479.960938,17995.339844,29.965,90.383972,22.922344,0.0,-0.02175,0.001957,27.683056,28.691917,29.891975,90.317856,22.935377,0.0,0.281189,0.155087,28.455685,28.860069,1.001,1.037,-63617.0,-145286.0,-412178.0,0.0,141786.0,141676.0,-145019.0,138607.0,-60642.0,-140418.0,-417313.0,0.0,-143245.0,-143379.0,140109.0,-146099.0,0.0,0.0,0.0,0.0,0.0,0.0,0.0,0.0,0.0,0.0,0.0,0.0,0.0,0.0,0.0,0.0,0.0,0.0,0.0,0.0,0.0,0.0,0.0,0.0
9,1.5785119533538818,0.52299,1.577867,0.400067,0.0,-0.019006,0.006587,0.486585,0.514557,0.521722,1.57641,0.400332,0.0,0.037692,0.003399,0.512681,0.52445,3.0,1.0,111.0,0.0,1.0,-77823.0,-25184.0,13676.0,-77616.0,25030.0,13533.0,-0.942759,-0.197626,0.268606,-0.296643,0.129027,-0.946232,0.152342,-0.971749,-0.180266,-0.938463,0.210181,0.274064,0.300704,0.106891,0.947709,0.169896,0.971801,-0.163516,-0.942759,-0.197626,0.268606,-0.296643,0.129027,-0.946232,0.152342,-0.971749,-0.180266,-0.938463,0.210181,0.274064,0.300704,0.106891,0.947709,0.169896,0.971801,-0.163516,-77823.0,-25184.0,13676.0,-77616.0,25030.0,13533.0,18271.0,17332.0,-160713.0,0.0,-55237.0,-55244.0,-54743.0,-55424.0,-15406.0,-12591.0,155912.0,0.0,53957.0,53713.0,54019.0,53966.0,46.0,212.0,-44.0,0.0,293.0,-102.0,534.0,-554.0,-45.0,-170.0,3.0,0.0,-537.0,-179.0,755.0,-920.0,-0.012509,-0.057385,0.012125,0.0,0.010744,-0.003754,-0.01957,-0.020299,-0.012343,-0.046164,0.000845,0.0,-0.019651,-0.006574,-0.027644,-0.033685,4081.140137,11515.860352,51560.191406,0.0,-17732.070312,-17722.800781,17978.580078,-17462.791016,4071.23999,11504.430664,51590.25,0.0,17748.181641,17738.28125,-17471.519531,18005.851562,0.0,0.0,0.0,0.0,0.0,0.0,0.0,0.0,0.0,0.0,0.0,0.0,0.0,0.0,0.0,0.0,0.0,0.0,0.0,0.0,0.0,0.0,0.0,0.0,0.0,0.0,0.0,0.0,0.0,0.0,0.0,0.0,4081.12085,11513.291016,51560.21875,0.0,-17726.3125,-17726.177734,17975.126953,-17468.207031,4071.175293,11503.96582,51585.96875,0.0,17738.046875,17737.923828,-17479.960938,17995.339844,29.965,90.383972,22.922344,0.0,-0.02175,0.001957,27.683056,28.691917,29.891975,90.317856,22.935377,0.0,0.281189,0.155087,28.455685,28.860069,1.001,1.037,-63617.0,-145286.0,-412178.0,0.0,141786.0,141676.0,-145019.0,138607.0,-60642.0,-140418.0,-417313.0,0.0,-143245.0,-143379.0,140109.0,-146099.0,0.0,0.0,0.0,0.0,0.0,0.0,0.0,0.0,0.0,0.0,0.0,0.0,0.0,0.0,0.0,0.0,0.0,0.0,0.0,0.0,0.0,0.0,0.0,0.0
10,1.59859299659729,0.52299,1.577867,0.400067,0.0,-0.019006,0.006587,0.486585,0.514557,0.521722,1.57641,0.400332,0.0,0.037398,0.003399,0.512331,0.5241,3.0,1.0,111.0,0.0,1.0,-77823.0,-25184.0,13676.0,-77616.0,25030.0,13533.0,-0.942759,-0.197626,0.268606,-0.296643,0.129027,-0.946232,0.152342,-0.971749,-0.180266,-0.938462,0.210263,0.274004,0.300705,0.10717,0.947677,0.169896,0.971753,-0.163802,-0.942759,-0.197626,0.268606,-0.296643,0.129027,-0.946232,0.152342,-0.971749,-0.180266,-0.938462,0.210263,0.274004,0.300705,0.10717,0.947677,0.169896,0.971753,-0.163802,-77823.0,-25184.0,13676.0,-77616.0,25030.0,13533.0,18271.0,17332.0,-160713.0,0.0,-55237.0,-55244.0,-54743.0,-55424.0,-15406.0,-12591.0,155912.0,0.0,53956.0,53713.0,54021.0,53964.0,46.0,212.0,-44.0,0.0,296.0,-104.0,536.0,-557.0,-45.0,-170.0,3.0,0.0,-537.0,-179.0,755.0,-921.0,-0.012509,-0.057385,0.012125,0.0,0.010844,-0.003813,-0.01963,-0.020393,-0.012343,-0.046164,0.000845,0.0,-0.019685,-0.006581,-0.027632,-0.03371,4081.140137,11515.860352,51560.191406,0.0,-17732.070312,-17722.800781,17978.580078,-17462.791016,4071.23999,11504.430664,51590.25,0.0,17748.089844,17738.28125,-17471.699219,18005.669922,0.0,0.0,0.0,0.0,0.0,0.0,0.0,0.0,0.0,0.0,0.0,0.0,0.0,0.0,0.0,0.0,0.0,0.0,0.0,0.0,0.0,0.0,0.0,0.0,0.0,0.0,0.0,0.0,0.0,0.0,0.0,0.0,4081.12085,11513.291016,51560.21875,0.0,-17726.3125,-17726.177734,17975.126953,-17468.207031,4071.175293,11503.96582,51585.96875,0.0,17738.046875,17737.923828,-17479.960938,17995.339844,29.965,90.383972,22.922344,0.0,-0.02175,0.001957,27.683056,28.691917,29.891975,90.317856,22.935377,0.0,0.281189,0.155087,28.455685,28.860069,1.001,1.036,-63617.0,-145286.0,-412178.0,0.0,141786.0,141676.0,-145019.0,138607.0,-60642.0,-140418.0,-417313.0,0.0,-143245.0,-143379.0,140109.0,-146099.0,0.0,0.0,0.0,0.0,0.0,0.0,0.0,0.0,0.0,0.0,0.0,0.0,0.0,0.0,0.0,0.0,0.0,0.0,0.0,0.0,0.0,0.0,0.0,0.0
11,1.6195249557495117,0.52299,1.577867,0.400067,0.0,-0.019006,0.006587,0.486585,0.514557,0.521722,1.57641,0.400332,0.0,0.037398,0.003399,0.511982,0.52375,3.0,1.0,111.0,0.0,1.0,-77823.0,-25184.0,13676.0,-77616.0,25030.0,13533.0,-0.942759,-0.197626,0.268606,-0.296643,0.129027,-0.946232,0.152342,-0.971749,-0.180266,-0.938462,0.210263,0.274004,0.300705,0.10717,0.947677,0.169896,0.971753,-0.163802,-0.942759,-0.197626,0.268606,-0.296643,0.129027,-0.946232,0.152342,-0.971749,-0.180266,-0.938462,0.210263,0.274004,0.300705,0.10717,0.947677,0.169896,0.971753,-0.163802,-77823.0,-25184.0,13676.0,-77616.0,25030.0,13533.0,18271.0,17332.0,-160713.0,0.0,-55237.0,-55244.0,-54743.0,-55424.0,-15406.0,-12591.0,155912.0,0.0,53956.0,53713.0,54023.0,53962.0,46.0,212.0,-44.0,0.0,299.0,-105.0,538.0,-560.0,-45.0,-170.0,3.0,0.0,-542.0,-180.0,754.0,-922.0,-0.012509,-0.057385,0.012125,0.0,0.01095,-0.003874,-0.019693,-0.020493,-0.012343,-0.046164,0.000845,0.0,-0.019869,-0.006587,-0.027625,-0.03374,4081.140137,11515.860352,51560.191406,0.0,-17732.070312,-17722.800781,17978.580078,-17462.791016,4071.23999,11504.430664,51590.25,0.0,17748.089844,17738.28125,-17471.880859,18005.490234,0.0,0.0,0.0,0.0,0.0,0.0,0.0,0.0,0.0,0.0,0.0,0.0,0.0,0.0,0.0,0.0,0.0,0.0,0.0,0.0,0.0,0.0,0.0,0.0,0.0,0.0,0.0,0.0,0.0,0.0,0.0,0.0,4081.12085,11513.291016,51560.21875,0.0,-17726.3125,-17726.177734,17975.126953,-17468.207031,4071.175293,11503.96582,51585.96875,0.0,17738.046875,17737.923828,-17479.960938,17995.339844,29.965,90.383972,22.922344,0.0,-0.02175,0.001957,27.683056,28.691917,29.891975,90.317856,22.935377,0.0,0.281189,0.155087,28.455685,28.860069,1.001,1.035,-63617.0,-145286.0,-412178.0,0.0,141786.0,141676.0,-145019.0,138607.0,-60642.0,-140418.0,-417313.0,0.0,-143245.0,-143379.0,140109.0,-146099.0,0.0,0.0,0.0,0.0,0.0,0.0,0.0,0.0,0.0,0.0,0.0,0.0,0.0,0.0,0.0,0.0,0.0,0.0,0.0,0.0,0.0,0.0,0.0,0.0
12,1.639491081237793,0.52299,1.577867,0.400067,0.0,-0.019006,0.006414,0.486672,0.51447,0.521722,1.57641,0.400332,0.0,0.037398,0.003399,0.511805,0.523401,3.0,1.0,111.0,0.0,1.0,-77823.0,-25186.0,13676.0,-77616.0,25030.0,13533.0,-0.942696,-0.197708,0.268769,-0.296817,0.129004,-0.94618,0.152395,-0.971735,-0.180294,-0.93848,0.210182,0.274004,0.300696,0.107196,0.947677,0.169812,0.971768,-0.163802,-0.942696,-0.197708,0.268769,-0.296817,0.129004,-0.94618,0.152395,-0.971735,-0.180294,-0.93848,0.210182,0.274004,0.300696,0.107196,0.947677,0.169812,0.971768,-0.163802,-77823.0,-25186.0,13676.0,-77616.0,25030.0,13533.0,18271.0,17332.0,-160713.0,0.0,-55237.0,-55245.0,-54743.0,-55424.0,-15406.0,-12591.0,155912.0,0.0,53956.0,53713.0,54024.0,53960.0,46.0,212.0,-44.0,0.0,301.0,-105.0,539.0,-562.0,-45.0,-170.0,3.0,0.0,-547.0,-180.0,756.0,-922.0,-0.012509,-0.057385,0.012125,0.0,0.01105,-0.003854,-0.019754,-0.020587,-0.012343,-0.046164,0.000845,0.0,-0.020044,-0.006593,-0.027687,-0.033758,4081.140137,11515.860352,51560.191406,0.0,-17732.070312,-17722.890625,17978.580078,-17462.791016,4071.23999,11504.430664,51590.25,0.0,17748.089844,17738.28125,-17471.970703,18005.310547,0.0,0.0,0.0,0.0,0.0,0.0,0.0,0.0,0.0,0.0,0.0,0.0,0.0,0.0,0.0,0.0,0.0,0.0,0.0,0.0,0.0,0.0,0.0,0.0,0.0,0.0,0.0,0.0,0.0,0.0,0.0,0.0,4081.12085,11513.291016,51560.21875,0.0,-17726.3125,-17726.177734,17975.126953,-17468.207031,4071.175293,11503.96582,51585.96875,0.0,17738.046875,17737.923828,-17479.960938,17995.339844,29.965,90.383972,22.922344,0.0,-0.02175,0.001957,27.683056,28.691917,29.891975,90.317856,22.935377,0.0,0.281189,0.155087,28.455685,28.860069,1.001,1.035,-63617.0,-145286.0,-412178.0,0.0,141786.0,141676.0,-145019.0,138607.0,-60642.0,-140418.0,-417313.0,0.0,-143245.0,-143379.0,140109.0,-146099.0,0.0,0.0,0.0,0.0,0.0,0.0,0.0,0.0,0.0,0.0,0.0,0.0,0.0,0.0,0.0,0.0,0.0,0.0,0.0,0.0,0.0,0.0,0.0,0.0
13,1.6596870422363281,0.52299,1.577867,0.400067,0.0,-0.019006,0.006414,0.486672,0.51447,0.521722,1.57641,0.400332,0.0,0.037109,0.003399,0.511456,0.523051,3.0,1.0,111.0,0.0,1.0,-77823.0,-25186.0,13676.0,-77616.0,25030.0,13533.0,-0.942696,-0.197708,0.268769,-0.296817,0.129004,-0.94618,0.152395,-0.971735,-0.180294,-0.93848,0.210262,0.273945,0.300698,0.107469,0.947645,0.169813,0.97172,-0.164083,-0.942696,-0.197708,0.268769,-0.296817,0.129004,-0.94618,0.152395,-0.971735,-0.180294,-0.93848,0.210262,0.273945,0.300698,0.107469,0.947645,0.169813,0.97172,-0.164083,-77823.0,-25186.0,13676.0,-77616.0,25030.0,13533.0,18271.0,17332.0,-160713.0,0.0,-55237.0,-55245.0,-54743.0,-55424.0,-15406.0,-12591.0,155912.0,0.0,53955.0,53713.0,54026.0,53958.0,46.0,212.0,-44.0,0.0,304.0,-106.0,541.0,-565.0,-45.0,-170.0,3.0,0.0,-548.0,-180.0,756.0,-922.0,-0.012509,-0.057385,0.012125,0.0,0.011151,-0.003911,-0.019814,-0.020682,-0.012343,-0.046164,0.000845,0.0,-0.020078,-0.0066,-0.027668,-0.033773,4081.140137,11515.860352,51560.191406,0.0,-17732.070312,-17722.890625,17978.580078,-17462.791016,4071.23999,11504.430664,51590.25,0.0,17748.0,17738.28125,-17472.150391,18005.130859,0.0,0.0,0.0,0.0,0.0,0.0,0.0,0.0,0.0,0.0,0.0,0.0,0.0,0.0,0.0,0.0,0.0,0.0,0.0,0.0,0.0,0.0,0.0,0.0,0.0,0.0,0.0,0.0,0.0,0.0,0.0,0.0,4081.12085,11513.291016,51560.21875,0.0,-17726.3125,-17726.177734,17975.126953,-17468.207031,4071.175293,11503.96582,51585.96875,0.0,17738.046875,17737.923828,-17479.960938,17995.339844,29.965,90.383972,22.922344,0.0,-0.02175,0.001957,27.683056,28.691917,29.891975,90.317856,22.935377,0.0,0.281189,0.155087,28.455685,28.860069,1.001,1.034,-63617.0,-145286.0,-412178.0,0.0,141786.0,141676.0,-145019.0,138607.0,-60642.0,-140418.0,-417313.0,0.0,-143245.0,-143379.0,140109.0,-146099.0,0.0,0.0,0.0,0.0,0.0,0.0,0.0,0.0,0.0,0.0,0.0,0.0,0.0,0.0,0.0,0.0,0.0,0.0,0.0,0.0,0.0,0.0,0.0,0.0
14,1.6815359592437744,0.52299,1.577867,0.400067,0.0,-0.019006,0.006414,0.486672,0.514297,0.521722,1.57641,0.400332,0.0,0.037109,0.003399,0.511283,0.522702,3.0,1.0,111.0,0.0,1.0,-77823.0,-25186.0,13676.0,-77616.0,25030.0,13533.0,-0.942679,-0.197789,0.268769,-0.296829,0.128978,-0.94618,0.152479,-0.971722,-0.180294,-0.938498,0.210179,0.273945,0.300688,0.107496,0.947645,0.169727,0.971735,-0.164083,-0.942679,-0.197789,0.268769,-0.296829,0.128978,-0.94618,0.152479,-0.971722,-0.180294,-0.938498,0.210179,0.273945,0.300688,0.107496,0.947645,0.169727,0.971735,-0.164083,-77823.0,-25186.0,13676.0,-77616.0,25030.0,13533.0,18271.0,17332.0,-160713.0,0.0,-55237.0,-55245.0,-54743.0,-55425.0,-15406.0,-12591.0,155912.0,0.0,53955.0,53713.0,54027.0,53956.0,46.0,212.0,-44.0,0.0,307.0,-108.0,543.0,-565.0,-45.0,-170.0,3.0,0.0,-553.0,-180.0,758.0,-923.0,-0.012509,-0.057385,0.012125,0.0,0.011261,-0.003974,-0.01988,-0.020706,-0.012343,-0.046164,0.000845,0.0,-0.020269,-0.006606,-0.027739,-0.033802,4081.140137,11515.860352,51560.191406,0.0,-17732.070312,-17722.890625,17978.580078,-17462.880859,4071.23999,11504.430664,51590.25,0.0,17748.0,17738.28125,-17472.240234,18004.951172,0.0,0.0,0.0,0.0,0.0,0.0,0.0,0.0,0.0,0.0,0.0,0.0,0.0,0.0,0.0,0.0,0.0,0.0,0.0,0.0,0.0,0.0,0.0,0.0,0.0,0.0,0.0,0.0,0.0,0.0,0.0,0.0,4081.12085,11513.291016,51560.21875,0.0,-17726.3125,-17726.177734,17975.126953,-17468.207031,4071.175293,11503.96582,51585.96875,0.0,17738.046875,17737.923828,-17479.960938,17995.339844,29.965,90.383972,22.922344,0.0,-0.02175,0.001957,27.683056,28.691917,29.891975,90.317856,22.935377,0.0,0.281189,0.155087,28.455685,28.860069,1.0,1.033,-63617.0,-145286.0,-412178.0,0.0,141786.0,141676.0,-145019.0,138607.0,-60642.0,-140418.0,-417313.0,0.0,-143245.0,-143379.0,140109.0,-146099.0,0.0,0.0,0.0,0.0,0.0,0.0,0.0,0.0,0.0,0.0,0.0,0.0,0.0,0.0,0.0,0.0,0.0,0.0,0.0,0.0,0.0,0.0,0.0,0.0
15,1.701491117477417,0.52299,1.577867,0.400067,0.0,-0.019006,0.006414,0.486672,0.514297,0.521722,1.57641,0.400332,0.0,0.036815,0.003399,0.510933,0.522352,3.0,1.0,111.0,0.0,1.0,-77823.0,-25186.0,13676.0,-77616.0,25030.0,13533.0,-0.942679,-0.197789,0.268769,-0.296829,0.128978,-0.94618,0.152479,-0.971722,-0.180294,-0.938498,0.21026,0.273884,0.30069,0.107774,0.947613,0.169728,0.971687,-0.164369,-0.942679,-0.197789,0.268769,-0.296829,0.128978,-0.94618,0.152479,-0.971722,-0.180294,-0.938479,0.210343,0.273884,0.3007,0.107747,0.947613,0.169814,0.971672,-0.164369,-77823.0,-25186.0,13676.0,-77616.0,25030.0,13533.0,18271.0,17332.0,-160713.0,0.0,-55237.0,-55245.0,-54743.0,-55425.0,-15406.0,-12591.0,155912.0,0.0,53954.0,53713.0,54029.0,53954.0,46.0,212.0,-44.0,0.0,310.0,-110.0,544.0,-568.0,-45.0,-170.0,3.0,0.0,-554.0,-180.0,757.0,-924.0,-0.012509,-0.057385,0.012125,0.0,0.011362,-0.004032,-0.01994,-0.020799,-0.012343,-0.046164,0.000845,0.0,-0.0203,-0.006613,-0.027716,-0.033812,4081.140137,11515.860352,51560.191406,0.0,-17732.070312,-17722.890625,17978.580078,-17462.880859,4071.23999,11504.430664,51590.25,0.0,17747.910156,17738.28125,-17472.419922,18004.769531,0.0,0.0,0.0,0.0,0.0,0.0,0.0,0.0,0.0,0.0,0.0,0.0,0.0,0.0,0.0,-90.92347,0.0,0.0,0.0,0.0,0.0,0.0,0.0,0.0,0.0,0.0,0.0,0.0,0.0,0.0,0.0,-0.176481,4081.12085,11513.291016,51560.21875,0.0,-17726.3125,-17726.177734,17975.126953,-17468.207031,4071.175293,11503.96582,51585.96875,0.0,17738.046875,17737.923828,-17479.960938,17995.339844,29.965,90.383972,22.922344,0.0,-0.02175,0.001957,27.683056,28.691917,29.891975,90.317856,22.935377,0.0,0.281189,0.155087,28.455685,28.860069,1.0,1.033,-63617.0,-145286.0,-412178.0,0.0,141786.0,141676.0,-145019.0,138607.0,-60642.0,-140418.0,-417313.0,0.0,-143245.0,-143379.0,140109.0,-146099.0,0.0,0.0,0.0,0.0,0.0,0.0,0.0,0.0,0.0,0.0,0.0,0.0,0.0,0.0,0.0,0.0,0.0,0.0,0.0,0.0,0.0,0.0,0.0,0.0
16,1.7227230072021484,0.52299,1.577867,0.400067,0.0,-0.019006,0.006238,0.48676,0.514209,0.521722,1.57641,0.400332,0.0,0.036815,0.003399,0.510757,0.522003,3.0,1.0,111.0,0.0,1.0,-77822.0,-25188.0,13675.0,-77616.0,25030.0,13533.0,-0.942614,-0.197873,0.268934,-0.297007,0.128954,-0.946128,0.152533,-0.971708,-0.180324,-0.938516,0.210179,0.273884,0.300681,0.1078,0.947613,0.169644,0.971702,-0.164369,-0.942614,-0.197873,0.268934,-0.297007,0.128954,-0.946128,0.152533,-0.971708,-0.180324,-0.938516,0.210179,0.273884,0.300681,0.1078,0.947613,0.169644,0.971702,-0.164369,-77822.0,-25188.0,13675.0,-77616.0,25030.0,13533.0,18271.0,17332.0,-160713.0,0.0,-55237.0,-55246.0,-54743.0,-55425.0,-15406.0,-12591.0,155912.0,0.0,53954.0,53713.0,54030.0,53952.0,46.0,212.0,-44.0,0.0,313.0,-109.0,546.0,-571.0,-45.0,-170.0,3.0,0.0,-559.0,-180.0,759.0,-924.0,-0.012509,-0.057385,0.012125,0.0,0.011467,-0.004011,-0.020004,-0.020897,-0.012343,-0.046164,0.000845,0.0,-0.02048,-0.006619,-0.027774,-0.033826,4081.140137,11515.860352,51560.191406,0.0,-17732.070312,-17722.980469,17978.580078,-17462.880859,4071.23999,11504.430664,51590.25,0.0,17747.910156,17738.28125,-17472.511719,18004.589844,0.0,0.0,0.0,0.0,0.0,0.0,0.0,0.0,0.0,0.0,0.0,0.0,0.0,0.0,0.0,0.0,0.0,0.0,0.0,0.0,0.0,0.0,0.0,0.0,0.0,0.0,0.0,0.0,0.0,0.0,0.0,0.0,4081.12085,11513.291016,51560.21875,0.0,-17726.3125,-17726.177734,17975.126953,-17468.207031,4071.175293,11503.96582,51585.96875,0.0,17738.046875,17737.923828,-17479.960938,17995.339844,29.965,90.383972,22.922344,0.0,-0.02175,0.001957,27.683056,28.691917,29.891975,90.317856,22.935377,0.0,0.281189,0.155087,28.455685,28.860069,1.0,1.032,-63617.0,-145286.0,-412178.0,0.0,141786.0,141676.0,-145019.0,138607.0,-60642.0,-140418.0,-417313.0,0.0,-143245.0,-143379.0,140109.0,-146099.0,0.0,0.0,0.0,0.0,0.0,0.0,0.0,0.0,0.0,0.0,0.0,0.0,0.0,0.0,0.0,0.0,0.0,0.0,0.0,0.0,0.0,0.0,0.0,0.0
17,1.7434980869293213,0.52299,1.577867,0.400067,0.0,-0.019006,0.006238,0.48676,0.514209,0.521722,1.57641,0.400332,0.0,0.036527,0.003399,0.510583,0.521829,3.0,1.0,111.0,0.0,1.0,-77822.0,-25188.0,13675.0,-77616.0,25030.0,13533.0,-0.942614,-0.197873,0.268934,-0.297007,0.128954,-0.946128,0.152533,-0.971708,-0.180324,-0.938515,0.210259,0.273825,0.300682,0.108073,0.947581,0.169644,0.971654,-0.164649,-0.942614,-0.197873,0.268934,-0.297007,0.128954,-0.946128,0.152533,-0.971708,-0.180324,-0.938515,0.210259,0.273825,0.300682,0.108073,0.947581,0.169644,0.971654,-0.164649,-77822.0,-25188.0,13675.0,-77616.0,25030.0,13533.0,18271.0,17332.0,-160713.0,0.0,-55237.0,-55246.0,-54743.0,-55425.0,-15406.0,-12591.0,155912.0,0.0,53953.0,53713.0,54031.0,53951.0,46.0,212.0,-44.0,0.0,316.0,-111.0,548.0,-573.0,-45.0,-170.0,3.0,0.0,-560.0,-181.0,760.0,-926.0,-0.012509,-0.057385,0.012125,0.0,0.011573,-0.00407,-0.020067,-0.020994,-0.012343,-0.046164,0.000845,0.0,-0.020521,-0.006626,-0.027831,-0.033917,4081.140137,11515.860352,51560.191406,0.0,-17732.070312,-17722.980469,17978.580078,-17462.880859,4071.23999,11504.430664,51590.25,0.0,17747.820312,17738.28125,-17472.599609,18004.501953,0.0,0.0,0.0,0.0,0.0,0.0,0.0,0.0,0.0,0.0,0.0,0.0,0.0,0.0,0.0,0.0,0.0,0.0,0.0,0.0,0.0,0.0,0.0,0.0,0.0,0.0,0.0,0.0,0.0,0.0,0.0,0.0,4081.12085,11513.291016,51560.21875,0.0,-17726.3125,-17726.177734,17975.126953,-17468.207031,4071.175293,11503.96582,51585.96875,0.0,17738.046875,17737.923828,-17479.960938,17995.339844,29.965,90.383972,22.922344,0.0,-0.02175,0.001957,27.683056,28.691917,29.891975,90.317856,22.935377,0.0,0.281189,0.155087,28.455685,28.860069,1.0,1.032,-63617.0,-145286.0,-412178.0,0.0,141786.0,141676.0,-145019.0,138607.0,-60642.0,-140418.0,-417313.0,0.0,-143245.0,-143379.0,140109.0,-146099.0,0.0,0.0,0.0,0.0,0.0,0.0,0.0,0.0,0.0,0.0,0.0,0.0,0.0,0.0,0.0,0.0,0.0,0.0,0.0,0.0,0.0,0.0,0.0,0.0
18,1.7644999027252197,0.52299,1.577867,0.400067,0.0,-0.019006,0.006238,0.48676,0.514032,0.521722,1.57641,0.400332,0.0,0.036527,0.003399,0.51041,0.521303,3.0,1.0,111.0,0.0,1.0,-77822.0,-25188.0,13675.0,-77616.0,25030.0,13533.0,-0.942596,-0.197956,0.268934,-0.297018,0.128928,-0.946128,0.152619,-0.971695,-0.180324,-0.938552,0.210093,0.273825,0.300663,0.108126,0.947581,0.169473,0.971684,-0.164649,-0.942596,-0.197956,0.268934,-0.297018,0.128928,-0.946128,0.152619,-0.971695,-0.180324,-0.938552,0.210093,0.273825,0.300663,0.108126,0.947581,0.169473,0.971684,-0.164649,-77822.0,-25188.0,13675.0,-77616.0,25030.0,13533.0,18271.0,17332.0,-160713.0,0.0,-55237.0,-55246.0,-54743.0,-55426.0,-15406.0,-12591.0,155912.0,0.0,53953.0,53713.0,54032.0,53948.0,46.0,212.0,-44.0,0.0,319.0,-112.0,550.0,-574.0,-45.0,-170.0,3.0,0.0,-565.0,-181.0,762.0,-924.0,-0.012509,-0.057385,0.012125,0.0,0.011678,-0.004128,-0.02013,-0.021011,-0.012343,-0.046164,0.000845,0.0,-0.0207,-0.006632,-0.027888,-0.033846,4081.140137,11515.860352,51560.191406,0.0,-17732.070312,-17722.980469,17978.580078,-17462.970703,4071.23999,11504.430664,51590.25,0.0,17747.820312,17738.28125,-17472.689453,18004.230469,0.0,0.0,0.0,0.0,0.0,0.0,0.0,0.0,0.0,0.0,0.0,0.0,0.0,0.0,0.0,0.0,0.0,0.0,0.0,0.0,0.0,0.0,0.0,0.0,0.0,0.0,0.0,0.0,0.0,0.0,0.0,0.0,4081.12085,11513.291016,51560.21875,0.0,-17726.3125,-17726.177734,17975.126953,-17468.207031,4071.175293,11503.96582,51585.96875,0.0,17738.046875,17737.923828,-17479.960938,17995.339844,29.965,90.383972,22.922344,0.0,-0.02175,0.001957,27.683056,28.691917,29.891975,90.317856,22.935377,0.0,0.281189,0.155087,28.455685,28.860069,1.0,1.031,-63617.0,-145286.0,-412178.0,0.0,141786.0,141676.0,-145019.0,138607.0,-60642.0,-140418.0,-417313.0,0.0,-143245.0,-143379.0,140109.0,-146099.0,0.0,0.0,0.0,0.0,0.0,0.0,0.0,0.0,0.0,0.0,0.0,0.0,0.0,0.0,0.0,0.0,0.0,0.0,0.0,0.0,0.0,0.0,0.0,0.0
19,1.784688949584961,0.52299,1.577867,0.400067,0.0,-0.019006,0.006238,0.48676,0.514032,0.521722,1.57641,0.400332,0.0,0.036527,0.003399,0.510234,0.520781,3.0,1.0,111.0,0.0,1.0,-77822.0,-25188.0,13675.0,-77616.0,25030.0,13533.0,-0.942596,-0.197956,0.268934,-0.297018,0.128928,-0.946128,0.152619,-0.971695,-0.180324,-0.938589,0.209931,0.273825,0.300645,0.108178,0.947581,0.169305,0.971713,-0.164649,-0.942596,-0.197956,0.268934,-0.297018,0.128928,-0.946128,0.152619,-0.971695,-0.180324,-0.93857,0.210012,0.273825,0.300654,0.108152,0.947581,0.169389,0.971699,-0.164649,-77822.0,-25188.0,13675.0,-77616.0,25030.0,13533.0,18271.0,17332.0,-160713.0,0.0,-55237.0,-55246.0,-54743.0,-55426.0,-15406.0,-12591.0,155912.0,0.0,53953.0,53713.0,54033.0,53945.0,46.0,212.0,-44.0,0.0,321.0,-114.0,551.0,-576.0,-45.0,-170.0,3.0,0.0,-570.0,-181.0,763.0,-922.0,-0.012509,-0.057385,0.012125,0.0,0.011779,-0.004184,-0.020191,-0.021102,-0.012343,-0.046164,0.000845,0.0,-0.020871,-0.006639,-0.027934,-0.033764,4081.140137,11515.860352,51560.191406,0.0,-17732.070312,-17722.980469,17978.580078,-17462.970703,4071.23999,11504.430664,51590.25,0.0,17747.820312,17738.28125,-17472.78125,18003.960938,0.0,0.0,0.0,0.0,0.0,0.0,0.0,0.0,0.0,0.0,0.0,0.0,0.0,0.0,0.0,-89.174942,0.0,0.0,0.0,0.0,0.0,0.0,0.0,0.0,0.0,0.0,0.0,0.0,0.0,0.0,0.0,-0.173088,4081.12085,11513.291016,51560.21875,0.0,-17726.3125,-17726.177734,17975.126953,-17468.207031,4071.175293,11503.96582,51585.96875,0.0,17738.046875,17737.923828,-17479.960938,17995.339844,29.965,90.383972,22.922344,0.0,-0.02175,0.001957,27.683056,28.691917,29.891975,90.317856,22.935377,0.0,0.281189,0.155087,28.455685,28.860069,1.0,1.031,-63617.0,-145286.0,-412178.0,0.0,141786.0,141676.0,-145019.0,138607.0,-60642.0,-140418.0,-417313.0,0.0,-143245.0,-143379.0,140109.0,-146099.0,0.0,0.0,0.0,0.0,0.0,0.0,0.0,0.0,0.0,0.0,0.0,0.0,0.0,0.0,0.0,0.0,0.0,0.0,0.0,0.0,0.0,0.0,0.0,0.0
20,1.805454969406128,0.52299,1.577867,0.400067,0.0,-0.019006,0.006238,0.48676,0.514032,0.521722,1.57641,0.400332,0.0,0.036233,0.003399,0.510061,0.520604,3.0,1.0,111.0,0.0,1.0,-77822.0,-25188.0,13675.0,-77616.0,25030.0,13533.0,-0.942596,-0.197956,0.268934,-0.297018,0.128928,-0.946128,0.152619,-0.971695,-0.180324,-0.938588,0.210011,0.273765,0.300646,0.108457,0.947549,0.169304,0.971665,-0.164935,-0.942596,-0.197956,0.268934,-0.297018,0.128928,-0.946128,0.152619,-0.971695,-0.180324,-0.938588,0.210011,0.273765,0.300646,0.108457,0.947549,0.169304,0.971665,-0.164935,-77822.0,-25188.0,13675.0,-77616.0,25030.0,13533.0,18271.0,17332.0,-160713.0,0.0,-55237.0,-55246.0,-54743.0,-55426.0,-15406.0,-12591.0,155912.0,0.0,53952.0,53713.0,54034.0,53944.0,46.0,212.0,-44.0,0.0,324.0,-115.0,553.0,-579.0,-45.0,-170.0,3.0,0.0,-571.0,-181.0,764.0,-924.0,-0.012509,-0.057385,0.012125,0.0,0.011884,-0.004243,-0.020254,-0.021198,-0.012343,-0.046164,0.000845,0.0,-0.020906,-0.006645,-0.027987,-0.033841,4081.140137,11515.860352,51560.191406,0.0,-17732.070312,-17722.980469,17978.580078,-17462.970703,4071.23999,11504.430664,51590.25,0.0,17747.730469,17738.28125,-17472.869141,18003.869141,0.0,0.0,0.0,0.0,0.0,0.0,0.0,0.0,0.0,0.0,0.0,0.0,0.0,0.0,0.0,0.0,0.0,0.0,0.0,0.0,0.0,0.0,0.0,0.0,0.0,0.0,0.0,0.0,0.0,0.0,0.0,0.0,4081.12085,11513.291016,51560.21875,0.0,-17726.3125,-17726.177734,17975.126953,-17468.207031,4071.175293,11503.96582,51585.96875,0.0,17738.046875,17737.923828,-17479.960938,17995.339844,29.965,90.383972,22.922344,0.0,-0.02175,0.001957,27.683056,28.691917,29.891975,90.317856,22.935377,0.0,0.281189,0.155087,28.455685,28.860069,1.0,1.03,-63617.0,-145286.0,-412178.0,0.0,141786.0,141676.0,-145019.0,138607.0,-60642.0,-140418.0,-417313.0,0.0,-143245.0,-143379.0,140109.0,-146099.0,0.0,0.0,0.0,0.0,0.0,0.0,0.0,0.0,0.0,0.0,0.0,0.0,0.0,0.0,0.0,0.0,0.0,0.0,0.0,0.0,0.0,0.0,0.0,0.0
21,1.8255350589752197,0.52299,1.577867,0.400067,0.0,-0.019006,0.006065,0.48667,0.513773,0.521722,1.57641,0.400332,0.0,0.036233,0.003399,0.509711,0.520255,3.0,1.0,111.0,0.0,1.0,-77821.0,-25190.0,13675.0,-77616.0,25030.0,13533.0,-0.942533,-0.198037,0.269097,-0.297193,0.128905,-0.946076,0.15267,-0.971681,-0.180352,-0.938588,0.210011,0.273765,0.300646,0.108457,0.947549,0.169304,0.971665,-0.164935,-0.942533,-0.198037,0.269097,-0.297193,0.128905,-0.946076,0.15267,-0.971681,-0.180352,-0.938588,0.210011,0.273765,0.300646,0.108457,0.947549,0.169304,0.971665,-0.164935,-77821.0,-25190.0,13675.0,-77616.0,25030.0,13533.0,18271.0,17332.0,-160713.0,0.0,-55237.0,-55247.0,-54742.0,-55427.0,-15406.0,-12591.0,155912.0,0.0,53952.0,53713.0,54036.0,53942.0,46.0,212.0,-44.0,0.0,327.0,-115.0,552.0,-579.0,-45.0,-170.0,3.0,0.0,-575.0,-181.0,763.0,-924.0,-0.012509,-0.057385,0.012125,0.0,0.011985,-0.004219,-0.020234,-0.021211,-0.012343,-0.046164,0.000845,0.0,-0.021075,-0.006651,-0.027951,-0.033831,4081.140137,11515.860352,51560.191406,0.0,-17732.070312,-17723.070312,17978.490234,-17463.060547,4071.23999,11504.430664,51590.25,0.0,17747.730469,17738.28125,-17473.050781,18003.689453,0.0,0.0,0.0,0.0,0.0,0.0,0.0,0.0,0.0,0.0,0.0,0.0,0.0,0.0,0.0,0.0,0.0,0.0,0.0,0.0,0.0,0.0,0.0,0.0,0.0,0.0,0.0,0.0,0.0,0.0,0.0,0.0,4081.12085,11513.291016,51560.21875,0.0,-17726.3125,-17726.177734,17975.126953,-17468.207031,4071.175293,11503.96582,51585.96875,0.0,17738.046875,17737.923828,-17479.960938,17995.339844,29.965,90.383972,22.922344,0.0,-0.02175,0.001957,27.683056,28.691917,29.891975,90.317856,22.935377,0.0,0.281189,0.155087,28.455685,28.860069,1.0,1.029,-63617.0,-145286.0,-412178.0,0.0,141786.0,141676.0,-145019.0,138607.0,-60642.0,-140418.0,-417313.0,0.0,-143245.0,-143379.0,140109.0,-146099.0,0.0,0.0,0.0,0.0,0.0,0.0,0.0,0.0,0.0,0.0,0.0,0.0,0.0,0.0,0.0,0.0,0.0,0.0,0.0,0.0,0.0,0.0,0.0,0.0
22,1.8476998805999756,0.52299,1.577867,0.400067,0.0,-0.019006,0.006065,0.48667,0.513773,0.521722,1.57641,0.400332,0.0,0.035944,0.003399,0.509535,0.519905,3.0,1.0,111.0,0.0,1.0,-77821.0,-25190.0,13675.0,-77616.0,25030.0,13533.0,-0.942533,-0.198037,0.269097,-0.297193,0.128905,-0.946076,0.15267,-0.971681,-0.180352,-0.938606,0.210009,0.273706,0.300638,0.108756,0.947517,0.16922,0.971632,-0.165216,-0.942533,-0.198037,0.269097,-0.297193,0.128905,-0.946076,0.15267,-0.971681,-0.180352,-0.938606,0.210009,0.273706,0.300638,0.108756,0.947517,0.16922,0.971632,-0.165216,-77821.0,-25190.0,13675.0,-77616.0,25030.0,13533.0,18271.0,17332.0,-160713.0,0.0,-55237.0,-55247.0,-54742.0,-55427.0,-15406.0,-12591.0,155912.0,0.0,53951.0,53713.0,54037.0,53940.0,46.0,212.0,-44.0,0.0,330.0,-116.0,554.0,-582.0,-45.0,-170.0,3.0,0.0,-577.0,-181.0,765.0,-924.0,-0.012509,-0.057385,0.012125,0.0,0.012095,-0.004279,-0.020298,-0.02131,-0.012343,-0.046164,0.000845,0.0,-0.02112,-0.006658,-0.028003,-0.033833,4081.140137,11515.860352,51560.191406,0.0,-17732.070312,-17723.070312,17978.490234,-17463.060547,4071.23999,11504.430664,51590.25,0.0,17747.640625,17738.28125,-17473.140625,18003.509766,0.0,0.0,0.0,0.0,0.0,0.0,0.0,0.0,0.0,0.0,0.0,0.0,0.0,0.0,0.0,-90.92347,0.0,0.0,0.0,0.0,0.0,0.0,0.0,0.0,0.0,0.0,0.0,0.0,0.0,0.0,0.0,-0.176481,4081.12085,11513.291016,51560.21875,0.0,-17726.3125,-17726.177734,17975.126953,-17468.207031,4071.175293,11503.96582,51585.96875,0.0,17738.046875,17737.923828,-17479.960938,17995.339844,29.965,90.383972,22.922344,0.0,-0.02175,0.001957,27.683056,28.691917,29.891975,90.317856,22.935377,0.0,0.281189,0.155087,28.455685,28.860069,1.0,1.029,-63617.0,-145286.0,-412178.0,0.0,141786.0,141676.0,-145019.0,138607.0,-60642.0,-140418.0,-417313.0,0.0,-143245.0,-143379.0,140109.0,-146099.0,0.0,0.0,0.0,0.0,0.0,0.0,0.0,0.0,0.0,0.0,0.0,0.0,0.0,0.0,0.0,0.0,0.0,0.0,0.0,0.0,0.0,0.0,0.0,0.0
23,1.8686308860778809,0.52299,1.577867,0.400067,0.0,-0.019006,0.006065,0.48667,0.5136,0.521722,1.57641,0.400332,0.0,0.035944,0.003399,0.509362,0.519732,3.0,1.0,111.0,0.0,1.0,-77821.0,-25190.0,13675.0,-77616.0,25030.0,13533.0,-0.942516,-0.198119,0.269097,-0.297204,0.128879,-0.946076,0.152754,-0.971668,-0.180352,-0.938606,0.210009,0.273706,0.300638,0.108756,0.947517,0.16922,0.971632,-0.165216,-0.942516,-0.198119,0.269097,-0.297204,0.128879,-0.946076,0.152754,-0.971668,-0.180352,-0.938606,0.210009,0.273706,0.300638,0.108756,0.947517,0.16922,0.971632,-0.165216,-77821.0,-25190.0,13675.0,-77616.0,25030.0,13533.0,18271.0,17332.0,-160713.0,0.0,-55237.0,-55247.0,-54742.0,-55428.0,-15406.0,-12591.0,155912.0,0.0,53951.0,53713.0,54038.0,53939.0,46.0,212.0,-44.0,0.0,333.0,-118.0,556.0,-582.0,-45.0,-170.0,3.0,0.0,-581.0,-182.0,766.0,-926.0,-0.012509,-0.057385,0.012125,0.0,0.012201,-0.004336,-0.02036,-0.021326,-0.012343,-0.046164,0.000845,0.0,-0.021296,-0.006665,-0.028049,-0.033904,4081.140137,11515.860352,51560.191406,0.0,-17732.070312,-17723.070312,17978.490234,-17463.150391,4071.23999,11504.430664,51590.25,0.0,17747.640625,17738.28125,-17473.230469,18003.419922,0.0,0.0,0.0,0.0,0.0,0.0,0.0,0.0,0.0,0.0,0.0,0.0,0.0,0.0,0.0,0.0,0.0,0.0,0.0,0.0,0.0,0.0,0.0,0.0,0.0,0.0,0.0,0.0,0.0,0.0,0.0,0.0,4081.12085,11513.291016,51560.21875,0.0,-17726.3125,-17726.177734,17975.126953,-17468.207031,4071.175293,11503.96582,51585.96875,0.0,17738.046875,17737.923828,-17479.960938,17995.339844,29.965,90.383972,22.922344,0.0,-0.02175,0.001957,27.683056,28.691917,29.891975,90.317856,22.935377,0.0,0.281189,0.155087,28.455685,28.860069,1.0,1.029,-63617.0,-145286.0,-412178.0,0.0,141786.0,141676.0,-145019.0,138607.0,-60642.0,-140418.0,-417313.0,0.0,-143245.0,-143379.0,140109.0,-146099.0,0.0,0.0,0.0,0.0,0.0,0.0,0.0,0.0,0.0,0.0,0.0,0.0,0.0,0.0,0.0,0.0,0.0,0.0,0.0,0.0,0.0,0.0,0.0,0.0
24,1.889596939086914,0.52299,1.577867,0.400067,0.0,-0.019006,0.006065,0.48667,0.5136,0.521722,1.57641,0.400332,0.0,0.035944,0.003399,0.509012,0.519383,3.0,1.0,111.0,0.0,1.0,-77821.0,-25190.0,13675.0,-77616.0,25030.0,13533.0,-0.942516,-0.198119,0.269097,-0.297204,0.128879,-0.946076,0.152754,-0.971668,-0.180352,-0.938606,0.210009,0.273706,0.300638,0.108756,0.947517,0.16922,0.971632,-0.165216,-0.942516,-0.198119,0.269097,-0.297204,0.128879,-0.946076,0.152754,-0.971668,-0.180352,-0.938606,0.210009,0.273706,0.300638,0.108756,0.947517,0.16922,0.971632,-0.165216,-77821.0,-25190.0,13675.0,-77616.0,25030.0,13533.0,18271.0,17332.0,-160713.0,0.0,-55237.0,-55247.0,-54742.0,-55428.0,-15406.0,-12591.0,155912.0,0.0,53951.0,53713.0,54040.0,53937.0,46.0,212.0,-44.0,0.0,336.0,-120.0,558.0,-585.0,-45.0,-170.0,3.0,0.0,-586.0,-182.0,765.0,-926.0,-0.012509,-0.057385,0.012125,0.0,0.012306,-0.004393,-0.020422,-0.021419,-0.012343,-0.046164,0.000845,0.0,-0.021472,-0.006671,-0.028013,-0.033893,4081.140137,11515.860352,51560.191406,0.0,-17732.070312,-17723.070312,17978.490234,-17463.150391,4071.23999,11504.430664,51590.25,0.0,17747.640625,17738.28125,-17473.410156,18003.240234,0.0,0.0,0.0,0.0,0.0,0.0,0.0,0.0,0.0,0.0,0.0,0.0,0.0,0.0,0.0,0.0,0.0,0.0,0.0,0.0,0.0,0.0,0.0,0.0,0.0,0.0,0.0,0.0,0.0,0.0,0.0,0.0,4081.12085,11513.291016,51560.21875,0.0,-17726.3125,-17726.177734,17975.126953,-17468.207031,4071.175293,11503.96582,51585.96875,0.0,17738.046875,17737.923828,-17479.960938,17995.339844,29.965,90.383972,22.922344,0.0,-0.02175,0.001957,27.683056,28.691917,29.891975,90.317856,22.935377,0.0,0.281189,0.155087,28.455685,28.860069,1.0,1.028,-63617.0,-145286.0,-412178.0,0.0,141786.0,141676.0,-145019.0,138607.0,-60642.0,-140418.0,-417313.0,0.0,-143245.0,-143379.0,140109.0,-146099.0,0.0,0.0,0.0,0.0,0.0,0.0,0.0,0.0,0.0,0.0,0.0,0.0,0.0,0.0,0.0,0.0,0.0,0.0,0.0,0.0,0.0,0.0,0.0,0.0
25,1.9096050262451172,0.52299,1.577867,0.400067,0.0,-0.019006,0.006065,0.48667,0.5136,0.521722,1.57641,0.400332,0.0,0.035656,0.003399,0.508836,0.519033,3.0,1.0,111.0,0.0,1.0,-77821.0,-25190.0,13675.0,-77616.0,25030.0,13533.0,-0.942516,-0.198119,0.269097,-0.297204,0.128879,-0.946076,0.152754,-0.971668,-0.180352,-0.938624,0.210008,0.273647,0.30063,0.109055,0.947485,0.169137,0.971598,-0.165497,-0.942516,-0.198119,0.269097,-0.297204,0.128879,-0.946076,0.152754,-0.971668,-0.180352,-0.938624,0.210008,0.273647,0.30063,0.109055,0.947485,0.169137,0.971598,-0.165497,-77821.0,-25190.0,13675.0,-77616.0,25030.0,13533.0,18271.0,17332.0,-160713.0,0.0,-55237.0,-55247.0,-54742.0,-55428.0,-15406.0,-12591.0,155912.0,0.0,53950.0,53713.0,54041.0,53935.0,46.0,212.0,-44.0,0.0,339.0,-121.0,559.0,-587.0,-45.0,-170.0,3.0,0.0,-587.0,-182.0,766.0,-925.0,-0.012509,-0.057385,0.012125,0.0,0.012407,-0.004447,-0.02048,-0.021507,-0.012343,-0.046164,0.000845,0.0,-0.021498,-0.006677,-0.028047,-0.033872,4081.140137,11515.860352,51560.191406,0.0,-17732.070312,-17723.070312,17978.490234,-17463.150391,4071.23999,11504.430664,51590.25,0.0,17747.550781,17738.28125,-17473.5,18003.060547,0.0,0.0,0.0,0.0,0.0,0.0,0.0,0.0,0.0,0.0,0.0,0.0,0.0,0.0,0.0,0.0,0.0,0.0,0.0,0.0,0.0,0.0,0.0,0.0,0.0,0.0,0.0,0.0,0.0,0.0,0.0,0.0,4081.12085,11513.291016,51560.21875,0.0,-17726.3125,-17726.177734,17975.126953,-17468.207031,4071.175293,11503.96582,51585.96875,0.0,17738.046875,17737.923828,-17479.960938,17995.339844,29.965,90.383972,22.922344,0.0,-0.02175,0.001957,27.683056,28.691917,29.891975,90.317856,22.935377,0.0,0.281189,0.155087,28.455685,28.860069,1.0,1.027,-63617.0,-145286.0,-412178.0,0.0,141786.0,141676.0,-145019.0,138607.0,-60642.0,-140418.0,-417313.0,0.0,-143245.0,-143379.0,140109.0,-146099.0,0.0,0.0,0.0,0.0,0.0,0.0,0.0,0.0,0.0,0.0,0.0,0.0,0.0,0.0,0.0,0.0,0.0,0.0,0.0,0.0,0.0,0.0,0.0,0.0
26,1.9315969944000244,0.52299,1.577867,0.400067,0.0,-0.019006,0.005888,0.486585,0.513335,0.521722,1.57641,0.400332,0.0,0.035656,0.003399,0.508663,0.51851,3.0,1.0,111.0,0.0,1.0,-77821.0,-25192.0,13675.0,-77616.0,25030.0,13533.0,-0.94245,-0.198204,0.269263,-0.297383,0.128855,-0.946023,0.15281,-0.971654,-0.180381,-0.93866,0.209844,0.273647,0.300611,0.109108,0.947485,0.168967,0.971628,-0.165497,-0.94245,-0.198204,0.269263,-0.297383,0.128855,-0.946023,0.15281,-0.971654,-0.180381,-0.93866,0.209844,0.273647,0.300611,0.109108,0.947485,0.168967,0.971628,-0.165497,-77821.0,-25192.0,13675.0,-77616.0,25030.0,13533.0,18271.0,17332.0,-160713.0,0.0,-55237.0,-55248.0,-54741.0,-55429.0,-15406.0,-12591.0,155912.0,0.0,53950.0,53713.0,54042.0,53932.0,46.0,212.0,-44.0,0.0,342.0,-120.0,559.0,-588.0,-45.0,-170.0,3.0,0.0,-592.0,-182.0,767.0,-923.0,-0.012509,-0.057385,0.012125,0.0,0.012518,-0.004427,-0.020465,-0.021524,-0.012343,-0.046164,0.000845,0.0,-0.021681,-0.006684,-0.028092,-0.033782,4081.140137,11515.860352,51560.191406,0.0,-17732.070312,-17723.160156,17978.400391,-17463.240234,4071.23999,11504.430664,51590.25,0.0,17747.550781,17738.28125,-17473.589844,18002.791016,0.0,0.0,0.0,0.0,0.0,0.0,0.0,0.0,0.0,0.0,0.0,0.0,0.0,0.0,0.0,0.0,0.0,0.0,0.0,0.0,0.0,0.0,0.0,0.0,0.0,0.0,0.0,0.0,0.0,0.0,0.0,0.0,4081.12085,11513.291016,51560.21875,0.0,-17726.3125,-17726.177734,17975.126953,-17468.207031,4071.175293,11503.96582,51585.96875,0.0,17738.046875,17737.923828,-17479.960938,17995.339844,29.965,90.383972,22.922344,0.0,-0.02175,0.001957,27.683056,28.691917,29.891975,90.317856,22.935377,0.0,0.281189,0.155087,28.455685,28.860069,0.999,1.027,-63617.0,-145286.0,-412178.0,0.0,141786.0,141676.0,-145019.0,138607.0,-60642.0,-140418.0,-417313.0,0.0,-143245.0,-143379.0,140109.0,-146099.0,0.0,0.0,0.0,0.0,0.0,0.0,0.0,0.0,0.0,0.0,0.0,0.0,0.0,0.0,0.0,0.0,0.0,0.0,0.0,0.0,0.0,0.0,0.0,0.0
27,1.9515600204467773,0.52299,1.577867,0.400067,0.0,-0.019006,0.005888,0.486585,0.513335,0.521722,1.57641,0.400332,0.0,0.035362,0.003399,0.508486,0.518334,3.0,1.0,111.0,0.0,1.0,-77821.0,-25192.0,13675.0,-77616.0,25030.0,13533.0,-0.94245,-0.198204,0.269263,-0.297383,0.128855,-0.946023,0.15281,-0.971654,-0.180381,-0.93866,0.209925,0.273586,0.300613,0.109386,0.947453,0.168968,0.971579,-0.165783,-0.94245,-0.198204,0.269263,-0.297383,0.128855,-0.946023,0.15281,-0.971654,-0.180381,-0.93866,0.209925,0.273586,0.300613,0.109386,0.947453,0.168968,0.971579,-0.165783,-77821.0,-25192.0,13675.0,-77616.0,25030.0,13533.0,18271.0,17332.0,-160713.0,0.0,-55237.0,-55248.0,-54741.0,-55429.0,-15406.0,-12591.0,155912.0,0.0,53949.0,53713.0,54043.0,53931.0,46.0,212.0,-44.0,0.0,344.0,-122.0,560.0,-590.0,-45.0,-170.0,3.0,0.0,-593.0,-182.0,768.0,-924.0,-0.012509,-0.057385,0.012125,0.0,0.012618,-0.004479,-0.020523,-0.02161,-0.012343,-0.046164,0.000845,0.0,-0.021703,-0.006691,-0.028123,-0.033832,4081.140137,11515.860352,51560.191406,0.0,-17732.070312,-17723.160156,17978.400391,-17463.240234,4071.23999,11504.430664,51590.25,0.0,17747.460938,17738.28125,-17473.681641,18002.699219,0.0,0.0,0.0,0.0,0.0,0.0,0.0,0.0,0.0,0.0,0.0,0.0,0.0,0.0,0.0,0.0,0.0,0.0,0.0,0.0,0.0,0.0,0.0,0.0,0.0,0.0,0.0,0.0,0.0,0.0,0.0,0.0,4081.12085,11513.291016,51560.21875,0.0,-17726.3125,-17726.177734,17975.126953,-17468.207031,4071.175293,11503.96582,51585.96875,0.0,17738.046875,17737.923828,-17479.960938,17995.339844,29.965,90.383972,22.922344,0.0,-0.02175,0.001957,27.683056,28.691917,29.891975,90.317856,22.935377,0.0,0.281189,0.155087,28.455685,28.860069,0.999,1.026,-63617.0,-145286.0,-412178.0,0.0,141786.0,141676.0,-145019.0,138607.0,-60642.0,-140418.0,-417313.0,0.0,-143245.0,-143379.0,140109.0,-146099.0,0.0,0.0,0.0,0.0,0.0,0.0,0.0,0.0,0.0,0.0,0.0,0.0,0.0,0.0,0.0,0.0,0.0,0.0,0.0,0.0,0.0,0.0,0.0,0.0
28,1.9725940227508545,0.52299,1.577867,0.400067,0.0,-0.019006,0.005888,0.486585,0.513162,0.521722,1.57641,0.400332,0.0,0.035362,0.003399,0.508136,0.517984,3.0,1.0,111.0,0.0,1.0,-77821.0,-25192.0,13675.0,-77616.0,25030.0,13533.0,-0.942433,-0.198286,0.269263,-0.297394,0.128829,-0.946023,0.152894,-0.971641,-0.180381,-0.93866,0.209925,0.273586,0.300613,0.109386,0.947453,0.168968,0.971579,-0.165783,-0.942433,-0.198286,0.269263,-0.297394,0.128829,-0.946023,0.152894,-0.971641,-0.180381,-0.93866,0.209925,0.273586,0.300613,0.109386,0.947453,0.168968,0.971579,-0.165783,-77821.0,-25192.0,13675.0,-77616.0,25030.0,13533.0,18271.0,17332.0,-160713.0,0.0,-55237.0,-55248.0,-54741.0,-55430.0,-15406.0,-12591.0,155912.0,0.0,53949.0,53713.0,54045.0,53929.0,46.0,212.0,-44.0,0.0,347.0,-123.0,562.0,-590.0,-45.0,-170.0,3.0,0.0,-597.0,-183.0,767.0,-923.0,-0.012509,-0.057385,0.012125,0.0,0.012724,-0.004534,-0.020582,-0.021623,-0.012343,-0.046164,0.000845,0.0,-0.021875,-0.006697,-0.028079,-0.033808,4081.140137,11515.860352,51560.191406,0.0,-17732.070312,-17723.160156,17978.400391,-17463.330078,4071.23999,11504.430664,51590.25,0.0,17747.460938,17738.28125,-17473.861328,18002.519531,0.0,0.0,0.0,0.0,0.0,0.0,0.0,0.0,0.0,0.0,0.0,0.0,0.0,0.0,0.0,0.0,0.0,0.0,0.0,0.0,0.0,0.0,0.0,0.0,0.0,0.0,0.0,0.0,0.0,0.0,0.0,0.0,4081.12085,11513.291016,51560.21875,0.0,-17726.3125,-17726.177734,17975.126953,-17468.207031,4071.175293,11503.96582,51585.96875,0.0,17738.046875,17737.923828,-17479.960938,17995.339844,29.965,90.383972,22.922344,0.0,-0.02175,0.001957,27.683056,28.691917,29.891975,90.317856,22.935377,0.0,0.281189,0.155087,28.455685,28.860069,0.999,1.026,-63617.0,-145286.0,-412178.0,0.0,141786.0,141676.0,-145019.0,138607.0,-60642.0,-140418.0,-417313.0,0.0,-143245.0,-143379.0,140109.0,-146099.0,0.0,0.0,0.0,0.0,0.0,0.0,0.0,0.0,0.0,0.0,0.0,0.0,0.0,0.0,0.0,0.0,0.0,0.0,0.0,0.0,0.0,0.0,0.0,0.0
29,1.9936249256134033,0.52299,1.577867,0.400067,0.0,-0.019006,0.005888,0.486585,0.513162,0.521722,1.57641,0.400332,0.0,0.035073,0.003399,0.507963,0.517462,3.0,1.0,111.0,0.0,1.0,-77821.0,-25192.0,13675.0,-77616.0,25030.0,13533.0,-0.942433,-0.198286,0.269263,-0.297394,0.128829,-0.946023,0.152894,-0.971641,-0.180381,-0.938696,0.209841,0.273527,0.300595,0.109712,0.947421,0.168799,0.971561,-0.166063,-0.942433,-0.198286,0.269263,-0.297394,0.128829,-0.946023,0.152894,-0.971641,-0.180381,-0.938696,0.209841,0.273527,0.300595,0.109712,0.947421,0.168799,0.971561,-0.166063,-77821.0,-25192.0,13675.0,-77616.0,25030.0,13533.0,18271.0,17332.0,-160713.0,0.0,-55237.0,-55248.0,-54741.0,-55430.0,-15406.0,-12591.0,155912.0,0.0,53948.0,53713.0,54046.0,53926.0,46.0,212.0,-44.0,0.0,350.0,-125.0,564.0,-593.0,-45.0,-170.0,3.0,0.0,-598.0,-183.0,768.0,-920.0,-0.012509,-0.057385,0.012125,0.0,0.012829,-0.00459,-0.020642,-0.021712,-0.012343,-0.046164,0.000845,0.0,-0.021907,-0.006704,-0.028113,-0.033701,4081.140137,11515.860352,51560.191406,0.0,-17732.070312,-17723.160156,17978.400391,-17463.330078,4071.23999,11504.430664,51590.25,0.0,17747.371094,17738.28125,-17473.951172,18002.25,0.0,0.0,0.0,0.0,0.0,0.0,0.0,0.0,0.0,0.0,0.0,0.0,0.0,0.0,0.0,0.0,0.0,0.0,0.0,0.0,0.0,0.0,0.0,0.0,0.0,0.0,0.0,0.0,0.0,0.0,0.0,0.0,4081.12085,11513.291016,51560.21875,0.0,-17726.3125,-17726.177734,17975.126953,-17468.207031,4071.175293,11503.96582,51585.96875,0.0,17738.046875,17737.923828,-17479.960938,17995.339844,29.965,90.383972,22.922344,0.0,-0.02175,0.001957,27.683056,28.691917,29.891975,90.317856,22.935377,0.0,0.281189,0.155087,28.455685,28.860069,0.999,1.025,-63617.0,-145286.0,-412178.0,0.0,141786.0,141676.0,-145019.0,138607.0,-60642.0,-140418.0,-417313.0,0.0,-143245.0,-143379.0,140109.0,-146099.0,0.0,0.0,0.0,0.0,0.0,0.0,0.0,0.0,0.0,0.0,0.0,0.0,0.0,0.0,0.0,0.0,0.0,0.0,0.0,0.0,0.0,0.0,0.0,0.0
30,2.01357102394104,0.52299,1.577867,0.400067,0.0,-0.019006,0.005888,0.486409,0.513162,0.521722,1.57641,0.400332,0.0,0.035073,0.003399,0.507787,0.517112,3.0,1.0,111.0,0.0,1.0,-77821.0,-25192.0,13675.0,-77616.0,25030.0,13533.0,-0.942451,-0.198202,0.269263,-0.297383,0.128855,-0.946023,0.152808,-0.971654,-0.180381,-0.938714,0.20976,0.273527,0.300585,0.109738,0.947421,0.168715,0.971575,-0.166063,-0.942451,-0.198202,0.269263,-0.297383,0.128855,-0.946023,0.152808,-0.971654,-0.180381,-0.938714,0.20976,0.273527,0.300585,0.109738,0.947421,0.168715,0.971575,-0.166063,-77821.0,-25192.0,13675.0,-77616.0,25030.0,13533.0,18271.0,17332.0,-160713.0,0.0,-55237.0,-55248.0,-54740.0,-55430.0,-15406.0,-12591.0,155912.0,0.0,53948.0,53713.0,54047.0,53924.0,46.0,212.0,-44.0,0.0,353.0,-126.0,563.0,-595.0,-45.0,-170.0,3.0,0.0,-603.0,-183.0,768.0,-919.0,-0.012509,-0.057385,0.012125,0.0,0.01293,-0.004642,-0.02062,-0.021797,-0.012343,-0.046164,0.000845,0.0,-0.02207,-0.00671,-0.028138,-0.033663,4081.140137,11515.860352,51560.191406,0.0,-17732.070312,-17723.160156,17978.310547,-17463.330078,4071.23999,11504.430664,51590.25,0.0,17747.371094,17738.28125,-17474.041016,18002.070312,0.0,0.0,0.0,0.0,0.0,0.0,0.0,0.0,0.0,0.0,0.0,0.0,0.0,0.0,0.0,0.0,0.0,0.0,0.0,0.0,0.0,0.0,0.0,0.0,0.0,0.0,0.0,0.0,0.0,0.0,0.0,0.0,4081.12085,11513.291016,51560.21875,0.0,-17726.3125,-17726.177734,17975.126953,-17468.207031,4071.175293,11503.96582,51585.96875,0.0,17738.046875,17737.923828,-17479.960938,17995.339844,29.965,90.383972,22.922344,0.0,-0.02175,0.001957,27.683056,28.691917,29.891975,90.317856,22.935377,0.0,0.281189,0.155087,28.455685,28.860069,0.999,1.024,-63617.0,-145286.0,-412178.0,0.0,141786.0,141676.0,-145019.0,138607.0,-60642.0,-140418.0,-417313.0,0.0,-143245.0,-143379.0,140109.0,-146099.0,0.0,0.0,0.0,0.0,0.0,0.0,0.0,0.0,0.0,0.0,0.0,0.0,0.0,0.0,0.0,0.0,0.0,0.0,0.0,0.0,0.0,0.0,0.0,0.0
31,2.03358793258667,0.52299,1.577867,0.400067,0.0,-0.019006,0.005715,0.486495,0.512899,0.521722,1.57641,0.400332,0.0,0.035073,0.003399,0.507614,0.517112,3.0,1.0,111.0,0.0,1.0,-77820.0,-25194.0,13674.0,-77616.0,25030.0,13533.0,-0.942369,-0.198368,0.269426,-0.297569,0.128805,-0.945971,0.152947,-0.971627,-0.18041,-0.938696,0.209841,0.273527,0.300595,0.109712,0.947421,0.168799,0.971561,-0.166063,-0.942369,-0.198368,0.269426,-0.297569,0.128805,-0.945971,0.152947,-0.971627,-0.18041,-0.938696,0.209841,0.273527,0.300595,0.109712,0.947421,0.168799,0.971561,-0.166063,-77820.0,-25194.0,13674.0,-77616.0,25030.0,13533.0,18271.0,17332.0,-160713.0,0.0,-55237.0,-55249.0,-54740.0,-55431.0,-15406.0,-12591.0,155912.0,0.0,53948.0,53713.0,54048.0,53924.0,46.0,212.0,-44.0,0.0,356.0,-126.0,565.0,-595.0,-45.0,-170.0,3.0,0.0,-607.0,-183.0,769.0,-923.0,-0.012509,-0.057385,0.012125,0.0,0.01303,-0.004617,-0.020675,-0.021802,-0.012343,-0.046164,0.000845,0.0,-0.022233,-0.006716,-0.028162,-0.03378,4081.140137,11515.860352,51560.191406,0.0,-17732.070312,-17723.25,17978.310547,-17463.419922,4071.23999,11504.430664,51590.25,0.0,17747.371094,17738.28125,-17474.130859,18002.070312,0.0,0.0,0.0,0.0,0.0,0.0,0.0,0.0,0.0,0.0,0.0,0.0,0.0,0.0,0.0,0.0,0.0,0.0,0.0,0.0,0.0,0.0,0.0,0.0,0.0,0.0,0.0,0.0,0.0,0.0,0.0,0.0,4081.12085,11513.291016,51560.21875,0.0,-17726.3125,-17726.177734,17975.126953,-17468.207031,4071.175293,11503.96582,51585.96875,0.0,17738.046875,17737.923828,-17479.960938,17995.339844,29.965,90.383972,22.922344,0.0,-0.02175,0.001957,27.683056,28.691917,29.891975,90.317856,22.935377,0.0,0.281189,0.155087,28.455685,28.860069,0.999,1.024,-63617.0,-145286.0,-412178.0,0.0,141786.0,141676.0,-145019.0,138607.0,-60642.0,-140418.0,-417313.0,0.0,-143245.0,-143379.0,140109.0,-146099.0,0.0,0.0,0.0,0.0,0.0,0.0,0.0,0.0,0.0,0.0,0.0,0.0,0.0,0.0,0.0,0.0,0.0,0.0,0.0,0.0,0.0,0.0,0.0,0.0
32,2.05560302734375,0.52299,1.577867,0.400067,0.0,-0.019006,0.005715,0.486495,0.512899,0.521722,1.57641,0.400332,0.0,0.034779,0.003399,0.507437,0.516936,3.0,1.0,111.0,0.0,1.0,-77820.0,-25194.0,13674.0,-77616.0,25030.0,13533.0,-0.942369,-0.198368,0.269426,-0.297569,0.128805,-0.945971,0.152947,-0.971627,-0.18041,-0.938695,0.209923,0.273467,0.300596,0.10999,0.947388,0.1688,0.971512,-0.166349,-0.942369,-0.198368,0.269426,-0.297569,0.128805,-0.945971,0.152947,-0.971627,-0.18041,-0.938695,0.209923,0.273467,0.300596,0.10999,0.947388,0.1688,0.971512,-0.166349,-77820.0,-25194.0,13674.0,-77616.0,25030.0,13533.0,18271.0,17332.0,-160713.0,0.0,-55237.0,-55249.0,-54740.0,-55431.0,-15406.0,-12591.0,155912.0,0.0,53947.0,53713.0,54049.0,53923.0,46.0,212.0,-44.0,0.0,359.0,-127.0,566.0,-598.0,-45.0,-170.0,3.0,0.0,-608.0,-183.0,770.0,-924.0,-0.012509,-0.057385,0.012125,0.0,0.013141,-0.004673,-0.020736,-0.021894,-0.012343,-0.046164,0.000845,0.0,-0.022267,-0.006723,-0.028194,-0.03383,4081.140137,11515.860352,51560.191406,0.0,-17732.070312,-17723.25,17978.310547,-17463.419922,4071.23999,11504.430664,51590.25,0.0,17747.28125,17738.28125,-17474.220703,18001.980469,0.0,0.0,0.0,0.0,0.0,0.0,0.0,0.0,0.0,0.0,0.0,0.0,0.0,0.0,0.0,0.0,0.0,0.0,0.0,0.0,0.0,0.0,0.0,0.0,0.0,0.0,0.0,0.0,0.0,0.0,0.0,0.0,4081.12085,11513.291016,51560.21875,0.0,-17726.3125,-17726.177734,17975.126953,-17468.207031,4071.175293,11503.96582,51585.96875,0.0,17738.046875,17737.923828,-17479.960938,17995.339844,29.965,90.383972,22.922344,0.0,-0.02175,0.001957,27.683056,28.691917,29.891975,90.317856,22.935377,0.0,0.281189,0.155087,28.455685,28.860069,0.999,1.024,-63617.0,-145286.0,-412178.0,0.0,141786.0,141676.0,-145019.0,138607.0,-60642.0,-140418.0,-417313.0,0.0,-143245.0,-143379.0,140109.0,-146099.0,0.0,0.0,0.0,0.0,0.0,0.0,0.0,0.0,0.0,0.0,0.0,0.0,0.0,0.0,0.0,0.0,0.0,0.0,0.0,0.0,0.0,0.0,0.0,0.0
33,2.076606035232544,0.52299,1.577867,0.400067,0.0,-0.019006,0.005715,0.486322,0.512726,0.521722,1.57641,0.400332,0.0,0.034779,0.003399,0.507091,0.516936,3.0,1.0,111.0,0.0,1.0,-77820.0,-25194.0,13674.0,-77616.0,25030.0,13533.0,-0.942369,-0.198368,0.269426,-0.297569,0.128805,-0.945971,0.152947,-0.971627,-0.18041,-0.938659,0.210085,0.273467,0.300615,0.109938,0.947388,0.168968,0.971482,-0.166349,-0.942369,-0.198368,0.269426,-0.297569,0.128805,-0.945971,0.152947,-0.971627,-0.18041,-0.938659,0.210085,0.273467,0.300615,0.109938,0.947388,0.168968,0.971482,-0.166349,-77820.0,-25194.0,13674.0,-77616.0,25030.0,13533.0,18271.0,17332.0,-160713.0,0.0,-55237.0,-55249.0,-54739.0,-55432.0,-15406.0,-12591.0,155912.0,0.0,53947.0,53713.0,54051.0,53923.0,46.0,212.0,-44.0,0.0,361.0,-129.0,566.0,-598.0,-45.0,-170.0,3.0,0.0,-613.0,-183.0,769.0,-927.0,-0.012509,-0.057385,0.012125,0.0,0.013246,-0.004726,-0.020717,-0.021902,-0.012343,-0.046164,0.000845,0.0,-0.022437,-0.006729,-0.028141,-0.033951,4081.140137,11515.860352,51560.191406,0.0,-17732.070312,-17723.25,17978.220703,-17463.509766,4071.23999,11504.430664,51590.25,0.0,17747.28125,17738.28125,-17474.400391,18001.980469,0.0,0.0,0.0,0.0,0.0,0.0,-89.174942,0.0,0.0,0.0,0.0,0.0,0.0,0.0,0.0,0.0,0.0,0.0,0.0,0.0,0.0,0.0,-0.173088,0.0,0.0,0.0,0.0,0.0,0.0,0.0,0.0,0.0,4081.12085,11513.291016,51560.21875,0.0,-17726.3125,-17726.177734,17975.126953,-17468.207031,4071.175293,11503.96582,51585.96875,0.0,17738.046875,17737.923828,-17479.960938,17995.339844,29.965,90.383972,22.922344,0.0,-0.02175,0.001957,27.683056,28.691917,29.891975,90.317856,22.935377,0.0,0.281189,0.155087,28.455685,28.860069,0.999,1.024,-63617.0,-145286.0,-412178.0,0.0,141786.0,141676.0,-145019.0,138607.0,-60642.0,-140418.0,-417313.0,0.0,-143245.0,-143379.0,140109.0,-146099.0,0.0,0.0,0.0,0.0,0.0,-0.173088,0.0,0.0,0.0,0.0,0.0,0.0,0.0,0.0,0.0,0.0,0.0,-0.173088,0.0,0.0,0.0,0.0,0.0,0.0
34,2.0965960025787354,0.52299,1.577867,0.400067,0.0,-0.019006,0.005715,0.486322,0.512726,0.521722,1.57641,0.400332,0.0,0.03449,0.003399,0.506915,0.516936,3.0,1.0,111.0,0.0,1.0,-77820.0,-25194.0,13674.0,-77616.0,25030.0,13533.0,-0.942369,-0.198368,0.269426,-0.297569,0.128805,-0.945971,0.152947,-0.971627,-0.18041,-0.93864,0.210248,0.273407,0.300627,0.110184,0.947356,0.169054,0.971419,-0.16663,-0.942369,-0.198368,0.269426,-0.297569,0.128805,-0.945971,0.152947,-0.971627,-0.18041,-0.93864,0.210248,0.273407,0.300627,0.110184,0.947356,0.169054,0.971419,-0.16663,-77820.0,-25194.0,13674.0,-77616.0,25030.0,13533.0,18271.0,17332.0,-160713.0,0.0,-55237.0,-55249.0,-54739.0,-55432.0,-15406.0,-12591.0,155912.0,0.0,53946.0,53713.0,54052.0,53923.0,46.0,212.0,-44.0,0.0,364.0,-130.0,567.0,-600.0,-45.0,-170.0,3.0,0.0,-613.0,-184.0,769.0,-931.0,-0.012509,-0.057385,0.012125,0.0,0.013347,-0.004778,-0.020771,-0.021984,-0.012343,-0.046164,0.000845,0.0,-0.022457,-0.006736,-0.028158,-0.034067,4081.140137,11515.860352,51560.191406,0.0,-17732.070312,-17723.25,17978.220703,-17463.509766,4071.23999,11504.430664,51590.25,0.0,17747.191406,17738.28125,-17474.490234,18001.980469,0.0,0.0,0.0,0.0,0.0,0.0,0.0,0.0,0.0,0.0,0.0,0.0,0.0,0.0,0.0,0.0,0.0,0.0,0.0,0.0,0.0,0.0,0.0,0.0,0.0,0.0,0.0,0.0,0.0,0.0,0.0,0.0,4081.12085,11513.291016,51560.21875,0.0,-17726.3125,-17726.177734,17975.126953,-17468.207031,4071.175293,11503.96582,51585.96875,0.0,17738.046875,17737.923828,-17479.960938,17995.339844,29.965,90.383972,22.922344,0.0,-0.02175,0.001957,27.683056,28.691917,29.891975,90.317856,22.935377,0.0,0.281189,0.155087,28.455685,28.860069,0.999,1.023,-63617.0,-145286.0,-412178.0,0.0,141786.0,141676.0,-145019.0,138607.0,-60642.0,-140418.0,-417313.0,0.0,-143245.0,-143379.0,140109.0,-146099.0,0.0,0.0,0.0,0.0,0.0,0.0,0.0,0.0,0.0,0.0,0.0,0.0,0.0,0.0,0.0,0.0,0.0,0.0,0.0,0.0,0.0,0.0,0.0,0.0
35,2.1175971031188965,0.52299,1.577867,0.400067,0.0,-0.019006,0.005539,0.48641,0.512461,0.521722,1.57641,0.400332,0.0,0.03449,0.003399,0.506742,0.516762,3.0,1.0,111.0,0.0,1.0,-77819.0,-25196.0,13674.0,-77616.0,25030.0,13533.0,-0.942287,-0.198535,0.269591,-0.297758,0.128755,-0.945919,0.153086,-0.9716,-0.180439,-0.93864,0.210248,0.273407,0.300627,0.110184,0.947356,0.169054,0.971419,-0.16663,-0.942287,-0.198535,0.269591,-0.297758,0.128755,-0.945919,0.153086,-0.9716,-0.180439,-0.93864,0.210248,0.273407,0.300627,0.110184,0.947356,0.169054,0.971419,-0.16663,-77819.0,-25196.0,13674.0,-77616.0,25030.0,13533.0,18271.0,17332.0,-160713.0,0.0,-55237.0,-55250.0,-54739.0,-55433.0,-15406.0,-12591.0,155912.0,0.0,53946.0,53713.0,54053.0,53922.0,46.0,212.0,-44.0,0.0,367.0,-129.0,569.0,-600.0,-45.0,-170.0,3.0,0.0,-618.0,-184.0,770.0,-932.0,-0.012509,-0.057385,0.012125,0.0,0.013452,-0.004751,-0.020827,-0.02199,-0.012343,-0.046164,0.000845,0.0,-0.022624,-0.006742,-0.028179,-0.03411,4081.140137,11515.860352,51560.191406,0.0,-17732.070312,-17723.341797,17978.220703,-17463.601562,4071.23999,11504.430664,51590.25,0.0,17747.191406,17738.28125,-17474.580078,18001.890625,0.0,0.0,0.0,0.0,0.0,0.0,0.0,0.0,0.0,0.0,0.0,0.0,0.0,0.0,0.0,0.0,0.0,0.0,0.0,0.0,0.0,0.0,0.0,0.0,0.0,0.0,0.0,0.0,0.0,0.0,0.0,0.0,4081.12085,11513.291016,51560.21875,0.0,-17726.3125,-17726.177734,17975.126953,-17468.207031,4071.175293,11503.96582,51585.96875,0.0,17738.046875,17737.923828,-17479.960938,17995.339844,29.965,90.383972,22.922344,0.0,-0.02175,0.001957,27.683056,28.691917,29.891975,90.317856,22.935377,0.0,0.281189,0.155087,28.455685,28.860069,0.998,1.023,-63617.0,-145286.0,-412178.0,0.0,141786.0,141676.0,-145019.0,138607.0,-60642.0,-140418.0,-417313.0,0.0,-143245.0,-143379.0,140109.0,-146099.0,0.0,0.0,0.0,0.0,0.0,0.0,0.0,0.0,0.0,0.0,0.0,0.0,0.0,0.0,0.0,0.0,0.0,0.0,0.0,0.0,0.0,0.0,0.0,0.0
36,2.137583017349243,0.52299,1.577867,0.400067,0.0,-0.019006,0.005539,0.486234,0.512461,0.521722,1.57641,0.400332,0.0,0.034196,0.003399,0.506565,0.516762,3.0,1.0,111.0,0.0,1.0,-77819.0,-25196.0,13674.0,-77616.0,25030.0,13533.0,-0.942304,-0.198452,0.269591,-0.297747,0.128781,-0.945919,0.153001,-0.971613,-0.180439,-0.93862,0.210412,0.273347,0.300638,0.110436,0.947323,0.169141,0.971355,-0.166916,-0.942287,-0.198535,0.269591,-0.297758,0.128755,-0.945919,0.153086,-0.9716,-0.180439,-0.93862,0.210412,0.273347,0.300638,0.110436,0.947323,0.169141,0.971355,-0.166916,-77819.0,-25196.0,13674.0,-77616.0,25030.0,13533.0,18271.0,17332.0,-160713.0,0.0,-55237.0,-55250.0,-54738.0,-55433.0,-15406.0,-12591.0,155912.0,0.0,53945.0,53713.0,54054.0,53922.0,46.0,212.0,-44.0,0.0,370.0,-131.0,568.0,-603.0,-45.0,-170.0,3.0,0.0,-618.0,-184.0,770.0,-935.0,-0.012509,-0.057385,0.012125,0.0,0.013553,-0.0048,-0.020802,-0.02207,-0.012343,-0.046164,0.000845,0.0,-0.02264,-0.006748,-0.028193,-0.034224,4081.140137,11515.860352,51560.191406,0.0,-17732.070312,-17723.341797,17978.128906,-17463.601562,4071.23999,11504.430664,51590.25,0.0,17747.099609,17738.28125,-17474.669922,18001.890625,0.0,0.0,0.0,0.0,0.0,0.0,-90.92347,0.0,0.0,0.0,0.0,0.0,0.0,0.0,0.0,0.0,0.0,0.0,0.0,0.0,0.0,0.0,-0.176481,0.0,0.0,0.0,0.0,0.0,0.0,0.0,0.0,0.0,4081.12085,11513.291016,51560.21875,0.0,-17726.3125,-17726.177734,17975.126953,-17468.207031,4071.175293,11503.96582,51585.96875,0.0,17738.046875,17737.923828,-17479.960938,17995.339844,29.965,90.383972,22.922344,0.0,-0.02175,0.001957,27.683056,28.691917,29.891975,90.317856,22.935377,0.0,0.281189,0.155087,28.455685,28.860069,0.998,1.023,-63617.0,-145286.0,-412178.0,0.0,141786.0,141676.0,-145019.0,138607.0,-60642.0,-140418.0,-417313.0,0.0,-143245.0,-143379.0,140109.0,-146099.0,0.0,0.0,0.0,0.0,0.0,-0.176481,0.0,0.0,0.0,0.0,0.0,0.0,0.0,0.0,0.0,0.0,0.0,-0.176481,0.0,0.0,0.0,0.0,0.0,0.0
37,2.1575870513916016,0.52299,1.577867,0.400067,0.0,-0.019006,0.005539,0.486234,0.512288,0.521722,1.57641,0.400332,0.0,0.034196,0.003399,0.506392,0.516589,3.0,1.0,111.0,0.0,1.0,-77819.0,-25196.0,13674.0,-77616.0,25030.0,13533.0,-0.942287,-0.198533,0.269591,-0.297758,0.128755,-0.945919,0.153085,-0.9716,-0.180439,-0.93862,0.210412,0.273347,0.300638,0.110436,0.947323,0.169141,0.971355,-0.166916,-0.942287,-0.198533,0.269591,-0.297758,0.128755,-0.945919,0.153085,-0.9716,-0.180439,-0.93862,0.210412,0.273347,0.300638,0.110436,0.947323,0.169141,0.971355,-0.166916,-77819.0,-25196.0,13674.0,-77616.0,25030.0,13533.0,18271.0,17332.0,-160713.0,0.0,-55237.0,-55250.0,-54738.0,-55434.0,-15406.0,-12591.0,155912.0,0.0,53945.0,53713.0,54055.0,53921.0,46.0,212.0,-44.0,0.0,373.0,-132.0,569.0,-603.0,-45.0,-170.0,3.0,0.0,-623.0,-184.0,770.0,-936.0,-0.012509,-0.057385,0.012125,0.0,0.013653,-0.00485,-0.020854,-0.022071,-0.012343,-0.046164,0.000845,0.0,-0.022798,-0.006755,-0.028206,-0.03426,4081.140137,11515.860352,51560.191406,0.0,-17732.070312,-17723.341797,17978.128906,-17463.689453,4071.23999,11504.430664,51590.25,0.0,17747.099609,17738.28125,-17474.759766,18001.800781,0.0,0.0,0.0,0.0,0.0,0.0,0.0,0.0,0.0,0.0,0.0,0.0,0.0,0.0,0.0,0.0,0.0,0.0,0.0,0.0,0.0,0.0,0.0,0.0,0.0,0.0,0.0,0.0,0.0,0.0,0.0,0.0,4081.12085,11513.291016,51560.21875,0.0,-17726.3125,-17726.177734,17975.126953,-17468.207031,4071.175293,11503.96582,51585.96875,0.0,17738.046875,17737.923828,-17479.960938,17995.339844,29.965,90.383972,22.922344,0.0,-0.02175,0.001957,27.683056,28.691917,29.891975,90.317856,22.935377,0.0,0.281189,0.155087,28.455685,28.860069,0.998,1.022,-63617.0,-145286.0,-412178.0,0.0,141786.0,141676.0,-145019.0,138607.0,-60642.0,-140418.0,-417313.0,0.0,-143245.0,-143379.0,140109.0,-146099.0,0.0,0.0,0.0,0.0,0.0,0.0,0.0,0.0,0.0,0.0,0.0,0.0,0.0,0.0,0.0,0.0,0.0,0.0,0.0,0.0,0.0,0.0,0.0,0.0
38,2.179595947265625,0.52299,1.577867,0.400067,0.0,-0.019006,0.005539,0.486234,0.512288,0.521722,1.57641,0.400332,0.0,0.034196,0.003399,0.506216,0.516589,3.0,1.0,111.0,0.0,1.0,-77819.0,-25196.0,13674.0,-77616.0,25030.0,13533.0,-0.942287,-0.198533,0.269591,-0.297758,0.128755,-0.945919,0.153085,-0.9716,-0.180439,-0.938602,0.210495,0.273347,0.300648,0.11041,0.947323,0.169226,0.97134,-0.166916,-0.942287,-0.198533,0.269591,-0.297758,0.128755,-0.945919,0.153085,-0.9716,-0.180439,-0.938602,0.210495,0.273347,0.300648,0.11041,0.947323,0.169226,0.97134,-0.166916,-77819.0,-25196.0,13674.0,-77616.0,25030.0,13533.0,18271.0,17332.0,-160713.0,0.0,-55237.0,-55250.0,-54738.0,-55434.0,-15406.0,-12591.0,155912.0,0.0,53945.0,53713.0,54056.0,53921.0,46.0,212.0,-44.0,0.0,376.0,-134.0,571.0,-605.0,-45.0,-170.0,3.0,0.0,-627.0,-184.0,771.0,-939.0,-0.012509,-0.057385,0.012125,0.0,0.013764,-0.004904,-0.020912,-0.022158,-0.012343,-0.046164,0.000845,0.0,-0.022972,-0.006762,-0.028224,-0.034384,4081.140137,11515.860352,51560.191406,0.0,-17732.070312,-17723.341797,17978.128906,-17463.689453,4071.23999,11504.430664,51590.25,0.0,17747.099609,17738.28125,-17474.851562,18001.800781,0.0,0.0,0.0,0.0,0.0,0.0,0.0,0.0,0.0,0.0,0.0,0.0,0.0,0.0,0.0,0.0,0.0,0.0,0.0,0.0,0.0,0.0,0.0,0.0,0.0,0.0,0.0,0.0,0.0,0.0,0.0,0.0,4081.12085,11513.291016,51560.21875,0.0,-17726.3125,-17726.177734,17975.126953,-17468.207031,4071.175293,11503.96582,51585.96875,0.0,17738.046875,17737.923828,-17479.960938,17995.339844,29.965,90.383972,22.922344,0.0,-0.02175,0.001957,27.683056,28.691917,29.891975,90.317856,22.935377,0.0,0.281189,0.155087,28.455685,28.860069,0.998,1.022,-63617.0,-145286.0,-412178.0,0.0,141786.0,141676.0,-145019.0,138607.0,-60642.0,-140418.0,-417313.0,0.0,-143245.0,-143379.0,140109.0,-146099.0,0.0,0.0,0.0,0.0,0.0,0.0,0.0,0.0,0.0,0.0,0.0,0.0,0.0,0.0,0.0,0.0,0.0,0.0,0.0,0.0,0.0,0.0,0.0,0.0
39,2.2005910873413086,0.52299,1.577867,0.400067,0.0,-0.019006,0.005539,0.486234,0.512111,0.521722,1.57641,0.400332,0.0,0.033908,0.003399,0.506042,0.516413,3.0,1.0,111.0,0.0,1.0,-77819.0,-25196.0,13674.0,-77616.0,25030.0,13533.0,-0.94227,-0.198616,0.269591,-0.29777,0.128729,-0.945919,0.153171,-0.971587,-0.180439,-0.938602,0.210573,0.273288,0.300649,0.110683,0.947291,0.169225,0.971292,-0.167196,-0.94227,-0.198616,0.269591,-0.29777,0.128729,-0.945919,0.153171,-0.971587,-0.180439,-0.938602,0.210573,0.273288,0.300649,0.110683,0.947291,0.169225,0.971292,-0.167196,-77819.0,-25196.0,13674.0,-77616.0,25030.0,13533.0,18271.0,17332.0,-160713.0,0.0,-55237.0,-55250.0,-54738.0,-55435.0,-15406.0,-12591.0,155912.0,0.0,53944.0,53713.0,54057.0,53920.0,46.0,212.0,-44.0,0.0,379.0,-135.0,572.0,-605.0,-45.0,-170.0,3.0,0.0,-628.0,-184.0,771.0,-940.0,-0.012509,-0.057385,0.012125,0.0,0.013869,-0.004956,-0.020967,-0.02216,-0.012343,-0.046164,0.000845,0.0,-0.022997,-0.006768,-0.028239,-0.034423,4081.140137,11515.860352,51560.191406,0.0,-17732.070312,-17723.341797,17978.128906,-17463.78125,4071.23999,11504.430664,51590.25,0.0,17747.011719,17738.28125,-17474.939453,18001.710938,0.0,0.0,0.0,0.0,0.0,0.0,0.0,0.0,0.0,0.0,0.0,0.0,0.0,0.0,0.0,0.0,0.0,0.0,0.0,0.0,0.0,0.0,0.0,0.0,0.0,0.0,0.0,0.0,0.0,0.0,0.0,0.0,4081.12085,11513.291016,51560.21875,0.0,-17726.3125,-17726.177734,17975.126953,-17468.207031,4071.175293,11503.96582,51585.96875,0.0,17738.046875,17737.923828,-17479.960938,17995.339844,29.965,90.383972,22.922344,0.0,-0.02175,0.001957,27.683056,28.691917,29.891975,90.317856,22.935377,0.0,0.281189,0.155087,28.455685,28.860069,0.998,1.022,-63617.0,-145286.0,-412178.0,0.0,141786.0,141676.0,-145019.0,138607.0,-60642.0,-140418.0,-417313.0,0.0,-143245.0,-143379.0,140109.0,-146099.0,0.0,0.0,0.0,0.0,0.0,0.0,0.0,0.0,0.0,0.0,0.0,0.0,0.0,0.0,0.0,0.0,0.0,0.0,0.0,0.0,0.0,0.0,0.0,0.0
40,2.2206029891967773,0.52299,1.577867,0.400067,0.0,-0.019006,0.005365,0.486147,0.511852,0.521722,1.57641,0.400332,0.0,0.033908,0.003399,0.505866,0.516413,3.0,1.0,111.0,0.0,1.0,-77819.0,-25199.0,13673.0,-77616.0,25030.0,13533.0,-0.942206,-0.198698,0.269754,-0.297944,0.128705,-0.945867,0.153223,-0.971573,-0.180468,-0.938583,0.210656,0.273288,0.300659,0.110657,0.947291,0.169311,0.971277,-0.167196,-0.942206,-0.198698,0.269754,-0.297944,0.128705,-0.945867,0.153223,-0.971573,-0.180468,-0.938583,0.210656,0.273288,0.300659,0.110657,0.947291,0.169311,0.971277,-0.167196,-77819.0,-25199.0,13673.0,-77616.0,25030.0,13533.0,18271.0,17332.0,-160713.0,0.0,-55237.0,-55251.0,-54737.0,-55436.0,-15406.0,-12591.0,155912.0,0.0,53944.0,53713.0,54058.0,53920.0,46.0,212.0,-44.0,0.0,381.0,-134.0,572.0,-605.0,-45.0,-170.0,3.0,0.0,-632.0,-185.0,771.0,-943.0,-0.012509,-0.057385,0.012125,0.0,0.01397,-0.004927,-0.02094,-0.022159,-0.012343,-0.046164,0.000845,0.0,-0.023153,-0.006774,-0.028246,-0.034534,4081.140137,11515.860352,51560.191406,0.0,-17732.070312,-17723.429688,17978.041016,-17463.869141,4071.23999,11504.430664,51590.25,0.0,17747.011719,17738.28125,-17475.03125,18001.710938,0.0,0.0,0.0,0.0,0.0,0.0,0.0,0.0,0.0,0.0,0.0,0.0,0.0,0.0,0.0,0.0,0.0,0.0,0.0,0.0,0.0,0.0,0.0,0.0,0.0,0.0,0.0,0.0,0.0,0.0,0.0,0.0,4081.12085,11513.291016,51560.21875,0.0,-17726.3125,-17726.177734,17975.126953,-17468.207031,4071.175293,11503.96582,51585.96875,0.0,17738.046875,17737.923828,-17479.960938,17995.339844,29.965,90.383972,22.922344,0.0,-0.02175,0.001957,27.683056,28.691917,29.891975,90.317856,22.935377,0.0,0.281189,0.155087,28.455685,28.860069,0.997,1.022,-63617.0,-145286.0,-412178.0,0.0,141786.0,141676.0,-145019.0,138607.0,-60642.0,-140418.0,-417313.0,0.0,-143245.0,-143379.0,140109.0,-146099.0,0.0,0.0,0.0,0.0,0.0,0.0,0.0,0.0,0.0,0.0,0.0,0.0,0.0,0.0,0.0,0.0,0.0,0.0,0.0,0.0,0.0,0.0,0.0,0.0
41,2.241595983505249,0.52299,1.577867,0.400067,0.0,-0.019006,0.005365,0.486147,0.511852,0.521722,1.57641,0.400332,0.0,0.033614,0.003399,0.505693,0.516413,3.0,1.0,111.0,0.0,1.0,-77819.0,-25199.0,13673.0,-77616.0,25030.0,13533.0,-0.942206,-0.198698,0.269754,-0.297944,0.128705,-0.945867,0.153223,-0.971573,-0.180468,-0.938564,0.210818,0.273227,0.30067,0.110909,0.947258,0.169396,0.971213,-0.167482,-0.942206,-0.198698,0.269754,-0.297944,0.128705,-0.945867,0.153223,-0.971573,-0.180468,-0.938564,0.210818,0.273227,0.30067,0.110909,0.947258,0.169396,0.971213,-0.167482,-77819.0,-25199.0,13673.0,-77616.0,25030.0,13533.0,18271.0,17332.0,-160713.0,0.0,-55237.0,-55251.0,-54737.0,-55436.0,-15406.0,-12591.0,155912.0,0.0,53943.0,53713.0,54059.0,53920.0,46.0,212.0,-44.0,0.0,384.0,-136.0,573.0,-607.0,-45.0,-170.0,3.0,0.0,-589.0,-185.0,772.0,-946.0,-0.012509,-0.057385,0.012125,0.0,0.014075,-0.004977,-0.020993,-0.022238,-0.012343,-0.046164,0.000845,0.0,-0.021588,-0.006781,-0.028256,-0.034651,4081.140137,11515.860352,51560.191406,0.0,-17732.070312,-17723.429688,17978.041016,-17463.869141,4071.23999,11504.430664,51590.25,0.0,17746.919922,17738.28125,-17475.119141,18001.710938,0.0,0.0,0.0,0.0,0.0,0.0,0.0,0.0,0.0,0.0,0.0,0.0,-90.92347,0.0,0.0,0.0,0.0,0.0,0.0,0.0,0.0,0.0,0.0,0.0,0.0,0.0,0.0,0.0,-0.294136,0.0,0.0,0.0,4081.12085,11513.291016,51560.21875,0.0,-17726.3125,-17726.177734,17975.126953,-17468.207031,4071.175293,11503.96582,51585.96875,0.0,17738.046875,17737.923828,-17479.960938,17995.339844,29.965,90.383972,22.922344,0.0,-0.02175,0.001957,27.683056,28.691917,29.891975,90.317856,22.935377,0.0,0.281189,0.155087,28.455685,28.860069,0.997,1.022,-63617.0,-145286.0,-412178.0,0.0,141786.0,141676.0,-145019.0,138607.0,-60642.0,-140418.0,-417313.0,0.0,-143245.0,-143379.0,140109.0,-146099.0,0.0,0.0,0.0,0.0,0.0,0.0,0.0,0.0,0.0,-0.000875,0.000484,0.294134,0.0,0.0,0.0,0.0,0.0,0.0,0.0,0.0,0.0,-0.000875,0.000484,0.294134
42,2.2615890502929688,0.52299,1.577867,0.400067,0.0,-0.019006,0.005365,0.485971,0.511675,0.521722,1.57641,0.400332,0.0,0.033614,0.003399,0.505516,0.51624,3.0,1.0,111.0,0.0,1.0,-77819.0,-25199.0,13673.0,-77616.0,25030.0,13533.0,-0.942206,-0.198698,0.269754,-0.297944,0.128705,-0.945867,0.153223,-0.971573,-0.180468,-0.938564,0.21082,0.273227,0.30067,0.110909,0.947258,0.169397,0.971213,-0.167482,-0.942206,-0.198698,0.269754,-0.297944,0.128705,-0.945867,0.153223,-0.971573,-0.180468,-0.938564,0.21082,0.273227,0.30067,0.110909,0.947258,0.169397,0.971213,-0.167482,-77819.0,-25199.0,13673.0,-77616.0,25030.0,13533.0,18271.0,17332.0,-160713.0,0.0,-55237.0,-55251.0,-54736.0,-55437.0,-15406.0,-12591.0,155912.0,0.0,53943.0,53713.0,54060.0,53919.0,46.0,212.0,-44.0,0.0,387.0,-137.0,572.0,-607.0,-45.0,-170.0,3.0,0.0,-637.0,-185.0,772.0,-947.0,-0.012509,-0.057385,0.012125,0.0,0.014176,-0.005025,-0.020964,-0.022233,-0.012343,-0.046164,0.000845,0.0,-0.02333,-0.006787,-0.02826,-0.034683,4081.140137,11515.860352,51560.191406,0.0,-17732.070312,-17723.429688,17977.949219,-17463.960938,4071.23999,11504.430664,51590.25,0.0,17746.919922,17738.28125,-17475.210938,18001.621094,0.0,0.0,0.0,0.0,0.0,0.0,0.0,0.0,0.0,0.0,0.0,0.0,0.0,0.0,0.0,0.0,0.0,0.0,0.0,0.0,0.0,0.0,0.0,0.0,0.0,0.0,0.0,0.0,0.0,0.0,0.0,0.0,4081.12085,11513.291016,51560.21875,0.0,-17726.3125,-17726.177734,17975.126953,-17468.207031,4071.175293,11503.96582,51585.96875,0.0,17738.046875,17737.923828,-17479.960938,17995.339844,29.965,90.383972,22.922344,0.0,-0.02175,0.001957,27.683056,28.691917,29.891975,90.317856,22.935377,0.0,0.281189,0.155087,28.455685,28.860069,0.997,1.021,-63617.0,-145286.0,-412178.0,0.0,141786.0,141676.0,-145019.0,138607.0,-60642.0,-140418.0,-417313.0,0.0,-143245.0,-143379.0,140109.0,-146099.0,0.0,0.0,0.0,0.0,0.0,0.0,0.0,0.0,0.0,0.0,0.0,0.0,0.0,0.0,0.0,0.0,0.0,0.0,0.0,0.0,0.0,0.0,0.0,0.0
43,2.281588077545166,0.52299,1.577867,0.400067,0.0,-0.019006,0.005365,0.485971,0.511326,0.521722,1.57641,0.400332,0.0,0.033614,0.003399,0.505343,0.51624,3.0,1.0,111.0,0.0,1.0,-77819.0,-25199.0,13673.0,-77616.0,25030.0,13533.0,-0.942171,-0.198863,0.269754,-0.297967,0.128653,-0.945867,0.153393,-0.971546,-0.180468,-0.938546,0.210901,0.273227,0.30068,0.110882,0.947258,0.169482,0.971198,-0.167482,-0.942189,-0.19878,0.269754,-0.297956,0.12868,-0.945867,0.153307,-0.97156,-0.180468,-0.938546,0.210901,0.273227,0.30068,0.110882,0.947258,0.169482,0.971198,-0.167482,-77819.0,-25199.0,13673.0,-77616.0,25030.0,13533.0,18271.0,17332.0,-160713.0,0.0,-55237.0,-55251.0,-54736.0,-55439.0,-15406.0,-12591.0,155912.0,0.0,53943.0,53713.0,54061.0,53919.0,46.0,212.0,-44.0,0.0,390.0,-138.0,574.0,-605.0,-45.0,-170.0,3.0,0.0,-641.0,-185.0,772.0,-950.0,-0.012509,-0.057385,0.012125,0.0,0.014276,-0.005073,-0.021013,-0.022149,-0.012343,-0.046164,0.000845,0.0,-0.023484,-0.006793,-0.028264,-0.034792,4081.140137,11515.860352,51560.191406,0.0,-17732.070312,-17723.429688,17977.949219,-17464.140625,4071.23999,11504.430664,51590.25,0.0,17746.919922,17738.28125,-17475.300781,18001.621094,0.0,0.0,0.0,0.0,0.0,0.0,0.0,-90.92347,0.0,0.0,0.0,0.0,0.0,0.0,0.0,0.0,0.0,0.0,0.0,0.0,0.0,0.0,0.0,-0.176481,0.0,0.0,0.0,0.0,0.0,0.0,0.0,0.0,4081.12085,11513.291016,51560.21875,0.0,-17726.3125,-17726.177734,17975.126953,-17468.207031,4071.175293,11503.96582,51585.96875,0.0,17738.046875,17737.923828,-17479.960938,17995.339844,29.965,90.383972,22.922344,0.0,-0.02175,0.001957,27.683056,28.691917,29.891975,90.317856,22.935377,0.0,0.281189,0.155087,28.455685,28.860069,0.997,1.021,-63617.0,-145286.0,-412178.0,0.0,141786.0,141676.0,-145019.0,138607.0,-60642.0,-140418.0,-417313.0,0.0,-143245.0,-143379.0,140109.0,-146099.0,0.0,0.0,0.0,0.0,0.0,0.0,0.0,0.0,0.0,0.0,0.0,0.0,0.0,0.0,0.0,0.0,0.0,0.0,0.0,0.0,0.0,0.0,0.0,0.0
44,2.303596019744873,0.52299,1.577867,0.400067,0.0,-0.019006,0.005365,0.485971,0.510627,0.521722,1.57641,0.400332,0.0,0.033325,0.003399,0.505167,0.516063,3.0,1.0,111.0,0.0,1.0,-77819.0,-25199.0,13673.0,-77616.0,25030.0,13533.0,-0.942101,-0.199192,0.269754,-0.298012,0.128549,-0.945867,0.153733,-0.971492,-0.180468,-0.938545,0.210981,0.273168,0.300681,0.111155,0.947225,0.169482,0.97115,-0.167762,-0.942101,-0.199192,0.269754,-0.298012,0.128549,-0.945867,0.153733,-0.971492,-0.180468,-0.938545,0.210981,0.273168,0.300681,0.111155,0.947225,0.169482,0.97115,-0.167762,-77819.0,-25199.0,13673.0,-77616.0,25030.0,13533.0,18271.0,17332.0,-160713.0,0.0,-55237.0,-55251.0,-54736.0,-55443.0,-15406.0,-12591.0,155912.0,0.0,53942.0,53713.0,54062.0,53918.0,46.0,212.0,-44.0,0.0,393.0,-140.0,575.0,-598.0,-45.0,-170.0,3.0,0.0,-642.0,-185.0,772.0,-951.0,-0.012509,-0.057385,0.012125,0.0,0.014387,-0.005126,-0.021068,-0.02191,-0.012343,-0.046164,0.000845,0.0,-0.023515,-0.0068,-0.028272,-0.034833,4081.140137,11515.860352,51560.191406,0.0,-17732.070312,-17723.429688,17977.949219,-17464.501953,4071.23999,11504.430664,51590.25,0.0,17746.830078,17738.28125,-17475.390625,18001.53125,0.0,0.0,0.0,0.0,0.0,0.0,0.0,0.0,0.0,0.0,0.0,0.0,0.0,0.0,0.0,0.0,0.0,0.0,0.0,0.0,0.0,0.0,0.0,0.0,0.0,0.0,0.0,0.0,0.0,0.0,0.0,0.0,4081.12085,11513.291016,51560.21875,0.0,-17726.3125,-17726.177734,17975.126953,-17468.207031,4071.175293,11503.96582,51585.96875,0.0,17738.046875,17737.923828,-17479.960938,17995.339844,29.965,90.383972,22.922344,0.0,-0.02175,0.001957,27.683056,28.691917,29.891975,90.317856,22.935377,0.0,0.281189,0.155087,28.455685,28.860069,0.996,1.021,-63617.0,-145286.0,-412178.0,0.0,141786.0,141676.0,-145019.0,138607.0,-60642.0,-140418.0,-417313.0,0.0,-143245.0,-143379.0,140109.0,-146099.0,0.0,0.0,0.0,0.0,0.0,0.0,0.0,0.0,0.0,0.0,0.0,0.0,0.0,0.0,0.0,0.0,0.0,0.0,0.0,0.0,0.0,0.0,0.0,0.0
45,2.324592113494873,0.52299,1.577867,0.400067,0.0,-0.019006,0.005365,0.485971,0.509405,0.521722,1.57641,0.400332,0.0,0.033325,0.003399,0.504994,0.516063,3.0,1.0,111.0,0.0,1.0,-77819.0,-25199.0,13673.0,-77616.0,25030.0,13533.0,-0.94198,-0.199768,0.269754,-0.29809,0.128367,-0.945867,0.154326,-0.971398,-0.180468,-0.938527,0.211062,0.273168,0.300691,0.111129,0.947225,0.169566,0.971135,-0.167762,-0.94198,-0.199768,0.269754,-0.29809,0.128367,-0.945867,0.154326,-0.971398,-0.180468,-0.938527,0.211062,0.273168,0.300691,0.111129,0.947225,0.169566,0.971135,-0.167762,-77819.0,-25199.0,13673.0,-77616.0,25030.0,13533.0,18271.0,17332.0,-160713.0,0.0,-55237.0,-55251.0,-54736.0,-55450.0,-15406.0,-12591.0,155912.0,0.0,53942.0,53713.0,54063.0,53918.0,46.0,212.0,-44.0,0.0,396.0,-141.0,577.0,-585.0,-45.0,-170.0,3.0,0.0,-647.0,-186.0,772.0,-955.0,-0.012509,-0.057385,0.012125,0.0,0.014492,-0.005176,-0.021119,-0.021423,-0.012343,-0.046164,0.000845,0.0,-0.023676,-0.006807,-0.028277,-0.034946,4081.140137,11515.860352,51560.191406,0.0,-17732.070312,-17723.429688,17977.949219,-17465.130859,4071.23999,11504.430664,51590.25,0.0,17746.830078,17738.28125,-17475.480469,18001.53125,0.0,0.0,0.0,0.0,0.0,0.0,0.0,-90.92347,0.0,0.0,0.0,0.0,0.0,0.0,0.0,0.0,0.0,0.0,0.0,0.0,0.0,0.0,0.0,-0.176481,0.0,0.0,0.0,0.0,0.0,0.0,0.0,0.0,4081.12085,11513.291016,51560.21875,0.0,-17726.3125,-17726.177734,17975.126953,-17468.207031,4071.175293,11503.96582,51585.96875,0.0,17738.046875,17737.923828,-17479.960938,17995.339844,29.965,90.383972,22.922344,0.0,-0.02175,0.001957,27.683056,28.691917,29.891975,90.317856,22.935377,0.0,0.281189,0.155087,28.455685,28.860069,0.995,1.021,-63617.0,-145286.0,-412178.0,0.0,141786.0,141676.0,-145019.0,138607.0,-60642.0,-140418.0,-417313.0,0.0,-143245.0,-143379.0,140109.0,-146099.0,0.0,0.0,0.0,0.0,0.0,0.0,0.0,0.0,0.0,0.0,0.0,0.0,0.0,0.0,0.0,0.0,0.0,0.0,0.0,0.0,0.0,0.0,0.0,0.0
46,2.3455989360809326,0.52299,1.577867,0.400067,0.0,-0.019006,0.005189,0.485886,0.508967,0.521722,1.57641,0.400332,0.0,0.033325,0.003399,0.504817,0.51589,3.0,1.0,111.0,0.0,1.0,-77818.0,-25201.0,13673.0,-77616.0,25030.0,13533.0,-0.941897,-0.199935,0.26992,-0.29828,0.128316,-0.945814,0.154466,-0.971371,-0.180497,-0.938526,0.211064,0.273168,0.300691,0.111129,0.947225,0.169568,0.971135,-0.167762,-0.941897,-0.199935,0.26992,-0.29828,0.128316,-0.945814,0.154466,-0.971371,-0.180497,-0.938526,0.211064,0.273168,0.300691,0.111129,0.947225,0.169568,0.971135,-0.167762,-77818.0,-25201.0,13673.0,-77616.0,25030.0,13533.0,18271.0,17332.0,-160713.0,0.0,-55237.0,-55252.0,-54735.0,-55452.0,-15406.0,-12591.0,155912.0,0.0,53942.0,53713.0,54064.0,53917.0,46.0,212.0,-44.0,0.0,398.0,-140.0,576.0,-582.0,-45.0,-170.0,3.0,0.0,-651.0,-186.0,772.0,-955.0,-0.012509,-0.057385,0.012125,0.0,0.014598,-0.005146,-0.021092,-0.021319,-0.012343,-0.046164,0.000845,0.0,-0.023837,-0.006813,-0.028279,-0.034981,4081.140137,11515.860352,51560.191406,0.0,-17732.070312,-17723.521484,17977.861328,-17465.310547,4071.23999,11504.430664,51590.25,0.0,17746.830078,17738.28125,-17475.570312,18001.441406,0.0,0.0,0.0,0.0,0.0,0.0,0.0,0.0,0.0,0.0,0.0,0.0,0.0,0.0,0.0,0.0,0.0,0.0,0.0,0.0,0.0,0.0,0.0,0.0,0.0,0.0,0.0,0.0,0.0,0.0,0.0,0.0,4081.12085,11513.291016,51560.21875,0.0,-17726.3125,-17726.177734,17975.126953,-17468.207031,4071.175293,11503.96582,51585.96875,0.0,17738.046875,17737.923828,-17479.960938,17995.339844,29.965,90.383972,22.922344,0.0,-0.02175,0.001957,27.683056,28.691917,29.891975,90.317856,22.935377,0.0,0.281189,0.155087,28.455685,28.860069,0.994,1.02,-63617.0,-145286.0,-412178.0,0.0,141786.0,141676.0,-145019.0,138607.0,-60642.0,-140418.0,-417313.0,0.0,-143245.0,-143379.0,140109.0,-146099.0,0.0,0.0,0.0,0.0,0.0,0.0,0.0,0.0,0.0,0.0,0.0,0.0,0.0,0.0,0.0,0.0,0.0,0.0,0.0,0.0,0.0,0.0,0.0,0.0
47,2.365561008453369,0.52299,1.577867,0.400067,0.0,-0.019006,0.005189,0.485886,0.508794,0.521722,1.57641,0.400332,0.0,0.033031,0.003399,0.504644,0.51589,3.0,1.0,111.0,0.0,1.0,-77818.0,-25201.0,13673.0,-77616.0,25030.0,13533.0,-0.941879,-0.200016,0.26992,-0.298291,0.128291,-0.945814,0.15455,-0.971357,-0.180497,-0.938507,0.211226,0.273107,0.300702,0.111381,0.947192,0.169653,0.97107,-0.168048,-0.941879,-0.200016,0.26992,-0.298291,0.128291,-0.945814,0.15455,-0.971357,-0.180497,-0.938507,0.211226,0.273107,0.300702,0.111381,0.947192,0.169653,0.97107,-0.168048,-77818.0,-25201.0,13673.0,-77616.0,25030.0,13533.0,18271.0,17332.0,-160713.0,0.0,-55237.0,-55252.0,-54735.0,-55453.0,-15406.0,-12591.0,155912.0,0.0,53941.0,53713.0,54065.0,53917.0,46.0,212.0,-44.0,0.0,401.0,-141.0,577.0,-581.0,-45.0,-170.0,3.0,0.0,-651.0,-186.0,772.0,-958.0,-0.012509,-0.057385,0.012125,0.0,0.014698,-0.005192,-0.021139,-0.021291,-0.012343,-0.046164,0.000845,0.0,-0.023847,-0.006819,-0.028277,-0.035088,4081.140137,11515.860352,51560.191406,0.0,-17732.070312,-17723.521484,17977.861328,-17465.400391,4071.23999,11504.430664,51590.25,0.0,17746.740234,17738.28125,-17475.660156,18001.441406,0.0,0.0,0.0,0.0,0.0,0.0,0.0,0.0,0.0,0.0,0.0,0.0,0.0,0.0,0.0,0.0,0.0,0.0,0.0,0.0,0.0,0.0,0.0,0.0,0.0,0.0,0.0,0.0,0.0,0.0,0.0,0.0,4081.12085,11513.291016,51560.21875,0.0,-17726.3125,-17726.177734,17975.126953,-17468.207031,4071.175293,11503.96582,51585.96875,0.0,17738.046875,17737.923828,-17479.960938,17995.339844,29.965,90.383972,22.922344,0.0,-0.02175,0.001957,27.683056,28.691917,29.891975,90.317856,22.935377,0.0,0.281189,0.155087,28.455685,28.860069,0.994,1.02,-63617.0,-145286.0,-412178.0,0.0,141786.0,141676.0,-145019.0,138607.0,-60642.0,-140418.0,-417313.0,0.0,-143245.0,-143379.0,140109.0,-146099.0,0.0,0.0,0.0,0.0,0.0,0.0,0.0,0.0,0.0,0.0,0.0,0.0,0.0,0.0,0.0,0.0,0.0,0.0,0.0,0.0,0.0,0.0,0.0,0.0
48,2.385590076446533,0.52299,1.577867,0.400067,0.0,-0.019006,0.005189,0.485886,0.508617,0.521722,1.57641,0.400332,0.0,0.033031,0.003399,0.504644,0.51589,3.0,1.0,111.0,0.0,1.0,-77818.0,-25201.0,13673.0,-77616.0,25030.0,13533.0,-0.941862,-0.200099,0.26992,-0.298302,0.128264,-0.945814,0.154636,-0.971344,-0.180497,-0.938507,0.211226,0.273107,0.300702,0.111381,0.947192,0.169653,0.97107,-0.168048,-0.941862,-0.200099,0.26992,-0.298302,0.128264,-0.945814,0.154636,-0.971344,-0.180497,-0.938507,0.211226,0.273107,0.300702,0.111381,0.947192,0.169653,0.97107,-0.168048,-77818.0,-25201.0,13673.0,-77616.0,25030.0,13533.0,18271.0,17332.0,-160713.0,0.0,-55237.0,-55252.0,-54735.0,-55454.0,-15406.0,-12591.0,155912.0,0.0,53941.0,53713.0,54065.0,53917.0,46.0,212.0,-44.0,0.0,404.0,-143.0,579.0,-580.0,-45.0,-170.0,3.0,0.0,-655.0,-186.0,774.0,-961.0,-0.012509,-0.057385,0.012125,0.0,0.014799,-0.005239,-0.021187,-0.02126,-0.012343,-0.046164,0.000845,0.0,-0.023999,-0.006826,-0.028352,-0.035194,4081.140137,11515.860352,51560.191406,0.0,-17732.070312,-17723.521484,17977.861328,-17465.490234,4071.23999,11504.430664,51590.25,0.0,17746.740234,17738.28125,-17475.660156,18001.441406,0.0,0.0,0.0,0.0,0.0,0.0,0.0,0.0,0.0,0.0,0.0,0.0,0.0,0.0,0.0,0.0,0.0,0.0,0.0,0.0,0.0,0.0,0.0,0.0,0.0,0.0,0.0,0.0,0.0,0.0,0.0,0.0,4081.12085,11513.291016,51560.21875,0.0,-17726.3125,-17726.177734,17975.126953,-17468.207031,4071.175293,11503.96582,51585.96875,0.0,17738.046875,17737.923828,-17479.960938,17995.339844,29.965,90.383972,22.922344,0.0,-0.02175,0.001957,27.683056,28.691917,29.891975,90.317856,22.935377,0.0,0.281189,0.155087,28.455685,28.860069,0.994,1.02,-63617.0,-145286.0,-412178.0,0.0,141786.0,141676.0,-145019.0,138607.0,-60642.0,-140418.0,-417313.0,0.0,-143245.0,-143379.0,140109.0,-146099.0,0.0,0.0,0.0,0.0,0.0,0.0,0.0,0.0,0.0,0.0,0.0,0.0,0.0,0.0,0.0,0.0,0.0,0.0,0.0,0.0,0.0,0.0,0.0,0.0
49,2.4076271057128906,0.52299,1.577867,0.400067,0.0,-0.019006,0.005189,0.485713,0.508617,0.521722,1.57641,0.400332,0.0,0.033031,0.003399,0.504468,0.515714,3.0,1.0,111.0,0.0,1.0,-77818.0,-25201.0,13673.0,-77616.0,25030.0,13533.0,-0.941879,-0.200018,0.26992,-0.298291,0.12829,-0.945814,0.154552,-0.971357,-0.180497,-0.938507,0.211226,0.273107,0.300702,0.111381,0.947192,0.169653,0.97107,-0.168048,-0.941879,-0.200018,0.26992,-0.298291,0.12829,-0.945814,0.154552,-0.971357,-0.180497,-0.938507,0.211226,0.273107,0.300702,0.111381,0.947192,0.169653,0.97107,-0.168048,-77818.0,-25201.0,13673.0,-77616.0,25030.0,13533.0,18271.0,17332.0,-160713.0,0.0,-55237.0,-55252.0,-54734.0,-55454.0,-15406.0,-12591.0,155912.0,0.0,53941.0,53713.0,54066.0,53916.0,46.0,212.0,-44.0,0.0,407.0,-144.0,578.0,-582.0,-45.0,-170.0,3.0,0.0,-660.0,-186.0,774.0,-962.0,-0.012509,-0.057385,0.012125,0.0,0.014909,-0.00529,-0.021161,-0.021312,-0.012343,-0.046164,0.000845,0.0,-0.024165,-0.006833,-0.028354,-0.035231,4081.140137,11515.860352,51560.191406,0.0,-17732.070312,-17723.521484,17977.771484,-17465.490234,4071.23999,11504.430664,51590.25,0.0,17746.740234,17738.28125,-17475.751953,18001.349609,0.0,0.0,0.0,0.0,0.0,0.0,0.0,0.0,0.0,0.0,0.0,0.0,0.0,0.0,0.0,0.0,0.0,0.0,0.0,0.0,0.0,0.0,0.0,0.0,0.0,0.0,0.0,0.0,0.0,0.0,0.0,0.0,4081.12085,11513.291016,51560.21875,0.0,-17726.3125,-17726.177734,17975.126953,-17468.207031,4071.175293,11503.96582,51585.96875,0.0,17738.046875,17737.923828,-17479.960938,17995.339844,29.965,90.383972,22.922344,0.0,-0.02175,0.001957,27.683056,28.691917,29.891975,90.317856,22.935377,0.0,0.281189,0.155087,28.455685,28.860069,0.994,1.02,-63617.0,-145286.0,-412178.0,0.0,141786.0,141676.0,-145019.0,138607.0,-60642.0,-140418.0,-417313.0,0.0,-143245.0,-143379.0,140109.0,-146099.0,0.0,0.0,0.0,0.0,0.0,0.0,0.0,0.0,0.0,0.0,0.0,0.0,0.0,0.0,0.0,0.0,0.0,0.0,0.0,0.0,0.0,0.0,0.0,0.0
50,2.4286251068115234,0.52299,1.577867,0.400067,0.0,-0.019006,0.005189,0.485713,0.508617,0.521722,1.57641,0.400332,0.0,0.032743,0.003399,0.504295,0.515714,3.0,1.0,111.0,0.0,1.0,-77818.0,-25201.0,13673.0,-77616.0,25030.0,13533.0,-0.941879,-0.200018,0.26992,-0.298291,0.12829,-0.945814,0.154552,-0.971357,-0.180497,-0.938488,0.211387,0.273048,0.300714,0.111628,0.947159,0.169737,0.971007,-0.168329,-0.941879,-0.200018,0.26992,-0.298291,0.12829,-0.945814,0.154552,-0.971357,-0.180497,-0.938488,0.211387,0.273048,0.300714,0.111628,0.947159,0.169737,0.971007,-0.168329,-77818.0,-25201.0,13673.0,-77616.0,25030.0,13533.0,18271.0,17332.0,-160713.0,0.0,-55237.0,-55252.0,-54734.0,-55454.0,-15406.0,-12591.0,155912.0,0.0,53940.0,53713.0,54067.0,53916.0,46.0,212.0,-44.0,0.0,410.0,-145.0,579.0,-583.0,-45.0,-170.0,3.0,0.0,-660.0,-186.0,774.0,-965.0,-0.012509,-0.057385,0.012125,0.0,0.015015,-0.005338,-0.021209,-0.021362,-0.012343,-0.046164,0.000845,0.0,-0.024185,-0.006839,-0.028352,-0.035341,4081.140137,11515.860352,51560.191406,0.0,-17732.070312,-17723.521484,17977.771484,-17465.490234,4071.23999,11504.430664,51590.25,0.0,17746.650391,17738.28125,-17475.839844,18001.349609,0.0,0.0,0.0,0.0,0.0,0.0,0.0,0.0,0.0,0.0,0.0,0.0,0.0,0.0,0.0,0.0,0.0,0.0,0.0,0.0,0.0,0.0,0.0,0.0,0.0,0.0,0.0,0.0,0.0,0.0,0.0,0.0,4081.12085,11513.291016,51560.21875,0.0,-17726.3125,-17726.177734,17975.126953,-17468.207031,4071.175293,11503.96582,51585.96875,0.0,17738.046875,17737.923828,-17479.960938,17995.339844,29.965,90.383972,22.922344,0.0,-0.02175,0.001957,27.683056,28.691917,29.891975,90.317856,22.935377,0.0,0.281189,0.155087,28.455685,28.860069,0.994,1.02,-63617.0,-145286.0,-412178.0,0.0,141786.0,141676.0,-145019.0,138607.0,-60642.0,-140418.0,-417313.0,0.0,-143245.0,-143379.0,140109.0,-146099.0,0.0,0.0,0.0,0.0,0.0,0.0,0.0,0.0,0.0,0.0,0.0,0.0,0.0,0.0,0.0,0.0,0.0,0.0,0.0,0.0,0.0,0.0,0.0,0.0
51,2.4495880603790283,0.52299,1.577867,0.400067,0.0,-0.019006,0.005016,0.485799,0.508358,0.521722,1.57641,0.400332,0.0,0.032743,0.003399,0.504122,0.515541,3.0,1.0,111.0,0.0,1.0,-77818.0,-25203.0,13673.0,-77616.0,25030.0,13533.0,-0.941798,-0.200181,0.270082,-0.298477,0.12824,-0.945762,0.154688,-0.97133,-0.180526,-0.938488,0.211387,0.273048,0.300714,0.111628,0.947159,0.169737,0.971007,-0.168329,-0.941798,-0.200181,0.270082,-0.298477,0.12824,-0.945762,0.154688,-0.97133,-0.180526,-0.938488,0.211387,0.273048,0.300714,0.111628,0.947159,0.169737,0.971007,-0.168329,-77818.0,-25203.0,13673.0,-77616.0,25030.0,13533.0,18271.0,17332.0,-160713.0,0.0,-55237.0,-55253.0,-54734.0,-55455.0,-15406.0,-12591.0,155912.0,0.0,53940.0,53713.0,54068.0,53915.0,46.0,212.0,-44.0,0.0,413.0,-145.0,580.0,-582.0,-45.0,-170.0,3.0,0.0,-665.0,-187.0,774.0,-966.0,-0.012509,-0.057385,0.012125,0.0,0.01512,-0.005309,-0.021258,-0.021332,-0.012343,-0.046164,0.000845,0.0,-0.024342,-0.006846,-0.028349,-0.035372,4081.140137,11515.860352,51560.191406,0.0,-17732.070312,-17723.611328,17977.771484,-17465.580078,4071.23999,11504.430664,51590.25,0.0,17746.650391,17738.28125,-17475.929688,18001.261719,0.0,0.0,0.0,0.0,0.0,-89.174942,0.0,0.0,0.0,0.0,0.0,0.0,0.0,0.0,0.0,0.0,0.0,0.0,0.0,0.0,0.0,-0.173088,0.086544,-0.086544,0.0,0.0,0.0,0.0,0.0,0.0,0.0,0.0,4081.12085,11513.291016,51560.21875,0.0,-17726.3125,-17726.177734,17975.126953,-17468.207031,4071.175293,11503.96582,51585.96875,0.0,17738.046875,17737.923828,-17479.960938,17995.339844,29.965,90.383972,22.922344,0.0,-0.02175,0.001957,27.683056,28.691917,29.891975,90.317856,22.935377,0.0,0.281189,0.155087,28.455685,28.860069,0.994,1.019,-63617.0,-145286.0,-412178.0,0.0,141786.0,141676.0,-145019.0,138607.0,-60642.0,-140418.0,-417313.0,0.0,-143245.0,-143379.0,140109.0,-146099.0,0.0,-0.173088,0.0,-0.080817,-0.153062,0.086544,0.0,0.0,0.0,0.0,0.0,0.0,0.0,-0.173088,0.0,-0.080817,-0.153062,0.086544,0.0,0.0,0.0,0.0,0.0,0.0
