MHC-RobotSimulators-Research/Data_Analysis_MotionReplication/mai_plotter/raven_data/the_good_stuff/2arm_p3.csv
,time,jpos0,jpos1,jpos2,jpos3,jpos4,jpos5,jpos6,jpos7,jpos8,jpos9,jpos10,jpos11,jpos12,jpos13,jpos14,jpos15,runlevel,sublevel,last_seq,type0,type1,pos0,pos1,pos2,pos3,pos4,pos5,ori0,ori1,ori2,ori3,ori4,ori5,ori6,ori7,ori8,ori9,ori10,ori11,ori12,ori13,ori14,ori15,ori16,ori17,ori_d0,ori_d1,ori_d2,ori_d3,ori_d4,ori_d5,ori_d6,ori_d7,ori_d8,ori_d9,ori_d10,ori_d11,ori_d12,ori_d13,ori_d14,ori_d15,ori_d16,ori_d17,pos_d0,pos_d1,pos_d2,pos_d3,pos_d4,pos_d5,encVals0,encVals1,encVals2,encVals3,encVals4,encVals5,encVals6,encVals7,encVals8,encVals9,encVals10,encVals11,encVals12,encVals13,encVals14,encVals15,dac_vals0,dac_vals1,dac_vals2,dac_vals3,dac_vals4,dac_vals5,dac_vals6,dac_vals7,dac_vals8,dac_vals9,dac_vals10,dac_vals11,dac_vals12,dac_vals13,dac_vals14,dac_vals15,Tau0,Tau1,Tau2,Tau3,Tau4,Tau5,Tau6,Tau7,Tau8,Tau9,Tau10,Tau11,Tau12,Tau13,Tau14,Tau15,mpos0,mpos1,mpos2,mpos3,mpos4,mpos5,mpos6,mpos7,mpos8,mpos9,mpos10,mpos11,mpos12,mpos13,mpos14,mpos15,mvel0,mvel1,mvel2,mvel3,mvel4,mvel5,mvel6,mvel7,mvel8,mvel9,mvel10,mvel11,mvel12,mvel13,mvel14,mvel15,jvel0,jvel1,jvel2,jvel3,jvel4,jvel5,jvel6,jvel7,jvel8,jvel9,jvel10,jvel11,jvel12,jvel13,jvel14,jvel15,mpos_d0,mpos_d1,mpos_d2,mpos_d3,mpos_d4,mpos_d5,mpos_d6,mpos_d7,mpos_d8,mpos_d9,mpos_d10,mpos_d11,mpos_d12,mpos_d13,mpos_d14,mpos_d15,jpos_d0,jpos_d1,jpos_d2,jpos_d3,jpos_d4,jpos_d5,jpos_d6,jpos_d7,jpos_d8,jpos_d9,jpos_d10,jpos_d11,jpos_d12,jpos_d13,jpos_d14,jpos_d15,grasp_d0,grasp_d1,encoffsets0,encoffsets1,encoffsets2,encoffsets3,encoffsets4,encoffsets5,encoffsets6,encoffsets7,encoffsets8,encoffsets9,encoffsets10,encoffsets11,encoffsets12,encoffsets13,encoffsets14,encoffsets15,jac_vel0,jac_vel1,jac_vel2,jac_vel3,jac_vel4,jac_vel5,jac_vel6,jac_vel7,jac_vel8,jac_vel9,jac_vel10,jac_vel11,jac_f0,jac_f1,jac_f2,jac_f3,jac_f4,jac_f5,jac_f6,jac_f7,jac_f8,jac_f9,jac_f10,jac_f11
0,0.0,0.526658,1.577669,0.398,0.0,-0.001436,-0.00523,0.784685,0.783149,0.527546,1.576041,0.398441,0.0,-0.00038,0.001693,0.792469,0.787766,3.0,1.0,111.0,0.0,1.0,-79627.0,-26248.0,13975.0,-79239.0,26083.0,13815.0,-0.935409,-0.21671,0.279368,-0.313085,0.140566,-0.939265,0.164278,-0.966063,-0.199335,-0.937995,0.213484,0.273111,0.306779,0.144384,0.940766,0.161406,0.966218,-0.200924,-0.935101,-0.216753,0.280366,-0.314133,0.140783,-0.938883,0.164035,-0.966022,-0.199736,-0.937917,0.213451,0.273406,0.307021,0.1441,0.94073,0.161402,0.966268,-0.200688,-79696.0,-26315.0,13959.0,-79363.0,26147.0,13823.0,17953.0,17306.0,-157910.0,0.0,-54213.0,-54348.0,-55452.0,-52889.0,-14901.0,-12554.0,153372.0,0.0,52953.0,52830.0,51549.0,54605.0,-20.0,211.0,53.0,0.0,233.0,-67.0,-183.0,213.0,-3.0,-187.0,-117.0,0.0,-338.0,67.0,-401.0,-528.0,0.005497,-0.057293,-0.014375,0.0,0.008536,-0.002487,0.006721,0.007827,-0.001062,-0.050837,-0.031852,0.0,-0.012398,0.002474,0.014701,-0.019344,4109.760254,11518.200195,51307.921875,0.0,-17639.910156,-17642.160156,18042.390625,-17234.640625,4116.69043,11507.760742,51361.652344,0.0,17657.820312,17658.810547,-17249.220703,18063.359375,0.0,0.0,0.0,0.0,0.0,0.0,0.0,0.0,0.0,0.0,0.0,0.0,0.0,0.0,0.0,0.0,0.0,0.0,0.0,0.0,0.0,0.0,0.0,0.0,0.0,0.0,0.0,0.0,0.0,0.0,0.0,0.0,4113.36377,11515.650391,51297.832031,0.0,-17639.900391,-17642.505859,18042.376953,-17234.541016,4119.088867,11506.415039,51344.886719,0.0,17657.9375,17658.833984,-17249.359375,18063.376953,30.201736,90.368958,22.799065,0.0,-0.080194,-0.33816,44.977097,44.862682,30.243774,90.28685,22.821201,0.0,-0.000171,0.099753,45.388382,45.138947,1.568,1.58,-63617.0,-145286.0,-412178.0,0.0,141786.0,141676.0,-145019.0,138607.0,-60642.0,-140418.0,-417313.0,0.0,-143245.0,-143379.0,140109.0,-146099.0,0.0,0.0,0.0,0.0,0.0,0.0,0.0,0.0,0.0,0.0,0.0,0.0,0.0,0.0,0.0,0.0,0.0,0.0,0.0,0.0,0.0,0.0,0.0,0.0
1,1.1675069332122803,0.526658,1.577669,0.398,0.0,-0.001436,-0.005403,0.522914,0.523648,0.527546,1.576041,0.398441,0.0,-0.00038,0.001693,0.538648,0.51962,3.0,1.0,111.0,0.0,1.0,-79627.0,-26251.0,13974.0,-79239.0,26083.0,13815.0,-0.935606,-0.215648,0.27953,-0.313088,0.140921,-0.939211,0.163147,-0.966249,-0.199364,-0.9395,0.20676,0.273111,0.305737,0.146578,0.940766,0.154481,0.96735,-0.200924,-0.935606,-0.215648,0.27953,-0.313088,0.140921,-0.939211,0.163147,-0.966249,-0.199364,-0.9395,0.20676,0.273111,0.305737,0.146578,0.940766,0.154481,0.96735,-0.200924,-79627.0,-26251.0,13974.0,-79239.0,26083.0,13815.0,17953.0,17306.0,-157910.0,0.0,-54213.0,-54349.0,-53953.0,-54374.0,-14901.0,-12554.0,153372.0,0.0,52953.0,52830.0,53002.0,53070.0,-20.0,211.0,53.0,0.0,258.0,-2.0,495.0,-595.0,-3.0,-187.0,-117.0,0.0,-328.0,38.0,769.0,-996.0,0.005497,-0.057293,-0.014375,0.0,0.009465,-9.9e-05,-0.018141,-0.021784,-0.001062,-0.050837,-0.031852,0.0,-0.012036,0.001426,-0.02816,-0.036456,4109.760254,11518.200195,51307.921875,0.0,-17639.910156,-17642.25,17907.480469,-17368.291016,4116.69043,11507.760742,51361.652344,0.0,17657.820312,17658.810547,-17379.990234,17925.210938,0.0,0.0,0.0,0.0,0.0,0.0,-180.098419,-180.098419,0.0,0.0,0.0,0.0,0.0,0.0,-269.273376,-269.273376,0.0,0.0,0.0,0.0,0.0,0.0,-0.349569,-0.349569,0.0,0.0,0.0,0.0,0.0,0.0,-0.522657,-0.522657,4113.36377,11515.650391,51297.832031,0.0,-17639.457031,-17640.632812,17897.828125,-17380.982422,4119.088867,11506.415039,51344.886719,0.0,17658.054688,17658.054688,-17399.925781,17916.085938,30.201736,90.368958,22.799065,0.0,0.00166,-0.129679,28.797485,28.681173,30.243774,90.28685,22.821201,0.0,0.021543,0.012994,28.687,28.715286,1.046,1.058,-63617.0,-145286.0,-412178.0,0.0,141786.0,141676.0,-145019.0,138607.0,-60642.0,-140418.0,-417313.0,0.0,-143245.0,-143379.0,140109.0,-146099.0,0.0,0.0,0.0,0.0,0.0,-0.349569,0.0,0.0,0.0,0.0,0.0,-0.522657,0.0,0.0,0.0,0.0,0.0,-0.349569,0.0,0.0,0.0,0.0,0.0,-0.522657
2,1.1894779205322266,0.526658,1.577669,0.398,0.0,-0.001436,-0.005403,0.520817,0.518231,0.527546,1.576041,0.398441,0.0,-0.00038,0.001693,0.531134,0.511759,3.0,1.0,111.0,0.0,1.0,-79627.0,-26251.0,13974.0,-79239.0,26083.0,13815.0,-0.935247,-0.2172,0.27953,-0.313322,0.140402,-0.939211,0.16475,-0.965977,-0.199364,-0.939536,0.206597,0.273111,0.305712,0.146631,0.940766,0.154313,0.967376,-0.200924,-0.935247,-0.2172,0.27953,-0.313322,0.140402,-0.939211,0.16475,-0.965977,-0.199364,-0.939536,0.206597,0.273111,0.305712,0.146631,0.940766,0.154313,0.967376,-0.200924,-79627.0,-26251.0,13974.0,-79239.0,26083.0,13815.0,17953.0,17306.0,-157910.0,0.0,-54213.0,-54349.0,-53941.0,-54405.0,-14901.0,-12554.0,153372.0,0.0,52953.0,52830.0,53045.0,53025.0,-20.0,211.0,53.0,0.0,258.0,-1.0,480.0,-541.0,-3.0,-187.0,-117.0,0.0,-328.0,38.0,693.0,-909.0,0.005497,-0.057293,-0.014375,0.0,0.009476,-6.4e-05,-0.017598,-0.019797,-0.001062,-0.050837,-0.031852,0.0,-0.012032,0.00141,-0.025358,-0.033289,4109.760254,11518.200195,51307.921875,0.0,-17639.910156,-17642.25,17906.400391,-17371.080078,4116.69043,11507.760742,51361.652344,0.0,17657.820312,17658.810547,-17383.861328,17921.160156,0.0,0.0,0.0,0.0,0.0,0.0,0.0,-90.92347,0.0,0.0,0.0,0.0,0.0,0.0,0.0,-89.174942,0.0,0.0,0.0,0.0,0.0,0.0,0.0,-0.176481,0.0,0.0,0.0,0.0,0.0,0.0,0.0,-0.173088,4113.36377,11515.650391,51297.832031,0.0,-17639.455078,-17640.628906,17897.570312,-17381.246094,4119.088867,11506.415039,51344.886719,0.0,17658.054688,17658.052734,-17400.197266,17915.820312,30.201736,90.368958,22.799065,0.0,0.001807,-0.129304,28.768385,28.652069,30.243774,90.28685,22.821201,0.0,0.021582,0.012839,28.657015,28.685801,1.039,1.042,-63617.0,-145286.0,-412178.0,0.0,141786.0,141676.0,-145019.0,138607.0,-60642.0,-140418.0,-417313.0,0.0,-143245.0,-143379.0,140109.0,-146099.0,0.0,0.0,0.0,0.0,0.0,0.0,0.0,0.0,0.0,0.0,0.0,0.0,0.0,0.0,0.0,0.0,0.0,0.0,0.0,0.0,0.0,0.0,0.0,0.0
3,1.211479902267456,0.526658,1.577669,0.398,0.0,-0.001436,-0.005403,0.520817,0.517359,0.527546,1.576041,0.398441,0.0,-0.00038,0.001693,0.531134,0.510711,3.0,1.0,111.0,0.0,1.0,-79627.0,-26251.0,13974.0,-79239.0,26083.0,13815.0,-0.935152,-0.217608,0.27953,-0.313383,0.140265,-0.939211,0.165172,-0.965905,-0.199364,-0.939644,0.206105,0.273111,0.305635,0.146791,0.940766,0.153806,0.967457,-0.200924,-0.935152,-0.217608,0.27953,-0.313383,0.140265,-0.939211,0.165172,-0.965905,-0.199364,-0.939644,0.206105,0.273111,0.305635,0.146791,0.940766,0.153806,0.967457,-0.200924,-79627.0,-26251.0,13974.0,-79239.0,26083.0,13815.0,17953.0,17306.0,-157910.0,0.0,-54213.0,-54349.0,-53941.0,-54410.0,-14901.0,-12554.0,153372.0,0.0,52953.0,52830.0,53045.0,53019.0,-20.0,211.0,53.0,0.0,259.0,0.0,485.0,-535.0,-3.0,-187.0,-117.0,0.0,-328.0,38.0,701.0,-899.0,0.005497,-0.057293,-0.014375,0.0,0.009485,-3.3e-05,-0.017767,-0.019593,-0.001062,-0.050837,-0.031852,0.0,-0.012027,0.001395,-0.025672,-0.032911,4109.760254,11518.200195,51307.921875,0.0,-17639.910156,-17642.25,17906.400391,-17371.529297,4116.69043,11507.760742,51361.652344,0.0,17657.820312,17658.810547,-17383.861328,17920.621094,0.0,0.0,0.0,0.0,0.0,0.0,0.0,0.0,0.0,0.0,0.0,0.0,0.0,0.0,0.0,0.0,0.0,0.0,0.0,0.0,0.0,0.0,0.0,0.0,0.0,0.0,0.0,0.0,0.0,0.0,0.0,0.0,4113.36377,11515.650391,51297.832031,0.0,-17639.455078,-17640.628906,17897.570312,-17381.246094,4119.088867,11506.415039,51344.886719,0.0,17658.054688,17658.052734,-17400.197266,17915.820312,30.201736,90.368958,22.799065,0.0,0.001807,-0.129304,28.768385,28.652069,30.243774,90.28685,22.821201,0.0,0.021582,0.012839,28.657015,28.685801,1.038,1.041,-63617.0,-145286.0,-412178.0,0.0,141786.0,141676.0,-145019.0,138607.0,-60642.0,-140418.0,-417313.0,0.0,-143245.0,-143379.0,140109.0,-146099.0,0.0,0.0,0.0,0.0,0.0,0.0,0.0,0.0,0.0,0.0,0.0,0.0,0.0,0.0,0.0,0.0,0.0,0.0,0.0,0.0,0.0,0.0,0.0,0.0
4,1.2324910163879395,0.526658,1.577669,0.398,0.0,-0.001436,-0.005403,0.520817,0.517359,0.527546,1.576041,0.398441,0.0,-0.00038,0.001693,0.531134,0.510711,3.0,1.0,111.0,0.0,1.0,-79627.0,-26251.0,13974.0,-79239.0,26083.0,13815.0,-0.935152,-0.217608,0.27953,-0.313383,0.140265,-0.939211,0.165172,-0.965905,-0.199364,-0.939644,0.206105,0.273111,0.305635,0.146791,0.940766,0.153806,0.967457,-0.200924,-0.935152,-0.217608,0.27953,-0.313383,0.140265,-0.939211,0.165172,-0.965905,-0.199364,-0.939644,0.206105,0.273111,0.305635,0.146791,0.940766,0.153806,0.967457,-0.200924,-79627.0,-26251.0,13974.0,-79239.0,26083.0,13815.0,17953.0,17306.0,-157910.0,0.0,-54213.0,-54349.0,-53941.0,-54410.0,-14901.0,-12554.0,153372.0,0.0,52953.0,52830.0,53045.0,53019.0,-20.0,211.0,53.0,0.0,259.0,0.0,489.0,-540.0,-3.0,-187.0,-117.0,0.0,-328.0,37.0,709.0,-901.0,0.005497,-0.057293,-0.014375,0.0,0.009493,-4e-06,-0.017929,-0.019771,-0.001062,-0.050837,-0.031852,0.0,-0.012023,0.001381,-0.025971,-0.032999,4109.760254,11518.200195,51307.921875,0.0,-17639.910156,-17642.25,17906.400391,-17371.529297,4116.69043,11507.760742,51361.652344,0.0,17657.820312,17658.810547,-17383.861328,17920.621094,0.0,0.0,0.0,0.0,0.0,0.0,0.0,0.0,0.0,0.0,0.0,0.0,0.0,0.0,0.0,0.0,0.0,0.0,0.0,0.0,0.0,0.0,0.0,0.0,0.0,0.0,0.0,0.0,0.0,0.0,0.0,0.0,4113.36377,11515.650391,51297.832031,0.0,-17639.455078,-17640.628906,17897.570312,-17381.246094,4119.088867,11506.415039,51344.886719,0.0,17658.054688,17658.052734,-17400.197266,17915.820312,30.201736,90.368958,22.799065,0.0,0.001807,-0.129304,28.768385,28.652069,30.243774,90.28685,22.821201,0.0,0.021582,0.012839,28.657015,28.685801,1.038,1.041,-63617.0,-145286.0,-412178.0,0.0,141786.0,141676.0,-145019.0,138607.0,-60642.0,-140418.0,-417313.0,0.0,-143245.0,-143379.0,140109.0,-146099.0,0.0,0.0,0.0,0.0,0.0,0.0,0.0,0.0,0.0,0.0,0.0,0.0,0.0,0.0,0.0,0.0,0.0,0.0,0.0,0.0,0.0,0.0,0.0,0.0
5,1.2534749507904053,0.526658,1.577669,0.398,0.0,-0.001436,-0.005403,0.520817,0.517183,0.527546,1.576041,0.398441,0.0,-0.00038,0.001693,0.531134,0.510534,3.0,1.0,111.0,0.0,1.0,-79627.0,-26251.0,13974.0,-79239.0,26083.0,13815.0,-0.935133,-0.217691,0.27953,-0.313395,0.140237,-0.939211,0.165257,-0.96589,-0.199364,-0.939662,0.206022,0.273111,0.305622,0.146818,0.940766,0.153721,0.967471,-0.200924,-0.935133,-0.217691,0.27953,-0.313395,0.140237,-0.939211,0.165257,-0.96589,-0.199364,-0.939662,0.206022,0.273111,0.305622,0.146818,0.940766,0.153721,0.967471,-0.200924,-79627.0,-26251.0,13974.0,-79239.0,26083.0,13815.0,17953.0,17306.0,-157910.0,0.0,-54213.0,-54349.0,-53941.0,-54411.0,-14901.0,-12554.0,153372.0,0.0,52953.0,52830.0,53045.0,53018.0,-20.0,211.0,53.0,0.0,259.0,0.0,494.0,-542.0,-3.0,-187.0,-117.0,0.0,-328.0,37.0,717.0,-902.0,0.005497,-0.057293,-0.014375,0.0,0.009502,2.6e-05,-0.018091,-0.019869,-0.001062,-0.050837,-0.031852,0.0,-0.012019,0.001367,-0.026271,-0.033006,4109.760254,11518.200195,51307.921875,0.0,-17639.910156,-17642.25,17906.400391,-17371.621094,4116.69043,11507.760742,51361.652344,0.0,17657.820312,17658.810547,-17383.861328,17920.529297,0.0,0.0,0.0,0.0,0.0,0.0,0.0,0.0,0.0,0.0,0.0,0.0,0.0,0.0,0.0,0.0,0.0,0.0,0.0,0.0,0.0,0.0,0.0,0.0,0.0,0.0,0.0,0.0,0.0,0.0,0.0,0.0,4113.36377,11515.650391,51297.832031,0.0,-17639.455078,-17640.628906,17897.570312,-17381.246094,4119.088867,11506.415039,51344.886719,0.0,17658.054688,17658.052734,-17400.197266,17915.820312,30.201736,90.368958,22.799065,0.0,0.001807,-0.129304,28.768385,28.652069,30.243774,90.28685,22.821201,0.0,0.021582,0.012839,28.657015,28.685801,1.037,1.041,-63617.0,-145286.0,-412178.0,0.0,141786.0,141676.0,-145019.0,138607.0,-60642.0,-140418.0,-417313.0,0.0,-143245.0,-143379.0,140109.0,-146099.0,0.0,0.0,0.0,0.0,0.0,0.0,0.0,0.0,0.0,0.0,0.0,0.0,0.0,0.0,0.0,0.0,0.0,0.0,0.0,0.0,0.0,0.0,0.0,0.0
6,1.2734789848327637,0.526658,1.577669,0.398,0.0,-0.001436,-0.005403,0.520817,0.517009,0.527546,1.576041,0.398441,0.0,-0.00038,0.001693,0.531134,0.510361,3.0,1.0,111.0,0.0,1.0,-79627.0,-26251.0,13974.0,-79239.0,26083.0,13815.0,-0.935114,-0.217772,0.27953,-0.313407,0.14021,-0.939211,0.16534,-0.965876,-0.199364,-0.93968,0.20594,0.273111,0.305609,0.146844,0.940766,0.153637,0.967484,-0.200924,-0.935114,-0.217772,0.27953,-0.313407,0.14021,-0.939211,0.16534,-0.965876,-0.199364,-0.93968,0.20594,0.273111,0.305609,0.146844,0.940766,0.153637,0.967484,-0.200924,-79627.0,-26251.0,13974.0,-79239.0,26083.0,13815.0,17953.0,17306.0,-157910.0,0.0,-54213.0,-54349.0,-53941.0,-54412.0,-14901.0,-12554.0,153372.0,0.0,52953.0,52830.0,53045.0,53017.0,-20.0,211.0,53.0,0.0,259.0,1.0,498.0,-545.0,-3.0,-187.0,-117.0,0.0,-328.0,37.0,725.0,-902.0,0.005497,-0.057293,-0.014375,0.0,0.00951,5.4e-05,-0.018245,-0.019959,-0.001062,-0.050837,-0.031852,0.0,-0.012015,0.001354,-0.026556,-0.033009,4109.760254,11518.200195,51307.921875,0.0,-17639.910156,-17642.25,17906.400391,-17371.710938,4116.69043,11507.760742,51361.652344,0.0,17657.820312,17658.810547,-17383.861328,17920.441406,0.0,0.0,0.0,0.0,0.0,0.0,0.0,0.0,0.0,0.0,0.0,0.0,0.0,0.0,0.0,0.0,0.0,0.0,0.0,0.0,0.0,0.0,0.0,0.0,0.0,0.0,0.0,0.0,0.0,0.0,0.0,0.0,4113.36377,11515.650391,51297.832031,0.0,-17639.455078,-17640.628906,17897.570312,-17381.246094,4119.088867,11506.415039,51344.886719,0.0,17658.054688,17658.052734,-17400.197266,17915.820312,30.201736,90.368958,22.799065,0.0,0.001807,-0.129304,28.768385,28.652069,30.243774,90.28685,22.821201,0.0,0.021582,0.012839,28.657015,28.685801,1.037,1.041,-63617.0,-145286.0,-412178.0,0.0,141786.0,141676.0,-145019.0,138607.0,-60642.0,-140418.0,-417313.0,0.0,-143245.0,-143379.0,140109.0,-146099.0,0.0,0.0,0.0,0.0,0.0,0.0,0.0,0.0,0.0,0.0,0.0,0.0,0.0,0.0,0.0,0.0,0.0,0.0,0.0,0.0,0.0,0.0,0.0,0.0
7,1.2944769859313965,0.526658,1.577669,0.398,0.0,-0.001436,-0.005403,0.520644,0.516833,0.527546,1.576041,0.398441,0.0,-0.00038,0.001693,0.531134,0.510188,3.0,1.0,111.0,0.0,1.0,-79627.0,-26251.0,13974.0,-79239.0,26083.0,13815.0,-0.935114,-0.217773,0.27953,-0.313408,0.14021,-0.939211,0.165342,-0.965876,-0.199364,-0.939698,0.205859,0.273111,0.305597,0.146871,0.940766,0.153553,0.967497,-0.200924,-0.935114,-0.217773,0.27953,-0.313408,0.14021,-0.939211,0.165342,-0.965876,-0.199364,-0.939698,0.205859,0.273111,0.305597,0.146871,0.940766,0.153553,0.967497,-0.200924,-79627.0,-26251.0,13974.0,-79239.0,26083.0,13815.0,17953.0,17306.0,-157910.0,0.0,-54213.0,-54349.0,-53940.0,-54413.0,-14901.0,-12554.0,153372.0,0.0,52953.0,52830.0,53045.0,53016.0,-20.0,211.0,53.0,0.0,260.0,2.0,500.0,-547.0,-3.0,-187.0,-117.0,0.0,-328.0,36.0,733.0,-902.0,0.005497,-0.057293,-0.014375,0.0,0.009518,8.3e-05,-0.018321,-0.020045,-0.001062,-0.050837,-0.031852,0.0,-0.012011,0.001341,-0.026841,-0.033011,4109.760254,11518.200195,51307.921875,0.0,-17639.910156,-17642.25,17906.310547,-17371.800781,4116.69043,11507.760742,51361.652344,0.0,17657.820312,17658.810547,-17383.861328,17920.351562,0.0,0.0,0.0,0.0,0.0,0.0,0.0,0.0,0.0,0.0,0.0,0.0,0.0,0.0,0.0,0.0,0.0,0.0,0.0,0.0,0.0,0.0,0.0,0.0,0.0,0.0,0.0,0.0,0.0,0.0,0.0,0.0,4113.36377,11515.650391,51297.832031,0.0,-17639.455078,-17640.628906,17897.570312,-17381.246094,4119.088867,11506.415039,51344.886719,0.0,17658.054688,17658.052734,-17400.197266,17915.820312,30.201736,90.368958,22.799065,0.0,0.001807,-0.129304,28.768385,28.652069,30.243774,90.28685,22.821201,0.0,0.021582,0.012839,28.657015,28.685801,1.037,1.041,-63617.0,-145286.0,-412178.0,0.0,141786.0,141676.0,-145019.0,138607.0,-60642.0,-140418.0,-417313.0,0.0,-143245.0,-143379.0,140109.0,-146099.0,0.0,0.0,0.0,0.0,0.0,0.0,0.0,0.0,0.0,0.0,0.0,0.0,0.0,0.0,0.0,0.0,0.0,0.0,0.0,0.0,0.0,0.0,0.0,0.0
8,1.3144409656524658,0.526658,1.577669,0.398,0.0,-0.001436,-0.005403,0.520294,0.51666,0.527546,1.576041,0.398441,0.0,-0.00038,0.001693,0.530961,0.510011,3.0,1.0,111.0,0.0,1.0,-79627.0,-26251.0,13974.0,-79239.0,26083.0,13815.0,-0.935133,-0.217691,0.27953,-0.313395,0.140237,-0.939211,0.165257,-0.96589,-0.199364,-0.939698,0.205858,0.273111,0.305596,0.146871,0.940766,0.153551,0.967498,-0.200924,-0.935133,-0.217691,0.27953,-0.313395,0.140237,-0.939211,0.165257,-0.96589,-0.199364,-0.939698,0.205858,0.273111,0.305596,0.146871,0.940766,0.153551,0.967498,-0.200924,-79627.0,-26251.0,13974.0,-79239.0,26083.0,13815.0,17953.0,17306.0,-157910.0,0.0,-54213.0,-54349.0,-53938.0,-54414.0,-14901.0,-12554.0,153372.0,0.0,52953.0,52830.0,53046.0,53015.0,-20.0,211.0,53.0,0.0,260.0,3.0,500.0,-550.0,-3.0,-187.0,-117.0,0.0,-328.0,36.0,739.0,-902.0,0.005497,-0.057293,-0.014375,0.0,0.009526,0.000111,-0.018315,-0.020131,-0.001062,-0.050837,-0.031852,0.0,-0.012007,0.001328,-0.027048,-0.03301,4109.760254,11518.200195,51307.921875,0.0,-17639.910156,-17642.25,17906.130859,-17371.890625,4116.69043,11507.760742,51361.652344,0.0,17657.820312,17658.810547,-17383.949219,17920.259766,0.0,0.0,0.0,0.0,0.0,0.0,-89.174942,0.0,0.0,0.0,0.0,0.0,0.0,0.0,0.0,0.0,0.0,0.0,0.0,0.0,0.0,0.0,-0.173088,0.0,0.0,0.0,0.0,0.0,0.0,0.0,0.0,0.0,4113.36377,11515.650391,51297.832031,0.0,-17639.455078,-17640.628906,17897.570312,-17381.246094,4119.088867,11506.415039,51344.886719,0.0,17658.054688,17658.052734,-17400.197266,17915.820312,30.201736,90.368958,22.799065,0.0,0.001807,-0.129304,28.768385,28.652069,30.243774,90.28685,22.821201,0.0,0.021582,0.012839,28.657015,28.685801,1.036,1.04,-63617.0,-145286.0,-412178.0,0.0,141786.0,141676.0,-145019.0,138607.0,-60642.0,-140418.0,-417313.0,0.0,-143245.0,-143379.0,140109.0,-146099.0,0.0,0.0,0.0,0.0,0.0,-0.173088,0.0,0.0,0.0,0.0,0.0,0.0,0.0,0.0,0.0,0.0,0.0,-0.173088,0.0,0.0,0.0,0.0,0.0,0.0
9,1.3344779014587402,0.526658,1.577669,0.398,0.0,-0.001436,-0.005403,0.520294,0.51631,0.527546,1.576041,0.398441,0.0,-0.00038,0.001693,0.530961,0.509838,3.0,1.0,111.0,0.0,1.0,-79627.0,-26251.0,13974.0,-79239.0,26083.0,13815.0,-0.935095,-0.217854,0.27953,-0.31342,0.140182,-0.939211,0.165426,-0.965861,-0.199364,-0.939716,0.205776,0.273111,0.305584,0.146898,0.940766,0.153468,0.967511,-0.200924,-0.935095,-0.217854,0.27953,-0.31342,0.140182,-0.939211,0.165426,-0.965861,-0.199364,-0.939698,0.205858,0.273111,0.305596,0.146871,0.940766,0.153551,0.967498,-0.200924,-79627.0,-26251.0,13974.0,-79239.0,26083.0,13815.0,17953.0,17306.0,-157910.0,0.0,-54213.0,-54349.0,-53938.0,-54416.0,-14901.0,-12554.0,153372.0,0.0,52953.0,52830.0,53046.0,53014.0,-20.0,211.0,53.0,0.0,260.0,3.0,504.0,-550.0,-3.0,-187.0,-117.0,0.0,-328.0,35.0,746.0,-902.0,0.005497,-0.057293,-0.014375,0.0,0.009533,0.000139,-0.018465,-0.020135,-0.001062,-0.050837,-0.031852,0.0,-0.012002,0.001314,-0.027331,-0.033009,4109.760254,11518.200195,51307.921875,0.0,-17639.910156,-17642.25,17906.130859,-17372.070312,4116.69043,11507.760742,51361.652344,0.0,17657.820312,17658.810547,-17383.949219,17920.171875,0.0,0.0,0.0,0.0,0.0,0.0,0.0,0.0,0.0,0.0,0.0,0.0,0.0,0.0,0.0,-89.174942,0.0,0.0,0.0,0.0,0.0,0.0,0.0,0.0,0.0,0.0,0.0,0.0,0.0,0.0,0.0,-0.173088,4113.36377,11515.650391,51297.832031,0.0,-17639.455078,-17640.628906,17897.570312,-17381.246094,4119.088867,11506.415039,51344.886719,0.0,17658.054688,17658.052734,-17400.197266,17915.820312,30.201736,90.368958,22.799065,0.0,0.001807,-0.129304,28.768385,28.652069,30.243774,90.28685,22.821201,0.0,0.021582,0.012839,28.657015,28.685801,1.036,1.04,-63617.0,-145286.0,-412178.0,0.0,141786.0,141676.0,-145019.0,138607.0,-60642.0,-140418.0,-417313.0,0.0,-143245.0,-143379.0,140109.0,-146099.0,0.0,0.0,0.0,0.0,0.0,0.0,0.0,0.0,0.0,0.0,0.0,0.0,0.0,0.0,0.0,0.0,0.0,0.0,0.0,0.0,0.0,0.0,0.0,0.0
10,1.3564820289611816,0.526658,1.577669,0.398,0.0,-0.001436,-0.005403,0.520118,0.516137,0.527546,1.576041,0.398441,0.0,-0.00038,0.001693,0.530784,0.509838,3.0,1.0,111.0,0.0,1.0,-79627.0,-26251.0,13974.0,-79239.0,26083.0,13815.0,-0.935095,-0.217853,0.27953,-0.31342,0.140183,-0.939211,0.165424,-0.965862,-0.199364,-0.939698,0.205859,0.273111,0.305597,0.146871,0.940766,0.153553,0.967497,-0.200924,-0.935095,-0.217853,0.27953,-0.31342,0.140183,-0.939211,0.165424,-0.965862,-0.199364,-0.939698,0.205859,0.273111,0.305597,0.146871,0.940766,0.153553,0.967497,-0.200924,-79627.0,-26251.0,13974.0,-79239.0,26083.0,13815.0,17953.0,17306.0,-157910.0,0.0,-54213.0,-54349.0,-53937.0,-54417.0,-14901.0,-12554.0,153372.0,0.0,52953.0,52830.0,53047.0,53014.0,-20.0,211.0,53.0,0.0,260.0,4.0,506.0,-552.0,-3.0,-187.0,-117.0,0.0,-327.0,35.0,753.0,-904.0,0.005497,-0.057293,-0.014375,0.0,0.009542,0.00017,-0.018549,-0.020233,-0.001062,-0.050837,-0.031852,0.0,-0.011998,0.0013,-0.027562,-0.033093,4109.760254,11518.200195,51307.921875,0.0,-17639.910156,-17642.25,17906.039062,-17372.160156,4116.69043,11507.760742,51361.652344,0.0,17657.820312,17658.810547,-17384.041016,17920.171875,0.0,0.0,0.0,0.0,0.0,0.0,0.0,0.0,0.0,0.0,0.0,0.0,0.0,0.0,0.0,0.0,0.0,0.0,0.0,0.0,0.0,0.0,0.0,0.0,0.0,0.0,0.0,0.0,0.0,0.0,0.0,0.0,4113.36377,11515.650391,51297.832031,0.0,-17639.455078,-17640.628906,17897.570312,-17381.246094,4119.088867,11506.415039,51344.886719,0.0,17658.054688,17658.052734,-17400.197266,17915.820312,30.201736,90.368958,22.799065,0.0,0.001807,-0.129304,28.768385,28.652069,30.243774,90.28685,22.821201,0.0,0.021582,0.012839,28.657015,28.685801,1.036,1.04,-63617.0,-145286.0,-412178.0,0.0,141786.0,141676.0,-145019.0,138607.0,-60642.0,-140418.0,-417313.0,0.0,-143245.0,-143379.0,140109.0,-146099.0,0.0,0.0,0.0,0.0,0.0,0.0,0.0,0.0,0.0,0.0,0.0,0.0,0.0,0.0,0.0,0.0,0.0,0.0,0.0,0.0,0.0,0.0,0.0,0.0
11,1.3774828910827637,0.526658,1.577669,0.398,0.0,-0.001436,-0.005403,0.520118,0.515788,0.527546,1.576041,0.398441,0.0,-0.00038,0.001693,0.530435,0.509662,3.0,1.0,111.0,0.0,1.0,-79627.0,-26251.0,13974.0,-79239.0,26083.0,13815.0,-0.935057,-0.218016,0.27953,-0.313444,0.140128,-0.939211,0.165593,-0.965833,-0.199364,-0.93968,0.20594,0.273111,0.305609,0.146844,0.940766,0.153637,0.967484,-0.200924,-0.935057,-0.218016,0.27953,-0.313444,0.140128,-0.939211,0.165593,-0.965833,-0.199364,-0.93968,0.20594,0.273111,0.305609,0.146844,0.940766,0.153637,0.967484,-0.200924,-79627.0,-26251.0,13974.0,-79239.0,26083.0,13815.0,17953.0,17306.0,-157910.0,0.0,-54213.0,-54349.0,-53937.0,-54419.0,-14901.0,-12554.0,153372.0,0.0,52953.0,52830.0,53049.0,53013.0,-20.0,211.0,53.0,0.0,261.0,5.0,511.0,-553.0,-3.0,-187.0,-117.0,0.0,-327.0,35.0,757.0,-904.0,0.005497,-0.057293,-0.014375,0.0,0.009551,0.0002,-0.018704,-0.02024,-0.001062,-0.050837,-0.031852,0.0,-0.011994,0.001286,-0.0277,-0.033092,4109.760254,11518.200195,51307.921875,0.0,-17639.910156,-17642.25,17906.039062,-17372.339844,4116.69043,11507.760742,51361.652344,0.0,17657.820312,17658.810547,-17384.220703,17920.080078,0.0,0.0,0.0,0.0,0.0,0.0,0.0,0.0,0.0,0.0,0.0,0.0,0.0,0.0,-90.92347,0.0,0.0,0.0,0.0,0.0,0.0,0.0,0.0,0.0,0.0,0.0,0.0,0.0,0.0,0.0,-0.176481,0.0,4113.36377,11515.650391,51297.832031,0.0,-17639.455078,-17640.628906,17897.570312,-17381.246094,4119.088867,11506.415039,51344.886719,0.0,17658.054688,17658.052734,-17400.197266,17915.820312,30.201736,90.368958,22.799065,0.0,0.001807,-0.129304,28.768385,28.652069,30.243774,90.28685,22.821201,0.0,0.021582,0.012839,28.657015,28.685801,1.035,1.04,-63617.0,-145286.0,-412178.0,0.0,141786.0,141676.0,-145019.0,138607.0,-60642.0,-140418.0,-417313.0,0.0,-143245.0,-143379.0,140109.0,-146099.0,0.0,0.0,0.0,0.0,0.0,0.0,0.0,0.0,0.0,0.0,0.0,-0.176481,0.0,0.0,0.0,0.0,0.0,0.0,0.0,0.0,0.0,0.0,0.0,-0.176481
12,1.3974978923797607,0.526658,1.577669,0.398,0.0,-0.001436,-0.005403,0.519944,0.515611,0.527546,1.576041,0.398441,0.0,-0.00038,0.001693,0.530085,0.509489,3.0,1.0,111.0,0.0,1.0,-79627.0,-26251.0,13974.0,-79239.0,26083.0,13815.0,-0.935057,-0.218018,0.27953,-0.313444,0.140128,-0.939211,0.165595,-0.965833,-0.199364,-0.939662,0.206023,0.273111,0.305622,0.146817,0.940766,0.153722,0.96747,-0.200924,-0.935057,-0.218018,0.27953,-0.313444,0.140128,-0.939211,0.165595,-0.965833,-0.199364,-0.939662,0.206023,0.273111,0.305622,0.146817,0.940766,0.153722,0.96747,-0.200924,-79627.0,-26251.0,13974.0,-79239.0,26083.0,13815.0,17953.0,17306.0,-157910.0,0.0,-54213.0,-54349.0,-53936.0,-54420.0,-14901.0,-12554.0,153372.0,0.0,52953.0,52830.0,53051.0,53012.0,-20.0,211.0,53.0,0.0,261.0,6.0,513.0,-555.0,-3.0,-187.0,-117.0,0.0,-327.0,34.0,760.0,-904.0,0.005497,-0.057293,-0.014375,0.0,0.009558,0.000228,-0.018773,-0.020316,-0.001062,-0.050837,-0.031852,0.0,-0.01199,0.001273,-0.027821,-0.033089,4109.760254,11518.200195,51307.921875,0.0,-17639.910156,-17642.25,17905.951172,-17372.431641,4116.69043,11507.760742,51361.652344,0.0,17657.820312,17658.810547,-17384.400391,17919.990234,0.0,0.0,0.0,0.0,0.0,0.0,0.0,0.0,0.0,0.0,0.0,0.0,0.0,0.0,0.0,0.0,0.0,0.0,0.0,0.0,0.0,0.0,0.0,0.0,0.0,0.0,0.0,0.0,0.0,0.0,0.0,0.0,4113.36377,11515.650391,51297.832031,0.0,-17639.455078,-17640.628906,17897.570312,-17381.246094,4119.088867,11506.415039,51344.886719,0.0,17658.054688,17658.052734,-17400.197266,17915.820312,30.201736,90.368958,22.799065,0.0,0.001807,-0.129304,28.768385,28.652069,30.243774,90.28685,22.821201,0.0,0.021582,0.012839,28.657015,28.685801,1.035,1.039,-63617.0,-145286.0,-412178.0,0.0,141786.0,141676.0,-145019.0,138607.0,-60642.0,-140418.0,-417313.0,0.0,-143245.0,-143379.0,140109.0,-146099.0,0.0,0.0,0.0,0.0,0.0,0.0,0.0,0.0,0.0,0.0,0.0,0.0,0.0,0.0,0.0,0.0,0.0,0.0,0.0,0.0,0.0,0.0,0.0,0.0
13,1.4185099601745605,0.526658,1.577669,0.398,0.0,-0.001436,-0.005403,0.519771,0.515262,0.527546,1.576041,0.398441,0.0,-0.00038,0.001693,0.529563,0.509489,3.0,1.0,111.0,0.0,1.0,-79627.0,-26251.0,13974.0,-79239.0,26083.0,13815.0,-0.935038,-0.2181,0.27953,-0.313457,0.1401,-0.939211,0.16568,-0.965818,-0.199364,-0.939608,0.206269,0.273111,0.305661,0.146738,0.940766,0.153975,0.96743,-0.200924,-0.935038,-0.2181,0.27953,-0.313457,0.1401,-0.939211,0.16568,-0.965818,-0.199364,-0.939608,0.206269,0.273111,0.305661,0.146738,0.940766,0.153975,0.96743,-0.200924,-79627.0,-26251.0,13974.0,-79239.0,26083.0,13815.0,17953.0,17306.0,-157910.0,0.0,-54213.0,-54349.0,-53935.0,-54422.0,-14901.0,-12554.0,153372.0,0.0,52953.0,52830.0,53054.0,53012.0,-20.0,211.0,53.0,0.0,261.0,7.0,515.0,-555.0,-3.0,-187.0,-117.0,0.0,-327.0,34.0,761.0,-906.0,0.005497,-0.057293,-0.014375,0.0,0.009567,0.000258,-0.018848,-0.020318,-0.001062,-0.050837,-0.031852,0.0,-0.011985,0.001259,-0.027873,-0.033165,4109.760254,11518.200195,51307.921875,0.0,-17639.910156,-17642.25,17905.861328,-17372.611328,4116.69043,11507.760742,51361.652344,0.0,17657.820312,17658.810547,-17384.669922,17919.990234,0.0,0.0,0.0,0.0,0.0,0.0,0.0,0.0,0.0,0.0,0.0,0.0,0.0,0.0,0.0,0.0,0.0,0.0,0.0,0.0,0.0,0.0,0.0,0.0,0.0,0.0,0.0,0.0,0.0,0.0,0.0,0.0,4113.36377,11515.650391,51297.832031,0.0,-17639.455078,-17640.628906,17897.570312,-17381.246094,4119.088867,11506.415039,51344.886719,0.0,17658.054688,17658.052734,-17400.197266,17915.820312,30.201736,90.368958,22.799065,0.0,0.001807,-0.129304,28.768385,28.652069,30.243774,90.28685,22.821201,0.0,0.021582,0.012839,28.657015,28.685801,1.035,1.039,-63617.0,-145286.0,-412178.0,0.0,141786.0,141676.0,-145019.0,138607.0,-60642.0,-140418.0,-417313.0,0.0,-143245.0,-143379.0,140109.0,-146099.0,0.0,0.0,0.0,0.0,0.0,0.0,0.0,0.0,0.0,0.0,0.0,0.0,0.0,0.0,0.0,0.0,0.0,0.0,0.0,0.0,0.0,0.0,0.0,0.0
14,1.4384799003601074,0.526658,1.577669,0.398,0.0,-0.001436,-0.005403,0.519771,0.514912,0.527546,1.576041,0.398441,0.0,-0.00038,0.001693,0.52904,0.509312,3.0,1.0,111.0,0.0,1.0,-79627.0,-26251.0,13974.0,-79239.0,26083.0,13815.0,-0.934999,-0.218264,0.27953,-0.313481,0.140045,-0.939211,0.165849,-0.965789,-0.199364,-0.939572,0.206432,0.273111,0.305686,0.146685,0.940766,0.154142,0.967404,-0.200924,-0.934999,-0.218264,0.27953,-0.313481,0.140045,-0.939211,0.165849,-0.965789,-0.199364,-0.939572,0.206432,0.273111,0.305686,0.146685,0.940766,0.154142,0.967404,-0.200924,-79627.0,-26251.0,13974.0,-79239.0,26083.0,13815.0,17953.0,17306.0,-157910.0,0.0,-54213.0,-54349.0,-53935.0,-54424.0,-14901.0,-12554.0,153372.0,0.0,52953.0,52830.0,53057.0,53011.0,-20.0,211.0,53.0,0.0,261.0,7.0,519.0,-555.0,-3.0,-187.0,-117.0,0.0,-327.0,34.0,762.0,-906.0,0.005497,-0.057293,-0.014375,0.0,0.009575,0.000286,-0.018993,-0.02031,-0.001062,-0.050837,-0.031852,0.0,-0.011981,0.001246,-0.027906,-0.033158,4109.760254,11518.200195,51307.921875,0.0,-17639.910156,-17642.25,17905.861328,-17372.791016,4116.69043,11507.760742,51361.652344,0.0,17657.820312,17658.810547,-17384.939453,17919.900391,0.0,0.0,0.0,0.0,0.0,0.0,0.0,0.0,0.0,0.0,0.0,0.0,0.0,0.0,0.0,0.0,0.0,0.0,0.0,0.0,0.0,0.0,0.0,0.0,0.0,0.0,0.0,0.0,0.0,0.0,0.0,0.0,4113.36377,11515.650391,51297.832031,0.0,-17639.455078,-17640.628906,17897.570312,-17381.246094,4119.088867,11506.415039,51344.886719,0.0,17658.054688,17658.052734,-17400.197266,17915.820312,30.201736,90.368958,22.799065,0.0,0.001807,-0.129304,28.768385,28.652069,30.243774,90.28685,22.821201,0.0,0.021582,0.012839,28.657015,28.685801,1.034,1.038,-63617.0,-145286.0,-412178.0,0.0,141786.0,141676.0,-145019.0,138607.0,-60642.0,-140418.0,-417313.0,0.0,-143245.0,-143379.0,140109.0,-146099.0,0.0,0.0,0.0,0.0,0.0,0.0,0.0,0.0,0.0,0.0,0.0,0.0,0.0,0.0,0.0,0.0,0.0,0.0,0.0,0.0,0.0,0.0,0.0,0.0
15,1.4584760665893555,0.526658,1.577669,0.398,0.0,-0.001436,-0.005403,0.519595,0.514739,0.527546,1.576041,0.398441,0.0,-0.00038,0.001693,0.527991,0.509312,3.0,1.0,111.0,0.0,1.0,-79627.0,-26251.0,13974.0,-79239.0,26083.0,13815.0,-0.935,-0.218262,0.27953,-0.313481,0.140046,-0.939211,0.165847,-0.965789,-0.199364,-0.939464,0.206924,0.273111,0.305763,0.146524,0.940766,0.15465,0.967323,-0.200924,-0.935,-0.218262,0.27953,-0.313481,0.140046,-0.939211,0.165847,-0.965789,-0.199364,-0.939464,0.206924,0.273111,0.305763,0.146524,0.940766,0.15465,0.967323,-0.200924,-79627.0,-26251.0,13974.0,-79239.0,26083.0,13815.0,17953.0,17306.0,-157910.0,0.0,-54213.0,-54349.0,-53934.0,-54425.0,-14901.0,-12554.0,153372.0,0.0,52953.0,52830.0,53063.0,53011.0,-20.0,211.0,53.0,0.0,261.0,8.0,520.0,-556.0,-3.0,-187.0,-117.0,0.0,-327.0,33.0,756.0,-908.0,0.005497,-0.057293,-0.014375,0.0,0.009583,0.000315,-0.019058,-0.020379,-0.001062,-0.050837,-0.031852,0.0,-0.011977,0.001233,-0.027696,-0.033229,4109.760254,11518.200195,51307.921875,0.0,-17639.910156,-17642.25,17905.769531,-17372.880859,4116.69043,11507.760742,51361.652344,0.0,17657.820312,17658.810547,-17385.480469,17919.900391,0.0,0.0,0.0,0.0,0.0,0.0,0.0,0.0,0.0,0.0,0.0,0.0,0.0,0.0,0.0,0.0,0.0,0.0,0.0,0.0,0.0,0.0,0.0,0.0,0.0,0.0,0.0,0.0,0.0,0.0,0.0,0.0,4113.36377,11515.650391,51297.832031,0.0,-17639.455078,-17640.628906,17897.570312,-17381.246094,4119.088867,11506.415039,51344.886719,0.0,17658.054688,17658.052734,-17400.197266,17915.820312,30.201736,90.368958,22.799065,0.0,0.001807,-0.129304,28.768385,28.652069,30.243774,90.28685,22.821201,0.0,0.021582,0.012839,28.657015,28.685801,1.034,1.037,-63617.0,-145286.0,-412178.0,0.0,141786.0,141676.0,-145019.0,138607.0,-60642.0,-140418.0,-417313.0,0.0,-143245.0,-143379.0,140109.0,-146099.0,0.0,0.0,0.0,0.0,0.0,0.0,0.0,0.0,0.0,0.0,0.0,0.0,0.0,0.0,0.0,0.0,0.0,0.0,0.0,0.0,0.0,0.0,0.0,0.0
16,1.4804980754852295,0.526658,1.577669,0.398,0.0,-0.001436,-0.005403,0.519422,0.514389,0.527546,1.576041,0.398441,0.0,-0.00038,0.001693,0.525371,0.509139,3.0,1.0,111.0,0.0,1.0,-79627.0,-26251.0,13974.0,-79239.0,26083.0,13815.0,-0.934981,-0.218344,0.27953,-0.313493,0.140018,-0.939211,0.165932,-0.965775,-0.199364,-0.93921,0.208073,0.273111,0.305942,0.14615,0.940766,0.155833,0.967133,-0.200924,-0.934981,-0.218344,0.27953,-0.313493,0.140018,-0.939211,0.165932,-0.965775,-0.199364,-0.93921,0.208073,0.273111,0.305942,0.14615,0.940766,0.155833,0.967133,-0.200924,-79627.0,-26251.0,13974.0,-79239.0,26083.0,13815.0,17953.0,17306.0,-157910.0,0.0,-54213.0,-54349.0,-53933.0,-54427.0,-14901.0,-12554.0,153372.0,0.0,52953.0,52830.0,53078.0,53010.0,-20.0,211.0,53.0,0.0,262.0,9.0,522.0,-556.0,-3.0,-187.0,-117.0,0.0,-327.0,33.0,732.0,-908.0,0.005497,-0.057293,-0.014375,0.0,0.009591,0.000346,-0.019137,-0.020381,-0.001062,-0.050837,-0.031852,0.0,-0.011973,0.001218,-0.026788,-0.033228,4109.760254,11518.200195,51307.921875,0.0,-17639.910156,-17642.25,17905.681641,-17373.060547,4116.69043,11507.760742,51361.652344,0.0,17657.820312,17658.810547,-17386.830078,17919.810547,0.0,0.0,0.0,0.0,0.0,0.0,0.0,0.0,0.0,0.0,0.0,0.0,0.0,0.0,0.0,0.0,0.0,0.0,0.0,0.0,0.0,0.0,0.0,0.0,0.0,0.0,0.0,0.0,0.0,0.0,0.0,0.0,4113.36377,11515.650391,51297.832031,0.0,-17639.455078,-17640.628906,17897.570312,-17381.246094,4119.088867,11506.415039,51344.886719,0.0,17658.054688,17658.052734,-17400.197266,17915.820312,30.201736,90.368958,22.799065,0.0,0.001807,-0.129304,28.768385,28.652069,30.243774,90.28685,22.821201,0.0,0.021582,0.012839,28.657015,28.685801,1.033,1.034,-63617.0,-145286.0,-412178.0,0.0,141786.0,141676.0,-145019.0,138607.0,-60642.0,-140418.0,-417313.0,0.0,-143245.0,-143379.0,140109.0,-146099.0,0.0,0.0,0.0,0.0,0.0,0.0,0.0,0.0,0.0,0.0,0.0,0.0,0.0,0.0,0.0,0.0,0.0,0.0,0.0,0.0,0.0,0.0,0.0,0.0
17,1.5014801025390625,0.526658,1.577669,0.398,0.0,-0.001436,-0.005403,0.519422,0.514213,0.527546,1.576041,0.398441,0.0,-0.00038,0.001693,0.524496,0.508963,3.0,1.0,111.0,0.0,1.0,-79627.0,-26251.0,13974.0,-79239.0,26083.0,13815.0,-0.934961,-0.218427,0.27953,-0.313506,0.13999,-0.939211,0.166017,-0.96576,-0.199364,-0.939137,0.208402,0.273111,0.305993,0.146043,0.940766,0.156171,0.967078,-0.200924,-0.934961,-0.218427,0.27953,-0.313506,0.13999,-0.939211,0.166017,-0.96576,-0.199364,-0.939137,0.208402,0.273111,0.305993,0.146043,0.940766,0.156171,0.967078,-0.200924,-79627.0,-26251.0,13974.0,-79239.0,26083.0,13815.0,17953.0,17306.0,-157910.0,0.0,-54213.0,-54349.0,-53933.0,-54428.0,-14901.0,-12554.0,153372.0,0.0,52953.0,52830.0,53083.0,53009.0,-20.0,211.0,53.0,0.0,262.0,10.0,527.0,-558.0,-3.0,-187.0,-117.0,0.0,-327.0,32.0,727.0,-907.0,0.005497,-0.057293,-0.014375,0.0,0.0096,0.000376,-0.019285,-0.020451,-0.001062,-0.050837,-0.031852,0.0,-0.011968,0.001204,-0.026632,-0.033221,4109.760254,11518.200195,51307.921875,0.0,-17639.910156,-17642.25,17905.681641,-17373.150391,4116.69043,11507.760742,51361.652344,0.0,17657.820312,17658.810547,-17387.28125,17919.720703,0.0,0.0,0.0,0.0,0.0,0.0,0.0,0.0,0.0,0.0,0.0,0.0,0.0,0.0,0.0,0.0,0.0,0.0,0.0,0.0,0.0,0.0,0.0,0.0,0.0,0.0,0.0,0.0,0.0,0.0,0.0,0.0,4113.36377,11515.650391,51297.832031,0.0,-17639.455078,-17640.628906,17897.570312,-17381.246094,4119.088867,11506.415039,51344.886719,0.0,17658.054688,17658.052734,-17400.197266,17915.820312,30.201736,90.368958,22.799065,0.0,0.001807,-0.129304,28.768385,28.652069,30.243774,90.28685,22.821201,0.0,0.021582,0.012839,28.657015,28.685801,1.033,1.033,-63617.0,-145286.0,-412178.0,0.0,141786.0,141676.0,-145019.0,138607.0,-60642.0,-140418.0,-417313.0,0.0,-143245.0,-143379.0,140109.0,-146099.0,0.0,0.0,0.0,0.0,0.0,0.0,0.0,0.0,0.0,0.0,0.0,0.0,0.0,0.0,0.0,0.0,0.0,0.0,0.0,0.0,0.0,0.0,0.0,0.0
18,1.5214800834655762,0.526658,1.577669,0.398,0.0,-0.001436,-0.005403,0.519245,0.513863,0.527546,1.576041,0.398441,0.0,-0.00038,0.001693,0.524322,0.508963,3.0,1.0,111.0,0.0,1.0,-79627.0,-26251.0,13974.0,-79239.0,26083.0,13815.0,-0.934942,-0.218508,0.27953,-0.313518,0.139963,-0.939211,0.166101,-0.965746,-0.199364,-0.939119,0.208483,0.273111,0.306006,0.146017,0.940766,0.156255,0.967065,-0.200924,-0.934942,-0.218508,0.27953,-0.313518,0.139963,-0.939211,0.166101,-0.965746,-0.199364,-0.939119,0.208483,0.273111,0.306006,0.146017,0.940766,0.156255,0.967065,-0.200924,-79627.0,-26251.0,13974.0,-79239.0,26083.0,13815.0,17953.0,17306.0,-157910.0,0.0,-54213.0,-54349.0,-53932.0,-54430.0,-14901.0,-12554.0,153372.0,0.0,52953.0,52830.0,53084.0,53009.0,-20.0,211.0,53.0,0.0,262.0,11.0,528.0,-558.0,-3.0,-187.0,-117.0,0.0,-326.0,32.0,731.0,-909.0,0.005497,-0.057293,-0.014375,0.0,0.009608,0.000404,-0.019346,-0.020433,-0.001062,-0.050837,-0.031852,0.0,-0.011964,0.001191,-0.026778,-0.033289,4109.760254,11518.200195,51307.921875,0.0,-17639.910156,-17642.25,17905.589844,-17373.332031,4116.69043,11507.760742,51361.652344,0.0,17657.820312,17658.810547,-17387.371094,17919.720703,0.0,0.0,0.0,0.0,0.0,0.0,0.0,0.0,0.0,0.0,0.0,0.0,0.0,0.0,0.0,0.0,0.0,0.0,0.0,0.0,0.0,0.0,0.0,0.0,0.0,0.0,0.0,0.0,0.0,0.0,0.0,0.0,4113.36377,11515.650391,51297.832031,0.0,-17639.455078,-17640.628906,17897.570312,-17381.246094,4119.088867,11506.415039,51344.886719,0.0,17658.054688,17658.052734,-17400.197266,17915.820312,30.201736,90.368958,22.799065,0.0,0.001807,-0.129304,28.768385,28.652069,30.243774,90.28685,22.821201,0.0,0.021582,0.012839,28.657015,28.685801,1.033,1.033,-63617.0,-145286.0,-412178.0,0.0,141786.0,141676.0,-145019.0,138607.0,-60642.0,-140418.0,-417313.0,0.0,-143245.0,-143379.0,140109.0,-146099.0,0.0,0.0,0.0,0.0,0.0,0.0,0.0,0.0,0.0,0.0,0.0,0.0,0.0,0.0,0.0,0.0,0.0,0.0,0.0,0.0,0.0,0.0,0.0,0.0
19,1.5424809455871582,0.526658,1.577669,0.398,0.0,-0.001436,-0.005403,0.519072,0.513514,0.527546,1.576041,0.398441,0.0,-0.00038,0.001693,0.524146,0.50879,3.0,1.0,111.0,0.0,1.0,-79627.0,-26251.0,13974.0,-79239.0,26083.0,13815.0,-0.934923,-0.21859,0.27953,-0.31353,0.139936,-0.939211,0.166186,-0.965731,-0.199364,-0.939119,0.208485,0.273111,0.306006,0.146016,0.940766,0.156256,0.967064,-0.200924,-0.934923,-0.21859,0.27953,-0.31353,0.139936,-0.939211,0.166186,-0.965731,-0.199364,-0.939119,0.208485,0.273111,0.306006,0.146016,0.940766,0.156256,0.967064,-0.200924,-79627.0,-26251.0,13974.0,-79239.0,26083.0,13815.0,17953.0,17306.0,-157910.0,0.0,-54213.0,-54349.0,-53931.0,-54432.0,-14901.0,-12554.0,153372.0,0.0,52953.0,52830.0,53085.0,53008.0,-20.0,211.0,53.0,0.0,262.0,11.0,530.0,-558.0,-3.0,-187.0,-117.0,0.0,-326.0,32.0,736.0,-909.0,0.005497,-0.057293,-0.014375,0.0,0.009616,0.000433,-0.019414,-0.020419,-0.001062,-0.050837,-0.031852,0.0,-0.01196,0.001177,-0.026933,-0.033282,4109.760254,11518.200195,51307.921875,0.0,-17639.910156,-17642.25,17905.501953,-17373.511719,4116.69043,11507.760742,51361.652344,0.0,17657.820312,17658.810547,-17387.460938,17919.630859,0.0,0.0,0.0,0.0,0.0,0.0,0.0,0.0,0.0,0.0,0.0,0.0,0.0,0.0,0.0,0.0,0.0,0.0,0.0,0.0,0.0,0.0,0.0,0.0,0.0,0.0,0.0,0.0,0.0,0.0,0.0,0.0,4113.36377,11515.650391,51297.832031,0.0,-17639.455078,-17640.628906,17897.570312,-17381.246094,4119.088867,11506.415039,51344.886719,0.0,17658.054688,17658.052734,-17400.197266,17915.820312,30.201736,90.368958,22.799065,0.0,0.001807,-0.129304,28.768385,28.652069,30.243774,90.28685,22.821201,0.0,0.021582,0.012839,28.657015,28.685801,1.032,1.032,-63617.0,-145286.0,-412178.0,0.0,141786.0,141676.0,-145019.0,138607.0,-60642.0,-140418.0,-417313.0,0.0,-143245.0,-143379.0,140109.0,-146099.0,0.0,0.0,0.0,0.0,0.0,0.0,0.0,0.0,0.0,0.0,0.0,0.0,0.0,0.0,0.0,0.0,0.0,0.0,0.0,0.0,0.0,0.0,0.0,0.0
20,1.562459945678711,0.526658,1.577669,0.398,0.0,-0.001436,-0.005403,0.518896,0.513168,0.527546,1.576041,0.398441,0.0,-0.00038,0.001693,0.523973,0.508613,3.0,1.0,111.0,0.0,1.0,-79627.0,-26251.0,13974.0,-79239.0,26083.0,13815.0,-0.934905,-0.21867,0.27953,-0.313542,0.139909,-0.939211,0.166268,-0.965717,-0.199364,-0.939119,0.208483,0.273111,0.306006,0.146017,0.940766,0.156255,0.967065,-0.200924,-0.934905,-0.21867,0.27953,-0.313542,0.139909,-0.939211,0.166268,-0.965717,-0.199364,-0.939119,0.208483,0.273111,0.306006,0.146017,0.940766,0.156255,0.967065,-0.200924,-79627.0,-26251.0,13974.0,-79239.0,26083.0,13815.0,17953.0,17306.0,-157910.0,0.0,-54213.0,-54349.0,-53930.0,-54434.0,-14901.0,-12554.0,153372.0,0.0,52953.0,52830.0,53086.0,53007.0,-20.0,211.0,53.0,0.0,263.0,12.0,532.0,-557.0,-3.0,-187.0,-117.0,0.0,-326.0,31.0,739.0,-909.0,0.005497,-0.057293,-0.014375,0.0,0.009624,0.000462,-0.019473,-0.020397,-0.001062,-0.050837,-0.031852,0.0,-0.011956,0.001164,-0.027077,-0.033268,4109.760254,11518.200195,51307.921875,0.0,-17639.910156,-17642.25,17905.410156,-17373.689453,4116.69043,11507.760742,51361.652344,0.0,17657.820312,17658.810547,-17387.550781,17919.541016,0.0,0.0,0.0,0.0,0.0,0.0,0.0,0.0,0.0,0.0,0.0,0.0,0.0,0.0,0.0,0.0,0.0,0.0,0.0,0.0,0.0,0.0,0.0,0.0,0.0,0.0,0.0,0.0,0.0,0.0,0.0,0.0,4113.36377,11515.650391,51297.832031,0.0,-17639.455078,-17640.628906,17897.570312,-17381.246094,4119.088867,11506.415039,51344.886719,0.0,17658.054688,17658.052734,-17400.197266,17915.820312,30.201736,90.368958,22.799065,0.0,0.001807,-0.129304,28.768385,28.652069,30.243774,90.28685,22.821201,0.0,0.021582,0.012839,28.657015,28.685801,1.032,1.032,-63617.0,-145286.0,-412178.0,0.0,141786.0,141676.0,-145019.0,138607.0,-60642.0,-140418.0,-417313.0,0.0,-143245.0,-143379.0,140109.0,-146099.0,0.0,0.0,0.0,0.0,0.0,0.0,0.0,0.0,0.0,0.0,0.0,0.0,0.0,0.0,0.0,0.0,0.0,0.0,0.0,0.0,0.0,0.0,0.0,0.0
21,1.582406997680664,0.526658,1.577669,0.398,0.0,-0.001436,-0.005403,0.518896,0.512991,0.527546,1.576041,0.398441,0.0,-0.00038,0.001693,0.523623,0.508613,3.0,1.0,111.0,0.0,1.0,-79627.0,-26251.0,13974.0,-79239.0,26083.0,13815.0,-0.934885,-0.218752,0.27953,-0.313554,0.139881,-0.939211,0.166353,-0.965702,-0.199364,-0.939083,0.208647,0.273111,0.306031,0.145963,0.940766,0.156424,0.967037,-0.200924,-0.934885,-0.218752,0.27953,-0.313554,0.139881,-0.939211,0.166353,-0.965702,-0.199364,-0.939083,0.208647,0.273111,0.306031,0.145963,0.940766,0.156424,0.967037,-0.200924,-79627.0,-26251.0,13974.0,-79239.0,26083.0,13815.0,17953.0,17306.0,-157910.0,0.0,-54213.0,-54349.0,-53930.0,-54435.0,-14901.0,-12554.0,153372.0,0.0,52953.0,52830.0,53088.0,53007.0,-20.0,211.0,53.0,0.0,263.0,13.0,535.0,-558.0,-3.0,-187.0,-117.0,0.0,-326.0,31.0,741.0,-910.0,0.005497,-0.057293,-0.014375,0.0,0.009632,0.00049,-0.01961,-0.020448,-0.001062,-0.050837,-0.031852,0.0,-0.011952,0.001151,-0.027138,-0.033333,4109.760254,11518.200195,51307.921875,0.0,-17639.910156,-17642.25,17905.410156,-17373.78125,4116.69043,11507.760742,51361.652344,0.0,17657.820312,17658.810547,-17387.730469,17919.541016,0.0,0.0,0.0,0.0,0.0,0.0,0.0,0.0,0.0,0.0,0.0,0.0,0.0,0.0,0.0,0.0,0.0,0.0,0.0,0.0,0.0,0.0,0.0,0.0,0.0,0.0,0.0,0.0,0.0,0.0,0.0,0.0,4113.36377,11515.650391,51297.832031,0.0,-17639.455078,-17640.628906,17897.570312,-17381.246094,4119.088867,11506.415039,51344.886719,0.0,17658.054688,17658.052734,-17400.197266,17915.820312,30.201736,90.368958,22.799065,0.0,0.001807,-0.129304,28.768385,28.652069,30.243774,90.28685,22.821201,0.0,0.021582,0.012839,28.657015,28.685801,1.031,1.032,-63617.0,-145286.0,-412178.0,0.0,141786.0,141676.0,-145019.0,138607.0,-60642.0,-140418.0,-417313.0,0.0,-143245.0,-143379.0,140109.0,-146099.0,0.0,0.0,0.0,0.0,0.0,0.0,0.0,0.0,0.0,0.0,0.0,0.0,0.0,0.0,0.0,0.0,0.0,0.0,0.0,0.0,0.0,0.0,0.0,0.0
22,1.6044800281524658,0.526658,1.577669,0.398,0.0,-0.001436,-0.005403,0.518723,0.512642,0.527546,1.576041,0.398441,0.0,-0.00038,0.001693,0.523274,0.50844,3.0,1.0,111.0,0.0,1.0,-79627.0,-26251.0,13974.0,-79239.0,26083.0,13815.0,-0.934866,-0.218835,0.27953,-0.313567,0.139854,-0.939211,0.166439,-0.965688,-0.199364,-0.939064,0.20873,0.273111,0.306044,0.145936,0.940766,0.156509,0.967023,-0.200924,-0.934866,-0.218835,0.27953,-0.313567,0.139854,-0.939211,0.166439,-0.965688,-0.199364,-0.939064,0.20873,0.273111,0.306044,0.145936,0.940766,0.156509,0.967023,-0.200924,-79627.0,-26251.0,13974.0,-79239.0,26083.0,13815.0,17953.0,17306.0,-157910.0,0.0,-54213.0,-54349.0,-53929.0,-54437.0,-14901.0,-12554.0,153372.0,0.0,52953.0,52830.0,53090.0,53006.0,-20.0,211.0,53.0,0.0,263.0,14.0,537.0,-558.0,-3.0,-187.0,-117.0,0.0,-326.0,31.0,743.0,-910.0,0.005497,-0.057293,-0.014375,0.0,0.00964,0.000521,-0.019681,-0.020433,-0.001062,-0.050837,-0.031852,0.0,-0.011947,0.001136,-0.027219,-0.033325,4109.760254,11518.200195,51307.921875,0.0,-17639.910156,-17642.25,17905.320312,-17373.960938,4116.69043,11507.760742,51361.652344,0.0,17657.820312,17658.810547,-17387.910156,17919.451172,0.0,0.0,0.0,0.0,0.0,0.0,0.0,0.0,0.0,0.0,0.0,0.0,0.0,0.0,0.0,0.0,0.0,0.0,0.0,0.0,0.0,0.0,0.0,0.0,0.0,0.0,0.0,0.0,0.0,0.0,0.0,0.0,4113.36377,11515.650391,51297.832031,0.0,-17639.455078,-17640.628906,17897.570312,-17381.246094,4119.088867,11506.415039,51344.886719,0.0,17658.054688,17658.052734,-17400.197266,17915.820312,30.201736,90.368958,22.799065,0.0,0.001807,-0.129304,28.768385,28.652069,30.243774,90.28685,22.821201,0.0,0.021582,0.012839,28.657015,28.685801,1.031,1.031,-63617.0,-145286.0,-412178.0,0.0,141786.0,141676.0,-145019.0,138607.0,-60642.0,-140418.0,-417313.0,0.0,-143245.0,-143379.0,140109.0,-146099.0,0.0,0.0,0.0,0.0,0.0,0.0,0.0,0.0,0.0,0.0,0.0,0.0,0.0,0.0,0.0,0.0,0.0,0.0,0.0,0.0,0.0,0.0,0.0,0.0
23,1.6254780292510986,0.526658,1.577669,0.398,0.0,-0.001436,-0.005403,0.518373,0.512469,0.527546,1.576041,0.398441,0.0,-0.00038,0.001693,0.522924,0.508264,3.0,1.0,111.0,0.0,1.0,-79627.0,-26251.0,13974.0,-79239.0,26083.0,13815.0,-0.934885,-0.218752,0.27953,-0.313554,0.139881,-0.939211,0.166353,-0.965702,-0.199364,-0.939046,0.208811,0.273111,0.306057,0.14591,0.940766,0.156593,0.96701,-0.200924,-0.934885,-0.218752,0.27953,-0.313554,0.139881,-0.939211,0.166353,-0.965702,-0.199364,-0.939046,0.208811,0.273111,0.306057,0.14591,0.940766,0.156593,0.96701,-0.200924,-79627.0,-26251.0,13974.0,-79239.0,26083.0,13815.0,17953.0,17306.0,-157910.0,0.0,-54213.0,-54349.0,-53927.0,-54438.0,-14901.0,-12554.0,153372.0,0.0,52953.0,52830.0,53092.0,53005.0,-20.0,211.0,53.0,0.0,263.0,15.0,537.0,-559.0,-3.0,-187.0,-117.0,0.0,-326.0,30.0,745.0,-910.0,0.005497,-0.057293,-0.014375,0.0,0.009649,0.000551,-0.019663,-0.020488,-0.001062,-0.050837,-0.031852,0.0,-0.011943,0.001122,-0.027286,-0.033311,4109.760254,11518.200195,51307.921875,0.0,-17639.910156,-17642.25,17905.140625,-17374.050781,4116.69043,11507.760742,51361.652344,0.0,17657.820312,17658.810547,-17388.089844,17919.359375,0.0,0.0,0.0,0.0,0.0,0.0,0.0,0.0,0.0,0.0,0.0,0.0,0.0,0.0,0.0,0.0,0.0,0.0,0.0,0.0,0.0,0.0,0.0,0.0,0.0,0.0,0.0,0.0,0.0,0.0,0.0,0.0,4113.36377,11515.650391,51297.832031,0.0,-17639.455078,-17640.628906,17897.570312,-17381.246094,4119.088867,11506.415039,51344.886719,0.0,17658.054688,17658.052734,-17400.197266,17915.820312,30.201736,90.368958,22.799065,0.0,0.001807,-0.129304,28.768385,28.652069,30.243774,90.28685,22.821201,0.0,0.021582,0.012839,28.657015,28.685801,1.03,1.031,-63617.0,-145286.0,-412178.0,0.0,141786.0,141676.0,-145019.0,138607.0,-60642.0,-140418.0,-417313.0,0.0,-143245.0,-143379.0,140109.0,-146099.0,0.0,0.0,0.0,0.0,0.0,0.0,0.0,0.0,0.0,0.0,0.0,0.0,0.0,0.0,0.0,0.0,0.0,0.0,0.0,0.0,0.0,0.0,0.0,0.0
24,1.6454799175262451,0.526658,1.577669,0.398,0.0,-0.001436,-0.005403,0.518197,0.512292,0.527546,1.576041,0.398441,0.0,-0.00038,0.001693,0.522751,0.50809,3.0,1.0,111.0,0.0,1.0,-79627.0,-26251.0,13974.0,-79239.0,26083.0,13815.0,-0.934885,-0.218752,0.27953,-0.313554,0.139881,-0.939211,0.166353,-0.965702,-0.199364,-0.939046,0.208811,0.273111,0.306057,0.14591,0.940766,0.156593,0.96701,-0.200924,-0.934885,-0.218752,0.27953,-0.313554,0.139881,-0.939211,0.166353,-0.965702,-0.199364,-0.939046,0.208811,0.273111,0.306057,0.14591,0.940766,0.156593,0.96701,-0.200924,-79627.0,-26251.0,13974.0,-79239.0,26083.0,13815.0,17953.0,17306.0,-157910.0,0.0,-54213.0,-54349.0,-53926.0,-54439.0,-14901.0,-12554.0,153372.0,0.0,52953.0,52830.0,53093.0,53004.0,-20.0,211.0,53.0,0.0,263.0,15.0,538.0,-561.0,-3.0,-187.0,-117.0,0.0,-326.0,30.0,749.0,-909.0,0.005497,-0.057293,-0.014375,0.0,0.009657,0.000579,-0.019715,-0.020533,-0.001062,-0.050837,-0.031852,0.0,-0.011939,0.001109,-0.027418,-0.033294,4109.760254,11518.200195,51307.921875,0.0,-17639.910156,-17642.25,17905.050781,-17374.140625,4116.69043,11507.760742,51361.652344,0.0,17657.820312,17658.810547,-17388.179688,17919.271484,0.0,0.0,0.0,0.0,0.0,0.0,0.0,0.0,0.0,0.0,0.0,0.0,0.0,0.0,0.0,0.0,0.0,0.0,0.0,0.0,0.0,0.0,0.0,0.0,0.0,0.0,0.0,0.0,0.0,0.0,0.0,0.0,4113.36377,11515.650391,51297.832031,0.0,-17639.455078,-17640.628906,17897.570312,-17381.246094,4119.088867,11506.415039,51344.886719,0.0,17658.054688,17658.052734,-17400.197266,17915.820312,30.201736,90.368958,22.799065,0.0,0.001807,-0.129304,28.768385,28.652069,30.243774,90.28685,22.821201,0.0,0.021582,0.012839,28.657015,28.685801,1.03,1.03,-63617.0,-145286.0,-412178.0,0.0,141786.0,141676.0,-145019.0,138607.0,-60642.0,-140418.0,-417313.0,0.0,-143245.0,-143379.0,140109.0,-146099.0,0.0,0.0,0.0,0.0,0.0,0.0,0.0,0.0,0.0,0.0,0.0,0.0,0.0,0.0,0.0,0.0,0.0,0.0,0.0,0.0,0.0,0.0,0.0,0.0
25,1.666477918624878,0.526658,1.577669,0.398,0.0,-0.001436,-0.005403,0.517847,0.511942,0.527546,1.576041,0.398441,0.0,-0.00038,0.001693,0.522402,0.507914,3.0,1.0,111.0,0.0,1.0,-79627.0,-26251.0,13974.0,-79239.0,26083.0,13815.0,-0.934885,-0.218752,0.27953,-0.313554,0.139881,-0.939211,0.166353,-0.965702,-0.199364,-0.939028,0.208893,0.273111,0.306069,0.145883,0.940766,0.156677,0.966996,-0.200924,-0.934885,-0.218752,0.27953,-0.313554,0.139881,-0.939211,0.166353,-0.965702,-0.199364,-0.939028,0.208893,0.273111,0.306069,0.145883,0.940766,0.156677,0.966996,-0.200924,-79627.0,-26251.0,13974.0,-79239.0,26083.0,13815.0,17953.0,17306.0,-157910.0,0.0,-54213.0,-54349.0,-53924.0,-54441.0,-14901.0,-12554.0,153372.0,0.0,52953.0,52830.0,53095.0,53003.0,-20.0,211.0,53.0,0.0,264.0,16.0,538.0,-560.0,-3.0,-187.0,-117.0,0.0,-326.0,29.0,750.0,-909.0,0.005497,-0.057293,-0.014375,0.0,0.009665,0.000609,-0.019693,-0.020504,-0.001062,-0.050837,-0.031852,0.0,-0.011935,0.001095,-0.027479,-0.033277,4109.760254,11518.200195,51307.921875,0.0,-17639.910156,-17642.25,17904.869141,-17374.320312,4116.69043,11507.760742,51361.652344,0.0,17657.820312,17658.810547,-17388.359375,17919.179688,0.0,0.0,0.0,0.0,0.0,0.0,0.0,0.0,0.0,0.0,0.0,0.0,0.0,0.0,0.0,0.0,0.0,0.0,0.0,0.0,0.0,0.0,0.0,0.0,0.0,0.0,0.0,0.0,0.0,0.0,0.0,0.0,4113.36377,11515.650391,51297.832031,0.0,-17639.455078,-17640.628906,17897.570312,-17381.246094,4119.088867,11506.415039,51344.886719,0.0,17658.054688,17658.052734,-17400.197266,17915.820312,30.201736,90.368958,22.799065,0.0,0.001807,-0.129304,28.768385,28.652069,30.243774,90.28685,22.821201,0.0,0.021582,0.012839,28.657015,28.685801,1.029,1.03,-63617.0,-145286.0,-412178.0,0.0,141786.0,141676.0,-145019.0,138607.0,-60642.0,-140418.0,-417313.0,0.0,-143245.0,-143379.0,140109.0,-146099.0,0.0,0.0,0.0,0.0,0.0,0.0,0.0,0.0,0.0,0.0,0.0,0.0,0.0,0.0,0.0,0.0,0.0,0.0,0.0,0.0,0.0,0.0,0.0,0.0
26,1.6864759922027588,0.526658,1.577669,0.398,0.0,-0.001436,-0.005403,0.517674,0.511593,0.527546,1.576041,0.398441,0.0,-0.00038,0.001693,0.522052,0.507741,3.0,1.0,111.0,0.0,1.0,-79627.0,-26251.0,13974.0,-79239.0,26083.0,13815.0,-0.934866,-0.218835,0.27953,-0.313567,0.139854,-0.939211,0.166439,-0.965688,-0.199364,-0.93901,0.208975,0.273111,0.306082,0.145856,0.940766,0.156762,0.966983,-0.200924,-0.934866,-0.218835,0.27953,-0.313567,0.139854,-0.939211,0.166439,-0.965688,-0.199364,-0.93901,0.208975,0.273111,0.306082,0.145856,0.940766,0.156762,0.966983,-0.200924,-79627.0,-26251.0,13974.0,-79239.0,26083.0,13815.0,17953.0,17306.0,-157910.0,0.0,-54213.0,-54349.0,-53923.0,-54443.0,-14901.0,-12554.0,153372.0,0.0,52953.0,52830.0,53097.0,53002.0,-20.0,211.0,53.0,0.0,264.0,17.0,539.0,-559.0,-3.0,-187.0,-117.0,0.0,-326.0,29.0,752.0,-908.0,0.005497,-0.057293,-0.014375,0.0,0.009673,0.000637,-0.019742,-0.020466,-0.001062,-0.050837,-0.031852,0.0,-0.011931,0.001082,-0.027527,-0.033257,4109.760254,11518.200195,51307.921875,0.0,-17639.910156,-17642.25,17904.78125,-17374.501953,4116.69043,11507.760742,51361.652344,0.0,17657.820312,17658.810547,-17388.539062,17919.089844,0.0,0.0,0.0,0.0,0.0,0.0,0.0,0.0,0.0,0.0,0.0,0.0,0.0,0.0,0.0,0.0,0.0,0.0,0.0,0.0,0.0,0.0,0.0,0.0,0.0,0.0,0.0,0.0,0.0,0.0,0.0,0.0,4113.36377,11515.650391,51297.832031,0.0,-17639.455078,-17640.628906,17897.570312,-17381.246094,4119.088867,11506.415039,51344.886719,0.0,17658.054688,17658.052734,-17400.197266,17915.820312,30.201736,90.368958,22.799065,0.0,0.001807,-0.129304,28.768385,28.652069,30.243774,90.28685,22.821201,0.0,0.021582,0.012839,28.657015,28.685801,1.029,1.029,-63617.0,-145286.0,-412178.0,0.0,141786.0,141676.0,-145019.0,138607.0,-60642.0,-140418.0,-417313.0,0.0,-143245.0,-143379.0,140109.0,-146099.0,0.0,0.0,0.0,0.0,0.0,0.0,0.0,0.0,0.0,0.0,0.0,0.0,0.0,0.0,0.0,0.0,0.0,0.0,0.0,0.0,0.0,0.0,0.0,0.0
27,1.706475019454956,0.526658,1.577669,0.398,0.0,-0.001436,-0.005403,0.517497,0.51142,0.527546,1.576041,0.398441,0.0,-0.00038,0.001693,0.521526,0.507741,3.0,1.0,111.0,0.0,1.0,-79627.0,-26251.0,13974.0,-79239.0,26083.0,13815.0,-0.934866,-0.218833,0.27953,-0.313566,0.139854,-0.939211,0.166437,-0.965688,-0.199364,-0.938955,0.209222,0.273111,0.306121,0.145776,0.940766,0.157016,0.966941,-0.200924,-0.934866,-0.218833,0.27953,-0.313566,0.139854,-0.939211,0.166437,-0.965688,-0.199364,-0.938973,0.20914,0.273111,0.306108,0.145803,0.940766,0.156931,0.966955,-0.200924,-79627.0,-26251.0,13974.0,-79239.0,26083.0,13815.0,17953.0,17306.0,-157910.0,0.0,-54213.0,-54349.0,-53922.0,-54444.0,-14901.0,-12554.0,153372.0,0.0,52953.0,52830.0,53100.0,53002.0,-20.0,211.0,53.0,0.0,264.0,18.0,540.0,-560.0,-3.0,-187.0,-117.0,0.0,-325.0,29.0,751.0,-910.0,0.005497,-0.057293,-0.014375,0.0,0.009681,0.000665,-0.019788,-0.020504,-0.001062,-0.050837,-0.031852,0.0,-0.011926,0.001069,-0.027492,-0.033314,4109.760254,11518.200195,51307.921875,0.0,-17639.910156,-17642.25,17904.689453,-17374.589844,4116.69043,11507.760742,51361.652344,0.0,17657.820312,17658.810547,-17388.810547,17919.089844,0.0,0.0,0.0,0.0,0.0,0.0,0.0,0.0,0.0,0.0,0.0,0.0,0.0,0.0,-90.92347,0.0,0.0,0.0,0.0,0.0,0.0,0.0,0.0,0.0,0.0,0.0,0.0,0.0,0.0,0.0,-0.176481,0.0,4113.36377,11515.650391,51297.832031,0.0,-17639.455078,-17640.628906,17897.570312,-17381.246094,4119.088867,11506.415039,51344.886719,0.0,17658.054688,17658.052734,-17400.197266,17915.820312,30.201736,90.368958,22.799065,0.0,0.001807,-0.129304,28.768385,28.652069,30.243774,90.28685,22.821201,0.0,0.021582,0.012839,28.657015,28.685801,1.028,1.029,-63617.0,-145286.0,-412178.0,0.0,141786.0,141676.0,-145019.0,138607.0,-60642.0,-140418.0,-417313.0,0.0,-143245.0,-143379.0,140109.0,-146099.0,0.0,0.0,0.0,0.0,0.0,0.0,0.0,0.0,0.0,0.0,0.0,-0.176481,0.0,0.0,0.0,0.0,0.0,0.0,0.0,0.0,0.0,0.0,0.0,-0.176481
28,1.728511095046997,0.526658,1.577669,0.398,0.0,-0.001436,-0.005403,0.517324,0.511243,0.527546,1.576041,0.398441,0.0,-0.00038,0.001693,0.521176,0.507564,3.0,1.0,111.0,0.0,1.0,-79627.0,-26251.0,13974.0,-79239.0,26083.0,13815.0,-0.934866,-0.218835,0.27953,-0.313567,0.139854,-0.939211,0.166439,-0.965688,-0.199364,-0.938937,0.209304,0.273111,0.306133,0.145749,0.940766,0.1571,0.966928,-0.200924,-0.934866,-0.218835,0.27953,-0.313567,0.139854,-0.939211,0.166439,-0.965688,-0.199364,-0.938937,0.209304,0.273111,0.306133,0.145749,0.940766,0.1571,0.966928,-0.200924,-79627.0,-26251.0,13974.0,-79239.0,26083.0,13815.0,17953.0,17306.0,-157910.0,0.0,-54213.0,-54349.0,-53921.0,-54445.0,-14901.0,-12554.0,153372.0,0.0,52953.0,52830.0,53102.0,53001.0,-20.0,211.0,53.0,0.0,264.0,19.0,542.0,-561.0,-3.0,-187.0,-117.0,0.0,-325.0,28.0,752.0,-909.0,0.005497,-0.057293,-0.014375,0.0,0.00969,0.000697,-0.019846,-0.020552,-0.001062,-0.050837,-0.031852,0.0,-0.011922,0.001054,-0.027552,-0.033297,4109.760254,11518.200195,51307.921875,0.0,-17639.910156,-17642.25,17904.601562,-17374.681641,4116.69043,11507.760742,51361.652344,0.0,17657.820312,17658.810547,-17388.990234,17919.0,0.0,0.0,0.0,0.0,0.0,0.0,0.0,0.0,0.0,0.0,0.0,0.0,0.0,0.0,0.0,0.0,0.0,0.0,0.0,0.0,0.0,0.0,0.0,0.0,0.0,0.0,0.0,0.0,0.0,0.0,0.0,0.0,4113.36377,11515.650391,51297.832031,0.0,-17639.455078,-17640.628906,17897.570312,-17381.246094,4119.088867,11506.415039,51344.886719,0.0,17658.054688,17658.052734,-17400.197266,17915.820312,30.201736,90.368958,22.799065,0.0,0.001807,-0.129304,28.768385,28.652069,30.243774,90.28685,22.821201,0.0,0.021582,0.012839,28.657015,28.685801,1.028,1.028,-63617.0,-145286.0,-412178.0,0.0,141786.0,141676.0,-145019.0,138607.0,-60642.0,-140418.0,-417313.0,0.0,-143245.0,-143379.0,140109.0,-146099.0,0.0,0.0,0.0,0.0,0.0,0.0,0.0,0.0,0.0,0.0,0.0,0.0,0.0,0.0,0.0,0.0,0.0,0.0,0.0,0.0,0.0,0.0,0.0,0.0
29,1.7494800090789795,0.526658,1.577669,0.398,0.0,-0.001436,-0.005403,0.516975,0.51107,0.527546,1.576041,0.398441,0.0,-0.00038,0.001693,0.520827,0.507564,3.0,1.0,111.0,0.0,1.0,-79627.0,-26251.0,13974.0,-79239.0,26083.0,13815.0,-0.934885,-0.218752,0.27953,-0.313554,0.139881,-0.939211,0.166353,-0.965702,-0.199364,-0.9389,0.209468,0.273111,0.306159,0.145696,0.940766,0.157269,0.9669,-0.200924,-0.934885,-0.218752,0.27953,-0.313554,0.139881,-0.939211,0.166353,-0.965702,-0.199364,-0.9389,0.209468,0.273111,0.306159,0.145696,0.940766,0.157269,0.9669,-0.200924,-79627.0,-26251.0,13974.0,-79239.0,26083.0,13815.0,17953.0,17306.0,-157910.0,0.0,-54213.0,-54349.0,-53919.0,-54446.0,-14901.0,-12554.0,153372.0,0.0,52953.0,52830.0,53104.0,53001.0,-20.0,211.0,53.0,0.0,265.0,19.0,541.0,-562.0,-3.0,-187.0,-117.0,0.0,-325.0,28.0,754.0,-911.0,0.005497,-0.057293,-0.014375,0.0,0.009698,0.000726,-0.019816,-0.020594,-0.001062,-0.050837,-0.031852,0.0,-0.011918,0.00104,-0.027599,-0.033356,4109.760254,11518.200195,51307.921875,0.0,-17639.910156,-17642.25,17904.419922,-17374.769531,4116.69043,11507.760742,51361.652344,0.0,17657.820312,17658.810547,-17389.171875,17919.0,0.0,0.0,0.0,0.0,0.0,0.0,0.0,0.0,0.0,0.0,0.0,0.0,0.0,0.0,0.0,0.0,0.0,0.0,0.0,0.0,0.0,0.0,0.0,0.0,0.0,0.0,0.0,0.0,0.0,0.0,0.0,0.0,4113.36377,11515.650391,51297.832031,0.0,-17639.455078,-17640.628906,17897.570312,-17381.246094,4119.088867,11506.415039,51344.886719,0.0,17658.054688,17658.052734,-17400.197266,17915.820312,30.201736,90.368958,22.799065,0.0,0.001807,-0.129304,28.768385,28.652069,30.243774,90.28685,22.821201,0.0,0.021582,0.012839,28.657015,28.685801,1.028,1.028,-63617.0,-145286.0,-412178.0,0.0,141786.0,141676.0,-145019.0,138607.0,-60642.0,-140418.0,-417313.0,0.0,-143245.0,-143379.0,140109.0,-146099.0,0.0,0.0,0.0,0.0,0.0,0.0,0.0,0.0,0.0,0.0,0.0,0.0,0.0,0.0,0.0,0.0,0.0,0.0,0.0,0.0,0.0,0.0,0.0,0.0
30,1.769481897354126,0.526658,1.577669,0.398,0.0,-0.001436,-0.005403,0.516802,0.510894,0.527546,1.576041,0.398441,0.0,-0.00038,0.001693,0.520654,0.507391,3.0,1.0,111.0,0.0,1.0,-79627.0,-26251.0,13974.0,-79239.0,26083.0,13815.0,-0.934885,-0.218754,0.27953,-0.313554,0.139881,-0.939211,0.166355,-0.965702,-0.199364,-0.9389,0.209468,0.273111,0.306159,0.145696,0.940766,0.157269,0.9669,-0.200924,-0.934885,-0.218754,0.27953,-0.313554,0.139881,-0.939211,0.166355,-0.965702,-0.199364,-0.9389,0.209468,0.273111,0.306159,0.145696,0.940766,0.157269,0.9669,-0.200924,-79627.0,-26251.0,13974.0,-79239.0,26083.0,13815.0,17953.0,17306.0,-157910.0,0.0,-54213.0,-54349.0,-53918.0,-54447.0,-14901.0,-12554.0,153372.0,0.0,52953.0,52830.0,53105.0,53000.0,-20.0,211.0,53.0,0.0,265.0,20.0,542.0,-563.0,-3.0,-187.0,-117.0,0.0,-325.0,28.0,757.0,-910.0,0.005497,-0.057293,-0.014375,0.0,0.009706,0.000755,-0.019857,-0.020627,-0.001062,-0.050837,-0.031852,0.0,-0.011914,0.001027,-0.027713,-0.033333,4109.760254,11518.200195,51307.921875,0.0,-17639.910156,-17642.25,17904.332031,-17374.861328,4116.69043,11507.760742,51361.652344,0.0,17657.820312,17658.810547,-17389.259766,17918.910156,0.0,0.0,0.0,0.0,0.0,0.0,0.0,0.0,0.0,0.0,0.0,0.0,0.0,0.0,0.0,0.0,0.0,0.0,0.0,0.0,0.0,0.0,0.0,0.0,0.0,0.0,0.0,0.0,0.0,0.0,0.0,0.0,4113.36377,11515.650391,51297.832031,0.0,-17639.455078,-17640.628906,17897.570312,-17381.246094,4119.088867,11506.415039,51344.886719,0.0,17658.054688,17658.052734,-17400.197266,17915.820312,30.201736,90.368958,22.799065,0.0,0.001807,-0.129304,28.768385,28.652069,30.243774,90.28685,22.821201,0.0,0.021582,0.012839,28.657015,28.685801,1.027,1.028,-63617.0,-145286.0,-412178.0,0.0,141786.0,141676.0,-145019.0,138607.0,-60642.0,-140418.0,-417313.0,0.0,-143245.0,-143379.0,140109.0,-146099.0,0.0,0.0,0.0,0.0,0.0,0.0,0.0,0.0,0.0,0.0,0.0,0.0,0.0,0.0,0.0,0.0,0.0,0.0,0.0,0.0,0.0,0.0,0.0,0.0
31,1.7904820442199707,0.526658,1.577669,0.398,0.0,-0.001436,-0.005403,0.516802,0.510721,0.527546,1.576041,0.398441,0.0,-0.00038,0.001693,0.520304,0.507391,3.0,1.0,111.0,0.0,1.0,-79627.0,-26251.0,13974.0,-79239.0,26083.0,13815.0,-0.934866,-0.218835,0.27953,-0.313567,0.139854,-0.939211,0.166439,-0.965688,-0.199364,-0.938863,0.209632,0.273111,0.306184,0.145642,0.940766,0.157438,0.966873,-0.200924,-0.934866,-0.218835,0.27953,-0.313567,0.139854,-0.939211,0.166439,-0.965688,-0.199364,-0.938863,0.209632,0.273111,0.306184,0.145642,0.940766,0.157438,0.966873,-0.200924,-79627.0,-26251.0,13974.0,-79239.0,26083.0,13815.0,17953.0,17306.0,-157910.0,0.0,-54213.0,-54349.0,-53918.0,-54448.0,-14901.0,-12554.0,153372.0,0.0,52953.0,52830.0,53107.0,53000.0,-20.0,211.0,53.0,0.0,265.0,21.0,546.0,-564.0,-3.0,-187.0,-117.0,0.0,-325.0,27.0,758.0,-912.0,0.005497,-0.057293,-0.014375,0.0,0.009714,0.000784,-0.019981,-0.020666,-0.001062,-0.050837,-0.031852,0.0,-0.011909,0.001013,-0.027754,-0.033389,4109.760254,11518.200195,51307.921875,0.0,-17639.910156,-17642.25,17904.332031,-17374.951172,4116.69043,11507.760742,51361.652344,0.0,17657.820312,17658.810547,-17389.441406,17918.910156,0.0,0.0,0.0,0.0,0.0,0.0,0.0,0.0,0.0,0.0,0.0,0.0,0.0,0.0,0.0,0.0,0.0,0.0,0.0,0.0,0.0,0.0,0.0,0.0,0.0,0.0,0.0,0.0,0.0,0.0,0.0,0.0,4113.36377,11515.650391,51297.832031,0.0,-17639.455078,-17640.628906,17897.570312,-17381.246094,4119.088867,11506.415039,51344.886719,0.0,17658.054688,17658.052734,-17400.197266,17915.820312,30.201736,90.368958,22.799065,0.0,0.001807,-0.129304,28.768385,28.652069,30.243774,90.28685,22.821201,0.0,0.021582,0.012839,28.657015,28.685801,1.027,1.027,-63617.0,-145286.0,-412178.0,0.0,141786.0,141676.0,-145019.0,138607.0,-60642.0,-140418.0,-417313.0,0.0,-143245.0,-143379.0,140109.0,-146099.0,0.0,0.0,0.0,0.0,0.0,0.0,0.0,0.0,0.0,0.0,0.0,0.0,0.0,0.0,0.0,0.0,0.0,0.0,0.0,0.0,0.0,0.0,0.0,0.0
32,1.8104770183563232,0.526658,1.577669,0.398,0.0,-0.001436,-0.005403,0.516625,0.510721,0.527546,1.576041,0.398441,0.0,-0.00038,0.001693,0.519955,0.507215,3.0,1.0,111.0,0.0,1.0,-79627.0,-26251.0,13974.0,-79239.0,26083.0,13815.0,-0.934885,-0.218752,0.27953,-0.313554,0.139881,-0.939211,0.166353,-0.965702,-0.199364,-0.938845,0.209713,0.273111,0.306197,0.145616,0.940766,0.157522,0.966859,-0.200924,-0.934885,-0.218752,0.27953,-0.313554,0.139881,-0.939211,0.166353,-0.965702,-0.199364,-0.938845,0.209713,0.273111,0.306197,0.145616,0.940766,0.157522,0.966859,-0.200924,-79627.0,-26251.0,13974.0,-79239.0,26083.0,13815.0,17953.0,17306.0,-157910.0,0.0,-54213.0,-54349.0,-53917.0,-54448.0,-14901.0,-12554.0,153372.0,0.0,52953.0,52830.0,53109.0,52999.0,-20.0,211.0,53.0,0.0,265.0,22.0,547.0,-567.0,-3.0,-187.0,-117.0,0.0,-325.0,27.0,759.0,-911.0,0.005497,-0.057293,-0.014375,0.0,0.009722,0.000813,-0.020019,-0.020776,-0.001062,-0.050837,-0.031852,0.0,-0.011905,0.001,-0.027784,-0.033363,4109.760254,11518.200195,51307.921875,0.0,-17639.910156,-17642.25,17904.240234,-17374.951172,4116.69043,11507.760742,51361.652344,0.0,17657.820312,17658.810547,-17389.621094,17918.820312,0.0,0.0,0.0,0.0,0.0,0.0,0.0,0.0,0.0,0.0,0.0,0.0,0.0,0.0,0.0,0.0,0.0,0.0,0.0,0.0,0.0,0.0,0.0,0.0,0.0,0.0,0.0,0.0,0.0,0.0,0.0,0.0,4113.36377,11515.650391,51297.832031,0.0,-17639.455078,-17640.628906,17897.570312,-17381.246094,4119.088867,11506.415039,51344.886719,0.0,17658.054688,17658.052734,-17400.197266,17915.820312,30.201736,90.368958,22.799065,0.0,0.001807,-0.129304,28.768385,28.652069,30.243774,90.28685,22.821201,0.0,0.021582,0.012839,28.657015,28.685801,1.027,1.027,-63617.0,-145286.0,-412178.0,0.0,141786.0,141676.0,-145019.0,138607.0,-60642.0,-140418.0,-417313.0,0.0,-143245.0,-143379.0,140109.0,-146099.0,0.0,0.0,0.0,0.0,0.0,0.0,0.0,0.0,0.0,0.0,0.0,0.0,0.0,0.0,0.0,0.0,0.0,0.0,0.0,0.0,0.0,0.0,0.0,0.0
33,1.830476999282837,0.526658,1.577669,0.398,0.0,-0.001436,-0.005403,0.516452,0.510544,0.527546,1.576041,0.398441,0.0,-0.00038,0.001693,0.519605,0.507215,3.0,1.0,111.0,0.0,1.0,-79627.0,-26251.0,13974.0,-79239.0,26083.0,13815.0,-0.934885,-0.218754,0.27953,-0.313554,0.139881,-0.939211,0.166355,-0.965702,-0.199364,-0.938809,0.209877,0.273111,0.306222,0.145562,0.940766,0.157691,0.966832,-0.200924,-0.934885,-0.218754,0.27953,-0.313554,0.139881,-0.939211,0.166355,-0.965702,-0.199364,-0.938809,0.209877,0.273111,0.306222,0.145562,0.940766,0.157691,0.966832,-0.200924,-79627.0,-26251.0,13974.0,-79239.0,26083.0,13815.0,17953.0,17306.0,-157910.0,0.0,-54213.0,-54349.0,-53916.0,-54449.0,-14901.0,-12554.0,153372.0,0.0,52953.0,52830.0,53111.0,52999.0,-20.0,211.0,53.0,0.0,265.0,22.0,548.0,-568.0,-3.0,-187.0,-117.0,0.0,-325.0,26.0,759.0,-913.0,0.005497,-0.057293,-0.014375,0.0,0.00973,0.000841,-0.020058,-0.020805,-0.001062,-0.050837,-0.031852,0.0,-0.011901,0.000987,-0.027809,-0.033415,4109.760254,11518.200195,51307.921875,0.0,-17639.910156,-17642.25,17904.150391,-17375.041016,4116.69043,11507.760742,51361.652344,0.0,17657.820312,17658.810547,-17389.800781,17918.820312,0.0,0.0,0.0,0.0,0.0,0.0,0.0,0.0,0.0,0.0,0.0,0.0,0.0,0.0,0.0,0.0,0.0,0.0,0.0,0.0,0.0,0.0,0.0,0.0,0.0,0.0,0.0,0.0,0.0,0.0,0.0,0.0,4113.36377,11515.650391,51297.832031,0.0,-17639.455078,-17640.628906,17897.570312,-17381.246094,4119.088867,11506.415039,51344.886719,0.0,17658.054688,17658.052734,-17400.197266,17915.820312,30.201736,90.368958,22.799065,0.0,0.001807,-0.129304,28.768385,28.652069,30.243774,90.28685,22.821201,0.0,0.021582,0.012839,28.657015,28.685801,1.026,1.026,-63617.0,-145286.0,-412178.0,0.0,141786.0,141676.0,-145019.0,138607.0,-60642.0,-140418.0,-417313.0,0.0,-143245.0,-143379.0,140109.0,-146099.0,0.0,0.0,0.0,0.0,0.0,0.0,0.0,0.0,0.0,0.0,0.0,0.0,0.0,0.0,0.0,0.0,0.0,0.0,0.0,0.0,0.0,0.0,0.0,0.0
34,1.8524839878082275,0.526658,1.577669,0.398,0.0,-0.001436,-0.005403,0.516276,0.510371,0.527546,1.576041,0.398441,0.0,-0.00038,0.001693,0.519432,0.507042,3.0,1.0,111.0,0.0,1.0,-79627.0,-26251.0,13974.0,-79239.0,26083.0,13815.0,-0.934885,-0.218752,0.27953,-0.313554,0.139881,-0.939211,0.166353,-0.965702,-0.199364,-0.938809,0.209877,0.273111,0.306222,0.145562,0.940766,0.157691,0.966832,-0.200924,-0.934885,-0.218752,0.27953,-0.313554,0.139881,-0.939211,0.166353,-0.965702,-0.199364,-0.938809,0.209877,0.273111,0.306222,0.145562,0.940766,0.157691,0.966832,-0.200924,-79627.0,-26251.0,13974.0,-79239.0,26083.0,13815.0,17953.0,17306.0,-157910.0,0.0,-54213.0,-54349.0,-53915.0,-54450.0,-14901.0,-12554.0,153372.0,0.0,52953.0,52830.0,53112.0,52998.0,-20.0,211.0,53.0,0.0,266.0,23.0,549.0,-569.0,-3.0,-187.0,-117.0,0.0,-325.0,26.0,763.0,-912.0,0.005497,-0.057293,-0.014375,0.0,0.009739,0.000872,-0.020104,-0.020845,-0.001062,-0.050837,-0.031852,0.0,-0.011897,0.000972,-0.02793,-0.033394,4109.760254,11518.200195,51307.921875,0.0,-17639.910156,-17642.25,17904.060547,-17375.130859,4116.69043,11507.760742,51361.652344,0.0,17657.820312,17658.810547,-17389.890625,17918.730469,0.0,0.0,0.0,0.0,0.0,0.0,0.0,0.0,0.0,0.0,0.0,0.0,0.0,0.0,0.0,0.0,0.0,0.0,0.0,0.0,0.0,0.0,0.0,0.0,0.0,0.0,0.0,0.0,0.0,0.0,0.0,0.0,4113.36377,11515.650391,51297.832031,0.0,-17639.455078,-17640.628906,17897.570312,-17381.246094,4119.088867,11506.415039,51344.886719,0.0,17658.054688,17658.052734,-17400.197266,17915.820312,30.201736,90.368958,22.799065,0.0,0.001807,-0.129304,28.768385,28.652069,30.243774,90.28685,22.821201,0.0,0.021582,0.012839,28.657015,28.685801,1.026,1.026,-63617.0,-145286.0,-412178.0,0.0,141786.0,141676.0,-145019.0,138607.0,-60642.0,-140418.0,-417313.0,0.0,-143245.0,-143379.0,140109.0,-146099.0,0.0,0.0,0.0,0.0,0.0,0.0,0.0,0.0,0.0,0.0,0.0,0.0,0.0,0.0,0.0,0.0,0.0,0.0,0.0,0.0,0.0,0.0,0.0,0.0
35,1.8734920024871826,0.526658,1.577669,0.398,0.0,-0.001436,-0.005403,0.515926,0.510198,0.527546,1.576041,0.398441,0.0,-0.00038,0.001693,0.519082,0.507042,3.0,1.0,111.0,0.0,1.0,-79627.0,-26251.0,13974.0,-79239.0,26083.0,13815.0,-0.934905,-0.21867,0.27953,-0.313542,0.139909,-0.939211,0.166268,-0.965717,-0.199364,-0.938772,0.210041,0.273111,0.306248,0.145509,0.940766,0.15786,0.966804,-0.200924,-0.934905,-0.21867,0.27953,-0.313542,0.139909,-0.939211,0.166268,-0.965717,-0.199364,-0.938772,0.210041,0.273111,0.306248,0.145509,0.940766,0.15786,0.966804,-0.200924,-79627.0,-26251.0,13974.0,-79239.0,26083.0,13815.0,17953.0,17306.0,-157910.0,0.0,-54213.0,-54349.0,-53913.0,-54451.0,-14901.0,-12554.0,153372.0,0.0,52953.0,52830.0,53114.0,52998.0,-20.0,211.0,53.0,0.0,266.0,24.0,548.0,-570.0,-3.0,-187.0,-117.0,0.0,-325.0,26.0,764.0,-914.0,0.005497,-0.057293,-0.014375,0.0,0.009747,0.000902,-0.020064,-0.020878,-0.001062,-0.050837,-0.031852,0.0,-0.011892,0.000958,-0.02796,-0.033448,4109.760254,11518.200195,51307.921875,0.0,-17639.910156,-17642.25,17903.880859,-17375.21875,4116.69043,11507.760742,51361.652344,0.0,17657.820312,17658.810547,-17390.070312,17918.730469,0.0,0.0,0.0,0.0,0.0,0.0,0.0,0.0,0.0,0.0,0.0,0.0,0.0,0.0,0.0,0.0,0.0,0.0,0.0,0.0,0.0,0.0,0.0,0.0,0.0,0.0,0.0,0.0,0.0,0.0,0.0,0.0,4113.36377,11515.650391,51297.832031,0.0,-17639.455078,-17640.628906,17897.570312,-17381.246094,4119.088867,11506.415039,51344.886719,0.0,17658.054688,17658.052734,-17400.197266,17915.820312,30.201736,90.368958,22.799065,0.0,0.001807,-0.129304,28.768385,28.652069,30.243774,90.28685,22.821201,0.0,0.021582,0.012839,28.657015,28.685801,1.026,1.026,-63617.0,-145286.0,-412178.0,0.0,141786.0,141676.0,-145019.0,138607.0,-60642.0,-140418.0,-417313.0,0.0,-143245.0,-143379.0,140109.0,-146099.0,0.0,0.0,0.0,0.0,0.0,0.0,0.0,0.0,0.0,0.0,0.0,0.0,0.0,0.0,0.0,0.0,0.0,0.0,0.0,0.0,0.0,0.0,0.0,0.0
36,1.893517017364502,0.526658,1.577669,0.398,0.0,-0.001436,-0.005403,0.515926,0.509848,0.527546,1.576041,0.398441,0.0,-0.00038,0.001693,0.518733,0.506869,3.0,1.0,111.0,0.0,1.0,-79627.0,-26251.0,13974.0,-79239.0,26083.0,13815.0,-0.934866,-0.218833,0.27953,-0.313566,0.139854,-0.939211,0.166437,-0.965688,-0.199364,-0.938753,0.210124,0.273111,0.30626,0.145482,0.940766,0.157945,0.96679,-0.200924,-0.934866,-0.218833,0.27953,-0.313566,0.139854,-0.939211,0.166437,-0.965688,-0.199364,-0.938753,0.210124,0.273111,0.30626,0.145482,0.940766,0.157945,0.96679,-0.200924,-79627.0,-26251.0,13974.0,-79239.0,26083.0,13815.0,17953.0,17306.0,-157910.0,0.0,-54213.0,-54349.0,-53913.0,-54453.0,-14901.0,-12554.0,153372.0,0.0,52953.0,52830.0,53116.0,52997.0,-20.0,211.0,53.0,0.0,266.0,25.0,551.0,-569.0,-3.0,-187.0,-117.0,0.0,-324.0,25.0,764.0,-913.0,0.005497,-0.057293,-0.014375,0.0,0.009755,0.00093,-0.020174,-0.020824,-0.001062,-0.050837,-0.031852,0.0,-0.011888,0.000945,-0.027978,-0.03342,4109.760254,11518.200195,51307.921875,0.0,-17639.910156,-17642.25,17903.880859,-17375.400391,4116.69043,11507.760742,51361.652344,0.0,17657.820312,17658.810547,-17390.25,17918.640625,0.0,0.0,0.0,0.0,0.0,0.0,0.0,-89.174942,0.0,0.0,0.0,0.0,0.0,0.0,-89.174942,0.0,0.0,0.0,0.0,0.0,0.0,0.0,0.0,-0.173088,0.0,0.0,0.0,0.0,0.0,0.0,-0.173088,0.0,4113.36377,11515.650391,51297.832031,0.0,-17639.455078,-17640.628906,17897.570312,-17381.246094,4119.088867,11506.415039,51344.886719,0.0,17658.054688,17658.052734,-17400.197266,17915.820312,30.201736,90.368958,22.799065,0.0,0.001807,-0.129304,28.768385,28.652069,30.243774,90.28685,22.821201,0.0,0.021582,0.012839,28.657015,28.685801,1.025,1.025,-63617.0,-145286.0,-412178.0,0.0,141786.0,141676.0,-145019.0,138607.0,-60642.0,-140418.0,-417313.0,0.0,-143245.0,-143379.0,140109.0,-146099.0,0.0,0.0,0.0,0.0,0.0,0.0,0.0,0.0,0.0,0.0,0.0,-0.173088,0.0,0.0,0.0,0.0,0.0,0.0,0.0,0.0,0.0,0.0,0.0,-0.173088
37,1.9144790172576904,0.526658,1.577669,0.398,0.0,-0.001436,-0.005403,0.515753,0.509672,0.527546,1.576041,0.398441,0.0,-0.00038,0.001693,0.518383,0.506869,3.0,1.0,111.0,0.0,1.0,-79627.0,-26251.0,13974.0,-79239.0,26083.0,13815.0,-0.934866,-0.218835,0.27953,-0.313567,0.139854,-0.939211,0.166439,-0.965688,-0.199364,-0.938717,0.210288,0.273111,0.306286,0.145428,0.940766,0.158114,0.966762,-0.200924,-0.934866,-0.218835,0.27953,-0.313567,0.139854,-0.939211,0.166439,-0.965688,-0.199364,-0.938717,0.210288,0.273111,0.306286,0.145428,0.940766,0.158114,0.966762,-0.200924,-79627.0,-26251.0,13974.0,-79239.0,26083.0,13815.0,17953.0,17306.0,-157910.0,0.0,-54213.0,-54349.0,-53912.0,-54454.0,-14901.0,-12554.0,153372.0,0.0,52953.0,52830.0,53118.0,52997.0,-20.0,211.0,53.0,0.0,266.0,26.0,552.0,-569.0,-3.0,-187.0,-117.0,0.0,-324.0,25.0,765.0,-914.0,0.005497,-0.057293,-0.014375,0.0,0.009763,0.00096,-0.02021,-0.020852,-0.001062,-0.050837,-0.031852,0.0,-0.011884,0.000931,-0.028002,-0.033471,4109.760254,11518.200195,51307.921875,0.0,-17639.910156,-17642.25,17903.791016,-17375.490234,4116.69043,11507.760742,51361.652344,0.0,17657.820312,17658.810547,-17390.429688,17918.640625,0.0,0.0,0.0,0.0,0.0,0.0,0.0,0.0,0.0,0.0,0.0,0.0,0.0,0.0,0.0,0.0,0.0,0.0,0.0,0.0,0.0,0.0,0.0,0.0,0.0,0.0,0.0,0.0,0.0,0.0,0.0,0.0,4113.36377,11515.650391,51297.832031,0.0,-17639.455078,-17640.628906,17897.570312,-17381.246094,4119.088867,11506.415039,51344.886719,0.0,17658.054688,17658.052734,-17400.197266,17915.820312,30.201736,90.368958,22.799065,0.0,0.001807,-0.129304,28.768385,28.652069,30.243774,90.28685,22.821201,0.0,0.021582,0.012839,28.657015,28.685801,1.025,1.025,-63617.0,-145286.0,-412178.0,0.0,141786.0,141676.0,-145019.0,138607.0,-60642.0,-140418.0,-417313.0,0.0,-143245.0,-143379.0,140109.0,-146099.0,0.0,0.0,0.0,0.0,0.0,0.0,0.0,0.0,0.0,0.0,0.0,0.0,0.0,0.0,0.0,0.0,0.0,0.0,0.0,0.0,0.0,0.0,0.0,0.0
38,1.9344100952148438,0.526658,1.577669,0.398,0.0,-0.001436,-0.005403,0.515577,0.509499,0.527546,1.576041,0.398441,0.0,-0.00038,0.001693,0.518207,0.506692,3.0,1.0,111.0,0.0,1.0,-79627.0,-26251.0,13974.0,-79239.0,26083.0,13815.0,-0.934866,-0.218833,0.27953,-0.313566,0.139854,-0.939211,0.166437,-0.965688,-0.199364,-0.938717,0.210288,0.273111,0.306286,0.145428,0.940766,0.158114,0.966762,-0.200924,-0.934866,-0.218833,0.27953,-0.313566,0.139854,-0.939211,0.166437,-0.965688,-0.199364,-0.938717,0.210288,0.273111,0.306286,0.145428,0.940766,0.158114,0.966762,-0.200924,-79627.0,-26251.0,13974.0,-79239.0,26083.0,13815.0,17953.0,17306.0,-157910.0,0.0,-54213.0,-54349.0,-53911.0,-54455.0,-14901.0,-12554.0,153372.0,0.0,52953.0,52830.0,53119.0,52996.0,-20.0,211.0,53.0,0.0,267.0,26.0,553.0,-570.0,-3.0,-187.0,-117.0,0.0,-324.0,25.0,767.0,-913.0,0.005497,-0.057293,-0.014375,0.0,0.009771,0.000988,-0.020239,-0.020874,-0.001062,-0.050837,-0.031852,0.0,-0.01188,0.000918,-0.028093,-0.033441,4109.760254,11518.200195,51307.921875,0.0,-17639.910156,-17642.25,17903.699219,-17375.580078,4116.69043,11507.760742,51361.652344,0.0,17657.820312,17658.810547,-17390.521484,17918.550781,0.0,0.0,0.0,0.0,0.0,0.0,0.0,0.0,0.0,0.0,0.0,0.0,0.0,0.0,0.0,0.0,0.0,0.0,0.0,0.0,0.0,0.0,0.0,0.0,0.0,0.0,0.0,0.0,0.0,0.0,0.0,0.0,4113.36377,11515.650391,51297.832031,0.0,-17639.455078,-17640.628906,17897.570312,-17381.246094,4119.088867,11506.415039,51344.886719,0.0,17658.054688,17658.052734,-17400.197266,17915.820312,30.201736,90.368958,22.799065,0.0,0.001807,-0.129304,28.768385,28.652069,30.243774,90.28685,22.821201,0.0,0.021582,0.012839,28.657015,28.685801,1.025,1.024,-63617.0,-145286.0,-412178.0,0.0,141786.0,141676.0,-145019.0,138607.0,-60642.0,-140418.0,-417313.0,0.0,-143245.0,-143379.0,140109.0,-146099.0,0.0,0.0,0.0,0.0,0.0,0.0,0.0,0.0,0.0,0.0,0.0,0.0,0.0,0.0,0.0,0.0,0.0,0.0,0.0,0.0,0.0,0.0,0.0,0.0
39,1.9545021057128906,0.526658,1.577669,0.398,0.0,-0.001436,-0.005403,0.515403,0.509322,0.527546,1.576041,0.398441,0.0,-0.00038,0.001693,0.517857,0.506692,3.0,1.0,111.0,0.0,1.0,-79627.0,-26251.0,13974.0,-79239.0,26083.0,13815.0,-0.934866,-0.218835,0.27953,-0.313567,0.139854,-0.939211,0.166439,-0.965688,-0.199364,-0.93868,0.210452,0.273111,0.306311,0.145374,0.940766,0.158283,0.966735,-0.200924,-0.934866,-0.218835,0.27953,-0.313567,0.139854,-0.939211,0.166439,-0.965688,-0.199364,-0.93868,0.210452,0.273111,0.306311,0.145374,0.940766,0.158283,0.966735,-0.200924,-79627.0,-26251.0,13974.0,-79239.0,26083.0,13815.0,17953.0,17306.0,-157910.0,0.0,-54213.0,-54349.0,-53910.0,-54456.0,-14901.0,-12554.0,153372.0,0.0,52953.0,52830.0,53121.0,52996.0,-20.0,211.0,53.0,0.0,267.0,27.0,553.0,-570.0,-3.0,-187.0,-117.0,0.0,-324.0,24.0,767.0,-915.0,0.005497,-0.057293,-0.014375,0.0,0.009779,0.001016,-0.020267,-0.020893,-0.001062,-0.050837,-0.031852,0.0,-0.011876,0.000905,-0.028102,-0.033489,4109.760254,11518.200195,51307.921875,0.0,-17639.910156,-17642.25,17903.611328,-17375.669922,4116.69043,11507.760742,51361.652344,0.0,17657.820312,17658.810547,-17390.701172,17918.550781,0.0,0.0,0.0,0.0,0.0,0.0,0.0,0.0,0.0,0.0,0.0,0.0,0.0,0.0,0.0,0.0,0.0,0.0,0.0,0.0,0.0,0.0,0.0,0.0,0.0,0.0,0.0,0.0,0.0,0.0,0.0,0.0,4113.36377,11515.650391,51297.832031,0.0,-17639.455078,-17640.628906,17897.570312,-17381.246094,4119.088867,11506.415039,51344.886719,0.0,17658.054688,17658.052734,-17400.197266,17915.820312,30.201736,90.368958,22.799065,0.0,0.001807,-0.129304,28.768385,28.652069,30.243774,90.28685,22.821201,0.0,0.021582,0.012839,28.657015,28.685801,1.024,1.024,-63617.0,-145286.0,-412178.0,0.0,141786.0,141676.0,-145019.0,138607.0,-60642.0,-140418.0,-417313.0,0.0,-143245.0,-143379.0,140109.0,-146099.0,0.0,0.0,0.0,0.0,0.0,0.0,0.0,0.0,0.0,0.0,0.0,0.0,0.0,0.0,0.0,0.0,0.0,0.0,0.0,0.0,0.0,0.0,0.0,0.0
40,1.9764769077301025,0.526658,1.577669,0.398,0.0,-0.001436,-0.005403,0.515227,0.509149,0.527546,1.576041,0.398441,0.0,-0.00038,0.001693,0.517334,0.506519,3.0,1.0,111.0,0.0,1.0,-79627.0,-26251.0,13974.0,-79239.0,26083.0,13815.0,-0.934866,-0.218833,0.27953,-0.313566,0.139854,-0.939211,0.166437,-0.965688,-0.199364,-0.938643,0.210616,0.273111,0.306337,0.145321,0.940766,0.158452,0.966707,-0.200924,-0.934866,-0.218833,0.27953,-0.313566,0.139854,-0.939211,0.166437,-0.965688,-0.199364,-0.938643,0.210616,0.273111,0.306337,0.145321,0.940766,0.158452,0.966707,-0.200924,-79627.0,-26251.0,13974.0,-79239.0,26083.0,13815.0,17953.0,17306.0,-157910.0,0.0,-54213.0,-54349.0,-53909.0,-54457.0,-14901.0,-12554.0,153372.0,0.0,52953.0,52830.0,53124.0,52995.0,-20.0,211.0,53.0,0.0,267.0,28.0,554.0,-571.0,-3.0,-187.0,-117.0,0.0,-324.0,24.0,766.0,-914.0,0.005497,-0.057293,-0.014375,0.0,0.009788,0.001047,-0.020303,-0.020921,-0.001062,-0.050837,-0.031852,0.0,-0.011871,0.00089,-0.028047,-0.033463,4109.760254,11518.200195,51307.921875,0.0,-17639.910156,-17642.25,17903.519531,-17375.759766,4116.69043,11507.760742,51361.652344,0.0,17657.820312,17658.810547,-17390.970703,17918.460938,0.0,0.0,0.0,0.0,0.0,0.0,0.0,0.0,0.0,0.0,0.0,0.0,0.0,0.0,0.0,-89.174942,0.0,0.0,0.0,0.0,0.0,0.0,0.0,0.0,0.0,0.0,0.0,0.0,0.0,0.0,0.0,-0.173088,4113.36377,11515.650391,51297.832031,0.0,-17639.455078,-17640.628906,17897.570312,-17381.246094,4119.088867,11506.415039,51344.886719,0.0,17658.054688,17658.052734,-17400.197266,17915.820312,30.201736,90.368958,22.799065,0.0,0.001807,-0.129304,28.768385,28.652069,30.243774,90.28685,22.821201,0.0,0.021582,0.012839,28.657015,28.685801,1.024,1.023,-63617.0,-145286.0,-412178.0,0.0,141786.0,141676.0,-145019.0,138607.0,-60642.0,-140418.0,-417313.0,0.0,-143245.0,-143379.0,140109.0,-146099.0,0.0,0.0,0.0,0.0,0.0,0.0,0.0,0.0,0.0,0.0,0.0,0.0,0.0,0.0,0.0,0.0,0.0,0.0,0.0,0.0,0.0,0.0,0.0,0.0
41,1.9964818954467773,0.526658,1.577669,0.398,0.0,-0.001436,-0.005403,0.515227,0.5088,0.527546,1.576041,0.398441,0.0,-0.00038,0.001693,0.516985,0.506519,3.0,1.0,111.0,0.0,1.0,-79627.0,-26251.0,13974.0,-79239.0,26083.0,13815.0,-0.934828,-0.218996,0.27953,-0.313591,0.139799,-0.939211,0.166606,-0.965659,-0.199364,-0.938606,0.21078,0.273111,0.306362,0.145267,0.940766,0.158621,0.966679,-0.200924,-0.934828,-0.218996,0.27953,-0.313591,0.139799,-0.939211,0.166606,-0.965659,-0.199364,-0.938606,0.21078,0.273111,0.306362,0.145267,0.940766,0.158621,0.966679,-0.200924,-79627.0,-26251.0,13974.0,-79239.0,26083.0,13815.0,17953.0,17306.0,-157910.0,0.0,-54213.0,-54349.0,-53909.0,-54459.0,-14901.0,-12554.0,153372.0,0.0,52953.0,52830.0,53126.0,52995.0,-20.0,211.0,53.0,0.0,267.0,29.0,557.0,-570.0,-3.0,-187.0,-117.0,0.0,-324.0,23.0,766.0,-915.0,0.005497,-0.057293,-0.014375,0.0,0.009796,0.001076,-0.020407,-0.020858,-0.001062,-0.050837,-0.031852,0.0,-0.011867,0.000877,-0.028049,-0.033509,4109.760254,11518.200195,51307.921875,0.0,-17639.910156,-17642.25,17903.519531,-17375.939453,4116.69043,11507.760742,51361.652344,0.0,17657.820312,17658.810547,-17391.150391,17918.460938,0.0,0.0,0.0,0.0,0.0,0.0,0.0,-89.174942,0.0,0.0,0.0,0.0,0.0,0.0,0.0,0.0,0.0,0.0,0.0,0.0,0.0,0.0,0.0,-0.173088,0.0,0.0,0.0,0.0,0.0,0.0,0.0,0.0,4113.36377,11515.650391,51297.832031,0.0,-17639.455078,-17640.628906,17897.570312,-17381.246094,4119.088867,11506.415039,51344.886719,0.0,17658.054688,17658.052734,-17400.197266,17915.820312,30.201736,90.368958,22.799065,0.0,0.001807,-0.129304,28.768385,28.652069,30.243774,90.28685,22.821201,0.0,0.021582,0.012839,28.657015,28.685801,1.024,1.023,-63617.0,-145286.0,-412178.0,0.0,141786.0,141676.0,-145019.0,138607.0,-60642.0,-140418.0,-417313.0,0.0,-143245.0,-143379.0,140109.0,-146099.0,0.0,0.0,0.0,0.0,0.0,0.0,0.0,0.0,0.0,0.0,0.0,0.0,0.0,0.0,0.0,0.0,0.0,0.0,0.0,0.0,0.0,0.0,0.0,0.0
42,2.0175158977508545,0.526658,1.577669,0.398,0.0,-0.001436,-0.005403,0.515054,0.508623,0.527546,1.576041,0.398441,0.0,-0.00038,0.001693,0.516812,0.506343,3.0,1.0,111.0,0.0,1.0,-79627.0,-26251.0,13974.0,-79239.0,26083.0,13815.0,-0.934828,-0.218998,0.27953,-0.313591,0.139799,-0.939211,0.166607,-0.965658,-0.199364,-0.938607,0.210779,0.273111,0.306362,0.145268,0.940766,0.158619,0.96668,-0.200924,-0.934828,-0.218998,0.27953,-0.313591,0.139799,-0.939211,0.166607,-0.965658,-0.199364,-0.938607,0.210779,0.273111,0.306362,0.145268,0.940766,0.158619,0.96668,-0.200924,-79627.0,-26251.0,13974.0,-79239.0,26083.0,13815.0,17953.0,17306.0,-157910.0,0.0,-54213.0,-54349.0,-53908.0,-54460.0,-14901.0,-12554.0,153372.0,0.0,52953.0,52830.0,53127.0,52994.0,-20.0,211.0,53.0,0.0,267.0,30.0,558.0,-570.0,-3.0,-187.0,-117.0,0.0,-324.0,23.0,768.0,-914.0,0.005497,-0.057293,-0.014375,0.0,0.009804,0.001105,-0.020438,-0.020876,-0.001062,-0.050837,-0.031852,0.0,-0.011863,0.000863,-0.028136,-0.033478,4109.760254,11518.200195,51307.921875,0.0,-17639.910156,-17642.25,17903.431641,-17376.03125,4116.69043,11507.760742,51361.652344,0.0,17657.820312,17658.810547,-17391.240234,17918.371094,0.0,0.0,0.0,0.0,0.0,0.0,0.0,0.0,0.0,0.0,0.0,0.0,0.0,0.0,0.0,0.0,0.0,0.0,0.0,0.0,0.0,0.0,0.0,0.0,0.0,0.0,0.0,0.0,0.0,0.0,0.0,0.0,4113.36377,11515.650391,51297.832031,0.0,-17639.455078,-17640.628906,17897.570312,-17381.246094,4119.088867,11506.415039,51344.886719,0.0,17658.054688,17658.052734,-17400.197266,17915.820312,30.201736,90.368958,22.799065,0.0,0.001807,-0.129304,28.768385,28.652069,30.243774,90.28685,22.821201,0.0,0.021582,0.012839,28.657015,28.685801,1.023,1.023,-63617.0,-145286.0,-412178.0,0.0,141786.0,141676.0,-145019.0,138607.0,-60642.0,-140418.0,-417313.0,0.0,-143245.0,-143379.0,140109.0,-146099.0,0.0,0.0,0.0,0.0,0.0,0.0,0.0,0.0,0.0,0.0,0.0,0.0,0.0,0.0,0.0,0.0,0.0,0.0,0.0,0.0,0.0,0.0,0.0,0.0
43,2.038470983505249,0.526658,1.577669,0.398,0.0,-0.001436,-0.005403,0.515054,0.50845,0.527546,1.576041,0.398441,0.0,-0.00038,0.001693,0.516462,0.506343,3.0,1.0,111.0,0.0,1.0,-79627.0,-26251.0,13974.0,-79239.0,26083.0,13815.0,-0.934809,-0.219079,0.27953,-0.313603,0.139772,-0.939211,0.166691,-0.965644,-0.199364,-0.93857,0.210943,0.273111,0.306387,0.145214,0.940766,0.158788,0.966652,-0.200924,-0.934809,-0.219079,0.27953,-0.313603,0.139772,-0.939211,0.166691,-0.965644,-0.199364,-0.93857,0.210943,0.273111,0.306387,0.145214,0.940766,0.158788,0.966652,-0.200924,-79627.0,-26251.0,13974.0,-79239.0,26083.0,13815.0,17953.0,17306.0,-157910.0,0.0,-54213.0,-54349.0,-53908.0,-54461.0,-14901.0,-12554.0,153372.0,0.0,52953.0,52830.0,53129.0,52994.0,-20.0,211.0,53.0,0.0,268.0,31.0,561.0,-570.0,-3.0,-187.0,-117.0,0.0,-324.0,23.0,769.0,-916.0,0.005497,-0.057293,-0.014375,0.0,0.009813,0.001135,-0.020545,-0.020893,-0.001062,-0.050837,-0.031852,0.0,-0.011859,0.000849,-0.028141,-0.033524,4109.760254,11518.200195,51307.921875,0.0,-17639.910156,-17642.25,17903.431641,-17376.121094,4116.69043,11507.760742,51361.652344,0.0,17657.820312,17658.810547,-17391.419922,17918.371094,0.0,0.0,0.0,0.0,0.0,0.0,0.0,0.0,0.0,0.0,0.0,0.0,0.0,0.0,0.0,0.0,0.0,0.0,0.0,0.0,0.0,0.0,0.0,0.0,0.0,0.0,0.0,0.0,0.0,0.0,0.0,0.0,4113.36377,11515.650391,51297.832031,0.0,-17639.455078,-17640.628906,17897.570312,-17381.246094,4119.088867,11506.415039,51344.886719,0.0,17658.054688,17658.052734,-17400.197266,17915.820312,30.201736,90.368958,22.799065,0.0,0.001807,-0.129304,28.768385,28.652069,30.243774,90.28685,22.821201,0.0,0.021582,0.012839,28.657015,28.685801,1.023,1.022,-63617.0,-145286.0,-412178.0,0.0,141786.0,141676.0,-145019.0,138607.0,-60642.0,-140418.0,-417313.0,0.0,-143245.0,-143379.0,140109.0,-146099.0,0.0,0.0,0.0,0.0,0.0,0.0,0.0,0.0,0.0,0.0,0.0,0.0,0.0,0.0,0.0,0.0,0.0,0.0,0.0,0.0,0.0,0.0,0.0,0.0
44,2.0585250854492188,0.526658,1.577669,0.398,0.0,-0.001436,-0.005403,0.514877,0.508274,0.527546,1.576041,0.398441,0.0,-0.00038,0.001693,0.516113,0.50617,3.0,1.0,111.0,0.0,1.0,-79627.0,-26251.0,13974.0,-79239.0,26083.0,13815.0,-0.934809,-0.219079,0.27953,-0.313603,0.139772,-0.939211,0.166691,-0.965644,-0.199364,-0.938551,0.211026,0.273111,0.3064,0.145187,0.940766,0.158873,0.966638,-0.200924,-0.934809,-0.219079,0.27953,-0.313603,0.139772,-0.939211,0.166691,-0.965644,-0.199364,-0.938551,0.211026,0.273111,0.3064,0.145187,0.940766,0.158873,0.966638,-0.200924,-79627.0,-26251.0,13974.0,-79239.0,26083.0,13815.0,17953.0,17306.0,-157910.0,0.0,-54213.0,-54349.0,-53907.0,-54462.0,-14901.0,-12554.0,153372.0,0.0,52953.0,52830.0,53131.0,52993.0,-20.0,211.0,53.0,0.0,268.0,31.0,562.0,-571.0,-3.0,-187.0,-117.0,0.0,-323.0,22.0,768.0,-915.0,0.005497,-0.057293,-0.014375,0.0,0.00982,0.001163,-0.020567,-0.020902,-0.001062,-0.050837,-0.031852,0.0,-0.011855,0.000836,-0.028136,-0.033491,4109.760254,11518.200195,51307.921875,0.0,-17639.910156,-17642.25,17903.339844,-17376.210938,4116.69043,11507.760742,51361.652344,0.0,17657.820312,17658.810547,-17391.599609,17918.28125,0.0,0.0,0.0,0.0,0.0,0.0,0.0,0.0,0.0,0.0,0.0,0.0,0.0,0.0,-89.174942,-89.174942,0.0,0.0,0.0,0.0,0.0,0.0,0.0,0.0,0.0,0.0,0.0,0.0,0.0,0.0,-0.173088,-0.173088,4113.36377,11515.650391,51297.832031,0.0,-17639.455078,-17640.628906,17897.570312,-17381.246094,4119.088867,11506.415039,51344.886719,0.0,17658.054688,17658.052734,-17400.197266,17915.820312,30.201736,90.368958,22.799065,0.0,0.001807,-0.129304,28.768385,28.652069,30.243774,90.28685,22.821201,0.0,0.021582,0.012839,28.657015,28.685801,1.023,1.022,-63617.0,-145286.0,-412178.0,0.0,141786.0,141676.0,-145019.0,138607.0,-60642.0,-140418.0,-417313.0,0.0,-143245.0,-143379.0,140109.0,-146099.0,0.0,0.0,0.0,0.0,0.0,0.0,0.0,0.0,0.0,0.0,0.0,-0.173088,0.0,0.0,0.0,0.0,0.0,0.0,0.0,0.0,0.0,0.0,0.0,-0.173088
45,2.078502893447876,0.526658,1.577669,0.398,0.0,-0.001436,-0.005403,0.514877,0.508101,0.527546,1.576041,0.398441,0.0,-0.00038,0.001693,0.515936,0.50617,3.0,1.0,111.0,0.0,1.0,-79627.0,-26251.0,13974.0,-79239.0,26083.0,13815.0,-0.93479,-0.21916,0.27953,-0.313615,0.139745,-0.939211,0.166774,-0.96563,-0.199364,-0.938533,0.211109,0.273111,0.306413,0.14516,0.940766,0.158959,0.966624,-0.200924,-0.93479,-0.21916,0.27953,-0.313615,0.139745,-0.939211,0.166774,-0.96563,-0.199364,-0.938533,0.211109,0.273111,0.306413,0.14516,0.940766,0.158959,0.966624,-0.200924,-79627.0,-26251.0,13974.0,-79239.0,26083.0,13815.0,17953.0,17306.0,-157910.0,0.0,-54213.0,-54349.0,-53907.0,-54463.0,-14901.0,-12554.0,153372.0,0.0,52953.0,52830.0,53132.0,52993.0,-20.0,211.0,53.0,0.0,268.0,32.0,564.0,-571.0,-3.0,-187.0,-117.0,0.0,-323.0,22.0,770.0,-916.0,0.005497,-0.057293,-0.014375,0.0,0.009828,0.001192,-0.020668,-0.020911,-0.001062,-0.050837,-0.031852,0.0,-0.011851,0.000823,-0.028206,-0.033534,4109.760254,11518.200195,51307.921875,0.0,-17639.910156,-17642.25,17903.339844,-17376.300781,4116.69043,11507.760742,51361.652344,0.0,17657.820312,17658.810547,-17391.691406,17918.28125,0.0,0.0,0.0,0.0,0.0,0.0,0.0,0.0,0.0,0.0,0.0,0.0,0.0,0.0,0.0,0.0,0.0,0.0,0.0,0.0,0.0,0.0,0.0,0.0,0.0,0.0,0.0,0.0,0.0,0.0,0.0,0.0,4113.36377,11515.650391,51297.832031,0.0,-17639.455078,-17640.628906,17897.570312,-17381.246094,4119.088867,11506.415039,51344.886719,0.0,17658.054688,17658.052734,-17400.197266,17915.820312,30.201736,90.368958,22.799065,0.0,0.001807,-0.129304,28.768385,28.652069,30.243774,90.28685,22.821201,0.0,0.021582,0.012839,28.657015,28.685801,1.022,1.022,-63617.0,-145286.0,-412178.0,0.0,141786.0,141676.0,-145019.0,138607.0,-60642.0,-140418.0,-417313.0,0.0,-143245.0,-143379.0,140109.0,-146099.0,0.0,0.0,0.0,0.0,0.0,0.0,0.0,0.0,0.0,0.0,0.0,0.0,0.0,0.0,0.0,0.0,0.0,0.0,0.0,0.0,0.0,0.0,0.0,0.0
46,2.0994670391082764,0.526658,1.577669,0.398,0.0,-0.001436,-0.005403,0.514704,0.507924,0.527546,1.576041,0.398441,0.0,-0.00038,0.001693,0.515587,0.505993,3.0,1.0,111.0,0.0,1.0,-79627.0,-26251.0,13974.0,-79239.0,26083.0,13815.0,-0.934789,-0.219161,0.27953,-0.313615,0.139744,-0.939211,0.166776,-0.965629,-0.199364,-0.938514,0.21119,0.273111,0.306425,0.145134,0.940766,0.159042,0.96661,-0.200924,-0.934789,-0.219161,0.27953,-0.313615,0.139744,-0.939211,0.166776,-0.965629,-0.199364,-0.938514,0.21119,0.273111,0.306425,0.145134,0.940766,0.159042,0.96661,-0.200924,-79627.0,-26251.0,13974.0,-79239.0,26083.0,13815.0,17953.0,17306.0,-157910.0,0.0,-54213.0,-54349.0,-53906.0,-54464.0,-14901.0,-12554.0,153372.0,0.0,52953.0,52830.0,53134.0,52992.0,-20.0,211.0,53.0,0.0,268.0,33.0,565.0,-571.0,-3.0,-187.0,-117.0,0.0,-323.0,22.0,770.0,-915.0,0.005497,-0.057293,-0.014375,0.0,0.009837,0.001221,-0.020695,-0.020921,-0.001062,-0.050837,-0.031852,0.0,-0.011846,0.000809,-0.028202,-0.033499,4109.760254,11518.200195,51307.921875,0.0,-17639.910156,-17642.25,17903.25,-17376.390625,4116.69043,11507.760742,51361.652344,0.0,17657.820312,17658.810547,-17391.871094,17918.189453,0.0,0.0,0.0,0.0,0.0,0.0,0.0,0.0,0.0,0.0,0.0,0.0,0.0,0.0,0.0,0.0,0.0,0.0,0.0,0.0,0.0,0.0,0.0,0.0,0.0,0.0,0.0,0.0,0.0,0.0,0.0,0.0,4113.36377,11515.650391,51297.832031,0.0,-17639.455078,-17640.628906,17897.570312,-17381.246094,4119.088867,11506.415039,51344.886719,0.0,17658.054688,17658.052734,-17400.197266,17915.820312,30.201736,90.368958,22.799065,0.0,0.001807,-0.129304,28.768385,28.652069,30.243774,90.28685,22.821201,0.0,0.021582,0.012839,28.657015,28.685801,1.022,1.021,-63617.0,-145286.0,-412178.0,0.0,141786.0,141676.0,-145019.0,138607.0,-60642.0,-140418.0,-417313.0,0.0,-143245.0,-143379.0,140109.0,-146099.0,0.0,0.0,0.0,0.0,0.0,0.0,0.0,0.0,0.0,0.0,0.0,0.0,0.0,0.0,0.0,0.0,0.0,0.0,0.0,0.0,0.0,0.0,0.0,0.0
47,2.120496988296509,0.526658,1.577669,0.398,0.0,-0.001436,-0.005403,0.514704,0.507751,0.527546,1.576041,0.398441,0.0,-0.00038,0.001693,0.515237,0.505993,3.0,1.0,111.0,0.0,1.0,-79627.0,-26251.0,13974.0,-79239.0,26083.0,13815.0,-0.93477,-0.219242,0.27953,-0.313628,0.139717,-0.939211,0.16686,-0.965615,-0.199364,-0.938477,0.211354,0.273111,0.306451,0.14508,0.940766,0.159211,0.966582,-0.200924,-0.93477,-0.219242,0.27953,-0.313628,0.139717,-0.939211,0.16686,-0.965615,-0.199364,-0.938477,0.211354,0.273111,0.306451,0.14508,0.940766,0.159211,0.966582,-0.200924,-79627.0,-26251.0,13974.0,-79239.0,26083.0,13815.0,17953.0,17306.0,-157910.0,0.0,-54213.0,-54349.0,-53906.0,-54465.0,-14901.0,-12554.0,153372.0,0.0,52953.0,52830.0,53136.0,52992.0,-20.0,211.0,53.0,0.0,269.0,34.0,568.0,-572.0,-3.0,-187.0,-117.0,0.0,-323.0,21.0,770.0,-916.0,0.005497,-0.057293,-0.014375,0.0,0.009845,0.001251,-0.020799,-0.020931,-0.001062,-0.050837,-0.031852,0.0,-0.011842,0.000795,-0.028196,-0.033543,4109.760254,11518.200195,51307.921875,0.0,-17639.910156,-17642.25,17903.25,-17376.480469,4116.69043,11507.760742,51361.652344,0.0,17657.820312,17658.810547,-17392.050781,17918.189453,0.0,0.0,0.0,0.0,0.0,0.0,0.0,0.0,0.0,0.0,0.0,0.0,0.0,0.0,0.0,0.0,0.0,0.0,0.0,0.0,0.0,0.0,0.0,0.0,0.0,0.0,0.0,0.0,0.0,0.0,0.0,0.0,4113.36377,11515.650391,51297.832031,0.0,-17639.455078,-17640.628906,17897.570312,-17381.246094,4119.088867,11506.415039,51344.886719,0.0,17658.054688,17658.052734,-17400.197266,17915.820312,30.201736,90.368958,22.799065,0.0,0.001807,-0.129304,28.768385,28.652069,30.243774,90.28685,22.821201,0.0,0.021582,0.012839,28.657015,28.685801,1.022,1.021,-63617.0,-145286.0,-412178.0,0.0,141786.0,141676.0,-145019.0,138607.0,-60642.0,-140418.0,-417313.0,0.0,-143245.0,-143379.0,140109.0,-146099.0,0.0,0.0,0.0,0.0,0.0,0.0,0.0,0.0,0.0,0.0,0.0,0.0,0.0,0.0,0.0,0.0,0.0,0.0,0.0,0.0,0.0,0.0,0.0,0.0
48,2.1415131092071533,0.526658,1.577669,0.398,0.0,-0.001436,-0.005403,0.514528,0.507575,0.527546,1.576041,0.398441,0.0,-0.00038,0.001693,0.515064,0.50582,3.0,1.0,111.0,0.0,1.0,-79627.0,-26251.0,13974.0,-79239.0,26083.0,13815.0,-0.93477,-0.219242,0.27953,-0.313628,0.139717,-0.939211,0.16686,-0.965615,-0.199364,-0.938477,0.211354,0.273111,0.306451,0.14508,0.940766,0.159211,0.966582,-0.200924,-0.93477,-0.219242,0.27953,-0.313628,0.139717,-0.939211,0.16686,-0.965615,-0.199364,-0.938477,0.211354,0.273111,0.306451,0.14508,0.940766,0.159211,0.966582,-0.200924,-79627.0,-26251.0,13974.0,-79239.0,26083.0,13815.0,17953.0,17306.0,-157910.0,0.0,-54213.0,-54349.0,-53905.0,-54466.0,-14901.0,-12554.0,153372.0,0.0,52953.0,52830.0,53137.0,52991.0,-20.0,211.0,53.0,0.0,269.0,35.0,569.0,-572.0,-3.0,-187.0,-117.0,0.0,-323.0,21.0,772.0,-915.0,0.005497,-0.057293,-0.014375,0.0,0.009853,0.001281,-0.020822,-0.020938,-0.001062,-0.050837,-0.031852,0.0,-0.011838,0.000781,-0.028267,-0.033508,4109.760254,11518.200195,51307.921875,0.0,-17639.910156,-17642.25,17903.160156,-17376.570312,4116.69043,11507.760742,51361.652344,0.0,17657.820312,17658.810547,-17392.140625,17918.101562,0.0,0.0,0.0,0.0,0.0,0.0,0.0,0.0,0.0,0.0,0.0,0.0,0.0,0.0,0.0,0.0,0.0,0.0,0.0,0.0,0.0,0.0,0.0,0.0,0.0,0.0,0.0,0.0,0.0,0.0,0.0,0.0,4113.36377,11515.650391,51297.832031,0.0,-17639.455078,-17640.628906,17897.570312,-17381.246094,4119.088867,11506.415039,51344.886719,0.0,17658.054688,17658.052734,-17400.197266,17915.820312,30.201736,90.368958,22.799065,0.0,0.001807,-0.129304,28.768385,28.652069,30.243774,90.28685,22.821201,0.0,0.021582,0.012839,28.657015,28.685801,1.022,1.02,-63617.0,-145286.0,-412178.0,0.0,141786.0,141676.0,-145019.0,138607.0,-60642.0,-140418.0,-417313.0,0.0,-143245.0,-143379.0,140109.0,-146099.0,0.0,0.0,0.0,0.0,0.0,0.0,0.0,0.0,0.0,0.0,0.0,0.0,0.0,0.0,0.0,0.0,0.0,0.0,0.0,0.0,0.0,0.0,0.0,0.0
49,2.1624720096588135,0.526658,1.577669,0.398,0.0,-0.001436,-0.005403,0.514528,0.507228,0.527546,1.576041,0.398441,0.0,-0.00038,0.001693,0.514714,0.50582,3.0,1.0,111.0,0.0,1.0,-79627.0,-26251.0,13974.0,-79239.0,26083.0,13815.0,-0.934732,-0.219404,0.27953,-0.313652,0.139663,-0.939211,0.167027,-0.965586,-0.199364,-0.93844,0.211518,0.273111,0.306476,0.145027,0.940766,0.15938,0.966554,-0.200924,-0.934732,-0.219404,0.27953,-0.313652,0.139663,-0.939211,0.167027,-0.965586,-0.199364,-0.93844,0.211518,0.273111,0.306476,0.145027,0.940766,0.15938,0.966554,-0.200924,-79627.0,-26251.0,13974.0,-79239.0,26083.0,13815.0,17953.0,17306.0,-157910.0,0.0,-54213.0,-54349.0,-53905.0,-54468.0,-14901.0,-12554.0,153372.0,0.0,52953.0,52830.0,53139.0,52991.0,-20.0,211.0,53.0,0.0,269.0,35.0,571.0,-570.0,-3.0,-187.0,-117.0,0.0,-323.0,20.0,772.0,-916.0,0.005497,-0.057293,-0.014375,0.0,0.009862,0.00131,-0.020925,-0.020866,-0.001062,-0.050837,-0.031852,0.0,-0.011833,0.000767,-0.028255,-0.03355,4109.760254,11518.200195,51307.921875,0.0,-17639.910156,-17642.25,17903.160156,-17376.75,4116.69043,11507.760742,51361.652344,0.0,17657.820312,17658.810547,-17392.320312,17918.101562,0.0,0.0,0.0,0.0,0.0,0.0,0.0,0.0,0.0,0.0,0.0,0.0,0.0,0.0,0.0,0.0,0.0,0.0,0.0,0.0,0.0,0.0,0.0,0.0,0.0,0.0,0.0,0.0,0.0,0.0,0.0,0.0,4113.36377,11515.650391,51297.832031,0.0,-17639.455078,-17640.628906,17897.570312,-17381.246094,4119.088867,11506.415039,51344.886719,0.0,17658.054688,17658.052734,-17400.197266,17915.820312,30.201736,90.368958,22.799065,0.0,0.001807,-0.129304,28.768385,28.652069,30.243774,90.28685,22.821201,0.0,0.021582,0.012839,28.657015,28.685801,1.021,1.02,-63617.0,-145286.0,-412178.0,0.0,141786.0,141676.0,-145019.0,138607.0,-60642.0,-140418.0,-417313.0,0.0,-143245.0,-143379.0,140109.0,-146099.0,0.0,0.0,0.0,0.0,0.0,0.0,0.0,0.0,0.0,0.0,0.0,0.0,0.0,0.0,0.0,0.0,0.0,0.0,0.0,0.0,0.0,0.0,0.0,0.0
50,2.1824839115142822,0.526658,1.577669,0.398,0.0,-0.001436,-0.005403,0.514355,0.507052,0.527546,1.576041,0.398441,0.0,-0.00038,0.001693,0.514365,0.505644,3.0,1.0,111.0,0.0,1.0,-79627.0,-26251.0,13974.0,-79239.0,26083.0,13815.0,-0.934732,-0.219406,0.27953,-0.313652,0.139662,-0.939211,0.167028,-0.965586,-0.199364,-0.938422,0.211599,0.273111,0.306489,0.145,0.940766,0.159464,0.966541,-0.200924,-0.934732,-0.219406,0.27953,-0.313652,0.139662,-0.939211,0.167028,-0.965586,-0.199364,-0.938422,0.211599,0.273111,0.306489,0.145,0.940766,0.159464,0.966541,-0.200924,-79627.0,-26251.0,13974.0,-79239.0,26083.0,13815.0,17953.0,17306.0,-157910.0,0.0,-54213.0,-54349.0,-53904.0,-54469.0,-14901.0,-12554.0,153372.0,0.0,52953.0,52830.0,53141.0,52990.0,-20.0,211.0,53.0,0.0,269.0,36.0,572.0,-570.0,-3.0,-187.0,-117.0,0.0,-323.0,20.0,771.0,-915.0,0.005497,-0.057293,-0.014375,0.0,0.00987,0.001339,-0.020943,-0.020864,-0.001062,-0.050837,-0.031852,0.0,-0.011829,0.000754,-0.028233,-0.03351,4109.760254,11518.200195,51307.921875,0.0,-17639.910156,-17642.25,17903.070312,-17376.839844,4116.69043,11507.760742,51361.652344,0.0,17657.820312,17658.810547,-17392.5,17918.009766,0.0,0.0,0.0,0.0,0.0,0.0,0.0,0.0,0.0,0.0,0.0,0.0,0.0,0.0,0.0,0.0,0.0,0.0,0.0,0.0,0.0,0.0,0.0,0.0,0.0,0.0,0.0,0.0,0.0,0.0,0.0,0.0,4113.36377,11515.650391,51297.832031,0.0,-17639.455078,-17640.628906,17897.570312,-17381.246094,4119.088867,11506.415039,51344.886719,0.0,17658.054688,17658.052734,-17400.197266,17915.820312,30.201736,90.368958,22.799065,0.0,0.001807,-0.129304,28.768385,28.652069,30.243774,90.28685,22.821201,0.0,0.021582,0.012839,28.657015,28.685801,1.021,1.02,-63617.0,-145286.0,-412178.0,0.0,141786.0,141676.0,-145019.0,138607.0,-60642.0,-140418.0,-417313.0,0.0,-143245.0,-143379.0,140109.0,-146099.0,0.0,0.0,0.0,0.0,0.0,0.0,0.0,0.0,0.0,0.0,0.0,0.0,0.0,0.0,0.0,0.0,0.0,0.0,0.0,0.0,0.0,0.0,0.0,0.0
51,2.2024760246276855,0.526658,1.577669,0.398,0.0,-0.001436,-0.005403,0.514355,0.506879,0.527546,1.576041,0.398441,0.0,-0.00038,0.001693,0.514015,0.505644,3.0,1.0,111.0,0.0,1.0,-79627.0,-26251.0,13974.0,-79239.0,26083.0,13815.0,-0.934713,-0.219487,0.27953,-0.313664,0.139635,-0.939211,0.167112,-0.965571,-0.199364,-0.938385,0.211763,0.273111,0.306514,0.144947,0.940766,0.159633,0.966513,-0.200924,-0.934713,-0.219487,0.27953,-0.313664,0.139635,-0.939211,0.167112,-0.965571,-0.199364,-0.938385,0.211763,0.273111,0.306514,0.144947,0.940766,0.159633,0.966513,-0.200924,-79627.0,-26251.0,13974.0,-79239.0,26083.0,13815.0,17953.0,17306.0,-157910.0,0.0,-54213.0,-54349.0,-53904.0,-54470.0,-14901.0,-12554.0,153372.0,0.0,52953.0,52830.0,53143.0,52990.0,-20.0,211.0,53.0,0.0,269.0,37.0,574.0,-570.0,-3.0,-187.0,-117.0,0.0,-323.0,20.0,770.0,-916.0,0.005497,-0.057293,-0.014375,0.0,0.009878,0.001367,-0.021039,-0.020863,-0.001062,-0.050837,-0.031852,0.0,-0.011825,0.000741,-0.028209,-0.033548,4109.760254,11518.200195,51307.921875,0.0,-17639.910156,-17642.25,17903.070312,-17376.929688,4116.69043,11507.760742,51361.652344,0.0,17657.820312,17658.810547,-17392.679688,17918.009766,0.0,0.0,0.0,0.0,0.0,0.0,0.0,0.0,0.0,0.0,0.0,0.0,0.0,0.0,0.0,0.0,0.0,0.0,0.0,0.0,0.0,0.0,0.0,0.0,0.0,0.0,0.0,0.0,0.0,0.0,0.0,0.0,4113.36377,11515.650391,51297.832031,0.0,-17639.455078,-17640.628906,17897.570312,-17381.246094,4119.088867,11506.415039,51344.886719,0.0,17658.054688,17658.052734,-17400.197266,17915.820312,30.201736,90.368958,22.799065,0.0,0.001807,-0.129304,28.768385,28.652069,30.243774,90.28685,22.821201,0.0,0.021582,0.012839,28.657015,28.685801,1.021,1.019,-63617.0,-145286.0,-412178.0,0.0,141786.0,141676.0,-145019.0,138607.0,-60642.0,-140418.0,-417313.0,0.0,-143245.0,-143379.0,140109.0,-146099.0,0.0,0.0,0.0,0.0,0.0,0.0,0.0,0.0,0.0,0.0,0.0,0.0,0.0,0.0,0.0,0.0,0.0,0.0,0.0,0.0,0.0,0.0,0.0,0.0
