MHC-RobotSimulators-Research/Data_Analysis_MotionReplication/mai_plotter/offset_fixed/0arm__p2.csv
Unnamed: 0,time,jpos0,jpos1,jpos2,jpos3,jpos4,jpos5,jpos6,jpos7,jpos8,jpos9,jpos10,jpos11,jpos12,jpos13,jpos14,jpos15,runlevel,sublevel,last_seq,type0,type1,pos0,pos1,pos2,pos3,pos4,pos5,ori0,ori1,ori2,ori3,ori4,ori5,ori6,ori7,ori8,ori9,ori10,ori11,ori12,ori13,ori14,ori15,ori16,ori17,ori_d0,ori_d1,ori_d2,ori_d3,ori_d4,ori_d5,ori_d6,ori_d7,ori_d8,ori_d9,ori_d10,ori_d11,ori_d12,ori_d13,ori_d14,ori_d15,ori_d16,ori_d17,pos_d0,pos_d1,pos_d2,pos_d3,pos_d4,pos_d5,encVals0,encVals1,encVals2,encVals3,encVals4,encVals5,encVals6,encVals7,encVals8,encVals9,encVals10,encVals11,encVals12,encVals13,encVals14,encVals15,dac_vals0,dac_vals1,dac_vals2,dac_vals3,dac_vals4,dac_vals5,dac_vals6,dac_vals7,dac_vals8,dac_vals9,dac_vals10,dac_vals11,dac_vals12,dac_vals13,dac_vals14,dac_vals15,Tau0,Tau1,Tau2,Tau3,Tau4,Tau5,Tau6,Tau7,Tau8,Tau9,Tau10,Tau11,Tau12,Tau13,Tau14,Tau15,mpos0,mpos1,mpos2,mpos3,mpos4,mpos5,mpos6,mpos7,mpos8,mpos9,mpos10,mpos11,mpos12,mpos13,mpos14,mpos15,mvel0,mvel1,mvel2,mvel3,mvel4,mvel5,mvel6,mvel7,mvel8,mvel9,mvel10,mvel11,mvel12,mvel13,mvel14,mvel15,jvel0,jvel1,jvel2,jvel3,jvel4,jvel5,jvel6,jvel7,jvel8,jvel9,jvel10,jvel11,jvel12,jvel13,jvel14,jvel15,mpos_d0,mpos_d1,mpos_d2,mpos_d3,mpos_d4,mpos_d5,mpos_d6,mpos_d7,mpos_d8,mpos_d9,mpos_d10,mpos_d11,mpos_d12,mpos_d13,mpos_d14,mpos_d15,jpos_d0,jpos_d1,jpos_d2,jpos_d3,jpos_d4,jpos_d5,jpos_d6,jpos_d7,jpos_d8,jpos_d9,jpos_d10,jpos_d11,jpos_d12,jpos_d13,jpos_d14,jpos_d15,grasp_d0,grasp_d1,encoffsets0,encoffsets1,encoffsets2,encoffsets3,encoffsets4,encoffsets5,encoffsets6,encoffsets7,encoffsets8,encoffsets9,encoffsets10,encoffsets11,encoffsets12,encoffsets13,encoffsets14,encoffsets15,jac_vel0,jac_vel1,jac_vel2,jac_vel3,jac_vel4,jac_vel5,jac_vel6,jac_vel7,jac_vel8,jac_vel9,jac_vel10,jac_vel11,jac_f0,jac_f1,jac_f2,jac_f3,jac_f4,jac_f5,jac_f6,jac_f7,jac_f8,jac_f9,jac_f10,jac_f11
0,0.0,0.522379,1.577464,0.398402,0.0,-3.080607,0.029869,0.727845,0.839116,0.52645,1.575476,0.399627,0.0,-3.147425,-0.002884,0.784486,0.780552,3.0,1.0,111.0,0.0,1.0,-79478.0,-25356.0,14008.0,-78148.0,25682.0,13574.0,-0.957019,-0.178369,0.228691,-0.264578,0.213946,-0.940333,0.118799,-0.960423,-0.251943,-0.937097,0.215289,0.274772,0.310029,0.151594,0.938563,0.160408,0.964712,-0.208805,-0.957266,-0.17788,0.228037,-0.26384,0.214186,-0.940485,0.118451,-0.96046,-0.251965,-0.937113,0.21564,0.274444,0.309618,0.150642,0.938852,0.161111,0.964783,-0.207935,-79471.0,-25341.0,13989.0,-78157.0,25675.0,13567.0,18324.0,17370.0,-158413.0,0.0,-54177.0,-54320.0,-55400.0,-52842.0,-14996.0,-12610.0,154984.0,0.0,53483.0,53358.0,52162.0,55131.0,44.0,202.0,-59.0,0.0,621.0,1073.0,258.0,487.0,-50.0,-181.0,37.0,0.0,497.0,125.0,-56.0,106.0,-0.01213,-0.054736,0.016129,0.0,0.022747,0.039296,-0.009465,0.01784,-0.013789,-0.049198,0.010121,0.0,0.018196,0.004605,0.00206,0.003889,4076.370117,11512.44043,51353.191406,0.0,-17636.669922,-17639.640625,18037.710938,-17230.410156,4108.140137,11502.720703,51506.730469,0.0,17705.519531,17706.330078,-17304.390625,18110.699219,0.0,0.0,0.0,0.0,0.0,0.0,0.0,0.0,0.0,0.0,0.0,0.0,0.0,0.0,0.0,0.0,0.0,0.0,0.0,0.0,0.0,0.0,0.0,0.0,0.0,0.0,0.0,0.0,0.0,0.0,0.0,0.0,4076.366699,11510.351562,51354.75,0.0,-17636.685547,-17639.296875,18037.736328,-17230.416016,4108.056641,11501.677734,51505.996094,0.0,17705.800781,17706.601562,-17304.638672,18110.929688,29.930094,90.364868,22.827585,0.0,3.400058,1.749772,41.686142,48.096348,30.162771,90.259644,22.896688,0.0,-0.373588,-0.134929,44.904877,44.763016,1.567,1.565,-63617.0,-145286.0,-412178.0,0.0,141786.0,141676.0,-145019.0,138607.0,-60642.0,-140418.0,-417313.0,0.0,-143245.0,-143379.0,140109.0,-146099.0,0.0,0.0,0.0,0.0,0.0,0.0,0.0,0.0,0.0,0.0,0.0,0.0,0.0,0.0,0.0,0.0,0.0,0.0,0.0,0.0,0.0,0.0,0.0,0.0
1,1.335947036743164,0.522379,1.577464,0.398402,0.0,-3.0937080000000003,0.029869,0.496034,0.544067,0.52645,1.575476,0.399627,0.0,-3.145095,-0.002707,0.528652,0.531536,3.0,1.0,111.0,0.0,1.0,-79479.0,-25355.0,14003.0,-78149.0,25680.0,13574.0,-0.95091,-0.20515,0.231697,-0.271428,0.193255,-0.942857,0.14865,-0.959461,-0.239451,-0.936406,0.217848,0.275112,0.310377,0.148347,0.938967,0.16374,0.964643,-0.206528,-0.95091,-0.20515,0.231697,-0.271428,0.193255,-0.942857,0.14865,-0.959461,-0.239451,-0.936406,0.217848,0.275112,0.310377,0.148347,0.938967,0.16374,0.964643,-0.206528,-79479.0,-25355.0,14003.0,-78149.0,25680.0,13574.0,18324.0,17370.0,-158413.0,0.0,-54222.0,-54320.0,-54073.0,-54531.0,-14996.0,-12610.0,154984.0,0.0,53491.0,53359.0,53626.0,53705.0,44.0,202.0,-59.0,0.0,-247.0,596.0,627.0,-579.0,-50.0,-181.0,37.0,0.0,603.0,190.0,796.0,-922.0,-0.01213,-0.054736,0.016129,0.0,-0.009059,0.021836,-0.022979,-0.0212,-0.013789,-0.049198,0.010121,0.0,0.022098,0.006954,-0.029138,-0.033774,4076.370117,11512.44043,51353.191406,0.0,-17640.71875,-17639.640625,17918.28125,-17382.419922,4108.140137,11502.720703,51506.730469,0.0,17706.240234,17706.419922,-17436.150391,17982.361328,0.0,0.0,0.0,0.0,0.0,0.0,-89.174942,-180.098419,0.0,0.0,0.0,0.0,0.0,0.0,-269.273376,-180.098419,0.0,0.0,0.0,0.0,0.0,0.0,-0.173088,-0.349569,0.0,0.0,0.0,0.0,0.0,0.0,-0.522657,-0.349569,4076.366699,11510.351562,51354.75,0.0,-17654.8125,-17651.589844,17912.341797,-17396.554688,4108.056641,11501.677734,51505.996094,0.0,17708.091797,17708.085938,-17450.333984,17965.873047,29.930094,90.364868,22.827585,0.0,0.040082,0.382392,28.424616,28.936234,30.162771,90.259644,22.896688,0.0,0.051181,0.03004,28.619524,28.713713,1.04,1.06,-63617.0,-145286.0,-412178.0,0.0,141786.0,141676.0,-145019.0,138607.0,-60642.0,-140418.0,-417313.0,0.0,-143245.0,-143379.0,140109.0,-146099.0,0.0,0.0,0.0,0.0,0.0,-0.173088,0.0,0.0,0.0,0.0,0.0,-0.522657,0.0,0.0,0.0,0.0,0.0,-0.173088,0.0,0.0,0.0,0.0,0.0,-0.522657
2,1.3579161167144775,0.522379,1.577464,0.398402,0.0,-3.094873,0.029869,0.492714,0.535158,0.52645,1.575476,0.399627,0.0,-3.145095,-0.002707,0.51957,0.52577,3.0,1.0,111.0,0.0,1.0,-79480.0,-25355.0,14003.0,-78149.0,25680.0,13574.0,-0.950334,-0.207503,0.231963,-0.271984,0.191407,-0.943074,0.151292,-0.959326,-0.238338,-0.936043,0.2194,0.275112,0.310622,0.147832,0.938967,0.165339,0.96437,-0.206528,-0.950334,-0.207503,0.231963,-0.271984,0.191407,-0.943074,0.151292,-0.959326,-0.238338,-0.936043,0.2194,0.275112,0.310622,0.147832,0.938967,0.165339,0.96437,-0.206528,-79480.0,-25355.0,14003.0,-78149.0,25680.0,13574.0,18324.0,17370.0,-158413.0,0.0,-54226.0,-54320.0,-54054.0,-54582.0,-14996.0,-12610.0,154984.0,0.0,53491.0,53359.0,53678.0,53672.0,44.0,202.0,-59.0,0.0,-240.0,590.0,594.0,-482.0,-50.0,-181.0,37.0,0.0,605.0,190.0,696.0,-865.0,-0.01213,-0.054736,0.016129,0.0,-0.008807,0.021589,-0.021754,-0.01765,-0.013789,-0.049198,0.010121,0.0,0.022139,0.006989,-0.025475,-0.031663,4076.370117,11512.44043,51353.191406,0.0,-17641.080078,-17639.640625,17916.570312,-17387.009766,4108.140137,11502.720703,51506.730469,0.0,17706.240234,17706.419922,-17440.830078,17979.390625,0.0,0.0,0.0,0.0,0.0,0.0,0.0,-180.098419,0.0,0.0,0.0,0.0,0.0,0.0,-89.174942,0.0,0.0,0.0,0.0,0.0,0.0,0.0,0.0,-0.349569,0.0,0.0,0.0,0.0,0.0,0.0,-0.173088,0.0,4076.366699,11510.351562,51354.75,0.0,-17654.841797,-17651.609375,17912.146484,-17396.816406,4108.056641,11501.677734,51505.996094,0.0,17708.095703,17708.087891,-17450.5625,17965.646484,29.930094,90.364868,22.827585,0.0,0.034824,0.380252,28.40386,28.906248,30.162771,90.259644,22.896688,0.0,0.051845,0.030298,28.59408,28.688635,1.027,1.045,-63617.0,-145286.0,-412178.0,0.0,141786.0,141676.0,-145019.0,138607.0,-60642.0,-140418.0,-417313.0,0.0,-143245.0,-143379.0,140109.0,-146099.0,0.0,0.0,0.0,0.0,0.0,0.0,0.0,0.0,0.0,0.0,0.0,-0.173088,0.0,0.0,0.0,0.0,0.0,0.0,0.0,0.0,0.0,0.0,0.0,-0.173088
3,1.3789141178131104,0.522379,1.577464,0.398402,0.0,-3.095456,0.029869,0.492365,0.532887,0.52645,1.575476,0.399627,0.0,-3.145095,-0.002707,0.519393,0.525421,3.0,1.0,111.0,0.0,1.0,-79480.0,-25355.0,14003.0,-78149.0,25680.0,13574.0,-0.950136,-0.208264,0.232095,-0.272175,0.190601,-0.943182,0.152194,-0.959321,-0.237781,-0.936062,0.219319,0.275112,0.310609,0.147859,0.938967,0.165256,0.964384,-0.206528,-0.950136,-0.208264,0.232095,-0.272175,0.190601,-0.943182,0.152194,-0.959321,-0.237781,-0.936062,0.219319,0.275112,0.310609,0.147859,0.938967,0.165256,0.964384,-0.206528,-79480.0,-25355.0,14003.0,-78149.0,25680.0,13574.0,18324.0,17370.0,-158413.0,0.0,-54228.0,-54320.0,-54052.0,-54595.0,-14996.0,-12610.0,154984.0,0.0,53491.0,53359.0,53679.0,53670.0,44.0,202.0,-59.0,0.0,-239.0,584.0,592.0,-458.0,-50.0,-181.0,37.0,0.0,605.0,191.0,698.0,-867.0,-0.01213,-0.054736,0.016129,0.0,-0.008774,0.02137,-0.021675,-0.016792,-0.013789,-0.049198,0.010121,0.0,0.022173,0.007019,-0.025572,-0.031755,4076.370117,11512.44043,51353.191406,0.0,-17641.259766,-17639.640625,17916.390625,-17388.179688,4108.140137,11502.720703,51506.730469,0.0,17706.240234,17706.419922,-17440.919922,17979.210938,0.0,0.0,0.0,0.0,0.0,0.0,0.0,0.0,0.0,0.0,0.0,0.0,0.0,0.0,0.0,0.0,0.0,0.0,0.0,0.0,0.0,0.0,0.0,0.0,0.0,0.0,0.0,0.0,0.0,0.0,0.0,0.0,4076.366699,11510.351562,51354.75,0.0,-17654.841797,-17651.609375,17912.146484,-17396.816406,4108.056641,11501.677734,51505.996094,0.0,17708.095703,17708.087891,-17450.5625,17965.646484,29.930094,90.364868,22.827585,0.0,0.034824,0.380252,28.40386,28.906248,30.162771,90.259644,22.896688,0.0,0.051845,0.030298,28.59408,28.688635,1.025,1.044,-63617.0,-145286.0,-412178.0,0.0,141786.0,141676.0,-145019.0,138607.0,-60642.0,-140418.0,-417313.0,0.0,-143245.0,-143379.0,140109.0,-146099.0,0.0,0.0,0.0,0.0,0.0,0.0,0.0,0.0,0.0,0.0,0.0,0.0,0.0,0.0,0.0,0.0,0.0,0.0,0.0,0.0,0.0,0.0,0.0,0.0
4,1.3989291191101074,0.522379,1.577464,0.398402,0.0,-3.0957500000000002,0.029869,0.492188,0.532887,0.52645,1.575476,0.399627,0.0,-3.145095,-0.002707,0.519393,0.525421,3.0,1.0,111.0,0.0,1.0,-79480.0,-25355.0,14002.0,-78149.0,25680.0,13574.0,-0.950154,-0.208104,0.232162,-0.272162,0.19035,-0.943236,0.152099,-0.959406,-0.2375,-0.936062,0.219319,0.275112,0.310609,0.147859,0.938967,0.165256,0.964384,-0.206528,-0.950154,-0.208104,0.232162,-0.272162,0.19035,-0.943236,0.152099,-0.959406,-0.2375,-0.936062,0.219319,0.275112,0.310609,0.147859,0.938967,0.165256,0.964384,-0.206528,-79480.0,-25355.0,14002.0,-78149.0,25680.0,13574.0,18324.0,17370.0,-158413.0,0.0,-54229.0,-54320.0,-54051.0,-54595.0,-14996.0,-12610.0,154984.0,0.0,53491.0,53359.0,53679.0,53670.0,44.0,202.0,-59.0,0.0,-242.0,578.0,592.0,-463.0,-50.0,-181.0,37.0,0.0,606.0,192.0,703.0,-874.0,-0.01213,-0.054736,0.016129,0.0,-0.008867,0.021161,-0.021669,-0.016943,-0.013789,-0.049198,0.010121,0.0,0.022205,0.007049,-0.025741,-0.031991,4076.370117,11512.44043,51353.191406,0.0,-17641.351562,-17639.640625,17916.300781,-17388.179688,4108.140137,11502.720703,51506.730469,0.0,17706.240234,17706.419922,-17440.919922,17979.210938,0.0,0.0,0.0,0.0,0.0,0.0,0.0,0.0,0.0,0.0,0.0,0.0,0.0,0.0,0.0,0.0,0.0,0.0,0.0,0.0,0.0,0.0,0.0,0.0,0.0,0.0,0.0,0.0,0.0,0.0,0.0,0.0,4076.366699,11510.351562,51354.75,0.0,-17654.841797,-17651.609375,17912.146484,-17396.816406,4108.056641,11501.677734,51505.996094,0.0,17708.095703,17708.087891,-17450.5625,17965.646484,29.930094,90.364868,22.827585,0.0,0.034824,0.380252,28.40386,28.906248,30.162771,90.259644,22.896688,0.0,0.051845,0.030298,28.59408,28.688635,1.025,1.044,-63617.0,-145286.0,-412178.0,0.0,141786.0,141676.0,-145019.0,138607.0,-60642.0,-140418.0,-417313.0,0.0,-143245.0,-143379.0,140109.0,-146099.0,0.0,0.0,0.0,0.0,0.0,0.0,0.0,0.0,0.0,0.0,0.0,0.0,0.0,0.0,0.0,0.0,0.0,0.0,0.0,0.0,0.0,0.0,0.0,0.0
5,1.4199199676513672,0.522379,1.577464,0.398402,0.0,-3.0963320000000003,0.029869,0.491666,0.532887,0.52645,1.575476,0.399627,0.0,-3.144806,-0.002707,0.519393,0.525421,3.0,1.0,111.0,0.0,1.0,-79480.0,-25355.0,14002.0,-78149.0,25680.0,13574.0,-0.95021,-0.207704,0.232294,-0.272121,0.189877,-0.943344,0.151829,-0.959586,-0.236943,-0.936062,0.21924,0.275175,0.310609,0.147588,0.93901,0.165256,0.964444,-0.20625,-0.95021,-0.207704,0.232294,-0.272121,0.189877,-0.943344,0.151829,-0.959586,-0.236943,-0.936062,0.21924,0.275175,0.310609,0.147588,0.93901,0.165256,0.964444,-0.20625,-79480.0,-25355.0,14002.0,-78149.0,25680.0,13574.0,18324.0,17370.0,-158413.0,0.0,-54231.0,-54320.0,-54048.0,-54595.0,-14996.0,-12610.0,154984.0,0.0,53492.0,53359.0,53679.0,53670.0,44.0,202.0,-59.0,0.0,-197.0,572.0,587.0,-467.0,-50.0,-181.0,37.0,0.0,603.0,193.0,708.0,-881.0,-0.01213,-0.054736,0.016129,0.0,-0.007244,0.020942,-0.021507,-0.017101,-0.013789,-0.049198,0.010121,0.0,0.022098,0.007079,-0.025917,-0.03224,4076.370117,11512.44043,51353.191406,0.0,-17641.53125,-17639.640625,17916.03125,-17388.179688,4108.140137,11502.720703,51506.730469,0.0,17706.330078,17706.419922,-17440.919922,17979.210938,0.0,0.0,0.0,0.0,-90.92347,0.0,0.0,0.0,0.0,0.0,0.0,0.0,0.0,0.0,0.0,0.0,0.0,0.0,0.0,0.0,-0.294136,0.0,0.0,0.0,0.0,0.0,0.0,0.0,0.0,0.0,0.0,0.0,4076.366699,11510.351562,51354.75,0.0,-17654.841797,-17651.609375,17912.146484,-17396.816406,4108.056641,11501.677734,51505.996094,0.0,17708.095703,17708.087891,-17450.5625,17965.646484,29.930094,90.364868,22.827585,0.0,0.034824,0.380252,28.40386,28.906248,30.162771,90.259644,22.896688,0.0,0.051845,0.030298,28.59408,28.688635,1.024,1.044,-63617.0,-145286.0,-412178.0,0.0,141786.0,141676.0,-145019.0,138607.0,-60642.0,-140418.0,-417313.0,0.0,-143245.0,-143379.0,140109.0,-146099.0,0.0,0.0,0.0,-0.007744,0.004147,0.294004,0.0,0.0,0.0,0.0,0.0,0.0,0.0,0.0,0.0,-0.007744,0.004147,0.294004,0.0,0.0,0.0,0.0,0.0,0.0
6,1.439950942993164,0.522379,1.577464,0.398402,0.0,-3.0966210000000003,0.029869,0.49114,0.532887,0.52645,1.575476,0.399627,0.0,-3.144806,-0.002707,0.519393,0.525248,3.0,1.0,111.0,0.0,1.0,-79480.0,-25355.0,14002.0,-78149.0,25680.0,13574.0,-0.950265,-0.207379,0.23236,-0.272075,0.189679,-0.943397,0.151567,-0.959696,-0.236667,-0.936081,0.219159,0.275175,0.310596,0.147615,0.93901,0.165173,0.964458,-0.20625,-0.950265,-0.207379,0.23236,-0.272075,0.189679,-0.943397,0.151567,-0.959696,-0.236667,-0.936081,0.219159,0.275175,0.310596,0.147615,0.93901,0.165173,0.964458,-0.20625,-79480.0,-25355.0,14002.0,-78149.0,25680.0,13574.0,18324.0,17370.0,-158413.0,0.0,-54232.0,-54320.0,-54045.0,-54595.0,-14996.0,-12610.0,154984.0,0.0,53492.0,53359.0,53679.0,53669.0,44.0,202.0,-59.0,0.0,-243.0,566.0,583.0,-471.0,-50.0,-181.0,37.0,0.0,604.0,194.0,712.0,-885.0,-0.01213,-0.054736,0.016129,0.0,-0.008922,0.020733,-0.021335,-0.017251,-0.013789,-0.049198,0.010121,0.0,0.022129,0.007108,-0.026086,-0.032398,4076.370117,11512.44043,51353.191406,0.0,-17641.621094,-17639.640625,17915.759766,-17388.179688,4108.140137,11502.720703,51506.730469,0.0,17706.330078,17706.419922,-17440.919922,17979.121094,0.0,0.0,0.0,0.0,0.0,0.0,0.0,0.0,0.0,0.0,0.0,0.0,0.0,0.0,0.0,0.0,0.0,0.0,0.0,0.0,0.0,0.0,0.0,0.0,0.0,0.0,0.0,0.0,0.0,0.0,0.0,0.0,4076.366699,11510.351562,51354.75,0.0,-17654.841797,-17651.609375,17912.146484,-17396.816406,4108.056641,11501.677734,51505.996094,0.0,17708.095703,17708.087891,-17450.5625,17965.646484,29.930094,90.364868,22.827585,0.0,0.034824,0.380252,28.40386,28.906248,30.162771,90.259644,22.896688,0.0,0.051845,0.030298,28.59408,28.688635,1.024,1.044,-63617.0,-145286.0,-412178.0,0.0,141786.0,141676.0,-145019.0,138607.0,-60642.0,-140418.0,-417313.0,0.0,-143245.0,-143379.0,140109.0,-146099.0,0.0,0.0,0.0,0.0,0.0,0.0,0.0,0.0,0.0,0.0,0.0,0.0,0.0,0.0,0.0,0.0,0.0,0.0,0.0,0.0,0.0,0.0,0.0,0.0
7,1.4599149227142334,0.522379,1.577464,0.398402,0.0,-3.096915,0.029869,0.49114,0.532887,0.52645,1.575476,0.399627,0.0,-3.144806,-0.002707,0.519393,0.525071,3.0,1.0,111.0,0.0,1.0,-79480.0,-25355.0,14002.0,-78149.0,25680.0,13574.0,-0.950265,-0.207302,0.232427,-0.272079,0.189404,-0.943451,0.151557,-0.959767,-0.236386,-0.936101,0.219077,0.275175,0.310583,0.147642,0.93901,0.165088,0.964472,-0.20625,-0.950265,-0.207302,0.232427,-0.272079,0.189404,-0.943451,0.151557,-0.959767,-0.236386,-0.936101,0.219077,0.275175,0.310583,0.147642,0.93901,0.165088,0.964472,-0.20625,-79480.0,-25355.0,14002.0,-78149.0,25680.0,13574.0,18324.0,17370.0,-158413.0,0.0,-54233.0,-54320.0,-54045.0,-54595.0,-14996.0,-12610.0,154984.0,0.0,53492.0,53359.0,53679.0,53668.0,44.0,202.0,-59.0,0.0,-246.0,560.0,584.0,-475.0,-50.0,-181.0,37.0,0.0,605.0,195.0,717.0,-889.0,-0.01213,-0.054736,0.016129,0.0,-0.00901,0.020524,-0.021398,-0.017402,-0.013789,-0.049198,0.010121,0.0,0.02216,0.007137,-0.026254,-0.032553,4076.370117,11512.44043,51353.191406,0.0,-17641.710938,-17639.640625,17915.759766,-17388.179688,4108.140137,11502.720703,51506.730469,0.0,17706.330078,17706.419922,-17440.919922,17979.029297,0.0,0.0,0.0,0.0,0.0,0.0,0.0,0.0,0.0,0.0,0.0,0.0,0.0,0.0,0.0,0.0,0.0,0.0,0.0,0.0,0.0,0.0,0.0,0.0,0.0,0.0,0.0,0.0,0.0,0.0,0.0,0.0,4076.366699,11510.351562,51354.75,0.0,-17654.841797,-17651.609375,17912.146484,-17396.816406,4108.056641,11501.677734,51505.996094,0.0,17708.095703,17708.087891,-17450.5625,17965.646484,29.930094,90.364868,22.827585,0.0,0.034824,0.380252,28.40386,28.906248,30.162771,90.259644,22.896688,0.0,0.051845,0.030298,28.59408,28.688635,1.024,1.044,-63617.0,-145286.0,-412178.0,0.0,141786.0,141676.0,-145019.0,138607.0,-60642.0,-140418.0,-417313.0,0.0,-143245.0,-143379.0,140109.0,-146099.0,0.0,0.0,0.0,0.0,0.0,0.0,0.0,0.0,0.0,0.0,0.0,0.0,0.0,0.0,0.0,0.0,0.0,0.0,0.0,0.0,0.0,0.0,0.0,0.0
8,1.4819159507751465,0.522379,1.577464,0.398402,0.0,-3.097204,0.029869,0.490966,0.532711,0.52645,1.575476,0.399627,0.0,-3.144806,-0.002707,0.519393,0.524722,3.0,1.0,111.0,0.0,1.0,-79480.0,-25355.0,14002.0,-78149.0,25680.0,13574.0,-0.950265,-0.207229,0.232492,-0.272083,0.189134,-0.943504,0.151549,-0.959836,-0.23611,-0.936139,0.218913,0.275175,0.310557,0.147697,0.93901,0.164919,0.964501,-0.20625,-0.950265,-0.207229,0.232492,-0.272083,0.189134,-0.943504,0.151549,-0.959836,-0.23611,-0.936139,0.218913,0.275175,0.310557,0.147697,0.93901,0.164919,0.964501,-0.20625,-79480.0,-25355.0,14002.0,-78149.0,25680.0,13574.0,18324.0,17370.0,-158413.0,0.0,-54234.0,-54320.0,-54044.0,-54596.0,-14996.0,-12610.0,154984.0,0.0,53492.0,53359.0,53679.0,53666.0,44.0,202.0,-59.0,0.0,-249.0,554.0,584.0,-477.0,-50.0,-181.0,37.0,0.0,606.0,195.0,722.0,-892.0,-0.01213,-0.054736,0.016129,0.0,-0.009121,0.020294,-0.021388,-0.017488,-0.013789,-0.049198,0.010121,0.0,0.022194,0.007169,-0.026439,-0.032652,4076.370117,11512.44043,51353.191406,0.0,-17641.800781,-17639.640625,17915.669922,-17388.271484,4108.140137,11502.720703,51506.730469,0.0,17706.330078,17706.419922,-17440.919922,17978.849609,0.0,0.0,0.0,0.0,0.0,0.0,0.0,0.0,0.0,0.0,0.0,0.0,0.0,0.0,0.0,0.0,0.0,0.0,0.0,0.0,0.0,0.0,0.0,0.0,0.0,0.0,0.0,0.0,0.0,0.0,0.0,0.0,4076.366699,11510.351562,51354.75,0.0,-17654.841797,-17651.609375,17912.146484,-17396.816406,4108.056641,11501.677734,51505.996094,0.0,17708.095703,17708.087891,-17450.5625,17965.646484,29.930094,90.364868,22.827585,0.0,0.034824,0.380252,28.40386,28.906248,30.162771,90.259644,22.896688,0.0,0.051845,0.030298,28.59408,28.688635,1.023,1.044,-63617.0,-145286.0,-412178.0,0.0,141786.0,141676.0,-145019.0,138607.0,-60642.0,-140418.0,-417313.0,0.0,-143245.0,-143379.0,140109.0,-146099.0,0.0,0.0,0.0,0.0,0.0,0.0,0.0,0.0,0.0,0.0,0.0,0.0,0.0,0.0,0.0,0.0,0.0,0.0,0.0,0.0,0.0,0.0,0.0,0.0
9,1.5019500255584717,0.522379,1.577464,0.398402,0.0,-3.0974980000000003,0.029869,0.490966,0.532711,0.52645,1.575476,0.399627,0.0,-3.144806,-0.002707,0.51922,0.524548,3.0,1.0,111.0,0.0,1.0,-79480.0,-25355.0,14002.0,-78149.0,25680.0,13574.0,-0.950265,-0.207152,0.232559,-0.272087,0.188859,-0.943558,0.151539,-0.959907,-0.235829,-0.936139,0.218913,0.275175,0.310557,0.147697,0.93901,0.164919,0.964501,-0.20625,-0.950265,-0.207152,0.232559,-0.272087,0.188859,-0.943558,0.151539,-0.959907,-0.235829,-0.936139,0.218913,0.275175,0.310557,0.147697,0.93901,0.164919,0.964501,-0.20625,-79480.0,-25355.0,14002.0,-78149.0,25680.0,13574.0,18324.0,17370.0,-158413.0,0.0,-54235.0,-54320.0,-54044.0,-54596.0,-14996.0,-12610.0,154984.0,0.0,53492.0,53359.0,53680.0,53665.0,44.0,202.0,-59.0,0.0,-251.0,548.0,586.0,-481.0,-50.0,-181.0,37.0,0.0,607.0,196.0,724.0,-896.0,-0.01213,-0.054736,0.016129,0.0,-0.009205,0.020085,-0.02145,-0.017637,-0.013789,-0.049198,0.010121,0.0,0.022225,0.007199,-0.026529,-0.032803,4076.370117,11512.44043,51353.191406,0.0,-17641.890625,-17639.640625,17915.669922,-17388.271484,4108.140137,11502.720703,51506.730469,0.0,17706.330078,17706.419922,-17441.009766,17978.761719,0.0,0.0,0.0,0.0,0.0,0.0,0.0,0.0,0.0,0.0,0.0,0.0,0.0,0.0,0.0,0.0,0.0,0.0,0.0,0.0,0.0,0.0,0.0,0.0,0.0,0.0,0.0,0.0,0.0,0.0,0.0,0.0,4076.366699,11510.351562,51354.75,0.0,-17654.841797,-17651.609375,17912.146484,-17396.816406,4108.056641,11501.677734,51505.996094,0.0,17708.095703,17708.087891,-17450.5625,17965.646484,29.930094,90.364868,22.827585,0.0,0.034824,0.380252,28.40386,28.906248,30.162771,90.259644,22.896688,0.0,0.051845,0.030298,28.59408,28.688635,1.023,1.043,-63617.0,-145286.0,-412178.0,0.0,141786.0,141676.0,-145019.0,138607.0,-60642.0,-140418.0,-417313.0,0.0,-143245.0,-143379.0,140109.0,-146099.0,0.0,0.0,0.0,0.0,0.0,0.0,0.0,0.0,0.0,0.0,0.0,0.0,0.0,0.0,0.0,0.0,0.0,0.0,0.0,0.0,0.0,0.0,0.0,0.0
10,1.522918939590454,0.522379,1.577464,0.398402,0.0,-3.097786,0.029869,0.49079,0.532538,0.52645,1.575476,0.399627,0.0,-3.144806,-0.002707,0.51922,0.524199,3.0,1.0,111.0,0.0,1.0,-79480.0,-25355.0,14002.0,-78149.0,25680.0,13574.0,-0.950266,-0.207075,0.232624,-0.272091,0.188589,-0.94361,0.151528,-0.959976,-0.235553,-0.936177,0.21875,0.275175,0.310531,0.147751,0.93901,0.164751,0.96453,-0.20625,-0.950266,-0.207075,0.232624,-0.272091,0.188589,-0.94361,0.151528,-0.959976,-0.235553,-0.936177,0.21875,0.275175,0.310531,0.147751,0.93901,0.164751,0.96453,-0.20625,-79480.0,-25355.0,14002.0,-78149.0,25680.0,13574.0,18324.0,17370.0,-158413.0,0.0,-54236.0,-54320.0,-54043.0,-54597.0,-14996.0,-12610.0,154984.0,0.0,53492.0,53359.0,53680.0,53663.0,44.0,202.0,-59.0,0.0,-254.0,542.0,585.0,-484.0,-50.0,-181.0,37.0,0.0,608.0,197.0,729.0,-898.0,-0.01213,-0.054736,0.016129,0.0,-0.009302,0.019866,-0.021434,-0.017715,-0.013789,-0.049198,0.010121,0.0,0.022257,0.007229,-0.026704,-0.032885,4076.370117,11512.44043,51353.191406,0.0,-17641.980469,-17639.640625,17915.580078,-17388.359375,4108.140137,11502.720703,51506.730469,0.0,17706.330078,17706.419922,-17441.009766,17978.580078,0.0,0.0,0.0,0.0,0.0,0.0,0.0,0.0,0.0,0.0,0.0,0.0,0.0,0.0,0.0,0.0,0.0,0.0,0.0,0.0,0.0,0.0,0.0,0.0,0.0,0.0,0.0,0.0,0.0,0.0,0.0,0.0,4076.366699,11510.351562,51354.75,0.0,-17654.841797,-17651.609375,17912.146484,-17396.816406,4108.056641,11501.677734,51505.996094,0.0,17708.095703,17708.087891,-17450.5625,17965.646484,29.930094,90.364868,22.827585,0.0,0.034824,0.380252,28.40386,28.906248,30.162771,90.259644,22.896688,0.0,0.051845,0.030298,28.59408,28.688635,1.023,1.043,-63617.0,-145286.0,-412178.0,0.0,141786.0,141676.0,-145019.0,138607.0,-60642.0,-140418.0,-417313.0,0.0,-143245.0,-143379.0,140109.0,-146099.0,0.0,0.0,0.0,0.0,0.0,0.0,0.0,0.0,0.0,0.0,0.0,0.0,0.0,0.0,0.0,0.0,0.0,0.0,0.0,0.0,0.0,0.0,0.0,0.0
11,1.5439190864562988,0.522379,1.577464,0.398402,0.0,-3.097786,0.029869,0.49079,0.532538,0.52645,1.575476,0.399627,0.0,-3.144806,-0.002707,0.519044,0.524022,3.0,1.0,111.0,0.0,1.0,-79480.0,-25355.0,14002.0,-78149.0,25680.0,13574.0,-0.950266,-0.207075,0.232624,-0.272091,0.188589,-0.94361,0.151528,-0.959976,-0.235553,-0.936177,0.21875,0.275175,0.310531,0.147751,0.93901,0.164751,0.96453,-0.20625,-0.950266,-0.207075,0.232624,-0.272091,0.188589,-0.94361,0.151528,-0.959976,-0.235553,-0.936177,0.21875,0.275175,0.310531,0.147751,0.93901,0.164751,0.96453,-0.20625,-79480.0,-25355.0,14002.0,-78149.0,25680.0,13574.0,18324.0,17370.0,-158413.0,0.0,-54236.0,-54320.0,-54043.0,-54597.0,-14996.0,-12610.0,154984.0,0.0,53492.0,53359.0,53681.0,53662.0,44.0,202.0,-59.0,0.0,-260.0,536.0,587.0,-488.0,-50.0,-181.0,37.0,0.0,609.0,198.0,732.0,-902.0,-0.01213,-0.054736,0.016129,0.0,-0.009537,0.019646,-0.021497,-0.01787,-0.013789,-0.049198,0.010121,0.0,0.022289,0.00726,-0.0268,-0.033042,4076.370117,11512.44043,51353.191406,0.0,-17641.980469,-17639.640625,17915.580078,-17388.359375,4108.140137,11502.720703,51506.730469,0.0,17706.330078,17706.419922,-17441.101562,17978.490234,0.0,0.0,0.0,0.0,0.0,0.0,0.0,0.0,0.0,0.0,0.0,0.0,0.0,0.0,-90.92347,0.0,0.0,0.0,0.0,0.0,0.0,0.0,0.0,0.0,0.0,0.0,0.0,0.0,0.0,0.0,-0.176481,0.0,4076.366699,11510.351562,51354.75,0.0,-17654.841797,-17651.609375,17912.146484,-17396.816406,4108.056641,11501.677734,51505.996094,0.0,17708.095703,17708.087891,-17450.5625,17965.646484,29.930094,90.364868,22.827585,0.0,0.034824,0.380252,28.40386,28.906248,30.162771,90.259644,22.896688,0.0,0.051845,0.030298,28.59408,28.688635,1.023,1.043,-63617.0,-145286.0,-412178.0,0.0,141786.0,141676.0,-145019.0,138607.0,-60642.0,-140418.0,-417313.0,0.0,-143245.0,-143379.0,140109.0,-146099.0,0.0,0.0,0.0,0.0,0.0,0.0,0.0,0.0,0.0,0.0,0.0,-0.176481,0.0,0.0,0.0,0.0,0.0,0.0,0.0,0.0,0.0,0.0,0.0,-0.176481
12,1.5639169216156006,0.522379,1.577464,0.398402,0.0,-3.09808,0.029696,0.490703,0.532275,0.52645,1.575476,0.399627,0.0,-3.144512,-0.002707,0.519044,0.523849,3.0,1.0,111.0,0.0,1.0,-79479.0,-25357.0,14001.0,-78149.0,25680.0,13574.0,-0.950208,-0.207083,0.232855,-0.272275,0.188294,-0.943616,0.151562,-0.960032,-0.235302,-0.936196,0.218588,0.275238,0.310518,0.147501,0.939054,0.164668,0.964605,-0.205966,-0.950208,-0.207083,0.232855,-0.272275,0.188294,-0.943616,0.151562,-0.960032,-0.235302,-0.936196,0.218588,0.275238,0.310518,0.147501,0.939054,0.164668,0.964605,-0.205966,-79479.0,-25357.0,14001.0,-78149.0,25680.0,13574.0,18324.0,17370.0,-158413.0,0.0,-54237.0,-54321.0,-54042.0,-54598.0,-14996.0,-12610.0,154984.0,0.0,53493.0,53359.0,53681.0,53661.0,44.0,202.0,-59.0,0.0,-262.0,533.0,586.0,-490.0,-50.0,-181.0,37.0,0.0,606.0,199.0,736.0,-906.0,-0.01213,-0.054736,0.016129,0.0,-0.009618,0.019516,-0.021478,-0.017937,-0.013789,-0.049198,0.010121,0.0,0.022176,0.007289,-0.026965,-0.033188,4076.370117,11512.44043,51353.191406,0.0,-17642.072266,-17639.730469,17915.490234,-17388.451172,4108.140137,11502.720703,51506.730469,0.0,17706.419922,17706.419922,-17441.101562,17978.400391,0.0,0.0,0.0,0.0,0.0,0.0,0.0,0.0,0.0,0.0,0.0,0.0,0.0,0.0,0.0,0.0,0.0,0.0,0.0,0.0,0.0,0.0,0.0,0.0,0.0,0.0,0.0,0.0,0.0,0.0,0.0,0.0,4076.366699,11510.351562,51354.75,0.0,-17654.841797,-17651.609375,17912.146484,-17396.816406,4108.056641,11501.677734,51505.996094,0.0,17708.095703,17708.087891,-17450.5625,17965.646484,29.930094,90.364868,22.827585,0.0,0.034824,0.380252,28.40386,28.906248,30.162771,90.259644,22.896688,0.0,0.051845,0.030298,28.59408,28.688635,1.022,1.042,-63617.0,-145286.0,-412178.0,0.0,141786.0,141676.0,-145019.0,138607.0,-60642.0,-140418.0,-417313.0,0.0,-143245.0,-143379.0,140109.0,-146099.0,0.0,0.0,0.0,0.0,0.0,0.0,0.0,0.0,0.0,0.0,0.0,0.0,0.0,0.0,0.0,0.0,0.0,0.0,0.0,0.0,0.0,0.0,0.0,0.0
13,1.583909034729004,0.522379,1.577464,0.398402,0.0,-3.098369,0.029696,0.49053,0.532101,0.52645,1.575476,0.399627,0.0,-3.144512,-0.002707,0.518871,0.523673,3.0,1.0,111.0,0.0,1.0,-79479.0,-25357.0,14001.0,-78149.0,25680.0,13574.0,-0.950208,-0.207008,0.23292,-0.272279,0.188024,-0.943669,0.151552,-0.960101,-0.235026,-0.936196,0.218587,0.275238,0.310518,0.147502,0.939054,0.164667,0.964605,-0.205966,-0.950208,-0.207008,0.23292,-0.272279,0.188024,-0.943669,0.151552,-0.960101,-0.235026,-0.936196,0.218587,0.275238,0.310518,0.147502,0.939054,0.164667,0.964605,-0.205966,-79479.0,-25357.0,14001.0,-78149.0,25680.0,13574.0,18324.0,17370.0,-158413.0,0.0,-54238.0,-54321.0,-54041.0,-54599.0,-14996.0,-12610.0,154984.0,0.0,53493.0,53359.0,53682.0,53660.0,44.0,202.0,-59.0,0.0,-265.0,527.0,586.0,-492.0,-50.0,-181.0,37.0,0.0,606.0,199.0,739.0,-910.0,-0.01213,-0.054736,0.016129,0.0,-0.0097,0.019309,-0.021458,-0.018004,-0.013789,-0.049198,0.010121,0.0,0.022205,0.007318,-0.027052,-0.03333,4076.370117,11512.44043,51353.191406,0.0,-17642.160156,-17639.730469,17915.400391,-17388.539062,4108.140137,11502.720703,51506.730469,0.0,17706.419922,17706.419922,-17441.189453,17978.310547,0.0,0.0,0.0,0.0,0.0,0.0,0.0,0.0,0.0,0.0,0.0,0.0,0.0,0.0,0.0,0.0,0.0,0.0,0.0,0.0,0.0,0.0,0.0,0.0,0.0,0.0,0.0,0.0,0.0,0.0,0.0,0.0,4076.366699,11510.351562,51354.75,0.0,-17654.841797,-17651.609375,17912.146484,-17396.816406,4108.056641,11501.677734,51505.996094,0.0,17708.095703,17708.087891,-17450.5625,17965.646484,29.930094,90.364868,22.827585,0.0,0.034824,0.380252,28.40386,28.906248,30.162771,90.259644,22.896688,0.0,0.051845,0.030298,28.59408,28.688635,1.022,1.042,-63617.0,-145286.0,-412178.0,0.0,141786.0,141676.0,-145019.0,138607.0,-60642.0,-140418.0,-417313.0,0.0,-143245.0,-143379.0,140109.0,-146099.0,0.0,0.0,0.0,0.0,0.0,0.0,0.0,0.0,0.0,0.0,0.0,0.0,0.0,0.0,0.0,0.0,0.0,0.0,0.0,0.0,0.0,0.0,0.0,0.0
14,1.6039440631866455,0.522379,1.577464,0.398402,0.0,-3.098657,0.029696,0.49053,0.531925,0.52645,1.575476,0.399627,0.0,-3.144512,-0.002707,0.518694,0.523323,3.0,1.0,111.0,0.0,1.0,-79479.0,-25357.0,14001.0,-78149.0,25680.0,13574.0,-0.950191,-0.207016,0.232985,-0.2723,0.18773,-0.943721,0.151627,-0.960157,-0.23475,-0.936215,0.218506,0.275238,0.310505,0.147529,0.939054,0.164583,0.964619,-0.205966,-0.950191,-0.207016,0.232985,-0.2723,0.18773,-0.943721,0.151627,-0.960157,-0.23475,-0.936215,0.218506,0.275238,0.310505,0.147529,0.939054,0.164583,0.964619,-0.205966,-79479.0,-25357.0,14001.0,-78149.0,25680.0,13574.0,18324.0,17370.0,-158413.0,0.0,-54239.0,-54321.0,-54041.0,-54600.0,-14996.0,-12610.0,154984.0,0.0,53493.0,53359.0,53683.0,53658.0,44.0,202.0,-59.0,0.0,-267.0,522.0,587.0,-493.0,-50.0,-181.0,37.0,0.0,607.0,200.0,741.0,-912.0,-0.01213,-0.054736,0.016129,0.0,-0.00978,0.019101,-0.021515,-0.018068,-0.013789,-0.049198,0.010121,0.0,0.022234,0.007347,-0.027135,-0.033393,4076.370117,11512.44043,51353.191406,0.0,-17642.25,-17639.730469,17915.400391,-17388.630859,4108.140137,11502.720703,51506.730469,0.0,17706.419922,17706.419922,-17441.28125,17978.128906,0.0,0.0,0.0,0.0,0.0,0.0,0.0,0.0,0.0,0.0,0.0,0.0,0.0,0.0,0.0,0.0,0.0,0.0,0.0,0.0,0.0,0.0,0.0,0.0,0.0,0.0,0.0,0.0,0.0,0.0,0.0,0.0,4076.366699,11510.351562,51354.75,0.0,-17654.841797,-17651.609375,17912.146484,-17396.816406,4108.056641,11501.677734,51505.996094,0.0,17708.095703,17708.087891,-17450.5625,17965.646484,29.930094,90.364868,22.827585,0.0,0.034824,0.380252,28.40386,28.906248,30.162771,90.259644,22.896688,0.0,0.051845,0.030298,28.59408,28.688635,1.022,1.042,-63617.0,-145286.0,-412178.0,0.0,141786.0,141676.0,-145019.0,138607.0,-60642.0,-140418.0,-417313.0,0.0,-143245.0,-143379.0,140109.0,-146099.0,0.0,0.0,0.0,0.0,0.0,0.0,0.0,0.0,0.0,0.0,0.0,0.0,0.0,0.0,0.0,0.0,0.0,0.0,0.0,0.0,0.0,0.0,0.0,0.0
15,1.6259469985961914,0.522379,1.577464,0.398402,0.0,-3.098657,0.029696,0.490354,0.531752,0.52645,1.575476,0.399627,0.0,-3.144512,-0.002707,0.518521,0.52315,3.0,1.0,111.0,0.0,1.0,-79479.0,-25357.0,14001.0,-78149.0,25680.0,13574.0,-0.950191,-0.207015,0.232985,-0.272299,0.187731,-0.943721,0.151626,-0.960157,-0.23475,-0.936215,0.218506,0.275238,0.310505,0.147529,0.939054,0.164583,0.964619,-0.205966,-0.950191,-0.207015,0.232985,-0.272299,0.187731,-0.943721,0.151626,-0.960157,-0.23475,-0.936215,0.218506,0.275238,0.310505,0.147529,0.939054,0.164583,0.964619,-0.205966,-79479.0,-25357.0,14001.0,-78149.0,25680.0,13574.0,18324.0,17370.0,-158413.0,0.0,-54239.0,-54321.0,-54040.0,-54601.0,-14996.0,-12610.0,154984.0,0.0,53493.0,53359.0,53684.0,53657.0,44.0,202.0,-59.0,0.0,-273.0,515.0,587.0,-495.0,-50.0,-181.0,37.0,0.0,608.0,201.0,744.0,-916.0,-0.01213,-0.054736,0.016129,0.0,-0.010022,0.018873,-0.021498,-0.018147,-0.013789,-0.049198,0.010121,0.0,0.022266,0.007379,-0.027235,-0.033554,4076.370117,11512.44043,51353.191406,0.0,-17642.25,-17639.730469,17915.310547,-17388.720703,4108.140137,11502.720703,51506.730469,0.0,17706.419922,17706.419922,-17441.369141,17978.041016,0.0,0.0,0.0,0.0,0.0,0.0,0.0,0.0,0.0,0.0,0.0,0.0,0.0,0.0,0.0,0.0,0.0,0.0,0.0,0.0,0.0,0.0,0.0,0.0,0.0,0.0,0.0,0.0,0.0,0.0,0.0,0.0,4076.366699,11510.351562,51354.75,0.0,-17654.841797,-17651.609375,17912.146484,-17396.816406,4108.056641,11501.677734,51505.996094,0.0,17708.095703,17708.087891,-17450.5625,17965.646484,29.930094,90.364868,22.827585,0.0,0.034824,0.380252,28.40386,28.906248,30.162771,90.259644,22.896688,0.0,0.051845,0.030298,28.59408,28.688635,1.022,1.041,-63617.0,-145286.0,-412178.0,0.0,141786.0,141676.0,-145019.0,138607.0,-60642.0,-140418.0,-417313.0,0.0,-143245.0,-143379.0,140109.0,-146099.0,0.0,0.0,0.0,0.0,0.0,0.0,0.0,0.0,0.0,0.0,0.0,0.0,0.0,0.0,0.0,0.0,0.0,0.0,0.0,0.0,0.0,0.0,0.0,0.0
16,1.6459119319915771,0.522379,1.577464,0.398402,0.0,-3.098951,0.029696,0.490354,0.531575,0.52645,1.575476,0.399627,0.0,-3.144512,-0.002707,0.518521,0.522974,3.0,1.0,111.0,0.0,1.0,-79479.0,-25357.0,14001.0,-78149.0,25680.0,13574.0,-0.950173,-0.207022,0.233052,-0.27232,0.187432,-0.943775,0.151701,-0.960214,-0.234469,-0.936235,0.218423,0.275238,0.310492,0.147556,0.939054,0.164498,0.964634,-0.205966,-0.950173,-0.207022,0.233052,-0.27232,0.187432,-0.943775,0.151701,-0.960214,-0.234469,-0.936235,0.218423,0.275238,0.310492,0.147556,0.939054,0.164498,0.964634,-0.205966,-79479.0,-25357.0,14001.0,-78149.0,25680.0,13574.0,18324.0,17370.0,-158413.0,0.0,-54240.0,-54321.0,-54040.0,-54602.0,-14996.0,-12610.0,154984.0,0.0,53493.0,53359.0,53684.0,53656.0,44.0,202.0,-59.0,0.0,-275.0,510.0,589.0,-497.0,-50.0,-181.0,37.0,0.0,609.0,202.0,748.0,-920.0,-0.01213,-0.054736,0.016129,0.0,-0.010098,0.018666,-0.021553,-0.018209,-0.013789,-0.049198,0.010121,0.0,0.022296,0.007408,-0.027396,-0.03369,4076.370117,11512.44043,51353.191406,0.0,-17642.339844,-17639.730469,17915.310547,-17388.810547,4108.140137,11502.720703,51506.730469,0.0,17706.419922,17706.419922,-17441.369141,17977.949219,0.0,0.0,0.0,0.0,0.0,0.0,0.0,0.0,0.0,0.0,0.0,0.0,0.0,0.0,0.0,0.0,0.0,0.0,0.0,0.0,0.0,0.0,0.0,0.0,0.0,0.0,0.0,0.0,0.0,0.0,0.0,0.0,4076.366699,11510.351562,51354.75,0.0,-17654.841797,-17651.609375,17912.146484,-17396.816406,4108.056641,11501.677734,51505.996094,0.0,17708.095703,17708.087891,-17450.5625,17965.646484,29.930094,90.364868,22.827585,0.0,0.034824,0.380252,28.40386,28.906248,30.162771,90.259644,22.896688,0.0,0.051845,0.030298,28.59408,28.688635,1.021,1.041,-63617.0,-145286.0,-412178.0,0.0,141786.0,141676.0,-145019.0,138607.0,-60642.0,-140418.0,-417313.0,0.0,-143245.0,-143379.0,140109.0,-146099.0,0.0,0.0,0.0,0.0,0.0,0.0,0.0,0.0,0.0,0.0,0.0,0.0,0.0,0.0,0.0,0.0,0.0,0.0,0.0,0.0,0.0,0.0,0.0,0.0
17,1.665910005569458,0.522379,1.577464,0.398402,0.0,-3.09924,0.029696,0.490354,0.531402,0.52645,1.575476,0.399627,0.0,-3.144512,-0.002707,0.518521,0.522801,3.0,1.0,111.0,0.0,1.0,-79479.0,-25357.0,14001.0,-78149.0,25680.0,13574.0,-0.950155,-0.207029,0.233117,-0.27234,0.187138,-0.943827,0.151774,-0.96027,-0.234193,-0.936254,0.218342,0.275238,0.310479,0.147583,0.939054,0.164414,0.964648,-0.205966,-0.950155,-0.207029,0.233117,-0.27234,0.187138,-0.943827,0.151774,-0.96027,-0.234193,-0.936254,0.218342,0.275238,0.310479,0.147583,0.939054,0.164414,0.964648,-0.205966,-79479.0,-25357.0,14001.0,-78149.0,25680.0,13574.0,18324.0,17370.0,-158413.0,0.0,-54241.0,-54321.0,-54040.0,-54603.0,-14996.0,-12610.0,154984.0,0.0,53493.0,53359.0,53684.0,53655.0,44.0,202.0,-59.0,0.0,-278.0,504.0,590.0,-499.0,-50.0,-181.0,37.0,0.0,610.0,203.0,753.0,-924.0,-0.01213,-0.054736,0.016129,0.0,-0.010176,0.018459,-0.021608,-0.01827,-0.013789,-0.049198,0.010121,0.0,0.022325,0.007437,-0.027556,-0.033826,4076.370117,11512.44043,51353.191406,0.0,-17642.429688,-17639.730469,17915.310547,-17388.900391,4108.140137,11502.720703,51506.730469,0.0,17706.419922,17706.419922,-17441.369141,17977.861328,0.0,0.0,0.0,0.0,0.0,0.0,0.0,0.0,0.0,0.0,0.0,0.0,0.0,0.0,0.0,0.0,0.0,0.0,0.0,0.0,0.0,0.0,0.0,0.0,0.0,0.0,0.0,0.0,0.0,0.0,0.0,0.0,4076.366699,11510.351562,51354.75,0.0,-17654.841797,-17651.609375,17912.146484,-17396.816406,4108.056641,11501.677734,51505.996094,0.0,17708.095703,17708.087891,-17450.5625,17965.646484,29.930094,90.364868,22.827585,0.0,0.034824,0.380252,28.40386,28.906248,30.162771,90.259644,22.896688,0.0,0.051845,0.030298,28.59408,28.688635,1.021,1.041,-63617.0,-145286.0,-412178.0,0.0,141786.0,141676.0,-145019.0,138607.0,-60642.0,-140418.0,-417313.0,0.0,-143245.0,-143379.0,140109.0,-146099.0,0.0,0.0,0.0,0.0,0.0,0.0,0.0,0.0,0.0,0.0,0.0,0.0,0.0,0.0,0.0,0.0,0.0,0.0,0.0,0.0,0.0,0.0,0.0,0.0
18,1.6879520416259766,0.522379,1.577464,0.398402,0.0,-3.0995340000000002,0.029696,0.490181,0.531226,0.52645,1.575476,0.399627,0.0,-3.144512,-0.002707,0.518345,0.522451,3.0,1.0,111.0,0.0,1.0,-79479.0,-25357.0,14000.0,-78149.0,25680.0,13574.0,-0.950156,-0.206953,0.233184,-0.272345,0.186863,-0.943881,0.151766,-0.96034,-0.233912,-0.936272,0.218261,0.275238,0.310466,0.14761,0.939054,0.164331,0.964662,-0.205966,-0.950156,-0.206953,0.233184,-0.272345,0.186863,-0.943881,0.151766,-0.96034,-0.233912,-0.936272,0.218261,0.275238,0.310466,0.14761,0.939054,0.164331,0.964662,-0.205966,-79479.0,-25357.0,14000.0,-78149.0,25680.0,13574.0,18324.0,17370.0,-158413.0,0.0,-54242.0,-54321.0,-54039.0,-54604.0,-14996.0,-12610.0,154984.0,0.0,53493.0,53359.0,53685.0,53653.0,44.0,202.0,-59.0,0.0,-280.0,498.0,590.0,-501.0,-50.0,-181.0,37.0,0.0,610.0,204.0,755.0,-926.0,-0.01213,-0.054736,0.016129,0.0,-0.010271,0.01823,-0.02159,-0.018341,-0.013789,-0.049198,0.010121,0.0,0.022357,0.007469,-0.027652,-0.033901,4076.370117,11512.44043,51353.191406,0.0,-17642.521484,-17639.730469,17915.220703,-17388.990234,4108.140137,11502.720703,51506.730469,0.0,17706.419922,17706.419922,-17441.460938,17977.679688,0.0,0.0,0.0,0.0,0.0,0.0,0.0,0.0,0.0,0.0,0.0,0.0,0.0,0.0,0.0,0.0,0.0,0.0,0.0,0.0,0.0,0.0,0.0,0.0,0.0,0.0,0.0,0.0,0.0,0.0,0.0,0.0,4076.366699,11510.351562,51354.75,0.0,-17654.841797,-17651.609375,17912.146484,-17396.816406,4108.056641,11501.677734,51505.996094,0.0,17708.095703,17708.087891,-17450.5625,17965.646484,29.930094,90.364868,22.827585,0.0,0.034824,0.380252,28.40386,28.906248,30.162771,90.259644,22.896688,0.0,0.051845,0.030298,28.59408,28.688635,1.021,1.04,-63617.0,-145286.0,-412178.0,0.0,141786.0,141676.0,-145019.0,138607.0,-60642.0,-140418.0,-417313.0,0.0,-143245.0,-143379.0,140109.0,-146099.0,0.0,0.0,0.0,0.0,0.0,0.0,0.0,0.0,0.0,0.0,0.0,0.0,0.0,0.0,0.0,0.0,0.0,0.0,0.0,0.0,0.0,0.0,0.0,0.0
19,1.7089149951934814,0.522379,1.577464,0.398402,0.0,-3.0995340000000002,0.029696,0.490004,0.531053,0.52645,1.575476,0.399627,0.0,-3.144224,-0.002707,0.518172,0.522278,3.0,1.0,111.0,0.0,1.0,-79479.0,-25357.0,14000.0,-78149.0,25680.0,13574.0,-0.950156,-0.206952,0.233184,-0.272344,0.186863,-0.943881,0.151764,-0.96034,-0.233912,-0.936272,0.218182,0.275301,0.310466,0.147339,0.939097,0.164332,0.964722,-0.205687,-0.950156,-0.206952,0.233184,-0.272344,0.186863,-0.943881,0.151764,-0.96034,-0.233912,-0.936272,0.218182,0.275301,0.310466,0.147339,0.939097,0.164332,0.964722,-0.205687,-79479.0,-25357.0,14000.0,-78149.0,25680.0,13574.0,18324.0,17370.0,-158413.0,0.0,-54242.0,-54321.0,-54038.0,-54605.0,-14996.0,-12610.0,154984.0,0.0,53494.0,53359.0,53686.0,53652.0,44.0,202.0,-59.0,0.0,-286.0,492.0,589.0,-503.0,-50.0,-181.0,37.0,0.0,607.0,204.0,758.0,-930.0,-0.01213,-0.054736,0.016129,0.0,-0.010497,0.018013,-0.021567,-0.018406,-0.013789,-0.049198,0.010121,0.0,0.022247,0.0075,-0.02774,-0.034043,4076.370117,11512.44043,51353.191406,0.0,-17642.521484,-17639.730469,17915.130859,-17389.080078,4108.140137,11502.720703,51506.730469,0.0,17706.509766,17706.419922,-17441.550781,17977.591797,0.0,0.0,0.0,0.0,0.0,0.0,-90.92347,0.0,0.0,0.0,0.0,0.0,0.0,0.0,0.0,0.0,0.0,0.0,0.0,0.0,0.0,0.0,-0.176481,0.0,0.0,0.0,0.0,0.0,0.0,0.0,0.0,0.0,4076.366699,11510.351562,51354.75,0.0,-17654.841797,-17651.609375,17912.146484,-17396.816406,4108.056641,11501.677734,51505.996094,0.0,17708.095703,17708.087891,-17450.5625,17965.646484,29.930094,90.364868,22.827585,0.0,0.034824,0.380252,28.40386,28.906248,30.162771,90.259644,22.896688,0.0,0.051845,0.030298,28.59408,28.688635,1.021,1.04,-63617.0,-145286.0,-412178.0,0.0,141786.0,141676.0,-145019.0,138607.0,-60642.0,-140418.0,-417313.0,0.0,-143245.0,-143379.0,140109.0,-146099.0,0.0,0.0,0.0,0.0,0.0,-0.176481,0.0,0.0,0.0,0.0,0.0,0.0,0.0,0.0,0.0,0.0,0.0,-0.176481,0.0,0.0,0.0,0.0,0.0,0.0
20,1.7289149761199951,0.522379,1.577464,0.398402,0.0,-3.099822,0.029696,0.490004,0.530876,0.52645,1.575476,0.399627,0.0,-3.144224,-0.002707,0.517995,0.522102,3.0,1.0,111.0,0.0,1.0,-79479.0,-25357.0,14000.0,-78149.0,25680.0,13574.0,-0.950138,-0.20696,0.233249,-0.272365,0.18657,-0.943933,0.151839,-0.960395,-0.233636,-0.936272,0.218182,0.275301,0.310466,0.147339,0.939097,0.164332,0.964722,-0.205687,-0.950138,-0.20696,0.233249,-0.272365,0.18657,-0.943933,0.151839,-0.960395,-0.233636,-0.936272,0.218182,0.275301,0.310466,0.147339,0.939097,0.164332,0.964722,-0.205687,-79479.0,-25357.0,14000.0,-78149.0,25680.0,13574.0,18324.0,17370.0,-158413.0,0.0,-54243.0,-54321.0,-54038.0,-54606.0,-14996.0,-12610.0,154984.0,0.0,53494.0,53359.0,53687.0,53651.0,44.0,202.0,-59.0,0.0,-288.0,486.0,590.0,-504.0,-50.0,-181.0,37.0,0.0,608.0,205.0,760.0,-933.0,-0.01213,-0.054736,0.016129,0.0,-0.01057,0.017805,-0.021619,-0.01846,-0.013789,-0.049198,0.010121,0.0,0.022274,0.007529,-0.027817,-0.034172,4076.370117,11512.44043,51353.191406,0.0,-17642.609375,-17639.730469,17915.130859,-17389.171875,4108.140137,11502.720703,51506.730469,0.0,17706.509766,17706.419922,-17441.640625,17977.5,0.0,0.0,0.0,0.0,0.0,0.0,0.0,0.0,0.0,0.0,0.0,0.0,0.0,0.0,0.0,0.0,0.0,0.0,0.0,0.0,0.0,0.0,0.0,0.0,0.0,0.0,0.0,0.0,0.0,0.0,0.0,0.0,4076.366699,11510.351562,51354.75,0.0,-17654.841797,-17651.609375,17912.146484,-17396.816406,4108.056641,11501.677734,51505.996094,0.0,17708.095703,17708.087891,-17450.5625,17965.646484,29.930094,90.364868,22.827585,0.0,0.034824,0.380252,28.40386,28.906248,30.162771,90.259644,22.896688,0.0,0.051845,0.030298,28.59408,28.688635,1.02,1.04,-63617.0,-145286.0,-412178.0,0.0,141786.0,141676.0,-145019.0,138607.0,-60642.0,-140418.0,-417313.0,0.0,-143245.0,-143379.0,140109.0,-146099.0,0.0,0.0,0.0,0.0,0.0,0.0,0.0,0.0,0.0,0.0,0.0,0.0,0.0,0.0,0.0,0.0,0.0,0.0,0.0,0.0,0.0,0.0,0.0,0.0
21,1.7499151229858398,0.522379,1.577464,0.398402,0.0,-3.100117,0.029696,0.490004,0.530527,0.52645,1.575476,0.399627,0.0,-3.144224,-0.002707,0.517995,0.521752,3.0,1.0,111.0,0.0,1.0,-79479.0,-25357.0,14000.0,-78149.0,25680.0,13574.0,-0.950102,-0.20705,0.233316,-0.272401,0.186247,-0.943986,0.151998,-0.960439,-0.233354,-0.936311,0.218019,0.275301,0.31044,0.147393,0.939097,0.164163,0.96475,-0.205687,-0.950102,-0.20705,0.233316,-0.272401,0.186247,-0.943986,0.151998,-0.960439,-0.233354,-0.936311,0.218019,0.275301,0.31044,0.147393,0.939097,0.164163,0.96475,-0.205687,-79479.0,-25357.0,14000.0,-78149.0,25680.0,13574.0,18324.0,17370.0,-158413.0,0.0,-54244.0,-54321.0,-54038.0,-54608.0,-14996.0,-12610.0,154984.0,0.0,53494.0,53359.0,53687.0,53649.0,44.0,202.0,-59.0,0.0,-291.0,480.0,592.0,-503.0,-50.0,-181.0,37.0,0.0,609.0,206.0,764.0,-935.0,-0.01213,-0.054736,0.016129,0.0,-0.01065,0.017588,-0.021673,-0.018441,-0.013789,-0.049198,0.010121,0.0,0.022304,0.00756,-0.027981,-0.034229,4076.370117,11512.44043,51353.191406,0.0,-17642.701172,-17639.730469,17915.130859,-17389.351562,4108.140137,11502.720703,51506.730469,0.0,17706.509766,17706.419922,-17441.640625,17977.320312,0.0,0.0,0.0,0.0,0.0,0.0,0.0,0.0,0.0,0.0,0.0,0.0,0.0,0.0,0.0,0.0,0.0,0.0,0.0,0.0,0.0,0.0,0.0,0.0,0.0,0.0,0.0,0.0,0.0,0.0,0.0,0.0,4076.366699,11510.351562,51354.75,0.0,-17654.841797,-17651.609375,17912.146484,-17396.816406,4108.056641,11501.677734,51505.996094,0.0,17708.095703,17708.087891,-17450.5625,17965.646484,29.930094,90.364868,22.827585,0.0,0.034824,0.380252,28.40386,28.906248,30.162771,90.259644,22.896688,0.0,0.051845,0.030298,28.59408,28.688635,1.02,1.039,-63617.0,-145286.0,-412178.0,0.0,141786.0,141676.0,-145019.0,138607.0,-60642.0,-140418.0,-417313.0,0.0,-143245.0,-143379.0,140109.0,-146099.0,0.0,0.0,0.0,0.0,0.0,0.0,0.0,0.0,0.0,0.0,0.0,0.0,0.0,0.0,0.0,0.0,0.0,0.0,0.0,0.0,0.0,0.0,0.0,0.0
22,1.7698769569396973,0.522379,1.577464,0.398402,0.0,-3.1004050000000003,0.029696,0.489831,0.530354,0.52645,1.575476,0.399627,0.0,-3.144224,-0.002707,0.517822,0.521402,3.0,1.0,111.0,0.0,1.0,-79480.0,-25357.0,14000.0,-78149.0,25680.0,13574.0,-0.950103,-0.206974,0.233381,-0.272405,0.185977,-0.944038,0.151988,-0.960507,-0.233078,-0.93633,0.217936,0.275301,0.310427,0.14742,0.939097,0.164078,0.964765,-0.205687,-0.950121,-0.206892,0.233381,-0.272389,0.186001,-0.944038,0.151905,-0.96052,-0.233078,-0.93633,0.217936,0.275301,0.310427,0.14742,0.939097,0.164078,0.964765,-0.205687,-79480.0,-25357.0,14000.0,-78149.0,25680.0,13574.0,18324.0,17370.0,-158413.0,0.0,-54245.0,-54321.0,-54037.0,-54609.0,-14996.0,-12610.0,154984.0,0.0,53494.0,53359.0,53688.0,53647.0,44.0,202.0,-59.0,0.0,-293.0,474.0,591.0,-505.0,-50.0,-181.0,37.0,0.0,610.0,207.0,766.0,-936.0,-0.01213,-0.054736,0.016129,0.0,-0.010722,0.01738,-0.021646,-0.018494,-0.013789,-0.049198,0.010121,0.0,0.022331,0.007589,-0.028057,-0.034274,4076.370117,11512.44043,51353.191406,0.0,-17642.789062,-17639.730469,17915.041016,-17389.441406,4108.140137,11502.720703,51506.730469,0.0,17706.509766,17706.419922,-17441.730469,17977.140625,0.0,0.0,0.0,0.0,0.0,0.0,0.0,-89.174942,0.0,0.0,0.0,0.0,0.0,0.0,0.0,0.0,0.0,0.0,0.0,0.0,0.0,0.0,0.0,-0.173088,0.0,0.0,0.0,0.0,0.0,0.0,0.0,0.0,4076.366699,11510.351562,51354.75,0.0,-17654.841797,-17651.609375,17912.146484,-17396.816406,4108.056641,11501.677734,51505.996094,0.0,17708.095703,17708.087891,-17450.5625,17965.646484,29.930094,90.364868,22.827585,0.0,0.034824,0.380252,28.40386,28.906248,30.162771,90.259644,22.896688,0.0,0.051845,0.030298,28.59408,28.688635,1.02,1.039,-63617.0,-145286.0,-412178.0,0.0,141786.0,141676.0,-145019.0,138607.0,-60642.0,-140418.0,-417313.0,0.0,-143245.0,-143379.0,140109.0,-146099.0,0.0,0.0,0.0,0.0,0.0,0.0,0.0,0.0,0.0,0.0,0.0,0.0,0.0,0.0,0.0,0.0,0.0,0.0,0.0,0.0,0.0,0.0,0.0,0.0
23,1.7899141311645508,0.522379,1.577464,0.398402,0.0,-3.1004050000000003,0.02952,0.489919,0.530092,0.52645,1.575476,0.399627,0.0,-3.144224,-0.002707,0.517646,0.521053,3.0,1.0,111.0,0.0,1.0,-79479.0,-25359.0,14000.0,-78149.0,25680.0,13574.0,-0.950025,-0.207141,0.233548,-0.272604,0.185933,-0.943989,0.152115,-0.96048,-0.233108,-0.936349,0.217855,0.275301,0.310414,0.147447,0.939097,0.163995,0.964779,-0.205687,-0.950043,-0.207059,0.233548,-0.272588,0.185956,-0.943989,0.152032,-0.960493,-0.233108,-0.936349,0.217855,0.275301,0.310414,0.147447,0.939097,0.163995,0.964779,-0.205687,-79479.0,-25359.0,14000.0,-78149.0,25680.0,13574.0,18324.0,17370.0,-158413.0,0.0,-54245.0,-54322.0,-54037.0,-54610.0,-14996.0,-12610.0,154984.0,0.0,53494.0,53359.0,53689.0,53645.0,44.0,202.0,-59.0,0.0,-298.0,471.0,592.0,-506.0,-50.0,-181.0,37.0,0.0,611.0,208.0,768.0,-937.0,-0.01213,-0.054736,0.016129,0.0,-0.010932,0.017253,-0.021697,-0.018544,-0.013789,-0.049198,0.010121,0.0,0.022359,0.007618,-0.028131,-0.034315,4076.370117,11512.44043,51353.191406,0.0,-17642.789062,-17639.820312,17915.041016,-17389.529297,4108.140137,11502.720703,51506.730469,0.0,17706.509766,17706.419922,-17441.820312,17976.960938,0.0,0.0,0.0,0.0,0.0,0.0,0.0,-89.174942,0.0,0.0,0.0,0.0,0.0,0.0,0.0,0.0,0.0,0.0,0.0,0.0,0.0,0.0,0.0,-0.173088,0.0,0.0,0.0,0.0,0.0,0.0,0.0,0.0,4076.366699,11510.351562,51354.75,0.0,-17654.841797,-17651.609375,17912.146484,-17396.816406,4108.056641,11501.677734,51505.996094,0.0,17708.095703,17708.087891,-17450.5625,17965.646484,29.930094,90.364868,22.827585,0.0,0.034824,0.380252,28.40386,28.906248,30.162771,90.259644,22.896688,0.0,0.051845,0.030298,28.59408,28.688635,1.02,1.038,-63617.0,-145286.0,-412178.0,0.0,141786.0,141676.0,-145019.0,138607.0,-60642.0,-140418.0,-417313.0,0.0,-143245.0,-143379.0,140109.0,-146099.0,0.0,0.0,0.0,0.0,0.0,0.0,0.0,0.0,0.0,0.0,0.0,0.0,0.0,0.0,0.0,0.0,0.0,0.0,0.0,0.0,0.0,0.0,0.0,0.0
24,1.8119690418243408,0.522379,1.577464,0.398402,0.0,-3.100699,0.02952,0.489743,0.529916,0.52645,1.575476,0.399627,0.0,-3.144224,-0.002707,0.517473,0.52053,3.0,1.0,111.0,0.0,1.0,-79479.0,-25359.0,14000.0,-78149.0,25680.0,13574.0,-0.950026,-0.207064,0.233614,-0.272608,0.185658,-0.944042,0.152105,-0.96055,-0.232827,-0.936387,0.217691,0.275301,0.310389,0.147501,0.939097,0.163826,0.964808,-0.205687,-0.950026,-0.207064,0.233614,-0.272608,0.185658,-0.944042,0.152105,-0.96055,-0.232827,-0.936387,0.217691,0.275301,0.310389,0.147501,0.939097,0.163826,0.964808,-0.205687,-79479.0,-25359.0,14000.0,-78149.0,25680.0,13574.0,18324.0,17370.0,-158413.0,0.0,-54246.0,-54322.0,-54036.0,-54611.0,-14996.0,-12610.0,154984.0,0.0,53494.0,53359.0,53690.0,53642.0,44.0,202.0,-59.0,0.0,-301.0,465.0,592.0,-508.0,-50.0,-181.0,37.0,0.0,611.0,209.0,771.0,-937.0,-0.01213,-0.054736,0.016129,0.0,-0.01102,0.017027,-0.021672,-0.018605,-0.013789,-0.049198,0.010121,0.0,0.022389,0.00765,-0.02822,-0.034294,4076.370117,11512.44043,51353.191406,0.0,-17642.880859,-17639.820312,17914.949219,-17389.621094,4108.140137,11502.720703,51506.730469,0.0,17706.509766,17706.419922,-17441.910156,17976.691406,0.0,0.0,0.0,0.0,0.0,0.0,0.0,0.0,0.0,0.0,0.0,0.0,0.0,0.0,0.0,0.0,0.0,0.0,0.0,0.0,0.0,0.0,0.0,0.0,0.0,0.0,0.0,0.0,0.0,0.0,0.0,0.0,4076.366699,11510.351562,51354.75,0.0,-17654.841797,-17651.609375,17912.146484,-17396.816406,4108.056641,11501.677734,51505.996094,0.0,17708.095703,17708.087891,-17450.5625,17965.646484,29.930094,90.364868,22.827585,0.0,0.034824,0.380252,28.40386,28.906248,30.162771,90.259644,22.896688,0.0,0.051845,0.030298,28.59408,28.688635,1.019,1.038,-63617.0,-145286.0,-412178.0,0.0,141786.0,141676.0,-145019.0,138607.0,-60642.0,-140418.0,-417313.0,0.0,-143245.0,-143379.0,140109.0,-146099.0,0.0,0.0,0.0,0.0,0.0,0.0,0.0,0.0,0.0,0.0,0.0,0.0,0.0,0.0,0.0,0.0,0.0,0.0,0.0,0.0,0.0,0.0,0.0,0.0
25,1.8319239616394043,0.522379,1.577464,0.398402,0.0,-3.100699,0.02952,0.489743,0.529743,0.52645,1.575476,0.399627,0.0,-3.144224,-0.002707,0.517296,0.519831,3.0,1.0,111.0,0.0,1.0,-79479.0,-25359.0,14000.0,-78149.0,25680.0,13574.0,-0.950008,-0.207146,0.233614,-0.272624,0.185634,-0.944042,0.152188,-0.960537,-0.232827,-0.936444,0.217447,0.275301,0.31035,0.147583,0.939097,0.163574,0.96485,-0.205687,-0.950008,-0.207146,0.233614,-0.272624,0.185634,-0.944042,0.152188,-0.960537,-0.232827,-0.936444,0.217447,0.275301,0.31035,0.147583,0.939097,0.163574,0.96485,-0.205687,-79479.0,-25359.0,14000.0,-78149.0,25680.0,13574.0,18324.0,17370.0,-158413.0,0.0,-54246.0,-54322.0,-54036.0,-54612.0,-14996.0,-12610.0,154984.0,0.0,53494.0,53359.0,53691.0,53638.0,44.0,202.0,-59.0,0.0,-306.0,459.0,593.0,-509.0,-50.0,-181.0,37.0,0.0,612.0,209.0,773.0,-933.0,-0.01213,-0.054736,0.016129,0.0,-0.011228,0.016821,-0.02172,-0.018652,-0.013789,-0.049198,0.010121,0.0,0.022417,0.007679,-0.028291,-0.034169,4076.370117,11512.44043,51353.191406,0.0,-17642.880859,-17639.820312,17914.949219,-17389.708984,4108.140137,11502.720703,51506.730469,0.0,17706.509766,17706.419922,-17442.001953,17976.330078,0.0,0.0,0.0,0.0,0.0,0.0,0.0,0.0,0.0,0.0,0.0,0.0,0.0,0.0,0.0,-89.174942,0.0,0.0,0.0,0.0,0.0,0.0,0.0,0.0,0.0,0.0,0.0,0.0,0.0,0.0,0.0,-0.173088,4076.366699,11510.351562,51354.75,0.0,-17654.841797,-17651.609375,17912.146484,-17396.816406,4108.056641,11501.677734,51505.996094,0.0,17708.095703,17708.087891,-17450.5625,17965.646484,29.930094,90.364868,22.827585,0.0,0.034824,0.380252,28.40386,28.906248,30.162771,90.259644,22.896688,0.0,0.051845,0.030298,28.59408,28.688635,1.019,1.037,-63617.0,-145286.0,-412178.0,0.0,141786.0,141676.0,-145019.0,138607.0,-60642.0,-140418.0,-417313.0,0.0,-143245.0,-143379.0,140109.0,-146099.0,0.0,0.0,0.0,0.0,0.0,0.0,0.0,0.0,0.0,0.0,0.0,0.0,0.0,0.0,0.0,0.0,0.0,0.0,0.0,0.0,0.0,0.0,0.0,0.0
26,1.8529510498046875,0.522379,1.577464,0.398402,0.0,-3.100988,0.02952,0.48957,0.529566,0.52645,1.575476,0.399627,0.0,-3.14393,-0.002707,0.517123,0.519308,3.0,1.0,111.0,0.0,1.0,-79479.0,-25359.0,13999.0,-78149.0,25680.0,13574.0,-0.950008,-0.207072,0.23368,-0.272628,0.185364,-0.944094,0.15218,-0.960605,-0.232551,-0.936481,0.217203,0.275364,0.310324,0.14736,0.93914,0.163406,0.964939,-0.205403,-0.950008,-0.207072,0.23368,-0.272628,0.185364,-0.944094,0.15218,-0.960605,-0.232551,-0.936481,0.217203,0.275364,0.310324,0.14736,0.93914,0.163406,0.964939,-0.205403,-79479.0,-25359.0,13999.0,-78149.0,25680.0,13574.0,18324.0,17370.0,-158413.0,0.0,-54247.0,-54322.0,-54035.0,-54613.0,-14996.0,-12610.0,154984.0,0.0,53495.0,53359.0,53692.0,53635.0,44.0,202.0,-59.0,0.0,-308.0,453.0,592.0,-511.0,-50.0,-181.0,37.0,0.0,566.0,210.0,775.0,-932.0,-0.01213,-0.054736,0.016129,0.0,-0.011306,0.016605,-0.021694,-0.018703,-0.013789,-0.049198,0.010121,0.0,0.020716,0.00771,-0.028369,-0.034128,4076.370117,11512.44043,51353.191406,0.0,-17642.970703,-17639.820312,17914.861328,-17389.800781,4108.140137,11502.720703,51506.730469,0.0,17706.601562,17706.419922,-17442.089844,17976.060547,0.0,0.0,0.0,0.0,0.0,0.0,0.0,0.0,0.0,0.0,0.0,0.0,90.92347,0.0,0.0,0.0,0.0,0.0,0.0,0.0,0.0,0.0,0.0,0.0,0.0,0.0,0.0,0.0,0.294136,0.0,0.0,0.0,4076.366699,11510.351562,51354.75,0.0,-17654.841797,-17651.609375,17912.146484,-17396.816406,4108.056641,11501.677734,51505.996094,0.0,17708.095703,17708.087891,-17450.5625,17965.646484,29.930094,90.364868,22.827585,0.0,0.034824,0.380252,28.40386,28.906248,30.162771,90.259644,22.896688,0.0,0.051845,0.030298,28.59408,28.688635,1.019,1.036,-63617.0,-145286.0,-412178.0,0.0,141786.0,141676.0,-145019.0,138607.0,-60642.0,-140418.0,-417313.0,0.0,-143245.0,-143379.0,140109.0,-146099.0,0.0,0.0,0.0,0.0,0.0,0.0,0.0,0.0,0.0,-0.000692,0.000394,-0.294135,0.0,0.0,0.0,0.0,0.0,0.0,0.0,0.0,0.0,-0.000692,0.000394,-0.294135
27,1.8738899230957031,0.522379,1.577464,0.398402,0.0,-3.1012820000000003,0.02952,0.48957,0.529393,0.52645,1.575476,0.399627,0.0,-3.14393,-0.002707,0.516773,0.518782,3.0,1.0,111.0,0.0,1.0,-79479.0,-25359.0,13999.0,-78149.0,25680.0,13574.0,-0.94999,-0.207078,0.233746,-0.272648,0.185065,-0.944147,0.152254,-0.960661,-0.232269,-0.936501,0.21712,0.275364,0.310311,0.147388,0.93914,0.163321,0.964954,-0.205403,-0.94999,-0.207078,0.233746,-0.272648,0.185065,-0.944147,0.152254,-0.960661,-0.232269,-0.936501,0.21712,0.275364,0.310311,0.147388,0.93914,0.163321,0.964954,-0.205403,-79479.0,-25359.0,13999.0,-78149.0,25680.0,13574.0,18324.0,17370.0,-158413.0,0.0,-54248.0,-54322.0,-54035.0,-54614.0,-14996.0,-12610.0,154984.0,0.0,53495.0,53359.0,53694.0,53632.0,44.0,202.0,-59.0,0.0,-310.0,447.0,594.0,-512.0,-50.0,-181.0,37.0,0.0,610.0,211.0,775.0,-931.0,-0.01213,-0.054736,0.016129,0.0,-0.01138,0.016389,-0.021743,-0.018753,-0.013789,-0.049198,0.010121,0.0,0.022331,0.00774,-0.028365,-0.034079,4076.370117,11512.44043,51353.191406,0.0,-17643.060547,-17639.820312,17914.861328,-17389.890625,4108.140137,11502.720703,51506.730469,0.0,17706.601562,17706.419922,-17442.269531,17975.791016,0.0,0.0,0.0,0.0,0.0,0.0,0.0,0.0,0.0,0.0,0.0,0.0,0.0,0.0,0.0,0.0,0.0,0.0,0.0,0.0,0.0,0.0,0.0,0.0,0.0,0.0,0.0,0.0,0.0,0.0,0.0,0.0,4076.366699,11510.351562,51354.75,0.0,-17654.841797,-17651.609375,17912.146484,-17396.816406,4108.056641,11501.677734,51505.996094,0.0,17708.095703,17708.087891,-17450.5625,17965.646484,29.930094,90.364868,22.827585,0.0,0.034824,0.380252,28.40386,28.906248,30.162771,90.259644,22.896688,0.0,0.051845,0.030298,28.59408,28.688635,1.018,1.035,-63617.0,-145286.0,-412178.0,0.0,141786.0,141676.0,-145019.0,138607.0,-60642.0,-140418.0,-417313.0,0.0,-143245.0,-143379.0,140109.0,-146099.0,0.0,0.0,0.0,0.0,0.0,0.0,0.0,0.0,0.0,0.0,0.0,0.0,0.0,0.0,0.0,0.0,0.0,0.0,0.0,0.0,0.0,0.0,0.0,0.0
28,1.893916130065918,0.522379,1.577464,0.398402,0.0,-3.10157,0.02952,0.48957,0.529217,0.52645,1.575476,0.399627,0.0,-3.14393,-0.002707,0.5166,0.51826,3.0,1.0,111.0,0.0,1.0,-79479.0,-25359.0,13999.0,-78149.0,25680.0,13574.0,-0.949973,-0.207086,0.233811,-0.272669,0.184771,-0.944199,0.152329,-0.960716,-0.231993,-0.936539,0.216956,0.275364,0.310285,0.147442,0.93914,0.163152,0.964982,-0.205403,-0.949973,-0.207086,0.233811,-0.272669,0.184771,-0.944199,0.152329,-0.960716,-0.231993,-0.936539,0.216956,0.275364,0.310285,0.147442,0.93914,0.163152,0.964982,-0.205403,-79479.0,-25359.0,13999.0,-78149.0,25680.0,13574.0,18324.0,17370.0,-158413.0,0.0,-54249.0,-54322.0,-54035.0,-54615.0,-14996.0,-12610.0,154984.0,0.0,53495.0,53359.0,53695.0,53629.0,44.0,202.0,-59.0,0.0,-270.0,442.0,595.0,-513.0,-50.0,-181.0,37.0,0.0,610.0,212.0,776.0,-929.0,-0.01213,-0.054736,0.016129,0.0,-0.009889,0.016183,-0.021791,-0.018793,-0.013789,-0.049198,0.010121,0.0,0.022357,0.007769,-0.02843,-0.034018,4076.370117,11512.44043,51353.191406,0.0,-17643.150391,-17639.820312,17914.861328,-17389.980469,4108.140137,11502.720703,51506.730469,0.0,17706.601562,17706.419922,-17442.359375,17975.521484,0.0,0.0,0.0,0.0,-89.174942,0.0,0.0,0.0,0.0,0.0,0.0,0.0,0.0,0.0,0.0,0.0,0.0,0.0,0.0,0.0,-0.288479,0.0,0.0,0.0,0.0,0.0,0.0,0.0,0.0,0.0,0.0,0.0,4076.366699,11510.351562,51354.75,0.0,-17654.841797,-17651.609375,17912.146484,-17396.816406,4108.056641,11501.677734,51505.996094,0.0,17708.095703,17708.087891,-17450.5625,17965.646484,29.930094,90.364868,22.827585,0.0,0.034824,0.380252,28.40386,28.906248,30.162771,90.259644,22.896688,0.0,0.051845,0.030298,28.59408,28.688635,1.018,1.034,-63617.0,-145286.0,-412178.0,0.0,141786.0,141676.0,-145019.0,138607.0,-60642.0,-140418.0,-417313.0,0.0,-143245.0,-143379.0,140109.0,-146099.0,0.0,0.0,0.0,-0.007514,0.004004,0.288354,0.0,0.0,0.0,0.0,0.0,0.0,0.0,0.0,0.0,-0.007514,0.004004,0.288354,0.0,0.0,0.0,0.0,0.0,0.0
29,1.913909912109375,0.522379,1.577464,0.398402,0.0,-3.10157,0.02952,0.489393,0.529044,0.52645,1.575476,0.399627,0.0,-3.14393,-0.002707,0.516424,0.51791,3.0,1.0,111.0,0.0,1.0,-79479.0,-25359.0,13999.0,-78149.0,25680.0,13574.0,-0.949973,-0.207084,0.233811,-0.272668,0.184772,-0.944199,0.152327,-0.960716,-0.231993,-0.936557,0.216875,0.275364,0.310272,0.147469,0.93914,0.163069,0.964996,-0.205403,-0.949973,-0.207084,0.233811,-0.272668,0.184772,-0.944199,0.152327,-0.960716,-0.231993,-0.936539,0.216956,0.275364,0.310285,0.147442,0.93914,0.163152,0.964982,-0.205403,-79479.0,-25359.0,13999.0,-78149.0,25680.0,13574.0,18324.0,17370.0,-158413.0,0.0,-54249.0,-54322.0,-54034.0,-54616.0,-14996.0,-12610.0,154984.0,0.0,53495.0,53359.0,53696.0,53627.0,44.0,202.0,-59.0,0.0,-318.0,436.0,594.0,-514.0,-50.0,-181.0,37.0,0.0,611.0,213.0,778.0,-930.0,-0.01213,-0.054736,0.016129,0.0,-0.011649,0.015977,-0.021758,-0.018834,-0.013789,-0.049198,0.010121,0.0,0.022383,0.007798,-0.028493,-0.034032,4076.370117,11512.44043,51353.191406,0.0,-17643.150391,-17639.820312,17914.769531,-17390.070312,4108.140137,11502.720703,51506.730469,0.0,17706.601562,17706.419922,-17442.451172,17975.341797,0.0,0.0,0.0,0.0,0.0,0.0,0.0,0.0,0.0,0.0,0.0,0.0,0.0,0.0,0.0,-89.174942,0.0,0.0,0.0,0.0,0.0,0.0,0.0,0.0,0.0,0.0,0.0,0.0,0.0,0.0,0.0,-0.173088,4076.366699,11510.351562,51354.75,0.0,-17654.841797,-17651.609375,17912.146484,-17396.816406,4108.056641,11501.677734,51505.996094,0.0,17708.095703,17708.087891,-17450.5625,17965.646484,29.930094,90.364868,22.827585,0.0,0.034824,0.380252,28.40386,28.906248,30.162771,90.259644,22.896688,0.0,0.051845,0.030298,28.59408,28.688635,1.018,1.034,-63617.0,-145286.0,-412178.0,0.0,141786.0,141676.0,-145019.0,138607.0,-60642.0,-140418.0,-417313.0,0.0,-143245.0,-143379.0,140109.0,-146099.0,0.0,0.0,0.0,0.0,0.0,0.0,0.0,0.0,0.0,0.0,0.0,0.0,0.0,0.0,0.0,0.0,0.0,0.0,0.0,0.0,0.0,0.0,0.0,0.0
30,1.9359180927276611,0.522379,1.577464,0.398402,0.0,-3.101864,0.02952,0.489393,0.528694,0.52645,1.575476,0.399627,0.0,-3.14393,-0.002707,0.516074,0.51756,3.0,1.0,111.0,0.0,1.0,-79479.0,-25359.0,13999.0,-78149.0,25680.0,13574.0,-0.949937,-0.207173,0.233877,-0.272704,0.184449,-0.944252,0.152485,-0.960759,-0.231712,-0.936557,0.216875,0.275364,0.310272,0.147469,0.93914,0.163069,0.964996,-0.205403,-0.949937,-0.207173,0.233877,-0.272704,0.184449,-0.944252,0.152485,-0.960759,-0.231712,-0.936557,0.216875,0.275364,0.310272,0.147469,0.93914,0.163069,0.964996,-0.205403,-79479.0,-25359.0,13999.0,-78149.0,25680.0,13574.0,18324.0,17370.0,-158413.0,0.0,-54250.0,-54322.0,-54034.0,-54618.0,-14996.0,-12610.0,154984.0,0.0,53495.0,53359.0,53698.0,53625.0,44.0,202.0,-59.0,0.0,-320.0,430.0,595.0,-513.0,-50.0,-181.0,37.0,0.0,612.0,213.0,778.0,-930.0,-0.01213,-0.054736,0.016129,0.0,-0.01173,0.015751,-0.021809,-0.018805,-0.013789,-0.049198,0.010121,0.0,0.022412,0.00783,-0.02849,-0.03406,4076.370117,11512.44043,51353.191406,0.0,-17643.240234,-17639.820312,17914.769531,-17390.25,4108.140137,11502.720703,51506.730469,0.0,17706.601562,17706.419922,-17442.630859,17975.160156,0.0,0.0,0.0,0.0,0.0,0.0,0.0,0.0,0.0,0.0,0.0,0.0,0.0,0.0,0.0,-89.174942,0.0,0.0,0.0,0.0,0.0,0.0,0.0,0.0,0.0,0.0,0.0,0.0,0.0,0.0,0.0,-0.173088,4076.366699,11510.351562,51354.75,0.0,-17654.841797,-17651.609375,17912.146484,-17396.816406,4108.056641,11501.677734,51505.996094,0.0,17708.095703,17708.087891,-17450.5625,17965.646484,29.930094,90.364868,22.827585,0.0,0.034824,0.380252,28.40386,28.906248,30.162771,90.259644,22.896688,0.0,0.051845,0.030298,28.59408,28.688635,1.018,1.033,-63617.0,-145286.0,-412178.0,0.0,141786.0,141676.0,-145019.0,138607.0,-60642.0,-140418.0,-417313.0,0.0,-143245.0,-143379.0,140109.0,-146099.0,0.0,0.0,0.0,0.0,0.0,0.0,0.0,0.0,0.0,0.0,0.0,0.0,0.0,0.0,0.0,0.0,0.0,0.0,0.0,0.0,0.0,0.0,0.0,0.0
31,1.9559080600738523,0.522379,1.577464,0.398402,0.0,-3.102153,0.02952,0.48922,0.528518,0.52645,1.575476,0.399627,0.0,-3.14393,-0.002707,0.515901,0.517384,3.0,1.0,111.0,0.0,1.0,-79479.0,-25359.0,13999.0,-78149.0,25680.0,13574.0,-0.949937,-0.2071,0.233943,-0.272709,0.184178,-0.944303,0.152478,-0.960827,-0.231436,-0.936558,0.216874,0.275364,0.310272,0.147469,0.93914,0.163067,0.964997,-0.205403,-0.949937,-0.2071,0.233943,-0.272709,0.184178,-0.944303,0.152478,-0.960827,-0.231436,-0.936558,0.216874,0.275364,0.310272,0.147469,0.93914,0.163067,0.964997,-0.205403,-79479.0,-25359.0,13999.0,-78149.0,25680.0,13574.0,18324.0,17370.0,-158413.0,0.0,-54251.0,-54322.0,-54033.0,-54619.0,-14996.0,-12610.0,154984.0,0.0,53495.0,53359.0,53699.0,53624.0,44.0,202.0,-59.0,0.0,-322.0,424.0,595.0,-514.0,-50.0,-181.0,37.0,0.0,613.0,214.0,780.0,-933.0,-0.01213,-0.054736,0.016129,0.0,-0.011792,0.015545,-0.021776,-0.018839,-0.013789,-0.049198,0.010121,0.0,0.022438,0.007859,-0.02855,-0.034146,4076.370117,11512.44043,51353.191406,0.0,-17643.330078,-17639.820312,17914.681641,-17390.341797,4108.140137,11502.720703,51506.730469,0.0,17706.601562,17706.419922,-17442.720703,17975.070312,0.0,0.0,0.0,0.0,0.0,0.0,0.0,0.0,0.0,0.0,0.0,0.0,0.0,0.0,0.0,0.0,0.0,0.0,0.0,0.0,0.0,0.0,0.0,0.0,0.0,0.0,0.0,0.0,0.0,0.0,0.0,0.0,4076.366699,11510.351562,51354.75,0.0,-17654.841797,-17651.609375,17912.146484,-17396.816406,4108.056641,11501.677734,51505.996094,0.0,17708.095703,17708.087891,-17450.5625,17965.646484,29.930094,90.364868,22.827585,0.0,0.034824,0.380252,28.40386,28.906248,30.162771,90.259644,22.896688,0.0,0.051845,0.030298,28.59408,28.688635,1.017,1.033,-63617.0,-145286.0,-412178.0,0.0,141786.0,141676.0,-145019.0,138607.0,-60642.0,-140418.0,-417313.0,0.0,-143245.0,-143379.0,140109.0,-146099.0,0.0,0.0,0.0,0.0,0.0,0.0,0.0,0.0,0.0,0.0,0.0,0.0,0.0,0.0,0.0,0.0,0.0,0.0,0.0,0.0,0.0,0.0,0.0,0.0
32,1.9769179821014404,0.522379,1.577464,0.398402,0.0,-3.102153,0.02952,0.48922,0.528344,0.52645,1.575476,0.399627,0.0,-3.14393,-0.002707,0.515725,0.517034,3.0,1.0,111.0,0.0,1.0,-79479.0,-25359.0,13999.0,-78149.0,25680.0,13574.0,-0.949919,-0.207182,0.233943,-0.272724,0.184155,-0.944303,0.152561,-0.960814,-0.231436,-0.936576,0.216793,0.275364,0.310259,0.147496,0.93914,0.162984,0.965011,-0.205403,-0.949919,-0.207182,0.233943,-0.272724,0.184155,-0.944303,0.152561,-0.960814,-0.231436,-0.936576,0.216793,0.275364,0.310259,0.147496,0.93914,0.162984,0.965011,-0.205403,-79479.0,-25359.0,13999.0,-78149.0,25680.0,13574.0,18324.0,17370.0,-158413.0,0.0,-54251.0,-54322.0,-54033.0,-54620.0,-14996.0,-12610.0,154984.0,0.0,53495.0,53359.0,53700.0,53622.0,44.0,202.0,-59.0,0.0,-328.0,418.0,596.0,-515.0,-50.0,-181.0,37.0,0.0,613.0,215.0,781.0,-933.0,-0.01213,-0.054736,0.016129,0.0,-0.012003,0.015329,-0.021823,-0.01888,-0.013789,-0.049198,0.010121,0.0,0.022465,0.00789,-0.028613,-0.03416,4076.370117,11512.44043,51353.191406,0.0,-17643.330078,-17639.820312,17914.681641,-17390.429688,4108.140137,11502.720703,51506.730469,0.0,17706.601562,17706.419922,-17442.810547,17974.890625,0.0,0.0,0.0,0.0,0.0,0.0,0.0,0.0,0.0,0.0,0.0,0.0,0.0,0.0,0.0,0.0,0.0,0.0,0.0,0.0,0.0,0.0,0.0,0.0,0.0,0.0,0.0,0.0,0.0,0.0,0.0,0.0,4076.366699,11510.351562,51354.75,0.0,-17654.841797,-17651.609375,17912.146484,-17396.816406,4108.056641,11501.677734,51505.996094,0.0,17708.095703,17708.087891,-17450.5625,17965.646484,29.930094,90.364868,22.827585,0.0,0.034824,0.380252,28.40386,28.906248,30.162771,90.259644,22.896688,0.0,0.051845,0.030298,28.59408,28.688635,1.017,1.032,-63617.0,-145286.0,-412178.0,0.0,141786.0,141676.0,-145019.0,138607.0,-60642.0,-140418.0,-417313.0,0.0,-143245.0,-143379.0,140109.0,-146099.0,0.0,0.0,0.0,0.0,0.0,0.0,0.0,0.0,0.0,0.0,0.0,0.0,0.0,0.0,0.0,0.0,0.0,0.0,0.0,0.0,0.0,0.0,0.0,0.0
33,1.9979169368743896,0.522379,1.577464,0.398402,0.0,-3.102447,0.02952,0.48922,0.528168,0.52645,1.575476,0.399627,0.0,-3.14393,-0.002707,0.515552,0.516861,3.0,1.0,111.0,0.0,1.0,-79479.0,-25359.0,13999.0,-78149.0,25680.0,13574.0,-0.949901,-0.207189,0.234009,-0.272745,0.183855,-0.944356,0.152636,-0.960869,-0.231154,-0.936576,0.216793,0.275364,0.310259,0.147496,0.93914,0.162984,0.965011,-0.205403,-0.949901,-0.207189,0.234009,-0.272745,0.183855,-0.944356,0.152636,-0.960869,-0.231154,-0.936576,0.216793,0.275364,0.310259,0.147496,0.93914,0.162984,0.965011,-0.205403,-79479.0,-25359.0,13999.0,-78149.0,25680.0,13574.0,18324.0,17370.0,-158413.0,0.0,-54252.0,-54322.0,-54033.0,-54621.0,-14996.0,-12610.0,154984.0,0.0,53495.0,53359.0,53701.0,53621.0,44.0,202.0,-59.0,0.0,-329.0,413.0,597.0,-516.0,-50.0,-181.0,37.0,0.0,614.0,216.0,783.0,-936.0,-0.01213,-0.054736,0.016129,0.0,-0.01207,0.015113,-0.021869,-0.018916,-0.013789,-0.049198,0.010121,0.0,0.022492,0.007921,-0.028677,-0.03425,4076.370117,11512.44043,51353.191406,0.0,-17643.421875,-17639.820312,17914.681641,-17390.521484,4108.140137,11502.720703,51506.730469,0.0,17706.601562,17706.419922,-17442.900391,17974.800781,0.0,0.0,0.0,0.0,0.0,0.0,0.0,0.0,0.0,0.0,0.0,0.0,0.0,0.0,0.0,0.0,0.0,0.0,0.0,0.0,0.0,0.0,0.0,0.0,0.0,0.0,0.0,0.0,0.0,0.0,0.0,0.0,4076.366699,11510.351562,51354.75,0.0,-17654.841797,-17651.609375,17912.146484,-17396.816406,4108.056641,11501.677734,51505.996094,0.0,17708.095703,17708.087891,-17450.5625,17965.646484,29.930094,90.364868,22.827585,0.0,0.034824,0.380252,28.40386,28.906248,30.162771,90.259644,22.896688,0.0,0.051845,0.030298,28.59408,28.688635,1.017,1.032,-63617.0,-145286.0,-412178.0,0.0,141786.0,141676.0,-145019.0,138607.0,-60642.0,-140418.0,-417313.0,0.0,-143245.0,-143379.0,140109.0,-146099.0,0.0,0.0,0.0,0.0,0.0,0.0,0.0,0.0,0.0,0.0,0.0,0.0,0.0,0.0,0.0,0.0,0.0,0.0,0.0,0.0,0.0,0.0,0.0,0.0
34,2.017880916595459,0.522379,1.577464,0.398402,0.0,-3.102447,0.02952,0.489044,0.527995,0.52645,1.575476,0.399627,0.0,-3.14393,-0.002707,0.515375,0.516512,3.0,1.0,111.0,0.0,1.0,-79479.0,-25359.0,13999.0,-78149.0,25680.0,13574.0,-0.949902,-0.207187,0.234009,-0.272744,0.183856,-0.944356,0.152634,-0.96087,-0.231154,-0.936595,0.216712,0.275364,0.310247,0.147523,0.93914,0.1629,0.965025,-0.205403,-0.949902,-0.207187,0.234009,-0.272744,0.183856,-0.944356,0.152634,-0.96087,-0.231154,-0.936595,0.216712,0.275364,0.310247,0.147523,0.93914,0.1629,0.965025,-0.205403,-79479.0,-25359.0,13999.0,-78149.0,25680.0,13574.0,18324.0,17370.0,-158413.0,0.0,-54252.0,-54322.0,-54032.0,-54622.0,-14996.0,-12610.0,154984.0,0.0,53495.0,53359.0,53702.0,53619.0,44.0,202.0,-59.0,0.0,-335.0,407.0,596.0,-517.0,-50.0,-181.0,37.0,0.0,615.0,217.0,785.0,-936.0,-0.01213,-0.054736,0.016129,0.0,-0.01227,0.014908,-0.021833,-0.018947,-0.013789,-0.049198,0.010121,0.0,0.022519,0.00795,-0.02873,-0.034251,4076.370117,11512.44043,51353.191406,0.0,-17643.421875,-17639.820312,17914.589844,-17390.609375,4108.140137,11502.720703,51506.730469,0.0,17706.601562,17706.419922,-17442.990234,17974.621094,0.0,0.0,0.0,0.0,0.0,0.0,0.0,0.0,0.0,0.0,0.0,0.0,0.0,0.0,0.0,0.0,0.0,0.0,0.0,0.0,0.0,0.0,0.0,0.0,0.0,0.0,0.0,0.0,0.0,0.0,0.0,0.0,4076.366699,11510.351562,51354.75,0.0,-17654.841797,-17651.609375,17912.146484,-17396.816406,4108.056641,11501.677734,51505.996094,0.0,17708.095703,17708.087891,-17450.5625,17965.646484,29.930094,90.364868,22.827585,0.0,0.034824,0.380252,28.40386,28.906248,30.162771,90.259644,22.896688,0.0,0.051845,0.030298,28.59408,28.688635,1.017,1.031,-63617.0,-145286.0,-412178.0,0.0,141786.0,141676.0,-145019.0,138607.0,-60642.0,-140418.0,-417313.0,0.0,-143245.0,-143379.0,140109.0,-146099.0,0.0,0.0,0.0,0.0,0.0,0.0,0.0,0.0,0.0,0.0,0.0,0.0,0.0,0.0,0.0,0.0,0.0,0.0,0.0,0.0,0.0,0.0,0.0,0.0
35,2.0379409790039062,0.522379,1.577464,0.398402,0.0,-3.102736,0.02952,0.489044,0.527818,0.52645,1.575476,0.399627,0.0,-3.143641,-0.002707,0.515202,0.516162,3.0,1.0,111.0,0.0,1.0,-79479.0,-25359.0,13999.0,-78149.0,25680.0,13574.0,-0.949884,-0.207195,0.234074,-0.272764,0.183562,-0.944407,0.15271,-0.960924,-0.230878,-0.936614,0.21655,0.275427,0.310234,0.147279,0.939183,0.162816,0.965098,-0.205125,-0.949884,-0.207195,0.234074,-0.272764,0.183562,-0.944407,0.15271,-0.960924,-0.230878,-0.936614,0.21655,0.275427,0.310234,0.147279,0.939183,0.162816,0.965098,-0.205125,-79479.0,-25359.0,13999.0,-78149.0,25680.0,13574.0,18324.0,17370.0,-158413.0,0.0,-54253.0,-54322.0,-54032.0,-54623.0,-14996.0,-12610.0,154984.0,0.0,53496.0,53359.0,53703.0,53617.0,44.0,202.0,-59.0,0.0,-336.0,401.0,597.0,-518.0,-50.0,-181.0,37.0,0.0,612.0,218.0,786.0,-935.0,-0.01213,-0.054736,0.016129,0.0,-0.012329,0.014702,-0.021875,-0.018975,-0.013789,-0.049198,0.010121,0.0,0.022404,0.007979,-0.028783,-0.034248,4076.370117,11512.44043,51353.191406,0.0,-17643.509766,-17639.820312,17914.589844,-17390.701172,4108.140137,11502.720703,51506.730469,0.0,17706.689453,17706.419922,-17443.080078,17974.439453,0.0,0.0,0.0,0.0,0.0,0.0,0.0,0.0,0.0,0.0,0.0,0.0,0.0,0.0,0.0,0.0,0.0,0.0,0.0,0.0,0.0,0.0,0.0,0.0,0.0,0.0,0.0,0.0,0.0,0.0,0.0,0.0,4076.366699,11510.351562,51354.75,0.0,-17654.841797,-17651.609375,17912.146484,-17396.816406,4108.056641,11501.677734,51505.996094,0.0,17708.095703,17708.087891,-17450.5625,17965.646484,29.930094,90.364868,22.827585,0.0,0.034824,0.380252,28.40386,28.906248,30.162771,90.259644,22.896688,0.0,0.051845,0.030298,28.59408,28.688635,1.016,1.031,-63617.0,-145286.0,-412178.0,0.0,141786.0,141676.0,-145019.0,138607.0,-60642.0,-140418.0,-417313.0,0.0,-143245.0,-143379.0,140109.0,-146099.0,0.0,0.0,0.0,0.0,0.0,0.0,0.0,0.0,0.0,0.0,0.0,0.0,0.0,0.0,0.0,0.0,0.0,0.0,0.0,0.0,0.0,0.0,0.0,0.0
36,2.0599489212036133,0.522379,1.577464,0.398402,0.0,-3.102736,0.02952,0.488871,0.527645,0.52645,1.575476,0.399627,0.0,-3.143641,-0.002707,0.514852,0.515989,3.0,1.0,111.0,0.0,1.0,-79479.0,-25359.0,13999.0,-78149.0,25680.0,13574.0,-0.949884,-0.207195,0.234074,-0.272764,0.183562,-0.944407,0.15271,-0.960924,-0.230878,-0.936595,0.216633,0.275427,0.310247,0.147252,0.939183,0.162901,0.965084,-0.205125,-0.949884,-0.207195,0.234074,-0.272764,0.183562,-0.944407,0.15271,-0.960924,-0.230878,-0.936595,0.216633,0.275427,0.310247,0.147252,0.939183,0.162901,0.965084,-0.205125,-79479.0,-25359.0,13999.0,-78149.0,25680.0,13574.0,18324.0,17370.0,-158413.0,0.0,-54253.0,-54322.0,-54031.0,-54624.0,-14996.0,-12610.0,154984.0,0.0,53496.0,53359.0,53705.0,53616.0,44.0,202.0,-59.0,0.0,-342.0,395.0,596.0,-519.0,-50.0,-181.0,37.0,0.0,612.0,218.0,786.0,-938.0,-0.01213,-0.054736,0.016129,0.0,-0.012546,0.014475,-0.021844,-0.019014,-0.013789,-0.049198,0.010121,0.0,0.022431,0.008011,-0.028767,-0.034339,4076.370117,11512.44043,51353.191406,0.0,-17643.509766,-17639.820312,17914.5,-17390.791016,4108.140137,11502.720703,51506.730469,0.0,17706.689453,17706.419922,-17443.259766,17974.351562,0.0,0.0,0.0,0.0,0.0,0.0,0.0,0.0,0.0,0.0,0.0,0.0,0.0,0.0,0.0,0.0,0.0,0.0,0.0,0.0,0.0,0.0,0.0,0.0,0.0,0.0,0.0,0.0,0.0,0.0,0.0,0.0,4076.366699,11510.351562,51354.75,0.0,-17654.841797,-17651.609375,17912.146484,-17396.816406,4108.056641,11501.677734,51505.996094,0.0,17708.095703,17708.087891,-17450.5625,17965.646484,29.930094,90.364868,22.827585,0.0,0.034824,0.380252,28.40386,28.906248,30.162771,90.259644,22.896688,0.0,0.051845,0.030298,28.59408,28.688635,1.016,1.03,-63617.0,-145286.0,-412178.0,0.0,141786.0,141676.0,-145019.0,138607.0,-60642.0,-140418.0,-417313.0,0.0,-143245.0,-143379.0,140109.0,-146099.0,0.0,0.0,0.0,0.0,0.0,0.0,0.0,0.0,0.0,0.0,0.0,0.0,0.0,0.0,0.0,0.0,0.0,0.0,0.0,0.0,0.0,0.0,0.0,0.0
37,2.080909013748169,0.522379,1.577464,0.398402,0.0,-3.10303,0.02952,0.488871,0.527469,0.52645,1.575476,0.399627,0.0,-3.143641,-0.002707,0.514676,0.515813,3.0,1.0,111.0,0.0,1.0,-79479.0,-25359.0,13999.0,-78149.0,25680.0,13574.0,-0.949866,-0.207202,0.23414,-0.272784,0.183263,-0.944459,0.152785,-0.96098,-0.230596,-0.936595,0.216633,0.275427,0.310247,0.147252,0.939183,0.162901,0.965084,-0.205125,-0.949866,-0.207202,0.23414,-0.272784,0.183263,-0.944459,0.152785,-0.96098,-0.230596,-0.936595,0.216633,0.275427,0.310247,0.147252,0.939183,0.162901,0.965084,-0.205125,-79479.0,-25359.0,13999.0,-78149.0,25680.0,13574.0,18324.0,17370.0,-158413.0,0.0,-54254.0,-54322.0,-54031.0,-54625.0,-14996.0,-12610.0,154984.0,0.0,53496.0,53359.0,53706.0,53615.0,44.0,202.0,-59.0,0.0,-344.0,389.0,598.0,-520.0,-50.0,-181.0,37.0,0.0,613.0,219.0,787.0,-940.0,-0.01213,-0.054736,0.016129,0.0,-0.01261,0.014259,-0.021887,-0.019043,-0.013789,-0.049198,0.010121,0.0,0.022456,0.008041,-0.028821,-0.034418,4076.370117,11512.44043,51353.191406,0.0,-17643.601562,-17639.820312,17914.5,-17390.880859,4108.140137,11502.720703,51506.730469,0.0,17706.689453,17706.419922,-17443.351562,17974.259766,0.0,0.0,0.0,0.0,0.0,0.0,0.0,0.0,0.0,0.0,0.0,0.0,0.0,0.0,0.0,0.0,0.0,0.0,0.0,0.0,0.0,0.0,0.0,0.0,0.0,0.0,0.0,0.0,0.0,0.0,0.0,0.0,4076.366699,11510.351562,51354.75,0.0,-17654.841797,-17651.609375,17912.146484,-17396.816406,4108.056641,11501.677734,51505.996094,0.0,17708.095703,17708.087891,-17450.5625,17965.646484,29.930094,90.364868,22.827585,0.0,0.034824,0.380252,28.40386,28.906248,30.162771,90.259644,22.896688,0.0,0.051845,0.030298,28.59408,28.688635,1.016,1.03,-63617.0,-145286.0,-412178.0,0.0,141786.0,141676.0,-145019.0,138607.0,-60642.0,-140418.0,-417313.0,0.0,-143245.0,-143379.0,140109.0,-146099.0,0.0,0.0,0.0,0.0,0.0,0.0,0.0,0.0,0.0,0.0,0.0,0.0,0.0,0.0,0.0,0.0,0.0,0.0,0.0,0.0,0.0,0.0,0.0,0.0
38,2.100915908813477,0.522379,1.577464,0.398402,0.0,-3.10303,0.02952,0.488694,0.527296,0.52645,1.575476,0.399627,0.0,-3.143641,-0.002707,0.514503,0.51564,3.0,1.0,111.0,0.0,1.0,-79479.0,-25359.0,13999.0,-78149.0,25680.0,13574.0,-0.949866,-0.2072,0.23414,-0.272784,0.183263,-0.944459,0.152783,-0.96098,-0.230596,-0.936595,0.216633,0.275427,0.310247,0.147252,0.939183,0.162901,0.965084,-0.205125,-0.949866,-0.2072,0.23414,-0.272784,0.183263,-0.944459,0.152783,-0.96098,-0.230596,-0.936595,0.216633,0.275427,0.310247,0.147252,0.939183,0.162901,0.965084,-0.205125,-79479.0,-25359.0,13999.0,-78149.0,25680.0,13574.0,18324.0,17370.0,-158413.0,0.0,-54254.0,-54322.0,-54030.0,-54626.0,-14996.0,-12610.0,154984.0,0.0,53496.0,53359.0,53707.0,53614.0,44.0,202.0,-59.0,0.0,-349.0,384.0,597.0,-521.0,-50.0,-181.0,37.0,0.0,614.0,220.0,788.0,-942.0,-0.01213,-0.054736,0.016129,0.0,-0.012806,0.014054,-0.021848,-0.019068,-0.013789,-0.049198,0.010121,0.0,0.022481,0.008071,-0.028868,-0.034489,4076.370117,11512.44043,51353.191406,0.0,-17643.601562,-17639.820312,17914.410156,-17390.970703,4108.140137,11502.720703,51506.730469,0.0,17706.689453,17706.419922,-17443.439453,17974.171875,0.0,0.0,0.0,0.0,0.0,0.0,0.0,0.0,0.0,0.0,0.0,0.0,0.0,0.0,0.0,0.0,0.0,0.0,0.0,0.0,0.0,0.0,0.0,0.0,0.0,0.0,0.0,0.0,0.0,0.0,0.0,0.0,4076.366699,11510.351562,51354.75,0.0,-17654.841797,-17651.609375,17912.146484,-17396.816406,4108.056641,11501.677734,51505.996094,0.0,17708.095703,17708.087891,-17450.5625,17965.646484,29.930094,90.364868,22.827585,0.0,0.034824,0.380252,28.40386,28.906248,30.162771,90.259644,22.896688,0.0,0.051845,0.030298,28.59408,28.688635,1.015,1.03,-63617.0,-145286.0,-412178.0,0.0,141786.0,141676.0,-145019.0,138607.0,-60642.0,-140418.0,-417313.0,0.0,-143245.0,-143379.0,140109.0,-146099.0,0.0,0.0,0.0,0.0,0.0,0.0,0.0,0.0,0.0,0.0,0.0,0.0,0.0,0.0,0.0,0.0,0.0,0.0,0.0,0.0,0.0,0.0,0.0,0.0
39,2.1219160556793213,0.522379,1.577464,0.398402,0.0,-3.1033180000000002,0.02952,0.488694,0.527119,0.52645,1.575476,0.399627,0.0,-3.143641,-0.002707,0.514326,0.51529,3.0,1.0,111.0,0.0,1.0,-79479.0,-25359.0,13999.0,-78149.0,25680.0,13574.0,-0.949849,-0.207209,0.234205,-0.272804,0.182969,-0.944511,0.152858,-0.961034,-0.23032,-0.936614,0.216552,0.275427,0.310234,0.147279,0.939183,0.162817,0.965098,-0.205125,-0.949849,-0.207209,0.234205,-0.272804,0.182969,-0.944511,0.152858,-0.961034,-0.23032,-0.936614,0.216552,0.275427,0.310234,0.147279,0.939183,0.162817,0.965098,-0.205125,-79479.0,-25359.0,13999.0,-78149.0,25680.0,13574.0,18324.0,17370.0,-158413.0,0.0,-54255.0,-54322.0,-54030.0,-54627.0,-14996.0,-12610.0,154984.0,0.0,53496.0,53359.0,53708.0,53612.0,44.0,202.0,-59.0,0.0,-351.0,378.0,598.0,-521.0,-50.0,-181.0,37.0,0.0,615.0,221.0,790.0,-942.0,-0.01213,-0.054736,0.016129,0.0,-0.012871,0.013838,-0.021889,-0.019095,-0.013789,-0.049198,0.010121,0.0,0.022507,0.008101,-0.028918,-0.034486,4076.370117,11512.44043,51353.191406,0.0,-17643.691406,-17639.820312,17914.410156,-17391.060547,4108.140137,11502.720703,51506.730469,0.0,17706.689453,17706.419922,-17443.53125,17973.990234,0.0,0.0,0.0,0.0,0.0,0.0,0.0,0.0,0.0,0.0,0.0,0.0,0.0,0.0,0.0,0.0,0.0,0.0,0.0,0.0,0.0,0.0,0.0,0.0,0.0,0.0,0.0,0.0,0.0,0.0,0.0,0.0,4076.366699,11510.351562,51354.75,0.0,-17654.841797,-17651.609375,17912.146484,-17396.816406,4108.056641,11501.677734,51505.996094,0.0,17708.095703,17708.087891,-17450.5625,17965.646484,29.930094,90.364868,22.827585,0.0,0.034824,0.380252,28.40386,28.906248,30.162771,90.259644,22.896688,0.0,0.051845,0.030298,28.59408,28.688635,1.015,1.029,-63617.0,-145286.0,-412178.0,0.0,141786.0,141676.0,-145019.0,138607.0,-60642.0,-140418.0,-417313.0,0.0,-143245.0,-143379.0,140109.0,-146099.0,0.0,0.0,0.0,0.0,0.0,0.0,0.0,0.0,0.0,0.0,0.0,0.0,0.0,0.0,0.0,0.0,0.0,0.0,0.0,0.0,0.0,0.0,0.0,0.0
40,2.141878128051758,0.522379,1.577464,0.398402,0.0,-3.1033180000000002,0.02952,0.488694,0.526946,0.52645,1.575476,0.399627,0.0,-3.143641,-0.002707,0.514153,0.515114,3.0,1.0,111.0,0.0,1.0,-79479.0,-25359.0,13999.0,-78149.0,25680.0,13574.0,-0.949831,-0.207291,0.234205,-0.272819,0.182945,-0.944511,0.152942,-0.961021,-0.23032,-0.936614,0.21655,0.275427,0.310234,0.147279,0.939183,0.162816,0.965098,-0.205125,-0.949831,-0.207291,0.234205,-0.272819,0.182945,-0.944511,0.152942,-0.961021,-0.23032,-0.936614,0.21655,0.275427,0.310234,0.147279,0.939183,0.162816,0.965098,-0.205125,-79479.0,-25359.0,13999.0,-78149.0,25680.0,13574.0,18324.0,17370.0,-158413.0,0.0,-54255.0,-54322.0,-54030.0,-54628.0,-14996.0,-12610.0,154984.0,0.0,53496.0,53359.0,53709.0,53611.0,44.0,202.0,-59.0,0.0,-357.0,372.0,599.0,-522.0,-50.0,-181.0,37.0,0.0,615.0,222.0,791.0,-944.0,-0.01213,-0.054736,0.016129,0.0,-0.013066,0.013632,-0.021929,-0.019118,-0.013789,-0.049198,0.010121,0.0,0.022531,0.00813,-0.028962,-0.034551,4076.370117,11512.44043,51353.191406,0.0,-17643.691406,-17639.820312,17914.410156,-17391.150391,4108.140137,11502.720703,51506.730469,0.0,17706.689453,17706.419922,-17443.621094,17973.900391,0.0,0.0,0.0,0.0,0.0,0.0,0.0,0.0,0.0,0.0,0.0,0.0,0.0,0.0,0.0,0.0,0.0,0.0,0.0,0.0,0.0,0.0,0.0,0.0,0.0,0.0,0.0,0.0,0.0,0.0,0.0,0.0,4076.366699,11510.351562,51354.75,0.0,-17654.841797,-17651.609375,17912.146484,-17396.816406,4108.056641,11501.677734,51505.996094,0.0,17708.095703,17708.087891,-17450.5625,17965.646484,29.930094,90.364868,22.827585,0.0,0.034824,0.380252,28.40386,28.906248,30.162771,90.259644,22.896688,0.0,0.051845,0.030298,28.59408,28.688635,1.015,1.029,-63617.0,-145286.0,-412178.0,0.0,141786.0,141676.0,-145019.0,138607.0,-60642.0,-140418.0,-417313.0,0.0,-143245.0,-143379.0,140109.0,-146099.0,0.0,0.0,0.0,0.0,0.0,0.0,0.0,0.0,0.0,0.0,0.0,0.0,0.0,0.0,0.0,0.0,0.0,0.0,0.0,0.0,0.0,0.0,0.0,0.0
41,2.161911964416504,0.522379,1.577464,0.398402,0.0,-3.1036070000000002,0.02952,0.488521,0.526946,0.52645,1.575476,0.399627,0.0,-3.143641,-0.002707,0.513977,0.51494,3.0,1.0,111.0,0.0,1.0,-79479.0,-25359.0,13998.0,-78149.0,25680.0,13574.0,-0.949849,-0.207133,0.23427,-0.272807,0.182699,-0.944562,0.152849,-0.961102,-0.230044,-0.936614,0.216552,0.275427,0.310234,0.147279,0.939183,0.162817,0.965098,-0.205125,-0.949849,-0.207133,0.23427,-0.272807,0.182699,-0.944562,0.152849,-0.961102,-0.230044,-0.936614,0.216552,0.275427,0.310234,0.147279,0.939183,0.162817,0.965098,-0.205125,-79479.0,-25359.0,13998.0,-78149.0,25680.0,13574.0,18324.0,17370.0,-158413.0,0.0,-54256.0,-54322.0,-54029.0,-54628.0,-14996.0,-12610.0,154984.0,0.0,53496.0,53359.0,53710.0,53610.0,44.0,202.0,-59.0,0.0,-358.0,366.0,598.0,-525.0,-50.0,-181.0,37.0,0.0,616.0,222.0,792.0,-946.0,-0.01213,-0.054736,0.016129,0.0,-0.01312,0.013426,-0.02189,-0.019217,-0.013789,-0.049198,0.010121,0.0,0.022556,0.008159,-0.029002,-0.034616,4076.370117,11512.44043,51353.191406,0.0,-17643.779297,-17639.820312,17914.320312,-17391.150391,4108.140137,11502.720703,51506.730469,0.0,17706.689453,17706.419922,-17443.710938,17973.810547,0.0,0.0,0.0,0.0,0.0,0.0,0.0,0.0,0.0,0.0,0.0,0.0,0.0,0.0,0.0,0.0,0.0,0.0,0.0,0.0,0.0,0.0,0.0,0.0,0.0,0.0,0.0,0.0,0.0,0.0,0.0,0.0,4076.366699,11510.351562,51354.75,0.0,-17654.841797,-17651.609375,17912.146484,-17396.816406,4108.056641,11501.677734,51505.996094,0.0,17708.095703,17708.087891,-17450.5625,17965.646484,29.930094,90.364868,22.827585,0.0,0.034824,0.380252,28.40386,28.906248,30.162771,90.259644,22.896688,0.0,0.051845,0.030298,28.59408,28.688635,1.015,1.028,-63617.0,-145286.0,-412178.0,0.0,141786.0,141676.0,-145019.0,138607.0,-60642.0,-140418.0,-417313.0,0.0,-143245.0,-143379.0,140109.0,-146099.0,0.0,0.0,0.0,0.0,0.0,0.0,0.0,0.0,0.0,0.0,0.0,0.0,0.0,0.0,0.0,0.0,0.0,0.0,0.0,0.0,0.0,0.0,0.0,0.0
42,2.1839559078216553,0.522379,1.577464,0.398402,0.0,-3.1036070000000002,0.02952,0.488521,0.526773,0.52645,1.575476,0.399627,0.0,-3.143641,-0.002707,0.513631,0.514764,3.0,1.0,111.0,0.0,1.0,-79479.0,-25359.0,13998.0,-78149.0,25680.0,13574.0,-0.949831,-0.207215,0.23427,-0.272823,0.182675,-0.944562,0.152932,-0.961089,-0.230044,-0.936595,0.216631,0.275427,0.310246,0.147252,0.939183,0.162899,0.965084,-0.205125,-0.949831,-0.207215,0.23427,-0.272823,0.182675,-0.944562,0.152932,-0.961089,-0.230044,-0.936595,0.216631,0.275427,0.310246,0.147252,0.939183,0.162899,0.965084,-0.205125,-79479.0,-25359.0,13998.0,-78149.0,25680.0,13574.0,18324.0,17370.0,-158413.0,0.0,-54256.0,-54322.0,-54029.0,-54629.0,-14996.0,-12610.0,154984.0,0.0,53496.0,53359.0,53712.0,53609.0,44.0,202.0,-59.0,0.0,-364.0,360.0,599.0,-525.0,-50.0,-181.0,37.0,0.0,617.0,223.0,791.0,-948.0,-0.01213,-0.054736,0.016129,0.0,-0.013332,0.0132,-0.021931,-0.019247,-0.013789,-0.049198,0.010121,0.0,0.022583,0.008191,-0.028976,-0.034692,4076.370117,11512.44043,51353.191406,0.0,-17643.779297,-17639.820312,17914.320312,-17391.240234,4108.140137,11502.720703,51506.730469,0.0,17706.689453,17706.419922,-17443.888672,17973.720703,0.0,0.0,0.0,0.0,0.0,0.0,0.0,0.0,0.0,0.0,0.0,0.0,0.0,0.0,0.0,0.0,0.0,0.0,0.0,0.0,0.0,0.0,0.0,0.0,0.0,0.0,0.0,0.0,0.0,0.0,0.0,0.0,4076.366699,11510.351562,51354.75,0.0,-17654.841797,-17651.609375,17912.146484,-17396.816406,4108.056641,11501.677734,51505.996094,0.0,17708.095703,17708.087891,-17450.5625,17965.646484,29.930094,90.364868,22.827585,0.0,0.034824,0.380252,28.40386,28.906248,30.162771,90.259644,22.896688,0.0,0.051845,0.030298,28.59408,28.688635,1.015,1.028,-63617.0,-145286.0,-412178.0,0.0,141786.0,141676.0,-145019.0,138607.0,-60642.0,-140418.0,-417313.0,0.0,-143245.0,-143379.0,140109.0,-146099.0,0.0,0.0,0.0,0.0,0.0,0.0,0.0,0.0,0.0,0.0,0.0,0.0,0.0,0.0,0.0,0.0,0.0,0.0,0.0,0.0,0.0,0.0,0.0,0.0
43,2.204916000366211,0.522379,1.577464,0.398402,0.0,-3.103901,0.02952,0.488345,0.526773,0.52645,1.575476,0.399627,0.0,-3.143641,-0.002707,0.513454,0.514414,3.0,1.0,111.0,0.0,1.0,-79479.0,-25359.0,13998.0,-78149.0,25680.0,13574.0,-0.94985,-0.207054,0.234337,-0.272811,0.182424,-0.944614,0.152838,-0.961171,-0.229762,-0.936614,0.21655,0.275427,0.310234,0.147279,0.939183,0.162816,0.965098,-0.205125,-0.94985,-0.207054,0.234337,-0.272811,0.182424,-0.944614,0.152838,-0.961171,-0.229762,-0.936614,0.21655,0.275427,0.310234,0.147279,0.939183,0.162816,0.965098,-0.205125,-79479.0,-25359.0,13998.0,-78149.0,25680.0,13574.0,18324.0,17370.0,-158413.0,0.0,-54257.0,-54322.0,-54028.0,-54629.0,-14996.0,-12610.0,154984.0,0.0,53496.0,53359.0,53713.0,53607.0,44.0,202.0,-59.0,0.0,-365.0,354.0,598.0,-528.0,-50.0,-181.0,37.0,0.0,617.0,224.0,793.0,-947.0,-0.01213,-0.054736,0.016129,0.0,-0.01339,0.012984,-0.021891,-0.019349,-0.013789,-0.049198,0.010121,0.0,0.022608,0.008222,-0.029018,-0.034681,4076.370117,11512.44043,51353.191406,0.0,-17643.871094,-17639.820312,17914.230469,-17391.240234,4108.140137,11502.720703,51506.730469,0.0,17706.689453,17706.419922,-17443.980469,17973.539062,0.0,0.0,0.0,0.0,0.0,0.0,0.0,0.0,0.0,0.0,0.0,0.0,0.0,0.0,0.0,0.0,0.0,0.0,0.0,0.0,0.0,0.0,0.0,0.0,0.0,0.0,0.0,0.0,0.0,0.0,0.0,0.0,4076.366699,11510.351562,51354.75,0.0,-17654.841797,-17651.609375,17912.146484,-17396.816406,4108.056641,11501.677734,51505.996094,0.0,17708.095703,17708.087891,-17450.5625,17965.646484,29.930094,90.364868,22.827585,0.0,0.034824,0.380252,28.40386,28.906248,30.162771,90.259644,22.896688,0.0,0.051845,0.030298,28.59408,28.688635,1.015,1.027,-63617.0,-145286.0,-412178.0,0.0,141786.0,141676.0,-145019.0,138607.0,-60642.0,-140418.0,-417313.0,0.0,-143245.0,-143379.0,140109.0,-146099.0,0.0,0.0,0.0,0.0,0.0,0.0,0.0,0.0,0.0,0.0,0.0,0.0,0.0,0.0,0.0,0.0,0.0,0.0,0.0,0.0,0.0,0.0,0.0,0.0
44,2.2249181270599365,0.522379,1.577464,0.398402,0.0,-3.1041890000000003,0.02952,0.488345,0.526597,0.52645,1.575476,0.399627,0.0,-3.1433470000000003,-0.002707,0.513281,0.514065,3.0,1.0,111.0,0.0,1.0,-79479.0,-25359.0,13998.0,-78149.0,25680.0,13574.0,-0.949832,-0.207062,0.234401,-0.272831,0.18213,-0.944665,0.152913,-0.961225,-0.229486,-0.936633,0.216387,0.27549,0.310221,0.14703,0.939226,0.162731,0.965173,-0.204841,-0.949832,-0.207062,0.234401,-0.272831,0.18213,-0.944665,0.152913,-0.961225,-0.229486,-0.936633,0.216387,0.27549,0.310221,0.14703,0.939226,0.162731,0.965173,-0.204841,-79479.0,-25359.0,13998.0,-78149.0,25680.0,13574.0,18324.0,17370.0,-158413.0,0.0,-54258.0,-54322.0,-54028.0,-54630.0,-14996.0,-12610.0,154984.0,0.0,53497.0,53359.0,53714.0,53605.0,44.0,202.0,-59.0,0.0,-367.0,349.0,599.0,-529.0,-50.0,-181.0,37.0,0.0,614.0,225.0,793.0,-947.0,-0.01213,-0.054736,0.016129,0.0,-0.013441,0.012778,-0.021927,-0.019366,-0.013789,-0.049198,0.010121,0.0,0.022489,0.008251,-0.029054,-0.03466,4076.370117,11512.44043,51353.191406,0.0,-17643.958984,-17639.820312,17914.230469,-17391.330078,4108.140137,11502.720703,51506.730469,0.0,17706.78125,17706.419922,-17444.070312,17973.359375,0.0,0.0,0.0,0.0,0.0,0.0,0.0,0.0,0.0,0.0,0.0,0.0,0.0,0.0,0.0,0.0,0.0,0.0,0.0,0.0,0.0,0.0,0.0,0.0,0.0,0.0,0.0,0.0,0.0,0.0,0.0,0.0,4076.366699,11510.351562,51354.75,0.0,-17654.841797,-17651.609375,17912.146484,-17396.816406,4108.056641,11501.677734,51505.996094,0.0,17708.095703,17708.087891,-17450.5625,17965.646484,29.930094,90.364868,22.827585,0.0,0.034824,0.380252,28.40386,28.906248,30.162771,90.259644,22.896688,0.0,0.051845,0.030298,28.59408,28.688635,1.014,1.027,-63617.0,-145286.0,-412178.0,0.0,141786.0,141676.0,-145019.0,138607.0,-60642.0,-140418.0,-417313.0,0.0,-143245.0,-143379.0,140109.0,-146099.0,0.0,0.0,0.0,0.0,0.0,0.0,0.0,0.0,0.0,0.0,0.0,0.0,0.0,0.0,0.0,0.0,0.0,0.0,0.0,0.0,0.0,0.0,0.0,0.0
45,2.24595308303833,0.522379,1.577464,0.398402,0.0,-3.104483,0.02952,0.488345,0.526597,0.52645,1.575476,0.399627,0.0,-3.1433470000000003,-0.002707,0.512932,0.513892,3.0,1.0,111.0,0.0,1.0,-79479.0,-25359.0,13998.0,-78149.0,25680.0,13574.0,-0.949833,-0.206985,0.234468,-0.272834,0.181855,-0.944717,0.152903,-0.961294,-0.229204,-0.936614,0.21647,0.27549,0.310234,0.147003,0.939226,0.162816,0.965158,-0.204841,-0.949833,-0.206985,0.234468,-0.272834,0.181855,-0.944717,0.152903,-0.961294,-0.229204,-0.936614,0.21647,0.27549,0.310234,0.147003,0.939226,0.162816,0.965158,-0.204841,-79479.0,-25359.0,13998.0,-78149.0,25680.0,13574.0,18324.0,17370.0,-158413.0,0.0,-54259.0,-54322.0,-54028.0,-54630.0,-14996.0,-12610.0,154984.0,0.0,53497.0,53359.0,53716.0,53604.0,44.0,202.0,-59.0,0.0,-325.0,343.0,600.0,-531.0,-50.0,-181.0,37.0,0.0,615.0,226.0,792.0,-948.0,-0.01213,-0.054736,0.016129,0.0,-0.01191,0.012562,-0.021966,-0.019467,-0.013789,-0.049198,0.010121,0.0,0.022513,0.008282,-0.029013,-0.034723,4076.370117,11512.44043,51353.191406,0.0,-17644.050781,-17639.820312,17914.230469,-17391.330078,4108.140137,11502.720703,51506.730469,0.0,17706.78125,17706.419922,-17444.25,17973.271484,0.0,0.0,0.0,0.0,-90.92347,0.0,0.0,0.0,0.0,0.0,0.0,0.0,0.0,0.0,0.0,0.0,0.0,0.0,0.0,0.0,-0.294136,0.0,0.0,0.0,0.0,0.0,0.0,0.0,0.0,0.0,0.0,0.0,4076.366699,11510.351562,51354.75,0.0,-17654.841797,-17651.609375,17912.146484,-17396.816406,4108.056641,11501.677734,51505.996094,0.0,17708.095703,17708.087891,-17450.5625,17965.646484,29.930094,90.364868,22.827585,0.0,0.034824,0.380252,28.40386,28.906248,30.162771,90.259644,22.896688,0.0,0.051845,0.030298,28.59408,28.688635,1.014,1.026,-63617.0,-145286.0,-412178.0,0.0,141786.0,141676.0,-145019.0,138607.0,-60642.0,-140418.0,-417313.0,0.0,-143245.0,-143379.0,140109.0,-146099.0,0.0,0.0,0.0,-0.007667,0.004073,0.294008,0.0,0.0,0.0,0.0,0.0,0.0,0.0,0.0,0.0,-0.007667,0.004073,0.294008,0.0,0.0,0.0,0.0,0.0,0.0
46,2.2659430503845215,0.522379,1.577464,0.398402,0.0,-3.104483,0.02952,0.488172,0.526424,0.52645,1.575476,0.399627,0.0,-3.1433470000000003,-0.002707,0.512755,0.513715,3.0,1.0,111.0,0.0,1.0,-79479.0,-25359.0,13998.0,-78149.0,25680.0,13574.0,-0.949833,-0.206985,0.234468,-0.272834,0.181855,-0.944717,0.152903,-0.961294,-0.229204,-0.936614,0.21647,0.27549,0.310234,0.147003,0.939226,0.162816,0.965158,-0.204841,-0.949833,-0.206985,0.234468,-0.272834,0.181855,-0.944717,0.152903,-0.961294,-0.229204,-0.936614,0.21647,0.27549,0.310234,0.147003,0.939226,0.162816,0.965158,-0.204841,-79479.0,-25359.0,13998.0,-78149.0,25680.0,13574.0,18324.0,17370.0,-158413.0,0.0,-54259.0,-54322.0,-54027.0,-54631.0,-14996.0,-12610.0,154984.0,0.0,53497.0,53359.0,53717.0,53603.0,44.0,202.0,-59.0,0.0,-374.0,337.0,599.0,-532.0,-50.0,-181.0,37.0,0.0,615.0,227.0,793.0,-950.0,-0.01213,-0.054736,0.016129,0.0,-0.013686,0.012356,-0.021924,-0.019483,-0.013789,-0.049198,0.010121,0.0,0.022536,0.008311,-0.029044,-0.034775,4076.370117,11512.44043,51353.191406,0.0,-17644.050781,-17639.820312,17914.140625,-17391.419922,4108.140137,11502.720703,51506.730469,0.0,17706.78125,17706.419922,-17444.339844,17973.179688,0.0,0.0,0.0,0.0,0.0,0.0,0.0,0.0,0.0,0.0,0.0,0.0,0.0,0.0,0.0,0.0,0.0,0.0,0.0,0.0,0.0,0.0,0.0,0.0,0.0,0.0,0.0,0.0,0.0,0.0,0.0,0.0,4076.366699,11510.351562,51354.75,0.0,-17654.841797,-17651.609375,17912.146484,-17396.816406,4108.056641,11501.677734,51505.996094,0.0,17708.095703,17708.087891,-17450.5625,17965.646484,29.930094,90.364868,22.827585,0.0,0.034824,0.380252,28.40386,28.906248,30.162771,90.259644,22.896688,0.0,0.051845,0.030298,28.59408,28.688635,1.014,1.026,-63617.0,-145286.0,-412178.0,0.0,141786.0,141676.0,-145019.0,138607.0,-60642.0,-140418.0,-417313.0,0.0,-143245.0,-143379.0,140109.0,-146099.0,0.0,0.0,0.0,0.0,0.0,0.0,0.0,0.0,0.0,0.0,0.0,0.0,0.0,0.0,0.0,0.0,0.0,0.0,0.0,0.0,0.0,0.0,0.0,0.0
47,2.2859411239624023,0.522379,1.577464,0.398402,0.0,-3.104772,0.029347,0.488258,0.526337,0.52645,1.575476,0.399627,0.0,-3.1433470000000003,-0.002707,0.512405,0.513369,3.0,1.0,111.0,0.0,1.0,-79479.0,-25361.0,13998.0,-78149.0,25680.0,13574.0,-0.949775,-0.206993,0.234696,-0.273017,0.181564,-0.94472,0.152938,-0.961347,-0.228958,-0.936614,0.216472,0.27549,0.310234,0.147002,0.939226,0.162818,0.965158,-0.204841,-0.949775,-0.206993,0.234696,-0.273017,0.181564,-0.94472,0.152938,-0.961347,-0.228958,-0.936614,0.216472,0.27549,0.310234,0.147002,0.939226,0.162818,0.965158,-0.204841,-79479.0,-25361.0,13998.0,-78149.0,25680.0,13574.0,18324.0,17370.0,-158413.0,0.0,-54260.0,-54323.0,-54027.0,-54631.0,-14996.0,-12610.0,154984.0,0.0,53497.0,53359.0,53719.0,53601.0,44.0,202.0,-59.0,0.0,-375.0,334.0,600.0,-535.0,-50.0,-181.0,37.0,0.0,616.0,227.0,792.0,-949.0,-0.01213,-0.054736,0.016129,0.0,-0.013733,0.01223,-0.021959,-0.019578,-0.013789,-0.049198,0.010121,0.0,0.022559,0.00834,-0.028994,-0.034749,4076.370117,11512.44043,51353.191406,0.0,-17644.140625,-17639.910156,17914.140625,-17391.419922,4108.140137,11502.720703,51506.730469,0.0,17706.78125,17706.419922,-17444.521484,17973.001953,0.0,0.0,0.0,0.0,0.0,0.0,0.0,0.0,0.0,0.0,0.0,0.0,0.0,0.0,0.0,0.0,0.0,0.0,0.0,0.0,0.0,0.0,0.0,0.0,0.0,0.0,0.0,0.0,0.0,0.0,0.0,0.0,4076.366699,11510.351562,51354.75,0.0,-17654.841797,-17651.609375,17912.146484,-17396.816406,4108.056641,11501.677734,51505.996094,0.0,17708.095703,17708.087891,-17450.5625,17965.646484,29.930094,90.364868,22.827585,0.0,0.034824,0.380252,28.40386,28.906248,30.162771,90.259644,22.896688,0.0,0.051845,0.030298,28.59408,28.688635,1.014,1.025,-63617.0,-145286.0,-412178.0,0.0,141786.0,141676.0,-145019.0,138607.0,-60642.0,-140418.0,-417313.0,0.0,-143245.0,-143379.0,140109.0,-146099.0,0.0,0.0,0.0,0.0,0.0,0.0,0.0,0.0,0.0,0.0,0.0,0.0,0.0,0.0,0.0,0.0,0.0,0.0,0.0,0.0,0.0,0.0,0.0,0.0
48,2.307918071746826,0.522379,1.577464,0.398402,0.0,-3.1050660000000003,0.029347,0.488258,0.52616,0.52645,1.575476,0.399627,0.0,-3.1433470000000003,-0.002707,0.512232,0.513193,3.0,1.0,111.0,0.0,1.0,-79479.0,-25361.0,13997.0,-78149.0,25680.0,13574.0,-0.949757,-0.206999,0.234762,-0.273037,0.181265,-0.944772,0.153013,-0.961402,-0.228676,-0.936614,0.21647,0.27549,0.310234,0.147003,0.939226,0.162816,0.965159,-0.204841,-0.949757,-0.206999,0.234762,-0.273037,0.181265,-0.944772,0.153013,-0.961402,-0.228676,-0.936614,0.21647,0.27549,0.310234,0.147003,0.939226,0.162816,0.965159,-0.204841,-79479.0,-25361.0,13997.0,-78149.0,25680.0,13574.0,18324.0,17370.0,-158413.0,0.0,-54261.0,-54323.0,-54027.0,-54632.0,-14996.0,-12610.0,154984.0,0.0,53497.0,53359.0,53720.0,53600.0,44.0,202.0,-59.0,0.0,-377.0,328.0,601.0,-535.0,-50.0,-181.0,37.0,0.0,617.0,228.0,793.0,-951.0,-0.01213,-0.054736,0.016129,0.0,-0.013796,0.012005,-0.021997,-0.019601,-0.013789,-0.049198,0.010121,0.0,0.022584,0.008372,-0.029031,-0.034811,4076.370117,11512.44043,51353.191406,0.0,-17644.230469,-17639.910156,17914.140625,-17391.509766,4108.140137,11502.720703,51506.730469,0.0,17706.78125,17706.419922,-17444.609375,17972.910156,0.0,0.0,0.0,0.0,0.0,0.0,0.0,0.0,0.0,0.0,0.0,0.0,0.0,0.0,0.0,0.0,0.0,0.0,0.0,0.0,0.0,0.0,0.0,0.0,0.0,0.0,0.0,0.0,0.0,0.0,0.0,0.0,4076.366699,11510.351562,51354.75,0.0,-17654.841797,-17651.609375,17912.146484,-17396.816406,4108.056641,11501.677734,51505.996094,0.0,17708.095703,17708.087891,-17450.5625,17965.646484,29.930094,90.364868,22.827585,0.0,0.034824,0.380252,28.40386,28.906248,30.162771,90.259644,22.896688,0.0,0.051845,0.030298,28.59408,28.688635,1.014,1.025,-63617.0,-145286.0,-412178.0,0.0,141786.0,141676.0,-145019.0,138607.0,-60642.0,-140418.0,-417313.0,0.0,-143245.0,-143379.0,140109.0,-146099.0,0.0,0.0,0.0,0.0,0.0,0.0,0.0,0.0,0.0,0.0,0.0,0.0,0.0,0.0,0.0,0.0,0.0,0.0,0.0,0.0,0.0,0.0,0.0,0.0
49,2.3289530277252197,0.522379,1.577464,0.398402,0.0,-3.1050660000000003,0.029347,0.488082,0.52616,0.52645,1.575476,0.399627,0.0,-3.1433470000000003,-0.002707,0.511883,0.51302,3.0,1.0,111.0,0.0,1.0,-79479.0,-25361.0,13997.0,-78149.0,25680.0,13574.0,-0.949775,-0.206915,0.234762,-0.273021,0.181289,-0.944772,0.152928,-0.961416,-0.228676,-0.936595,0.216553,0.27549,0.310247,0.146975,0.939226,0.162902,0.965144,-0.204841,-0.949775,-0.206915,0.234762,-0.273021,0.181289,-0.944772,0.152928,-0.961416,-0.228676,-0.936595,0.216553,0.27549,0.310247,0.146975,0.939226,0.162902,0.965144,-0.204841,-79479.0,-25361.0,13997.0,-78149.0,25680.0,13574.0,18324.0,17370.0,-158413.0,0.0,-54261.0,-54323.0,-54026.0,-54632.0,-14996.0,-12610.0,154984.0,0.0,53497.0,53359.0,53722.0,53599.0,44.0,202.0,-59.0,0.0,-382.0,322.0,599.0,-538.0,-50.0,-181.0,37.0,0.0,617.0,229.0,792.0,-952.0,-0.01213,-0.054736,0.016129,0.0,-0.01399,0.011791,-0.021953,-0.019699,-0.013789,-0.049198,0.010121,0.0,0.022608,0.008403,-0.028982,-0.034865,4076.370117,11512.44043,51353.191406,0.0,-17644.230469,-17639.910156,17914.048828,-17391.509766,4108.140137,11502.720703,51506.730469,0.0,17706.78125,17706.419922,-17444.791016,17972.820312,0.0,0.0,0.0,0.0,0.0,0.0,0.0,0.0,0.0,0.0,0.0,0.0,0.0,0.0,0.0,0.0,0.0,0.0,0.0,0.0,0.0,0.0,0.0,0.0,0.0,0.0,0.0,0.0,0.0,0.0,0.0,0.0,4076.366699,11510.351562,51354.75,0.0,-17654.841797,-17651.609375,17912.146484,-17396.816406,4108.056641,11501.677734,51505.996094,0.0,17708.095703,17708.087891,-17450.5625,17965.646484,29.930094,90.364868,22.827585,0.0,0.034824,0.380252,28.40386,28.906248,30.162771,90.259644,22.896688,0.0,0.051845,0.030298,28.59408,28.688635,1.014,1.024,-63617.0,-145286.0,-412178.0,0.0,141786.0,141676.0,-145019.0,138607.0,-60642.0,-140418.0,-417313.0,0.0,-143245.0,-143379.0,140109.0,-146099.0,0.0,0.0,0.0,0.0,0.0,0.0,0.0,0.0,0.0,0.0,0.0,0.0,0.0,0.0,0.0,0.0,0.0,0.0,0.0,0.0,0.0,0.0,0.0,0.0
50,2.348944902420044,0.522379,1.577464,0.398402,0.0,-3.105354,0.029347,0.488082,0.525987,0.52645,1.575476,0.399627,0.0,-3.1433470000000003,-0.002707,0.511706,0.512843,3.0,1.0,111.0,0.0,1.0,-79479.0,-25361.0,13997.0,-78149.0,25680.0,13574.0,-0.949758,-0.206922,0.234827,-0.27304,0.180995,-0.944823,0.153002,-0.96147,-0.228399,-0.936595,0.216553,0.27549,0.310247,0.146975,0.939226,0.162902,0.965144,-0.204841,-0.949758,-0.206922,0.234827,-0.27304,0.180995,-0.944823,0.153002,-0.96147,-0.228399,-0.936595,0.216553,0.27549,0.310247,0.146975,0.939226,0.162902,0.965144,-0.204841,-79479.0,-25361.0,13997.0,-78149.0,25680.0,13574.0,18324.0,17370.0,-158413.0,0.0,-54262.0,-54323.0,-54026.0,-54633.0,-14996.0,-12610.0,154984.0,0.0,53497.0,53359.0,53723.0,53598.0,44.0,202.0,-59.0,0.0,-383.0,316.0,600.0,-538.0,-50.0,-181.0,37.0,0.0,618.0,230.0,792.0,-954.0,-0.01213,-0.054736,0.016129,0.0,-0.014034,0.011587,-0.021986,-0.019713,-0.013789,-0.049198,0.010121,0.0,0.022631,0.008432,-0.029002,-0.03491,4076.370117,11512.44043,51353.191406,0.0,-17644.320312,-17639.910156,17914.048828,-17391.599609,4108.140137,11502.720703,51506.730469,0.0,17706.78125,17706.419922,-17444.880859,17972.730469,0.0,0.0,0.0,0.0,0.0,0.0,0.0,0.0,0.0,0.0,0.0,0.0,0.0,0.0,0.0,0.0,0.0,0.0,0.0,0.0,0.0,0.0,0.0,0.0,0.0,0.0,0.0,0.0,0.0,0.0,0.0,0.0,4076.366699,11510.351562,51354.75,0.0,-17654.841797,-17651.609375,17912.146484,-17396.816406,4108.056641,11501.677734,51505.996094,0.0,17708.095703,17708.087891,-17450.5625,17965.646484,29.930094,90.364868,22.827585,0.0,0.034824,0.380252,28.40386,28.906248,30.162771,90.259644,22.896688,0.0,0.051845,0.030298,28.59408,28.688635,1.014,1.024,-63617.0,-145286.0,-412178.0,0.0,141786.0,141676.0,-145019.0,138607.0,-60642.0,-140418.0,-417313.0,0.0,-143245.0,-143379.0,140109.0,-146099.0,0.0,0.0,0.0,0.0,0.0,0.0,0.0,0.0,0.0,0.0,0.0,0.0,0.0,0.0,0.0,0.0,0.0,0.0,0.0,0.0,0.0,0.0,0.0,0.0
