MHC-RobotSimulators-Research/Data_Analysis_MotionReplication/mai_plotter/offset_fixed/0arm__a3.csv
Unnamed: 0,time,jpos0,jpos1,jpos2,jpos3,jpos4,jpos5,jpos6,jpos7,jpos8,jpos9,jpos10,jpos11,jpos12,jpos13,jpos14,jpos15,runlevel,sublevel,last_seq,type0,type1,pos0,pos1,pos2,pos3,pos4,pos5,ori0,ori1,ori2,ori3,ori4,ori5,ori6,ori7,ori8,ori9,ori10,ori11,ori12,ori13,ori14,ori15,ori16,ori17,ori_d0,ori_d1,ori_d2,ori_d3,ori_d4,ori_d5,ori_d6,ori_d7,ori_d8,ori_d9,ori_d10,ori_d11,ori_d12,ori_d13,ori_d14,ori_d15,ori_d16,ori_d17,pos_d0,pos_d1,pos_d2,pos_d3,pos_d4,pos_d5,encVals0,encVals1,encVals2,encVals3,encVals4,encVals5,encVals6,encVals7,encVals8,encVals9,encVals10,encVals11,encVals12,encVals13,encVals14,encVals15,dac_vals0,dac_vals1,dac_vals2,dac_vals3,dac_vals4,dac_vals5,dac_vals6,dac_vals7,dac_vals8,dac_vals9,dac_vals10,dac_vals11,dac_vals12,dac_vals13,dac_vals14,dac_vals15,Tau0,Tau1,Tau2,Tau3,Tau4,Tau5,Tau6,Tau7,Tau8,Tau9,Tau10,Tau11,Tau12,Tau13,Tau14,Tau15,mpos0,mpos1,mpos2,mpos3,mpos4,mpos5,mpos6,mpos7,mpos8,mpos9,mpos10,mpos11,mpos12,mpos13,mpos14,mpos15,mvel0,mvel1,mvel2,mvel3,mvel4,mvel5,mvel6,mvel7,mvel8,mvel9,mvel10,mvel11,mvel12,mvel13,mvel14,mvel15,jvel0,jvel1,jvel2,jvel3,jvel4,jvel5,jvel6,jvel7,jvel8,jvel9,jvel10,jvel11,jvel12,jvel13,jvel14,jvel15,mpos_d0,mpos_d1,mpos_d2,mpos_d3,mpos_d4,mpos_d5,mpos_d6,mpos_d7,mpos_d8,mpos_d9,mpos_d10,mpos_d11,mpos_d12,mpos_d13,mpos_d14,mpos_d15,jpos_d0,jpos_d1,jpos_d2,jpos_d3,jpos_d4,jpos_d5,jpos_d6,jpos_d7,jpos_d8,jpos_d9,jpos_d10,jpos_d11,jpos_d12,jpos_d13,jpos_d14,jpos_d15,grasp_d0,grasp_d1,encoffsets0,encoffsets1,encoffsets2,encoffsets3,encoffsets4,encoffsets5,encoffsets6,encoffsets7,encoffsets8,encoffsets9,encoffsets10,encoffsets11,encoffsets12,encoffsets13,encoffsets14,encoffsets15,jac_vel0,jac_vel1,jac_vel2,jac_vel3,jac_vel4,jac_vel5,jac_vel6,jac_vel7,jac_vel8,jac_vel9,jac_vel10,jac_vel11,jac_f0,jac_f1,jac_f2,jac_f3,jac_f4,jac_f5,jac_f6,jac_f7,jac_f8,jac_f9,jac_f10,jac_f11
0,0.0,0.6108158230781555,1.570826768875122,0.3899600124359131,0.0,-3.1418064773062975,-0.0002679995377548,0.785301148891449,0.785301148891449,0.6108641624450684,1.5707966089248655,0.3899991056323051,0.0,-3.141592675445488,-2.2356221268080316e-15,0.785301148891449,0.785301148891449,,,,,,,,,,,,,,,,,,,,,,,,,,,,,,,,,,,,,,,,,,,,,,,,,,,,,,,,,,,,,,,,,,,,,,,,,,,,,,,,,,,,,,,,,,,,,,,,,,,,,,,,,,,,,,,,,,,,,,,,,,,,,,,,,,,,,,0.0,0.0,0.0,0.0,0.0,0.0,0.0,0.0,0.0,0.0,0.0,0.0,0.0,0.0,0.0,0.0,,,,,,,,,,,,,,,,,,,,,,,,,,,,,,,,,,,,,,,,,,,,,,,,,,,,,,,,,,,,,,,,,,,,,,,,,,
1,1.115666151046753,0.6081151962280273,1.572457194328308,0.3878374314308166,0.0,-3.1428855001906664,-0.0015896875411272,0.5298319458961487,0.5295425653457642,0.6107972264289856,1.5708129405975342,0.3899434423446655,0.0,-3.1416664063910753,-6.221455259947106e-05,0.5331646203994751,0.5328632593154907,,,,,,,,,,,,,,,,,,,,,,,,,,,,,,,,,,,,,,,,,,,,,,,,,,,,,,,,,,,,,,,,,,,,,,,,,,,,,,,,,,,,,,,,,,,,,,,,,,,,,,,,,,,,,,,,,,,,,,,,,,,,,,,,,,,,,,-2.6988125682692043e-05,1.703234556771349e-05,-3.967115844716318e-05,0.0,-0.0040486813522875,0.0079967202618718,-0.1588515192270279,-0.1252991259098053,2.7248263450019294e-06,2.626328387123067e-05,1.255877805306227e-06,0.0,-0.0189458429813385,-0.0135539444163441,0.350383996963501,0.3920127153396606,,,,,,,,,,,,,,,,,,,,,,,,,,,,,,,,,,,,,,,,,,,,,,,,,,,,,,,,,,,,,,,,,,,,,,,,,,
2,1.1370081901550293,0.6081151962280273,1.572457194328308,0.3878374314308166,0.0,-3.1428855001906664,-0.0015896875411272,0.5298319458961487,0.5295425653457642,0.6107972264289856,1.5708129405975342,0.3899434125423431,0.0,-3.141632312534264,-3.423873567953706e-05,0.5244439244270325,0.5242330431938171,,,,,,,,,,,,,,,,,,,,,,,,,,,,,,,,,,,,,,,,,,,,,,,,,,,,,,,,,,,,,,,,,,,,,,,,,,,,,,,,,,,,,,,,,,,,,,,,,,,,,,,,,,,,,,,,,,,,,,,,,,,,,,,,,,,,,,-2.6988125682692043e-05,1.703234556771349e-05,-3.967115844716318e-05,0.0,-0.0040486813522875,0.0079967202618718,-0.1588515192270279,-0.1252991259098053,-1.841140601754887e-06,-1.1755560990422964e-05,-1.3137153018760728e-06,0.0,0.0003342951531521,0.0018888685153797,0.1655463874340057,0.1484052836894989,,,,,,,,,,,,,,,,,,,,,,,,,,,,,,,,,,,,,,,,,,,,,,,,,,,,,,,,,,,,,,,,,,,,,,,,,,
3,1.1579205989837646,0.6081143021583557,1.572457790374756,0.3878361573815346,0.0,-3.142561548946312,-0.0012072783429175,0.5227681398391724,0.522624671459198,0.6107972264289856,1.5708129405975342,0.3899434125423431,0.0,-3.141632312534264,-3.423873567953706e-05,0.5244439244270325,0.5242330431938171,,,,,,,,,,,,,,,,,,,,,,,,,,,,,,,,,,,,,,,,,,,,,,,,,,,,,,,,,,,,,,,,,,,,,,,,,,,,,,,,,,,,,,,,,,,,,,,,,,,,,,,,,,,,,,,,,,,,,,,,,,,,,,,,,,,,,,-2.3105996660888195e-05,1.3805555681756232e-05,-3.268406362622045e-05,0.0,0.0045856973156332,0.0059957299381494,-0.1148684322834014,-0.1126001253724098,-1.841140601754887e-06,-1.1755560990422964e-05,-1.3137153018760728e-06,0.0,0.0003342951531521,0.0018888685153797,0.1655463874340057,0.1484052836894989,,,,,,,,,,,,,,,,,,,,,,,,,,,,,,,,,,,,,,,,,,,,,,,,,,,,,,,,,,,,,,,,,,,,,,,,,,
4,1.1794447898864746,0.6081135869026184,1.5724581480026243,0.387835151553154,0.0,-3.1424120008925707,-0.0010189480381086,0.5192044973373413,0.5190867781639099,0.6107972264289856,1.5708129405975342,0.3899433976411819,0.0,-3.1416107952575,-1.6826976207084954e-05,0.5203708410263062,0.5202697515487671,,,,,,,,,,,,,,,,,,,,,,,,,,,,,,,,,,,,,,,,,,,,,,,,,,,,,,,,,,,,,,,,,,,,,,,,,,,,,,,,,,,,,,,,,,,,,,,,,,,,,,,,,,,,,,,,,,,,,,,,,,,,,,,,,,,,,,-1.9490062186378054e-05,1.174206772702746e-05,-2.736323222052306e-05,0.0,0.0041191359050571,0.005123094189912,-0.0966235473752021,-0.0959825068712234,-5.229382509241987e-07,-8.171907595055927e-09,-4.204021024634131e-07,0.0,3.836512041743845e-05,6.815885717514902e-05,0.1024733111262321,0.1019640937447547,,,,,,,,,,,,,,,,,,,,,,,,,,,,,,,,,,,,,,,,,,,,,,,,,,,,,,,,,,,,,,,,,,,,,,,,,,
5,1.2008044719696045,0.6081135272979736,1.572458267211914,0.3878350993990898,0.0,-3.1424038350562364,-0.0010088029084727,0.5190131664276123,0.5188966989517212,0.6107972264289856,1.5708129405975342,0.3899433976411819,0.0,-3.1416107952575,-1.6826976207084954e-05,0.5203708410263062,0.5202697515487671,,,,,,,,,,,,,,,,,,,,,,,,,,,,,,,,,,,,,,,,,,,,,,,,,,,,,,,,,,,,,,,,,,,,,,,,,,,,,,,,,,,,,,,,,,,,,,,,,,,,,,,,,,,,,,,,,,,,,,,,,,,,,,,,,,,,,,-1.929560130520258e-05,1.1621872545219958e-05,-2.708871397771873e-05,0.0,0.0040796478278934,0.0050725801847875,-0.095661848783493,-0.0950237512588501,-5.229382509241987e-07,-8.171907595055927e-09,-4.204021024634131e-07,0.0,3.836512041743845e-05,6.815885717514902e-05,0.1024733111262321,0.1019640937447547,,,,,,,,,,,,,,,,,,,,,,,,,,,,,,,,,,,,,,,,,,,,,,,,,,,,,,,,,,,,,,,,,,,,,,,,,,
6,1.222950458526611,0.6081128716468811,1.5724586248397827,0.3878341680765152,0.0,-3.142263346908501,-0.0008340833010151,0.5157193541526794,0.515625,0.6107971668243408,1.5708129405975342,0.3899433827400207,0.0,-3.14160793423455,-1.382580740028061e-05,0.516842246055603,0.5167599320411682,,,,,,,,,,,,,,,,,,,,,,,,,,,,,,,,,,,,,,,,,,,,,,,,,,,,,,,,,,,,,,,,,,,,,,,,,,,,,,,,,,,,,,,,,,,,,,,,,,,,,,,,,,,,,,,,,,,,,,,,,,,,,,,,,,,,,,-1.595511639607139e-05,9.604746082914062e-06,-2.239068089693319e-05,0.0,0.003373252460733,0.0041958661749958,-0.0790918841958046,-0.0785631909966468,-4.163216544839088e-07,2.2965851442791063e-08,-3.48900044855327e-07,0.0,8.588847413193434e-05,7.678788824705407e-05,0.0847331285476684,0.0842771604657173,,,,,,,,,,,,,,,,,,,,,,,,,,,,,,,,,,,,,,,,,,,,,,,,,,,,,,,,,,,,,,,,,,,,,,,,,,
7,1.2442576885223389,0.6081128716468811,1.5724586248397827,0.3878341680765152,0.0,-3.142263346908501,-0.0008340833010151,0.5157193541526794,0.515625,0.6107971668243408,1.5708129405975342,0.3899433752894402,0.0,-3.141605132816246,-1.133363457483938e-05,0.5140648484230042,0.5139973759651184,,,,,,,,,,,,,,,,,,,,,,,,,,,,,,,,,,,,,,,,,,,,,,,,,,,,,,,,,,,,,,,,,,,,,,,,,,,,,,,,,,,,,,,,,,,,,,,,,,,,,,,,,,,,,,,,,,,,,,,,,,,,,,,,,,,,,,-1.595511639607139e-05,9.604746082914062e-06,-2.239068089693319e-05,0.0,0.003373252460733,0.0041958661749958,-0.0790918841958046,-0.0785631909966468,-3.476029917237611e-07,2.082856198626359e-08,-2.9122273303983093e-07,0.0,6.94343470968306e-05,6.290366582106799e-05,0.0707602724432945,0.0703853815793991,,,,,,,,,,,,,,,,,,,,,,,,,,,,,,,,,,,,,,,,,,,,,,,,,,,,,,,,,,,,,,,,,,,,,,,,,,
8,1.2654480934143066,0.6081123352050781,1.5724589824676514,0.3878333932161331,0.0,-3.1421471774558336,-0.0006896107224747,0.5129960775375366,0.5129198431968689,0.6107971668243408,1.5708129405975342,0.3899433752894402,0.0,-3.141605132816246,-1.133363457483938e-05,0.5140648484230042,0.5139973759651184,,,,,,,,,,,,,,,,,,,,,,,,,,,,,,,,,,,,,,,,,,,,,,,,,,,,,,,,,,,,,,,,,,,,,,,,,,,,,,,,,,,,,,,,,,,,,,,,,,,,,,,,,,,,,,,,,,,,,,,,,,,,,,,,,,,,,,-1.3192657206673177e-05,7.944041499285959e-06,-1.8507182176108472e-05,0.0,0.0027889928314834,0.0034691409673541,-0.0653899684548378,-0.0649613291025161,-3.476029917237611e-07,2.082856198626359e-08,-2.9122273303983093e-07,0.0,6.94343470968306e-05,6.290366582106799e-05,0.0707602724432945,0.0703853815793991,,,,,,,,,,,,,,,,,,,,,,,,,,,,,,,,,,,,,,,,,,,,,,,,,,,,,,,,,,,,,,,,,,,,,,,,,,
9,1.28704571723938,0.6081123352050781,1.5724589824676514,0.3878333932161331,0.0,-3.1421471774558336,-0.0006896107224747,0.5129960775375366,0.5129198431968689,0.6107971668243408,1.5708129405975342,0.389943360388279,0.0,-3.141602748630455,-9.18696605367586e-06,0.5116284489631653,0.5115737915039062,,,,,,,,,,,,,,,,,,,,,,,,,,,,,,,,,,,,,,,,,,,,,,,,,,,,,,,,,,,,,,,,,,,,,,,,,,,,,,,,,,,,,,,,,,,,,,,,,,,,,,,,,,,,,,,,,,,,,,,,,,,,,,,,,,,,,,-1.3192657206673177e-05,7.944041499285959e-06,-1.8507182176108472e-05,0.0,0.0027889928314834,0.0034691409673541,-0.0653899684548378,-0.0649613291025161,-2.874961921861541e-07,1.823563522407312e-08,-2.406663668352849e-07,0.0,5.635912384605035e-05,5.1104587328154594e-05,0.0585028231143951,0.0581984110176563,,,,,,,,,,,,,,,,,,,,,,,,,,,,,,,,,,,,,,,,,,,,,,,,,,,,,,,,,,,,,,,,,,,,,,,,,,
10,1.3089442253112793,0.6081119179725647,1.5724592208862305,0.3878328195214272,0.0,-3.1420604526976854,-0.0005816924385726,0.5109620094299316,0.5108989477157593,0.6107971668243408,1.5708129405975342,0.389943360388279,0.0,-3.141602748630455,-9.18696605367586e-06,0.5116284489631653,0.5115737915039062,,,,,,,,,,,,,,,,,,,,,,,,,,,,,,,,,,,,,,,,,,,,,,,,,,,,,,,,,,,,,,,,,,,,,,,,,,,,,,,,,,,,,,,,,,,,,,,,,,,,,,,,,,,,,,,,,,,,,,,,,,,,,,,,,,,,,,-1.1128976439067628e-05,6.703029612253886e-06,-1.5607074601575732e-05,0.0,0.0023526039440184,0.0029262639582157,-0.0551552958786487,-0.0548001527786254,-2.874961921861541e-07,1.823563522407312e-08,-2.406663668352849e-07,0.0,5.635912384605035e-05,5.1104587328154594e-05,0.0585028231143951,0.0581984110176563,,,,,,,,,,,,,,,,,,,,,,,,,,,,,,,,,,,,,,,,,,,,,,,,,,,,,,,,,,,,,,,,,,,,,,,,,,
11,1.3299827575683594,0.608111560344696,1.5724594593048096,0.3878322830796242,0.0,-3.1419794499854357,-0.0004809357633348,0.5090629458427429,0.50901198387146,0.6107971668243408,1.5708129405975342,0.3899433529376984,0.0,-3.141600960491112,-7.526358785980847e-06,0.5097108483314514,0.5096660852432251,,,,,,,,,,,,,,,,,,,,,,,,,,,,,,,,,,,,,,,,,,,,,,,,,,,,,,,,,,,,,,,,,,,,,,,,,,,,,,,,,,,,,,,,,,,,,,,,,,,,,,,,,,,,,,,,,,,,,,,,,,,,,,,,,,,,,,-9.20209367905045e-06,5.543965471588308e-06,-1.2900149158667771e-05,0.0,0.0019451698753982,0.0024194081779569,-0.0456001572310924,-0.0453124642372131,-2.4017438704504457e-07,1.603206456479711e-08,-2.0089619567897898e-07,0.0,4.623048516805284e-05,4.195617293589749e-05,0.0488553531467914,0.0486055351793766,,,,,,,,,,,,,,,,,,,,,,,,,,,,,,,,,,,,,,,,,,,,,,,,,,,,,,,,,,,,,,,,,,,,,,,,,,
12,1.3510637283325195,0.608111560344696,1.5724594593048096,0.3878322830796242,0.0,-3.1419794499854357,-0.0004809357633348,0.5090629458427429,0.50901198387146,0.6107971668243408,1.5708129405975342,0.3899433454871178,0.0,-3.141599410770348,-6.16329452896025e-06,0.508109450340271,0.5080727934837341,,,,,,,,,,,,,,,,,,,,,,,,,,,,,,,,,,,,,,,,,,,,,,,,,,,,,,,,,,,,,,,,,,,,,,,,,,,,,,,,,,,,,,,,,,,,,,,,,,,,,,,,,,,,,,,,,,,,,,,,,,,,,,,,,,,,,,-9.20209367905045e-06,5.543965471588308e-06,-1.2900149158667771e-05,0.0,0.0019451698753982,0.0024194081779569,-0.0456001572310924,-0.0453124642372131,-2.0064355510385215e-07,1.404998339893382e-08,-1.6770043487213118e-07,0.0,3.7910060200374573e-05,3.443207242526114e-05,0.0407988093793392,0.040593858808279,,,,,,,,,,,,,,,,,,,,,,,,,,,,,,,,,,,,,,,,,,,,,,,,,,,,,,,,,,,,,,,,,,,,,,,,,,
13,1.3731491565704346,0.6081112027168274,1.5724595785140991,0.3878318360447884,0.0,-3.141912454364708,-0.0003976311418227,0.5074928402900696,0.5074517130851746,0.6107971668243408,1.5708129405975342,0.3899433454871178,0.0,-3.141599410770348,-6.16329452896025e-06,0.508109450340271,0.5080727934837341,,,,,,,,,,,,,,,,,,,,,,,,,,,,,,,,,,,,,,,,,,,,,,,,,,,,,,,,,,,,,,,,,,,,,,,,,,,,,,,,,,,,,,,,,,,,,,,,,,,,,,,,,,,,,,,,,,,,,,,,,,,,,,,,,,,,,,-7.608833584527019e-06,4.585312126437202e-06,-1.066272034222493e-05,0.0,0.0016083024675026,0.0020003411918878,-0.0377003587782382,-0.0374674014747142,-2.0064355510385215e-07,1.404998339893382e-08,-1.6770043487213118e-07,0.0,3.7910060200374573e-05,3.443207242526114e-05,0.0407988093793392,0.040593858808279,,,,,,,,,,,,,,,,,,,,,,,,,,,,,,,,,,,,,,,,,,,,,,,,,,,,,,,,,,,,,,,,,,,,,,,,,,
14,1.3944838047027588,0.6081112027168274,1.5724595785140991,0.3878318360447884,0.0,-3.141912454364708,-0.0003976311418227,0.5074928402900696,0.5074517130851746,0.6107971668243408,1.5708129405975342,0.3899433454871178,0.0,-3.1415982186774523,-5.04489389641094e-06,0.5067721605300903,0.5067421793937683,,,,,,,,,,,,,,,,,,,,,,,,,,,,,,,,,,,,,,,,,,,,,,,,,,,,,,,,,,,,,,,,,,,,,,,,,,,,,,,,,,,,,,,,,,,,,,,,,,,,,,,,,,,,,,,,,,,,,,,,,,,,,,,,,,,,,,-7.608833584527019e-06,4.585312126437202e-06,-1.066272034222493e-05,0.0,0.0016083024675026,0.0020003411918878,-0.0377003587782382,-0.0374674014747142,-1.676198024824771e-07,1.2278955630051769e-08,-1.3999162717936997e-07,0.0,3.107696466031484e-05,2.8246327929082327e-05,0.0340708345174789,0.0339027531445026,,,,,,,,,,,,,,,,,,,,,,,,,,,,,,,,,,,,,,,,,,,,,,,,,,,,,,,,,,,,,,,,,,,,,,,,,,
15,1.41593337059021,0.6081109642982483,1.5724598169326782,0.3878314709663391,0.0,-3.141857081649712,-0.0003287557919975,0.5061947703361511,0.5061615705490112,0.6107971668243408,1.5708129405975342,0.3899433454871178,0.0,-3.1415982186774523,-5.04489389641094e-06,0.5067721605300903,0.5067421793937683,,,,,,,,,,,,,,,,,,,,,,,,,,,,,,,,,,,,,,,,,,,,,,,,,,,,,,,,,,,,,,,,,,,,,,,,,,,,,,,,,,,,,,,,,,,,,,,,,,,,,,,,,,,,,,,,,,,,,,,,,,,,,,,,,,,,,,-6.291430509008933e-06,3.7924207845208e-06,-8.813357453618664e-06,0.0,0.0013297778787091,0.0016538590425625,-0.0311691220849752,-0.0309805702418088,-1.676198024824771e-07,1.2278955630051769e-08,-1.3999162717936997e-07,0.0,3.107696466031484e-05,2.8246327929082327e-05,0.0340708345174789,0.0339027531445026,,,,,,,,,,,,,,,,,,,,,,,,,,,,,,,,,,,,,,,,,,,,,,,,,,,,,,,,,,,,,,,,,,,,,,,,,,
16,1.4371058940887451,0.6081109642982483,1.5724598169326782,0.3878314709663391,0.0,-3.141857081649712,-0.0003287557919975,0.5061947703361511,0.5061615705490112,0.610797107219696,1.5708129405975342,0.3899433380365372,0.0,-3.141597265003136,-4.173923116468359e-06,0.5057122707366943,0.5056874752044678,,,,,,,,,,,,,,,,,,,,,,,,,,,,,,,,,,,,,,,,,,,,,,,,,,,,,,,,,,,,,,,,,,,,,,,,,,,,,,,,,,,,,,,,,,,,,,,,,,,,,,,,,,,,,,,,,,,,,,,,,,,,,,,,,,,,,,-6.291430509008933e-06,3.7924207845208e-06,-8.813357453618664e-06,0.0,0.0013297778787091,0.0016538590425625,-0.0311691220849752,-0.0309805702418088,-1.4143830640023225e-07,1.0787593041072796e-08,-1.1804049648844741e-07,0.0,2.575027974671684e-05,2.34197959798621e-05,0.02873863466084,0.0285993013530969,,,,,,,,,,,,,,,,,,,,,,,,,,,,,,,,,,,,,,,,,,,,,,,,,,,,,,,,,,,,,,,,,,,,,,,,,,
17,1.459198236465454,0.6081107258796692,1.5724599361419678,0.3878311654925346,0.0,-3.1418113052825243,-0.0002718105097301,0.5051215887069702,0.5050947666168213,0.610797107219696,1.5708129405975342,0.3899433380365372,0.0,-3.141596370933464,-3.3755388813005993e-06,0.5047227740287781,0.5047026872634888,,,,,,,,,,,,,,,,,,,,,,,,,,,,,,,,,,,,,,,,,,,,,,,,,,,,,,,,,,,,,,,,,,,,,,,,,,,,,,,,,,,,,,,,,,,,,,,,,,,,,,,,,,,,,,,,,,,,,,,,,,,,,,,,,,,,,,-5.202124157221988e-06,3.1366307666758075e-06,-7.284751973202219e-06,0.0,0.0010994904441758,0.0013673900393769,-0.0257693622261285,-0.0256168227642774,-1.1698541868554457e-07,9.313105842068126e-09,-9.755506624742338e-08,0.0,2.0861976736341603e-05,1.8986696886713617e-05,0.0237603783607482,0.0236474424600601,,,,,,,,,,,,,,,,,,,,,,,,,,,,,,,,,,,,,,,,,,,,,,,,,,,,,,,,,,,,,,,,,,,,,,,,,,
18,1.4821572303771973,0.6081105470657349,1.572460055351257,0.3878309270739555,0.0,-3.141775244472435,-0.0002269899268867,0.5042769312858582,0.5042550563812256,0.610797107219696,1.5708129405975342,0.3899433380365372,0.0,-3.141596370933464,-3.3755388813005993e-06,0.5047227740287781,0.5047026872634888,,,,,,,,,,,,,,,,,,,,,,,,,,,,,,,,,,,,,,,,,,,,,,,,,,,,,,,,,,,,,,,,,,,,,,,,,,,,,,,,,,,,,,,,,,,,,,,,,,,,,,,,,,,,,,,,,,,,,,,,,,,,,,,,,,,,,,-4.3446789277368225e-06,2.6202903882222017e-06,-6.0819415921287145e-06,0.0,0.0009182295179925,0.0011419146321713,-0.0215194523334503,-0.0213947165757417,-1.1698541868554457e-07,9.313105842068126e-09,-9.755506624742338e-08,0.0,2.0861976736341603e-05,1.8986696886713617e-05,0.0237603783607482,0.0236474424600601,,,,,,,,,,,,,,,,,,,,,,,,,,,,,,,,,,,,,,,,,,,,,,,,,,,,,,,,,,,,,,,,,,,,,,,,,,
19,1.5037598609924316,0.6081105470657349,1.572460055351257,0.3878309270739555,0.0,-3.141775244472435,-0.0002269899268867,0.5042769312858582,0.5042550563812256,0.610797107219696,1.5708129405975342,0.3899433305859566,0.0,-3.141595655677727,-2.7284261250315467e-06,0.5039047002792358,0.5038884282112122,,,,,,,,,,,,,,,,,,,,,,,,,,,,,,,,,,,,,,,,,,,,,,,,,,,,,,,,,,,,,,,,,,,,,,,,,,,,,,,,,,,,,,,,,,,,,,,,,,,,,,,,,,,,,,,,,,,,,,,,,,,,,,,,,,,,,,-4.3446789277368225e-06,2.6202903882222017e-06,-6.0819415921287145e-06,0.0,0.0009182295179925,0.0011419146321713,-0.0215194523334503,-0.0213947165757417,-9.676065815256153e-08,8.023248732058619e-09,-8.062536949182687e-08,0.0,1.689465352683328e-05,1.5385860024252906e-05,0.019644483923912,0.0195529796183109,,,,,,,,,,,,,,,,,,,,,,,,,,,,,,,,,,,,,,,,,,,,,,,,,,,,,,,,,,,,,,,,,,,,,,,,,,
20,1.52449631690979,0.6081104278564453,1.572460055351257,0.3878307259082794,0.0,-3.1417451441268236,-0.000189560058061,0.5035715699195862,0.5035537481307983,0.610797107219696,1.5708129405975342,0.3899433305859566,0.0,-3.141595655677727,-2.7284261250315467e-06,0.5039047002792358,0.5038884282112122,,,,,,,,,,,,,,,,,,,,,,,,,,,,,,,,,,,,,,,,,,,,,,,,,,,,,,,,,,,,,,,,,,,,,,,,,,,,,,,,,,,,,,,,,,,,,,,,,,,,,,,,,,,,,,,,,,,,,,,,,,,,,,,,,,,,,,-3.628562808444258e-06,2.1889457002544077e-06,-5.077731657365803e-06,0.0,0.0007668522302992,0.0009536183788441,-0.0179704427719116,-0.0178684890270233,-9.676065815256153e-08,8.023248732058619e-09,-8.062536949182687e-08,0.0,1.689465352683328e-05,1.5385860024252906e-05,0.019644483923912,0.0195529796183109,,,,,,,,,,,,,,,,,,,,,,,,,,,,,,,,,,,,,,,,,,,,,,,,,,,,,,,,,,,,,,,,,,,,,,,,,,
21,1.546236276626587,0.6081104278564453,1.572460055351257,0.3878307259082794,0.0,-3.1417451441268236,-0.000189560058061,0.5035715699195862,0.5035537481307983,0.610797107219696,1.5708129405975342,0.3899433305859566,0.0,-3.141595059631279,-2.204160182373016e-06,0.5032283067703247,0.5032151937484741,,,,,,,,,,,,,,,,,,,,,,,,,,,,,,,,,,,,,,,,,,,,,,,,,,,,,,,,,,,,,,,,,,,,,,,,,,,,,,,,,,,,,,,,,,,,,,,,,,,,,,,,,,,,,,,,,,,,,,,,,,,,,,,,,,,,,,-3.628562808444258e-06,2.1889457002544077e-06,-5.077731657365803e-06,0.0,0.0007668522302992,0.0009536183788441,-0.0179704427719116,-0.0178684890270233,-8.003253526567279e-08,6.89925894192811e-09,-6.663407958740208e-08,0.0,1.3675879017682746e-05,1.2462232007237615e-05,0.0162415634840726,0.0161674562841653,,,,,,,,,,,,,,,,,,,,,,,,,,,,,,,,,,,,,,,,,,,,,,,,,,,,,,,,,,,,,,,,,,,,,,,,,,
22,1.5679519176483154,0.6081103086471558,1.5724601745605469,0.3878305619955063,0.0,-3.1417199909667284,-0.0001583021949045,0.5029825568199158,0.5029680728912354,0.610797107219696,1.5708129405975342,0.3899433305859566,0.0,-3.141595059631279,-2.204160182373016e-06,0.5032283067703247,0.5032151937484741,,,,,,,,,,,,,,,,,,,,,,,,,,,,,,,,,,,,,,,,,,,,,,,,,,,,,,,,,,,,,,,,,,,,,,,,,,,,,,,,,,,,,,,,,,,,,,,,,,,,,,,,,,,,,,,,,,,,,,,,,,,,,,,,,,,,,,-3.030481138921459e-06,1.8286065142092411e-06,-4.239330792188412e-06,0.0,0.0006404313608072,0.00079637079034,-0.0150067396461963,-0.0149234449490904,-8.003253526567279e-08,6.89925894192811e-09,-6.663407958740208e-08,0.0,1.3675879017682746e-05,1.2462232007237615e-05,0.0162415634840726,0.0161674562841653,,,,,,,,,,,,,,,,,,,,,,,,,,,,,,,,,,,,,,,,,,,,,,,,,,,,,,,,,,,,,,,,,,,,,,,,,,
23,1.5903024673461914,0.6081101894378662,1.5724601745605469,0.3878304204344749,0.0,-3.141699010131767,-0.0001321986346738,0.5024906396865845,0.502478837966919,0.610797107219696,1.5708129405975342,0.389943323135376,0.0,-3.1415946423987657,-1.799794858925452e-06,0.5026959180831909,0.5026852488517761,,,,,,,,,,,,,,,,,,,,,,,,,,,,,,,,,,,,,,,,,,,,,,,,,,,,,,,,,,,,,,,,,,,,,,,,,,,,,,,,,,,,,,,,,,,,,,,,,,,,,,,,,,,,,,,,,,,,,,,,,,,,,,,,,,,,,,-2.530978918002802e-06,1.5275840041795163e-06,-3.5393609323364217e-06,0.0,0.0005348523845896,0.0006650523864664,-0.0125318123027682,-0.0124637968838214,-6.686134668143495e-08,5.970779426434092e-09,-5.5626287576160394e-08,0.0,1.1189519682375249e-05,1.020233230519807e-05,0.013563229702413,0.0135025661438703,,,,,,,,,,,,,,,,,,,,,,,,,,,,,,,,,,,,,,,,,,,,,,,,,,,,,,,,,,,,,,,,,,,,,,,,,,
24,1.611145257949829,0.6081101894378662,1.5724601745605469,0.3878304204344749,0.0,-3.141699010131767,-0.0001321986346738,0.5024906396865845,0.502478837966919,0.610797107219696,1.5708129405975342,0.389943323135376,0.0,-3.141594284770897,-1.4688299643239588e-06,0.5022513270378113,0.5022426247596741,,,,,,,,,,,,,,,,,,,,,,,,,,,,,,,,,,,,,,,,,,,,,,,,,,,,,,,,,,,,,,,,,,,,,,,,,,,,,,,,,,,,,,,,,,,,,,,,,,,,,,,,,,,,,,,,,,,,,,,,,,,,,,,,,,,,,,-2.530978918002802e-06,1.5275840041795163e-06,-3.5393609323364217e-06,0.0,0.0005348523845896,0.0006650523864664,-0.0125318123027682,-0.0124637968838214,-5.585781792660782e-08,5.160094573852802e-09,-4.6437104828100935e-08,0.0,9.151317499345168e-06,8.34863203635905e-06,0.0113265691325068,0.0112769305706024,,,,,,,,,,,,,,,,,,,,,,,,,,,,,,,,,,,,,,,,,,,,,,,,,,,,,,,,,,,,,,,,,,,,,,,,,,
25,1.6325604915618896,0.6081101298332214,1.5724602937698364,0.387830308675766,0.0,-3.1416814863662035,-0.0001103994436562,0.5020799040794373,0.5020703077316284,0.610797107219696,1.5708129405975342,0.389943323135376,0.0,-3.141594284770897,-1.4688299643239588e-06,0.5022513270378113,0.5022426247596741,,,,,,,,,,,,,,,,,,,,,,,,,,,,,,,,,,,,,,,,,,,,,,,,,,,,,,,,,,,,,,,,,,,,,,,,,,,,,,,,,,,,,,,,,,,,,,,,,,,,,,,,,,,,,,,,,,,,,,,,,,,,,,,,,,,,,,-2.113807568093762e-06,1.2761148582285389e-06,-2.9549655664595775e-06,0.0,0.0004466790705919,0.0005553876399062,-0.010465052910149,-0.0104095414280891,-5.585781792660782e-08,5.160094573852802e-09,-4.6437104828100935e-08,0.0,9.151317499345168e-06,8.34863203635905e-06,0.0113265691325068,0.0112769305706024,,,,,,,,,,,,,,,,,,,,,,,,,,,,,,,,,,,,,,,,,,,,,,,,,,,,,,,,,,,,,,,,,,,,,,,,,,
26,1.6543896198272705,0.6081101298332214,1.5724602937698364,0.387830308675766,0.0,-3.1416814863662035,-0.0001103994436562,0.5020799040794373,0.5020703077316284,0.610797107219696,1.5708129405975342,0.389943323135376,0.0,-3.141593986747673,-1.184555230793194e-06,0.5018613338470459,0.5018543004989624,,,,,,,,,,,,,,,,,,,,,,,,,,,,,,,,,,,,,,,,,,,,,,,,,,,,,,,,,,,,,,,,,,,,,,,,,,,,,,,,,,,,,,,,,,,,,,,,,,,,,,,,,,,,,,,,,,,,,,,,,,,,,,,,,,,,,,-2.113807568093762e-06,1.2761148582285389e-06,-2.9549655664595775e-06,0.0,0.0004466790705919,0.0005553876399062,-0.010465052910149,-0.0104095414280891,-4.6201265035961114e-08,4.417022303471185e-09,-3.8379187827786154e-08,0.0,7.397684385068715e-06,6.752785338903777e-06,0.0093645211309194,0.0093243736773729,,,,,,,,,,,,,,,,,,,,,,,,,,,,,,,,,,,,,,,,,,,,,,,,,,,,,,,,,,,,,,,,,,,,,,,,,,
27,1.6763601303100586,0.6081100702285767,1.5724602937698364,0.3878302118182182,0.0,-3.1416668236235887,-9.219486673828214e-05,0.5017368793487549,0.5017290711402893,0.610797107219696,1.5708129405975342,0.389943323135376,0.0,-3.141593986747673,-1.184555230793194e-06,0.5018613338470459,0.5018543004989624,,,,,,,,,,,,,,,,,,,,,,,,,,,,,,,,,,,,,,,,,,,,,,,,,,,,,,,,,,,,,,,,,,,,,,,,,,,,,,,,,,,,,,,,,,,,,,,,,,,,,,,,,,,,,,,,,,,,,,,,,,,,,,,,,,,,,,-1.7653967461228603e-06,1.0660418183761069e-06,-2.4670616767252795e-06,0.0,0.0003730418684426,0.0004638060636352,-0.0087391454726457,-0.0086938636377453,-4.6201265035961114e-08,4.417022303471185e-09,-3.8379187827786154e-08,0.0,7.397684385068715e-06,6.752785338903777e-06,0.0093645211309194,0.0093243736773729,,,,,,,,,,,,,,,,,,,,,,,,,,,,,,,,,,,,,,,,,,,,,,,,,,,,,,,,,,,,,,,,,,,,,,,,,,
28,1.698671579360962,0.6081100106239319,1.572460412979126,0.3878301224112511,0.0,-3.141654008624962,-7.622523116879165e-05,0.5014359951019287,0.5014297366142273,0.610797107219696,1.5708129405975342,0.389943323135376,0.0,-3.1415936887244493,-9.546796491122225e-07,0.5015389323234558,0.5015332698822021,,,,,,,,,,,,,,,,,,,,,,,,,,,,,,,,,,,,,,,,,,,,,,,,,,,,,,,,,,,,,,,,,,,,,,,,,,,,,,,,,,,,,,,,,,,,,,,,,,,,,,,,,,,,,,,,,,,,,,,,,,,,,,,,,,,,,,-1.459733198316826e-06,8.816951435619558e-07,-2.039170794887468e-06,0.0,0.0003084418131038,0.0003834676463156,-0.0072251698002219,-0.0071886703372001,-3.8214153619264835e-08,3.77686770747232e-09,-3.171954432446e-08,0.0,5.977006821922259e-06,5.459173735289369e-06,0.0077423499897122,0.0077098943293094,,,,,,,,,,,,,,,,,,,,,,,,,,,,,,,,,,,,,,,,,,,,,,,,,,,,,,,,,,,,,,,,,,,,,,,,,,
29,1.720125436782837,0.6081100106239319,1.572460412979126,0.3878301224112511,0.0,-3.141654008624962,-7.622523116879165e-05,0.5014359951019287,0.5014297366142273,0.610797107219696,1.5708129405975342,0.389943323135376,0.0,-3.141593509910515,-7.777128416819323e-07,0.5012851357460022,0.5012805461883545,,,,,,,,,,,,,,,,,,,,,,,,,,,,,,,,,,,,,,,,,,,,,,,,,,,,,,,,,,,,,,,,,,,,,,,,,,,,,,,,,,,,,,,,,,,,,,,,,,,,,,,,,,,,,,,,,,,,,,,,,,,,,,,,,,,,,,-1.459733198316826e-06,8.816951435619558e-07,-2.039170794887468e-06,0.0,0.0003084418131038,0.0003834676463156,-0.0072251698002219,-0.0071886703372001,-3.1925239341035194e-08,3.252398350639396e-09,-2.647995067661668e-08,0.0,4.881232143816305e-06,4.460850050236331e-06,0.0064655886963009,0.0064390683546662,,,,,,,,,,,,,,,,,,,,,,,,,,,,,,,,,,,,,,,,,,,,,,,,,,,,,,,,,,,,,,,,,,,,,,,,,,
30,1.7409436702728271,0.6081099510192871,1.572460412979126,0.3878300553560257,0.0,-3.141643398998192,-6.302179099293426e-05,0.5011872053146362,0.5011821985244751,0.610797107219696,1.5708129405975342,0.389943323135376,0.0,-3.141593509910515,-7.777128416819323e-07,0.5012851357460022,0.5012805461883545,,,,,,,,,,,,,,,,,,,,,,,,,,,,,,,,,,,,,,,,,,,,,,,,,,,,,,,,,,,,,,,,,,,,,,,,,,,,,,,,,,,,,,,,,,,,,,,,,,,,,,,,,,,,,,,,,,,,,,,,,,,,,,,,,,,,,,-1.2069925787727698e-06,7.292272243830666e-07,-1.6854938849064638e-06,0.0,0.0002550287463236,0.0003170450218021,-0.005973475985229,-0.0059440750628709,-3.1925239341035194e-08,3.252398350639396e-09,-2.647995067661668e-08,0.0,4.881232143816305e-06,4.460850050236331e-06,0.0064655886963009,0.0064390683546662,,,,,,,,,,,,,,,,,,,,,,,,,,,,,,,,,,,,,,,,,,,,,,,,,,,,,,,,,,,,,,,,,,,,,,,,,,
31,1.7618367671966553,0.6081099510192871,1.572460412979126,0.3878300553560257,0.0,-3.141643398998192,-6.302179099293426e-05,0.5011872053146362,0.5011821985244751,0.610797107219696,1.5708129405975342,0.389943323135376,0.0,-3.1415933310965807,-6.259398332986166e-07,0.5010625123977661,0.50105881690979,,,,,,,,,,,,,,,,,,,,,,,,,,,,,,,,,,,,,,,,,,,,,,,,,,,,,,,,,,,,,,,,,,,,,,,,,,,,,,,,,,,,,,,,,,,,,,,,,,,,,,,,,,,,,,,,,,,,,,,,,,,,,,,,,,,,,,-1.2069925787727698e-06,7.292272243830666e-07,-1.6854938849064638e-06,0.0,0.0002550287463236,0.0003170450218021,-0.005973475985229,-0.0059440750628709,-2.6406322461980384e-08,2.7747804054456533e-09,-2.1885195877757724e-08,0.0,3.939574071409879e-06,3.6024705423187697e-06,0.0053455852903425,0.0053241681307554,,,,,,,,,,,,,,,,,,,,,,,,,,,,,,,,,,,,,,,,,,,,,,,,,,,,,,,,,,,,,,,,,,,,,,,,,,
32,1.7826008796691897,0.6081098914146423,1.572460412979126,0.3878300032019615,0.0,-3.141635471580437,-5.315917223924771e-05,0.5010014176368713,0.5009972453117371,0.610797107219696,1.5708129405975342,0.389943323135376,0.0,-3.1415933310965807,-6.259398332986166e-07,0.5010625123977661,0.50105881690979,,,,,,,,,,,,,,,,,,,,,,,,,,,,,,,,,,,,,,,,,,,,,,,,,,,,,,,,,,,,,,,,,,,,,,,,,,,,,,,,,,,,,,,,,,,,,,,,,,,,,,,,,,,,,,,,,,,,,,,,,,,,,,,,,,,,,,-1.018186367218732e-06,6.152991431918053e-07,-1.4213754866432282e-06,0.0,0.0002151286462321,0.0002674291026778,-0.0050385217182338,-0.0050143073312938,-2.6406322461980384e-08,2.7747804054456533e-09,-2.1885195877757724e-08,0.0,3.939574071409879e-06,3.6024705423187697e-06,0.0053455852903425,0.0053241681307554,,,,,,,,,,,,,,,,,,,,,,,,,,,,,,,,,,,,,,,,,,,,,,,,,,,,,,,,,,,,,,,,,,,,,,,,,,
33,1.8042380809783936,0.6081098914146423,1.572460412979126,0.3878300032019615,0.0,-3.141635471580437,-5.315917223924771e-05,0.5010014176368713,0.5009972453117371,0.610797107219696,1.5708129405975342,0.3899433156847954,0.0,-3.141593211887291,-5.092227866043686e-07,0.5008873343467712,0.5008842945098877,,,,,,,,,,,,,,,,,,,,,,,,,,,,,,,,,,,,,,,,,,,,,,,,,,,,,,,,,,,,,,,,,,,,,,,,,,,,,,,,,,,,,,,,,,,,,,,,,,,,,,,,,,,,,,,,,,,,,,,,,,,,,,,,,,,,,,-1.018186367218732e-06,6.152991431918053e-07,-1.4213754866432282e-06,0.0,0.0002151286462321,0.0002674291026778,-0.0050385217182338,-0.0050143073312938,-2.2060630655573732e-08,2.384981101499761e-09,-1.8270092994043807e-08,0.0,3.2138832466444e-06,2.9406019166344777e-06,0.0044640651904046,0.0044465824030339,,,,,,,,,,,,,,,,,,,,,,,,,,,,,,,,,,,,,,,,,,,,,,,,,,,,,,,,,,,,,,,,,,,,,,,,,,
34,1.8267490863800049,0.6081098914146423,1.572460412979126,0.3878299510478973,0.0,-3.14162802099984,-4.3951135012321174e-05,0.5008279085159302,0.5008246302604675,0.610797107219696,1.5708129405975342,0.3899433156847954,0.0,-3.1415931522826464,-4.187740501038207e-07,0.5007484555244446,0.500745952129364,,,,,,,,,,,,,,,,,,,,,,,,,,,,,,,,,,,,,,,,,,,,,,,,,,,,,,,,,,,,,,,,,,,,,,,,,,,,,,,,,,,,,,,,,,,,,,,,,,,,,,,,,,,,,,,,,,,,,,,,,,,,,,,,,,,,,,-8.418958827860479e-07,5.088973580313905e-07,-1.1748498991437373e-06,0.0,0.0001778748119249,0.0002211060927947,-0.0041656442917883,-0.0041461656801402,-1.861510945389e-08,2.0656809596175663e-09,-1.5405898778908522e-08,0.0,2.650331225595437e-06,2.4263517843792215e-06,0.0037654235493391,0.0037509978283196,,,,,,,,,,,,,,,,,,,,,,,,,,,,,,,,,,,,,,,,,,,,,,,,,,,,,,,,,,,,,,,,,,,,,,,,,,
35,1.8488223552703855,0.6081098318099976,1.572460412979126,0.3878299137949944,0.0,-3.141621941326073,-3.633807864389382e-05,0.5006844997406006,0.5006818175315857,0.610797107219696,1.5708129405975342,0.3899433156847954,0.0,-3.1415931522826464,-4.139759823829081e-07,0.5007410049438477,0.5007385015487671,,,,,,,,,,,,,,,,,,,,,,,,,,,,,,,,,,,,,,,,,,,,,,,,,,,,,,,,,,,,,,,,,,,,,,,,,,,,,,,,,,,,,,,,,,,,,,,,,,,,,,,,,,,,,,,,,,,,,,,,,,,,,,,,,,,,,,-6.961288363527274e-07,4.20895645447672e-07,-9.71082386058697e-07,0.0,0.0001470722781959,0.000182806950761,-0.0034439850132912,-0.0034283278509974,-1.8429979320444545e-08,2.0481394358284888e-09,-1.525218173981102e-08,0.0,2.620401801323169e-06,2.3990330646483926e-06,0.0037279131356626,0.0037136496976017,,,,,,,,,,,,,,,,,,,,,,,,,,,,,,,,,,,,,,,,,,,,,,,,,,,,,,,,,,,,,,,,,,,,,,,,,,
36,1.870197296142578,0.6081098318099976,1.572460412979126,0.3878299137949944,0.0,-3.141621941326073,-3.633807864389382e-05,0.5006844997406006,0.5006818175315857,0.610797107219696,1.5708129405975342,0.3899433156847954,0.0,-3.141593033073357,-3.4020524708466837e-07,0.5006250143051147,0.5006229877471924,,,,,,,,,,,,,,,,,,,,,,,,,,,,,,,,,,,,,,,,,,,,,,,,,,,,,,,,,,,,,,,,,,,,,,,,,,,,,,,,,,,,,,,,,,,,,,,,,,,,,,,,,,,,,,,,,,,,,,,,,,,,,,,,,,,,,,-6.961288363527274e-07,4.20895645447672e-07,-9.71082386058697e-07,0.0,0.0001470722781959,0.000182806950761,-0.0034439850132912,-0.0034283278509974,-1.5551727017282246e-08,1.7723600365116e-09,-1.2861170795019916e-08,0.0,2.1597199975076364e-06,1.9784333744610194e-06,0.0031444816850125,0.0031327186152338,,,,,,,,,,,,,,,,,,,,,,,,,,,,,,,,,,,,,,,,,,,,,,,,,,,,,,,,,,,,,,,,,,,,,,,,,,
37,1.8917450904846191,0.6081098318099976,1.572460412979126,0.3878298765420914,0.0,-3.141616874931267,-3.0043725928408097e-05,0.5005658864974976,0.5005638003349304,0.610797107219696,1.5708129405975342,0.3899433156847954,0.0,-3.141593033073357,-3.4020524708466837e-07,0.5006250143051147,0.5006229877471924,,,,,,,,,,,,,,,,,,,,,,,,,,,,,,,,,,,,,,,,,,,,,,,,,,,,,,,,,,,,,,,,,,,,,,,,,,,,,,,,,,,,,,,,,,,,,,,,,,,,,,,,,,,,,,,,,,,,,,,,,,,,,,,,,,,,,,-5.75599699459417e-07,3.481107739844447e-07,-8.026564159990812e-07,0.0,0.0001216038290294,0.000151141823153,-0.0028473464772105,-0.0028347712941467,-1.5551727017282246e-08,1.7723600365116e-09,-1.2861170795019916e-08,0.0,2.1597199975076364e-06,1.9784333744610194e-06,0.0031444816850125,0.0031327186152338,,,,,,,,,,,,,,,,,,,,,,,,,,,,,,,,,,,,,,,,,,,,,,,,,,,,,,,,,,,,,,,,,,,,,,,,,,
38,1.9138691425323489,0.6081098318099976,1.572460412979126,0.3878298765420914,0.0,-3.141616874931267,-3.0043725928408097e-05,0.5005658864974976,0.5005638003349304,0.610797107219696,1.5708129405975342,0.3899433156847954,0.0,-3.141592973468712,-2.7615990916274313e-07,0.5005219578742981,0.5005202889442444,,,,,,,,,,,,,,,,,,,,,,,,,,,,,,,,,,,,,,,,,,,,,,,,,,,,,,,,,,,,,,,,,,,,,,,,,,,,,,,,,,,,,,,,,,,,,,,,,,,,,,,,,,,,,,,,,,,,,,,,,,,,,,,,,,,,,,-5.75599699459417e-07,3.481107739844447e-07,-8.026564159990812e-07,0.0,0.0001216038290294,0.000151141823153,-0.0028473464772105,-0.0028347712941467,-1.299221885631141e-08,1.519895320711839e-09,-1.0736668443200871e-08,0.0,1.7588454284123145e-06,1.612248524907045e-06,0.0026259371079504,0.0026163507718592,,,,,,,,,,,,,,,,,,,,,,,,,,,,,,,,,,,,,,,,,,,,,,,,,,,,,,,,,,,,,,,,,,,,,,,,,,
39,1.935028314590454,0.6081098318099976,1.5724605321884155,0.3878298541903496,0.0,-3.141612643001488,-2.4839657271513715e-05,0.500467836856842,0.5004661679267883,0.610797107219696,1.5708129405975342,0.3899433156847954,0.0,-3.1415929138640672,-2.2398501187126385e-07,0.5004358887672424,0.5004345178604126,,,,,,,,,,,,,,,,,,,,,,,,,,,,,,,,,,,,,,,,,,,,,,,,,,,,,,,,,,,,,,,,,,,,,,,,,,,,,,,,,,,,,,,,,,,,,,,,,,,,,,,,,,,,,,,,,,,,,,,,,,,,,,,,,,,,,,-4.759395153541846e-07,2.879125702293095e-07,-6.634424494222912e-07,0.0,0.0001005457670544,0.0001249616034328,-0.0023540700785815,-0.0023439787328243,-1.0854206422550304e-08,1.3024026301877711e-09,-8.963212394519361e-09,0.0,1.431452346878359e-06,1.3130251090842648e-06,0.0021929037757217,0.0021850960329174,,,,,,,,,,,,,,,,,,,,,,,,,,,,,,,,,,,,,,,,,,,,,,,,,,,,,,,,,,,,,,,,,,,,,,,,,,
40,1.9573640823364256,0.6081097722053528,1.5724605321884155,0.3878298318386078,0.0,-3.1416093647460253,-2.074364965665154e-05,0.5003907084465027,0.5003893375396729,0.610797107219696,1.5708129405975342,0.3899433156847954,0.0,-3.1415929138640672,-2.2398501187126385e-07,0.5004358887672424,0.5004345178604126,,,,,,,,,,,,,,,,,,,,,,,,,,,,,,,,,,,,,,,,,,,,,,,,,,,,,,,,,,,,,,,,,,,,,,,,,,,,,,,,,,,,,,,,,,,,,,,,,,,,,,,,,,,,,,,,,,,,,,,,,,,,,,,,,,,,,,-3.974922719862662e-07,2.4051604441410745e-07,-5.538993832487904e-07,0.0,8.39705317048356e-05,0.0001043557203956,-0.0019658342935144,-0.0019576491322368,-1.0854206422550304e-08,1.3024026301877711e-09,-8.963212394519361e-09,0.0,1.431452346878359e-06,1.3130251090842648e-06,0.0021929037757217,0.0021850960329174,,,,,,,,,,,,,,,,,,,,,,,,,,,,,,,,,,,,,,,,,,,,,,,,,,,,,,,,,,,,,,,,,,,,,,,,,,
41,1.9791643619537351,0.6081097722053528,1.5724605321884155,0.3878298318386078,0.0,-3.1416093647460253,-2.074364965665154e-05,0.5003907084465027,0.5003893375396729,0.610797107219696,1.5708129405975342,0.3899433156847954,0.0,-3.1415928542594225,-1.7939457563898034e-07,0.500360369682312,0.500359296798706,,,,,,,,,,,,,,,,,,,,,,,,,,,,,,,,,,,,,,,,,,,,,,,,,,,,,,,,,,,,,,,,,,,,,,,,,,,,,,,,,,,,,,,,,,,,,,,,,,,,,,,,,,,,,,,,,,,,,,,,,,,,,,,,,,,,,,-3.974922719862662e-07,2.4051604441410745e-07,-5.538993832487904e-07,0.0,8.39705317048356e-05,0.0001043557203956,-0.0019658342935144,-0.0019576491322368,-8.977874443871771e-09,1.1057821325266561e-09,-7.4079560263839994e-09,0.0,1.1508940360727138e-06,1.0564612011876306e-06,0.0018130374373868,0.001806754968129,,,,,,,,,,,,,,,,,,,,,,,,,,,,,,,,,,,,,,,,,,,,,,,,,,,,,,,,,,,,,,,,,,,,,,,,,,
42,2.000776767730713,0.6081097722053528,1.5724605321884155,0.387829809486866,0.0,-3.1416066229323656,-1.7323065549135208e-05,0.5003262758255005,0.5003252029418945,0.610797107219696,1.5708129405975342,0.3899433156847954,0.0,-3.1415928542594225,-1.7939457563898034e-07,0.500360369682312,0.500359296798706,,,,,,,,,,,,,,,,,,,,,,,,,,,,,,,,,,,,,,,,,,,,,,,,,,,,,,,,,,,,,,,,,,,,,,,,,,,,,,,,,,,,,,,,,,,,,,,,,,,,,,,,,,,,,,,,,,,,,,,,,,,,,,,,,,,,,,-3.319753432151629e-07,2.0092171837404749e-07,-4.624434382094478e-07,0.0,7.012777496129274e-05,8.714769501239061e-05,-0.0016416269354522,-0.0016349932411685,-8.977874443871771e-09,1.1057821325266561e-09,-7.4079560263839994e-09,0.0,1.1508940360727138e-06,1.0564612011876306e-06,0.0018130374373868,0.001806754968129,,,,,,,,,,,,,,,,,,,,,,,,,,,,,,,,,,,,,,,,,,,,,,,,,,,,,,,,,,,,,,,,,,,,,,,,,,
43,2.0225000381469727,0.6081097722053528,1.5724605321884155,0.387829809486866,0.0,-3.1416066229323656,-1.7323065549135208e-05,0.5003262758255005,0.5003252029418945,0.610797107219696,1.5708129405975342,0.3899433156847954,0.0,-3.1415928542594225,-1.435308973896099e-07,0.5002979636192322,0.5002970695495605,,,,,,,,,,,,,,,,,,,,,,,,,,,,,,,,,,,,,,,,,,,,,,,,,,,,,,,,,,,,,,,,,,,,,,,,,,,,,,,,,,,,,,,,,,,,,,,,,,,,,,,,,,,,,,,,,,,,,,,,,,,,,,,,,,,,,,-3.319753432151629e-07,2.0092171837404749e-07,-4.624434382094478e-07,0.0,7.012777496129274e-05,8.714769501239061e-05,-0.0016416269354522,-0.0016349932411685,-7.425671189054128e-09,9.38138455808257e-10,-6.1226095304789405e-09,0.0,9.24581229355681e-07,8.493792620356544e-07,0.0014989735791459,0.0014939220855012,,,,,,,,,,,,,,,,,,,,,,,,,,,,,,,,,,,,,,,,,,,,,,,,,,,,,,,,,,,,,,,,,,,,,,,,,,
44,2.045146942138672,0.6081097722053528,1.5724605321884155,0.3878297945857048,0.0,-3.141604417560509,-1.461208285036264e-05,0.500275194644928,0.5002743005752563,0.610797107219696,1.5708129405975342,0.3899433156847954,0.0,-3.1415928542594225,-1.435308973896099e-07,0.5002979636192322,0.5002970695495605,,,,,,,,,,,,,,,,,,,,,,,,,,,,,,,,,,,,,,,,,,,,,,,,,,,,,,,,,,,,,,,,,,,,,,,,,,,,,,,,,,,,,,,,,,,,,,,,,,,,,,,,,,,,,,,,,,,,,,,,,,,,,,,,,,,,,,-2.800454410589737e-07,1.695319440386811e-07,-3.899781404470559e-07,0.0,5.915612928220071e-05,7.350947271334007e-05,-0.0013846833026036,-0.0013792486861348,-7.425671189054128e-09,9.38138455808257e-10,-6.1226095304789405e-09,0.0,9.24581229355681e-07,8.493792620356544e-07,0.0014989735791459,0.0014939220855012,,,,,,,,,,,,,,,,,,,,,,,,,,,,,,,,,,,,,,,,,,,,,,,,,,,,,,,,,,,,,,,,,,,,,,,,,,
45,2.066901922225952,0.6081097722053528,1.5724605321884155,0.3878297871351242,0.0,-3.141602510211876,-1.2202580364828464e-05,0.5002298355102539,0.5002291202545166,0.610797107219696,1.5708129405975342,0.3899433156847954,0.0,-3.1415927946547777,-1.1470876870589565e-07,0.5002463459968567,0.5002456307411194,,,,,,,,,,,,,,,,,,,,,,,,,,,,,,,,,,,,,,,,,,,,,,,,,,,,,,,,,,,,,,,,,,,,,,,,,,,,,,,,,,,,,,,,,,,,,,,,,,,,,,,,,,,,,,,,,,,,,,,,,,,,,,,,,,,,,,-2.33886467526645e-07,1.4162293382469218e-07,-3.255876208640984e-07,0.0,4.940410144627094e-05,6.138791650300846e-05,-0.0011563198640942,-0.0011519236722961,-6.142031327982522e-09,7.954747971439247e-10,-5.06025799040799e-09,0.0,7.421388090733672e-07,6.823360081398278e-07,0.0012393135111778,0.0012352550402283,,,,,,,,,,,,,,,,,,,,,,,,,,,,,,,,,,,,,,,,,,,,,,,,,,,,,,,,,,,,,,,,,,,,,,,,,,
46,2.0890157222747803,0.6081097722053528,1.5724605321884155,0.3878297871351242,0.0,-3.141602510211876,-1.2202580364828464e-05,0.5002298355102539,0.5002291202545166,0.610797107219696,1.5708129405975342,0.3899433156847954,0.0,-3.1415927946547777,-9.266027234389185e-08,0.5002056956291199,0.5002051591873169,,,,,,,,,,,,,,,,,,,,,,,,,,,,,,,,,,,,,,,,,,,,,,,,,,,,,,,,,,,,,,,,,,,,,,,,,,,,,,,,,,,,,,,,,,,,,,,,,,,,,,,,,,,,,,,,,,,,,,,,,,,,,,,,,,,,,,-2.33886467526645e-07,1.4162293382469218e-07,-3.255876208640984e-07,0.0,4.940410144627094e-05,6.138791650300846e-05,-0.0011563198640942,-0.0011519236722961,-5.131117752910086e-09,6.801226248853708e-10,-4.2244194808915844e-09,0.0,6.021270451128657e-07,5.540616143662191e-07,0.0010349430376663,0.0010316472034901,,,,,,,,,,,,,,,,,,,,,,,,,,,,,,,,,,,,,,,,,,,,,,,,,,,,,,,,,,,,,,,,,,,,,,,,,,
47,2.110055923461914,0.6081097722053528,1.5724605321884155,0.387829772233963,0.0,-3.1416007816771776,-1.0088891031045932e-05,0.500190019607544,0.5001894235610962,0.610797107219696,1.5708129405975342,0.3899433156847954,0.0,-3.1415927946547777,-9.266027234389185e-08,0.5002056956291199,0.5002051591873169,,,,,,,,,,,,,,,,,,,,,,,,,,,,,,,,,,,,,,,,,,,,,,,,,,,,,,,,,,,,,,,,,,,,,,,,,,,,,,,,,,,,,,,,,,,,,,,,,,,,,,,,,,,,,,,,,,,,,,,,,,,,,,,,,,,,,,-1.933909743456752e-07,1.1713219549847055e-07,-2.691172085178551e-07,0.0,4.084884494659491e-05,5.0754519179463387e-05,-0.0009559981990605,-0.0009524876368232,-5.131117752910086e-09,6.801226248853708e-10,-4.2244194808915844e-09,0.0,6.021270451128657e-07,5.540616143662191e-07,0.0010349430376663,0.0010316472034901,,,,,,,,,,,,,,,,,,,,,,,,,,,,,,,,,,,,,,,,,,,,,,,,,,,,,,,,,,,,,,,,,,,,,,,,,,
48,2.1317806243896484,0.6081097722053528,1.5724605321884155,0.387829772233963,0.0,-3.1416007816771776,-1.0088891031045932e-05,0.500190019607544,0.5001894235610962,0.610797107219696,1.5708129405975342,0.3899433156847954,0.0,-3.141592735050133,-7.476408825368709e-08,0.5001717805862427,0.5001713633537292,,,,,,,,,,,,,,,,,,,,,,,,,,,,,,,,,,,,,,,,,,,,,,,,,,,,,,,,,,,,,,,,,,,,,,,,,,,,,,,,,,,,,,,,,,,,,,,,,,,,,,,,,,,,,,,,,,,,,,,,,,,,,,,,,,,,,,-1.933909743456752e-07,1.1713219549847055e-07,-2.691172085178551e-07,0.0,4.084884494659491e-05,5.0754519179463387e-05,-0.0009559981990605,-0.0009524876368232,-4.286626609228961e-09,5.808686864838818e-10,-3.526658076680178e-09,0.0,4.881111408394645e-07,4.495365146794939e-07,0.0008642745087854,0.0008616000995971,,,,,,,,,,,,,,,,,,,,,,,,,,,,,,,,,,,,,,,,,,,,,,,,,,,,,,,,,,,,,,,,,,,,,,,,,,
49,2.1534156799316406,0.6081097722053528,1.5724605321884155,0.3878297647833824,0.0,-3.1415994703749925,-8.425253327004611e-06,0.5001586675643921,0.5001581907272339,0.610797107219696,1.5708129405975342,0.3899433156847954,0.0,-3.141592735050133,-7.476408825368709e-08,0.5001717805862427,0.5001713633537292,,,,,,,,,,,,,,,,,,,,,,,,,,,,,,,,,,,,,,,,,,,,,,,,,,,,,,,,,,,,,,,,,,,,,,,,,,,,,,,,,,,,,,,,,,,,,,,,,,,,,,,,,,,,,,,,,,,,,,,,,,,,,,,,,,,,,,-1.6151513193563005e-07,9.784984200678083e-08,-2.246825090423954e-07,0.0,3.41148188454099e-05,4.238520341459662e-05,-0.0007983339601196,-0.000795500469394,-4.286626609228961e-09,5.808686864838818e-10,-3.526658076680178e-09,0.0,4.881111408394645e-07,4.495365146794939e-07,0.0008642745087854,0.0008616000995971,,,,,,,,,,,,,,,,,,,,,,,,,,,,,,,,,,,,,,,,,,,,,,,,,,,,,,,,,,,,,,,,,,,,,,,,,,
50,2.1754770278930664,0.608109712600708,1.5724605321884155,0.3878297573328018,0.0,-3.141598278282097,-6.965859029151034e-06,0.5001311898231506,0.500130832195282,0.610797107219696,1.5708129405975342,0.3899433156847954,0.0,-3.141592735050133,-5.9530009366426384e-08,0.5001420378684998,0.5001416802406311,,,,,,,,,,,,,,,,,,,,,,,,,,,,,,,,,,,,,,,,,,,,,,,,,,,,,,,,,,,,,,,,,,,,,,,,,,,,,,,,,,,,,,,,,,,,,,,,,,,,,,,,,,,,,,,,,,,,,,,,,,,,,,,,,,,,,,-1.335501167432085e-07,8.092848702290213e-08,-1.8571319060356473e-07,0.0,2.8207196010043845e-05,3.50433838320896e-05,-0.0006600299966521,-0.0006577729946002,-3.545719273745362e-09,4.919398222114069e-10,-2.914738006509765e-09,0.0,3.907100847300171e-07,3.601825255827862e-07,0.0007145603303797,0.0007124172407202,,,,,,,,,,,,,,,,,,,,,,,,,,,,,,,,,,,,,,,,,,,,,,,,,,,,,,,,,,,,,,,,,,,,,,,,,,
51,2.1973025798797607,0.608109712600708,1.5724605321884155,0.3878297573328018,0.0,-3.141598278282097,-6.965859029151034e-06,0.5001311898231506,0.500130832195282,0.610797107219696,1.5708129405975342,0.3899433156847954,0.0,-3.141592735050133,-4.79068447134523e-08,0.500118613243103,0.5001183152198792,,,,,,,,,,,,,,,,,,,,,,,,,,,,,,,,,,,,,,,,,,,,,,,,,,,,,,,,,,,,,,,,,,,,,,,,,,,,,,,,,,,,,,,,,,,,,,,,,,,,,,,,,,,,,,,,,,,,,,,,,,,,,,,,,,,,,,-1.335501167432085e-07,8.092848702290213e-08,-1.8571319060356473e-07,0.0,2.8207196010043845e-05,3.50433838320896e-05,-0.0006600299966521,-0.0006577729946002,-2.962241563153611e-09,4.1966430330830917e-10,-2.433234280729834e-09,0.0,3.161146935326542e-07,2.9170041671022773e-07,0.0005967249162495,0.0005949890473857,,,,,,,,,,,,,,,,,,,,,,,,,,,,,,,,,,,,,,,,,,,,,,,,,,,,,,,,,,,,,,,,,,,,,,,,,,
52,2.218796730041504,0.608109712600708,1.5724605321884155,0.3878297498822212,0.0,-3.1415973842124254,-5.817203145852545e-06,0.5001095533370972,0.5001092553138733,0.610797107219696,1.5708129405975342,0.3899433156847954,0.0,-3.141592735050133,-4.79068447134523e-08,0.500118613243103,0.5001183152198792,,,,,,,,,,,,,,,,,,,,,,,,,,,,,,,,,,,,,,,,,,,,,,,,,,,,,,,,,,,,,,,,,,,,,,,,,,,,,,,,,,,,,,,,,,,,,,,,,,,,,,,,,,,,,,,,,,,,,,,,,,,,,,,,,,,,,,-1.1153738910252289e-07,6.760581072740024e-08,-1.5504959094414517e-07,0.0,2.355717879254371e-05,2.9264801924000498e-05,-0.0005511771305464,-0.0005493601202033,-2.962241563153611e-09,4.1966430330830917e-10,-2.433234280729834e-09,0.0,3.161146935326542e-07,2.9170041671022773e-07,0.0005967249162495,0.0005949890473857,,,,,,,,,,,,,,,,,,,,,,,,,,,,,,,,,,,,,,,,,,,,,,,,,,,,,,,,,,,,,,,,,,,,,,,,,,
53,2.2406623363494873,0.608109712600708,1.5724605321884155,0.3878297498822212,0.0,-3.1415973842124254,-5.817203145852545e-06,0.5001095533370972,0.5001092553138733,0.610797107219696,1.5708129405975342,0.3899433156847954,0.0,-3.141592735050133,-3.849822860502172e-08,0.5000990629196167,0.5000988245010376,,,,,,,,,,,,,,,,,,,,,,,,,,,,,,,,,,,,,,,,,,,,,,,,,,,,,,,,,,,,,,,,,,,,,,,,,,,,,,,,,,,,,,,,,,,,,,,,,,,,,,,,,,,,,,,,,,,,,,,,,,,,,,,,,,,,,,-1.1153738910252289e-07,6.760581072740024e-08,-1.5504959094414517e-07,0.0,2.355717879254371e-05,2.9264801924000498e-05,-0.0005511771305464,-0.0005493601202033,-2.474798144191936e-09,3.5782488083668795e-10,-2.031375068156649e-09,0.0,2.554956211042736e-07,2.3600955501024146e-07,0.0004983212566003,0.0004969165893271,,,,,,,,,,,,,,,,,,,,,,,,,,,,,,,,,,,,,,,,,,,,,,,,,,,,,,,,,,,,,,,,,,,,,,,,,,
54,2.2621545791625977,0.608109712600708,1.5724605321884155,0.3878297424316406,0.0,-3.1415965497473985,-4.809566689800704e-06,0.5000905394554138,0.5000903606414795,0.610797107219696,1.5708129405975342,0.3899433156847954,0.0,-3.141592735050133,-3.849822860502172e-08,0.5000990629196167,0.5000988245010376,,,,,,,,,,,,,,,,,,,,,,,,,,,,,,,,,,,,,,,,,,,,,,,,,,,,,,,,,,,,,,,,,,,,,,,,,,,,,,,,,,,,,,,,,,,,,,,,,,,,,,,,,,,,,,,,,,,,,,,,,,,,,,,,,,,,,,-9.222583940982076e-08,5.591516227809735e-08,-1.2815746686101193e-07,0.0,1.9477811292745173e-05,2.4195653168135323e-05,-0.0004556908097583,-0.0004542476672213,-2.474798144191936e-09,3.5782488083668795e-10,-2.031375068156649e-09,0.0,2.554956211042736e-07,2.3600955501024146e-07,0.0004983212566003,0.0004969165893271,,,,,,,,,,,,,,,,,,,,,,,,,,,,,,,,,,,,,,,,,,,,,,,,,,,,,,,,,,,,,,,,,,,,,,,,,,
55,2.2841291427612305,0.608109712600708,1.5724605321884155,0.3878297424316406,0.0,-3.1415965497473985,-4.809566689800704e-06,0.5000905394554138,0.5000903606414795,0.610797107219696,1.5708129405975342,0.3899433156847954,0.0,-3.141592735050133,-3.0889868440908685e-08,0.5000827312469482,0.5000825524330139,,,,,,,,,,,,,,,,,,,,,,,,,,,,,,,,,,,,,,,,,,,,,,,,,,,,,,,,,,,,,,,,,,,,,,,,,,,,,,,,,,,,,,,,,,,,,,,,,,,,,,,,,,,,,,,,,,,,,,,,,,,,,,,,,,,,,,-9.222583940982076e-08,5.591516227809735e-08,-1.2815746686101193e-07,0.0,1.9477811292745173e-05,2.4195653168135323e-05,-0.0004556908097583,-0.0004542476672213,-2.0672907830032727e-09,3.0497826486453045e-10,-1.6958032755809427e-09,0.0,2.0627311414500585e-07,1.9075299917403754e-07,0.000416144990595,0.0004150095046497,,,,,,,,,,,,,,,,,,,,,,,,,,,,,,,,,,,,,,,,,,,,,,,,,,,,,,,,,,,,,,,,,,,,,,,,,,
56,2.306588649749756,0.608109712600708,1.5724605321884155,0.3878297424316406,0.0,-3.141595894096306,-3.976469542976702e-06,0.5000748634338379,0.5000746846199036,0.610797107219696,1.5708129405975342,0.3899433156847954,0.0,-3.141592675445488,-2.4743890492118226e-08,0.5000690817832947,0.5000689029693604,,,,,,,,,,,,,,,,,,,,,,,,,,,,,,,,,,,,,,,,,,,,,,,,,,,,,,,,,,,,,,,,,,,,,,,,,,,,,,,,,,,,,,,,,,,,,,,,,,,,,,,,,,,,,,,,,,,,,,,,,,,,,,,,,,,,,,-7.625733644545107e-08,4.6245784091070163e-08,-1.059297289884853e-07,0.0,1.61048628797289e-05,2.0004563339171e-05,-0.0003767465823329,-0.0003756023361347,-1.727173959409356e-09,2.6001423236721166e-10,-1.4157008898507684e-09,0.0,1.6633671862109622e-07,1.540048799597571e-07,0.0003475200792308,0.0003466031921561,,,,,,,,,,,,,,,,,,,,,,,,,,,,,,,,,,,,,,,,,,,,,,,,,,,,,,,,,,,,,,,,,,,,,,,,,,
57,2.3279716968536377,0.608109712600708,1.5724605321884155,0.38782973498106,0.0,-3.141595357654503,-3.320757514302386e-06,0.5000625252723694,0.5000624060630798,0.610797107219696,1.5708129405975342,0.3899433156847954,0.0,-3.141592675445488,-2.4743890492118226e-08,0.5000690817832947,0.5000689029693604,,,,,,,,,,,,,,,,,,,,,,,,,,,,,,,,,,,,,,,,,,,,,,,,,,,,,,,,,,,,,,,,,,,,,,,,,,,,,,,,,,,,,,,,,,,,,,,,,,,,,,,,,,,,,,,,,,,,,,,,,,,,,,,,,,,,,,-6.368844651660767e-08,3.86326526324865e-08,-8.84393713818099e-08,0.0,1.3449941434373612e-05,1.670585152169224e-05,-0.000314613134833,-0.0003136962768621,-1.727173959409356e-09,2.6001423236721166e-10,-1.4157008898507684e-09,0.0,1.6633671862109622e-07,1.540048799597571e-07,0.0003475200792308,0.0003466031921561,,,,,,,,,,,,,,,,,,,,,,,,,,,,,,,,,,,,,,,,,,,,,,,,,,,,,,,,,,,,,,,,,,,,,,,,,,
58,2.349315404891968,0.608109712600708,1.5724605321884155,0.38782973498106,0.0,-3.141595357654503,-3.320757514302386e-06,0.5000625252723694,0.5000624060630798,0.610797107219696,1.5708129405975342,0.3899433156847954,0.0,-3.141592675445488,-1.9784891946983407e-08,0.5000576972961426,0.500057578086853,,,,,,,,,,,,,,,,,,,,,,,,,,,,,,,,,,,,,,,,,,,,,,,,,,,,,,,,,,,,,,,,,,,,,,,,,,,,,,,,,,,,,,,,,,,,,,,,,,,,,,,,,,,,,,,,,,,,,,,,,,,,,,,,,,,,,,-6.368844651660767e-08,3.86326526324865e-08,-8.84393713818099e-08,0.0,1.3449941434373612e-05,1.670585152169224e-05,-0.000314613134833,-0.0003136962768621,-1.4428458428028532e-09,2.2171153801764376e-10,-1.1817977707551106e-09,0.0,1.3396206099969277e-07,1.2418887251897104e-07,0.0002902118721976,0.0002894723438657,,,,,,,,,,,,,,,,,,,,,,,,,,,,,,,,,,,,,,,,,,,,,,,,,,,,,,,,,,,,,,,,,,,,,,,,,,
59,2.370741605758667,0.608109712600708,1.5724605321884155,0.38782973498106,0.0,-3.141594880817345,-2.773171217995696e-06,0.5000522136688232,0.5000520944595337,0.610797107219696,1.5708129405975342,0.3899433156847954,0.0,-3.141592675445488,-1.9784891946983407e-08,0.5000576972961426,0.500057578086853,,,,,,,,,,,,,,,,,,,,,,,,,,,,,,,,,,,,,,,,,,,,,,,,,,,,,,,,,,,,,,,,,,,,,,,,,,,,,,,,,,,,,,,,,,,,,,,,,,,,,,,,,,,,,,,,,,,,,,,,,,,,,,,,,,,,,,-5.3190952087334153e-08,3.2273074879185515e-08,-7.383681577266543e-08,0.0,1.1232690667384304e-05,1.395109029544983e-05,-0.0002627267967909,-0.0002619934384711,-1.4428458428028532e-09,2.2171153801764376e-10,-1.1817977707551106e-09,0.0,1.3396206099969277e-07,1.2418887251897104e-07,0.0002902118721976,0.0002894723438657,,,,,,,,,,,,,,,,,,,,,,,,,,,,,,,,,,,,,,,,,,,,,,,,,,,,,,,,,,,,,,,,,,,,,,,,,,
60,2.3923799991607666,0.608109712600708,1.5724605321884155,0.38782973498106,0.0,-3.141594880817345,-2.773171217995696e-06,0.5000522136688232,0.5000520944595337,0.610797107219696,1.5708129405975342,0.3899433156847954,0.0,-3.141592675445488,-1.5788531371185854e-08,0.5000481605529785,0.5000481009483337,,,,,,,,,,,,,,,,,,,,,,,,,,,,,,,,,,,,,,,,,,,,,,,,,,,,,,,,,,,,,,,,,,,,,,,,,,,,,,,,,,,,,,,,,,,,,,,,,,,,,,,,,,,,,,,,,,,,,,,,,,,,,,,,,,,,,,-5.3190952087334153e-08,3.2273074879185515e-08,-7.383681577266543e-08,0.0,1.1232690667384304e-05,1.395109029544983e-05,-0.0002627267967909,-0.0002619934384711,-1.2054246489867635e-09,1.8873791418627659e-10,-9.866621963894318e-10,0.0,1.0774181902206693e-07,1.0001817685179049e-07,0.0002423541300231,0.0002417584037175,,,,,,,,,,,,,,,,,,,,,,,,,,,,,,,,,,,,,,,,,,,,,,,,,,,,,,,,,,,,,,,,,,,,,,,,,,
61,2.4153616428375244,0.608109712600708,1.5724605321884155,0.38782973498106,0.0,-3.141594523189476,-2.2928118141862797e-06,0.5000431537628174,0.5000430941581726,0.610797107219696,1.5708129405975342,0.3899433156847954,0.0,-3.141592675445488,-1.2413233996255713e-08,0.50003981590271,0.5000397562980652,,,,,,,,,,,,,,,,,,,,,,,,,,,,,,,,,,,,,,,,,,,,,,,,,,,,,,,,,,,,,,,,,,,,,,,,,,,,,,,,,,,,,,,,,,,,,,,,,,,,,,,,,,,,,,,,,,,,,,,,,,,,,,,,,,,,,,-4.3981373210044694e-08,2.669164977930905e-08,-6.103044114524891e-08,0.0,9.287540706282016e-06,1.1534528312040491e-05,-0.0002172118256567,-0.0002166336635127,-9.971468095670843e-10,1.590949594287849e-10,-8.154241171176578e-10,0.0,8.547473839826125e-08,7.947150493237133e-08,0.0002003722765948,0.0001998988154809,,,,,,,,,,,,,,,,,,,,,,,,,,,,,,,,,,,,,,,,,,,,,,,,,,,,,,,,,,,,,,,,,,,,,,,,,,
62,2.436690330505371,0.608109712600708,1.5724605321884155,0.3878297275304794,0.0,-3.1415942251662523,-1.914731683427817e-06,0.5000360608100891,0.5000360012054443,0.610797107219696,1.5708129405975342,0.3899433156847954,0.0,-3.141592675445488,-1.2413233996255713e-08,0.50003981590271,0.5000397562980652,,,,,,,,,,,,,,,,,,,,,,,,,,,,,,,,,,,,,,,,,,,,,,,,,,,,,,,,,,,,,,,,,,,,,,,,,,,,,,,,,,,,,,,,,,,,,,,,,,,,,,,,,,,,,,,,,,,,,,,,,,,,,,,,,,,,,,-3.673200765774709e-08,2.229783113705253e-08,-5.0953602226400114e-08,0.0,7.756470040476415e-06,9.63250840868568e-06,-0.0001813890121411,-0.0001809285022318,-9.971468095670843e-10,1.590949594287849e-10,-8.154241171176578e-10,0.0,8.547473839826125e-08,7.947150493237133e-08,0.0002003722765948,0.0001998988154809,,,,,,,,,,,,,,,,,,,,,,,,,,,,,,,,,,,,,,,,,,,,,,,,,,,,,,,,,,,,,,,,,,,,,,,,,,
63,2.4583380222320557,0.608109712600708,1.5724605321884155,0.3878297275304794,0.0,-3.1415942251662523,-1.914731683427817e-06,0.5000360608100891,0.5000360012054443,0.610797107219696,1.5708129405975342,0.3899433156847954,0.0,-3.141592675445488,-9.733535755174216e-09,0.500032901763916,0.5000328421592712,,,,,,,,,,,,,,,,,,,,,,,,,,,,,,,,,,,,,,,,,,,,,,,,,,,,,,,,,,,,,,,,,,,,,,,,,,,,,,,,,,,,,,,,,,,,,,,,,,,,,,,,,,,,,,,,,,,,,,,,,,,,,,,,,,,,,,-3.673200765774709e-08,2.229783113705253e-08,-5.0953602226400114e-08,0.0,7.756470040476415e-06,9.63250840868568e-06,-0.0001813890121411,-0.0001809285022318,-8.247291738427974e-10,1.3433698597964394e-10,-6.739886426743168e-10,0.0,6.76886884320993e-08,6.304160393710846e-08,0.0001656627428019,0.0001652870705584,,,,,,,,,,,,,,,,,,,,,,,,,,,,,,,,,,,,,,,,,,,,,,,,,,,,,,,,,,,,,,,,,,,,,,,,,,
64,2.479794502258301,0.608109712600708,1.5724605321884155,0.3878297275304794,0.0,-3.1415939271430284,-1.583068069521687e-06,0.5000298023223877,0.5000297427177429,0.610797107219696,1.5708129405975342,0.3899433156847954,0.0,-3.141592675445488,-9.733535755174216e-09,0.500032901763916,0.5000328421592712,,,,,,,,,,,,,,,,,,,,,,,,,,,,,,,,,,,,,,,,,,,,,,,,,,,,,,,,,,,,,,,,,,,,,,,,,,,,,,,,,,,,,,,,,,,,,,,,,,,,,,,,,,,,,,,,,,,,,,,,,,,,,,,,,,,,,,-3.037214924006548e-08,1.8441804527924432e-08,-4.2116102605405104e-08,0.0,6.413292339857435e-06,7.96399763203226e-06,-0.0001499650534242,-0.0001496037730248,-8.247291738427974e-10,1.3433698597964394e-10,-6.739886426743168e-10,0.0,6.76886884320993e-08,6.304160393710846e-08,0.0001656627428019,0.0001652870705584,,,,,,,,,,,,,,,,,,,,,,,,,,,,,,,,,,,,,,,,,,,,,,,,,,,,,,,,,,,,,,,,,,,,,,,,,,
65,2.5015571117401123,0.608109712600708,1.5724605321884155,0.3878297275304794,0.0,-3.1415939271430284,-1.583068069521687e-06,0.5000298023223877,0.5000297427177429,0.610797107219696,1.5708129405975342,0.3899433156847954,0.0,-3.141592675445488,-7.810646351913421e-09,0.5000277757644653,0.5000277161598206,,,,,,,,,,,,,,,,,,,,,,,,,,,,,,,,,,,,,,,,,,,,,,,,,,,,,,,,,,,,,,,,,,,,,,,,,,,,,,,,,,,,,,,,,,,,,,,,,,,,,,,,,,,,,,,,,,,,,,,,,,,,,,,,,,,,,,-3.037214924006548e-08,1.8441804527924432e-08,-4.2116102605405104e-08,0.0,6.413292339857435e-06,7.96399763203226e-06,-0.0001499650534242,-0.0001496037730248,-6.95887791835048e-10,1.1535217225855375e-10,-5.683231663056175e-10,0.0,5.484623954998825e-08,5.116554291362264e-08,0.0001397359446855,0.0001394309656461,,,,,,,,,,,,,,,,,,,,,,,,,,,,,,,,,,,,,,,,,,,,,,,,,,,,,,,,,,,,,,,,,,,,,,,,,,
66,2.5236446857452393,0.608109712600708,1.5724605321884155,0.3878297275304794,0.0,-3.141593748329094,-1.322023308603093e-06,0.5000249147415161,0.5000248551368713,0.610797107219696,1.5708129405975342,0.3899433156847954,0.0,-3.141592675445488,-6.0884328689780895e-09,0.5000229477882385,0.5000229477882385,,,,,,,,,,,,,,,,,,,,,,,,,,,,,,,,,,,,,,,,,,,,,,,,,,,,,,,,,,,,,,,,,,,,,,,,,,,,,,,,,,,,,,,,,,,,,,,,,,,,,,,,,,,,,,,,,,,,,,,,,,,,,,,,,,,,,,-2.5366098554968634e-08,1.5405676734303597e-08,-3.5162152300927125e-08,0.0,5.356048404792091e-06,6.650749583059223e-06,-0.0001252326619578,-0.0001249463384738,-5.755951271169123e-10,9.725553695716371e-11,-4.696867894615764e-10,0.0,4.3267110783062896e-08,4.0444948723461494e-08,0.0001155301579274,0.0001152889963123,,,,,,,,,,,,,,,,,,,,,,,,,,,,,,,,,,,,,,,,,,,,,,,,,,,,,,,,,,,,,,,,,,,,,,,,,,
67,2.5458734035491943,0.608109712600708,1.5724605321884155,0.3878297275304794,0.0,-3.14159356951516,-1.1040242497983854e-06,0.5000208020210266,0.5000207424163818,0.610797107219696,1.5708129405975342,0.3899433156847954,0.0,-3.141592675445488,-6.0884328689780895e-09,0.5000229477882385,0.5000229477882385,,,,,,,,,,,,,,,,,,,,,,,,,,,,,,,,,,,,,,,,,,,,,,,,,,,,,,,,,,,,,,,,,,,,,,,,,,,,,,,,,,,,,,,,,,,,,,,,,,,,,,,,,,,,,,,,,,,,,,,,,,,,,,,,,,,,,,-2.1184943577168273e-08,1.2869483256849891e-08,-2.9356426622939583e-08,0.0,4.473092758416897e-06,5.554054496315075e-06,-0.000104579157778,-0.000104352911876,-5.755951271169123e-10,9.725553695716371e-11,-4.696867894615764e-10,0.0,4.3267110783062896e-08,4.0444948723461494e-08,0.0001155301579274,0.0001152889963123,,,,,,,,,,,,,,,,,,,,,,,,,,,,,,,,,,,,,,,,,,,,,,,,,,,,,,,,,,,,,,,,,,,,,,,,,,
68,2.567420721054077,0.608109712600708,1.5724605321884155,0.3878297275304794,0.0,-3.14159356951516,-1.1040242497983854e-06,0.5000208020210266,0.5000207424163818,0.610797107219696,1.5708129405975342,0.3899433156847954,0.0,-3.141592675445488,-4.728504254813971e-09,0.5000190138816833,0.5000189542770386,,,,,,,,,,,,,,,,,,,,,,,,,,,,,,,,,,,,,,,,,,,,,,,,,,,,,,,,,,,,,,,,,,,,,,,,,,,,,,,,,,,,,,,,,,,,,,,,,,,,,,,,,,,,,,,,,,,,,,,,,,,,,,,,,,,,,,-2.1184943577168273e-08,1.2869483256849891e-08,-2.9356426622939583e-08,0.0,4.473092758416897e-06,5.554054496315075e-06,-0.000104579157778,-0.000104352911876,-4.76063632959267e-10,8.204548151979907e-11,-3.8821723613580156e-10,0.0,3.4053758923846544e-08,3.190312369838466e-08,9.551741823088378e-05,9.532712283544242e-05,,,,,,,,,,,,,,,,,,,,,,,,,,,,,,,,,,,,,,,,,,,,,,,,,,,,,,,,,,,,,,,,,,,,,,,,,,
69,2.588263988494873,0.608109712600708,1.5724605321884155,0.3878297275304794,0.0,-3.1415934503058702,-9.312491897617292e-07,0.500017523765564,0.500017523765564,0.610797107219696,1.5708129405975342,0.3899433156847954,0.0,-3.141592675445488,-4.728504254813971e-09,0.5000190138816833,0.5000189542770386,,,,,,,,,,,,,,,,,,,,,,,,,,,,,,,,,,,,,,,,,,,,,,,,,,,,,,,,,,,,,,,,,,,,,,,,,,,,,,,,,,,,,,,,,,,,,,,,,,,,,,,,,,,,,,,,,,,,,,,,,,,,,,,,,,,,,,-1.7871315094453166e-08,1.0858980381556194e-08,-2.475629479192776e-08,0.0,3.773269327211892e-06,4.684868599724723e-06,-8.821066876407713e-05,-8.803007222013548e-05,-4.76063632959267e-10,8.204548151979907e-11,-3.8821723613580156e-10,0.0,3.4053758923846544e-08,3.190312369838466e-08,9.551741823088378e-05,9.532712283544242e-05,,,,,,,,,,,,,,,,,,,,,,,,,,,,,,,,,,,,,,,,,,,,,,,,,,,,,,,,,,,,,,,,,,,,,,,,,,
70,2.6096038818359375,0.608109712600708,1.5724605321884155,0.3878297275304794,0.0,-3.1415934503058702,-9.312491897617292e-07,0.500017523765564,0.500017523765564,0.610797107219696,1.5708129405975342,0.3899433156847954,0.0,-3.141592675445488,-3.657024683079157e-09,0.5000156760215759,0.5000156760215759,,,,,,,,,,,,,,,,,,,,,,,,,,,,,,,,,,,,,,,,,,,,,,,,,,,,,,,,,,,,,,,,,,,,,,,,,,,,,,,,,,,,,,,,,,,,,,,,,,,,,,,,,,,,,,,,,,,,,,,,,,,,,,,,,,,,,,-1.7871315094453166e-08,1.0858980381556194e-08,-2.475629479192776e-08,0.0,3.773269327211892e-06,4.684868599724723e-06,-8.821066876407713e-05,-8.803007222013548e-05,-3.9374059568331177e-10,6.905587213168474e-11,-3.208058818593429e-10,0.0,2.673511367845549e-08,2.5107160794846095e-08,7.897138857515529e-05,7.882156933192164e-05,,,,,,,,,,,,,,,,,,,,,,,,,,,,,,,,,,,,,,,,,,,,,,,,,,,,,,,,,,,,,,,,,,,,,,,,,,
71,2.6327195167541504,0.608109712600708,1.5724605321884155,0.3878297275304794,0.0,-3.1415933310965807,-7.77688057951309e-07,0.5000146627426147,0.50001460313797,0.610797107219696,1.5708129405975342,0.3899433156847954,0.0,-3.141592675445488,-2.8942106489182606e-09,0.5000132322311401,0.5000132322311401,,,,,,,,,,,,,,,,,,,,,,,,,,,,,,,,,,,,,,,,,,,,,,,,,,,,,,,,,,,,,,,,,,,,,,,,,,,,,,,,,,,,,,,,,,,,,,,,,,,,,,,,,,,,,,,,,,,,,,,,,,,,,,,,,,,,,,-1.49256713655177e-08,9.071410289607227e-09,-2.0668618816443995e-08,0.0,3.1512381610809825e-06,3.912343345291447e-06,-7.36628717277199e-05,-7.352111424552277e-05,-3.3228975127030935e-10,5.895284260759581e-11,-2.705891066767663e-10,0.0,2.1478264500274236e-08,2.0219518503949985e-08,6.661209772573784e-05,6.649138958891854e-05,,,,,,,,,,,,,,,,,,,,,,,,,,,,,,,,,,,,,,,,,,,,,,,,,,,,,,,,,,,,,,,,,,,,,,,,,,
72,2.6549673080444336,0.608109712600708,1.5724605321884155,0.3878297200798988,0.0,-3.141593211887291,-6.494487934105564e-07,0.500012218952179,0.500012218952179,0.610797107219696,1.5708129405975342,0.3899433156847954,0.0,-3.141592675445488,-2.8148694486418435e-09,0.500012993812561,0.5000129342079163,,,,,,,,,,,,,,,,,,,,,,,,,,,,,,,,,,,,,,,,,,,,,,,,,,,,,,,,,,,,,,,,,,,,,,,,,,,,,,,,,,,,,,,,,,,,,,,,,,,,,,,,,,,,,,,,,,,,,,,,,,,,,,,,,,,,,,-1.2465307008824313e-08,7.578049299183931e-09,-1.7255995743425956e-08,0.0,2.631750248838216e-06,3.2672053293936187e-06,-6.151431443868205e-05,-6.140348705230281e-05,-3.2573943542502093e-10,5.8175686490358196e-11,-2.6519758611343036e-10,0.0,2.0928869304270847e-08,1.9708284781927432e-08,6.529155507450923e-05,6.517390283988789e-05,,,,,,,,,,,,,,,,,,,,,,,,,,,,,,,,,,,,,,,,,,,,,,,,,,,,,,,,,,,,,,,,,,,,,,,,,,
73,2.6768858432769775,0.608109712600708,1.5724605321884155,0.3878297200798988,0.0,-3.141593211887291,-6.494487934105564e-07,0.500012218952179,0.500012218952179,0.610797107219696,1.5708129405975342,0.3899433156847954,0.0,-3.141592675445488,-2.1547421624745766e-09,0.5000107288360596,0.5000107288360596,,,,,,,,,,,,,,,,,,,,,,,,,,,,,,,,,,,,,,,,,,,,,,,,,,,,,,,,,,,,,,,,,,,,,,,,,,,,,,,,,,,,,,,,,,,,,,,,,,,,,,,,,,,,,,,,,,,,,,,,,,,,,,,,,,,,,,-1.2465307008824313e-08,7.578049299183931e-09,-1.7255995743425956e-08,0.0,2.631750248838216e-06,3.2672053293936187e-06,-6.151431443868205e-05,-6.140348705230281e-05,-2.6917357232036915e-10,4.8738790781044366e-11,-2.1913026948539027e-10,0.0,1.633221380359373e-08,1.542610306159986e-08,5.398141001933254e-05,5.388927093008533e-05,,,,,,,,,,,,,,,,,,,,,,,,,,,,,,,,,,,,,,,,,,,,,,,,,,,,,,,,,,,,,,,,,,,,,,,,,,
74,2.6988260746002197,0.608109712600708,1.5724605321884155,0.3878297200798988,0.0,-3.1415930926780016,-5.423559628070507e-07,0.5000101923942566,0.5000101923942566,0.610797107219696,1.5708129405975342,0.3899433156847954,0.0,-3.141592675445488,-2.1547421624745766e-09,0.5000107288360596,0.5000107288360596,,,,,,,,,,,,,,,,,,,,,,,,,,,,,,,,,,,,,,,,,,,,,,,,,,,,,,,,,,,,,,,,,,,,,,,,,,,,,,,,,,,,,,,,,,,,,,,,,,,,,,,,,,,,,,,,,,,,,,,,,,,,,,,,,,,,,,-1.041083930175546e-08,6.330602708715105e-09,-1.440678865094469e-08,0.0,2.197901039835415e-06,2.7284495445201173e-06,-5.136931213201024e-05,-5.128307384438813e-05,-2.6917357232036915e-10,4.8738790781044366e-11,-2.1913026948539027e-10,0.0,1.633221380359373e-08,1.542610306159986e-08,5.398141001933254e-05,5.388927093008533e-05,,,,,,,,,,,,,,,,,,,,,,,,,,,,,,,,,,,,,,,,,,,,,,,,,,,,,,,,,,,,,,,,,,,,,,,,,,
75,2.7201128005981445,0.608109712600708,1.5724605321884155,0.3878297200798988,0.0,-3.141593033073357,-4.574795866574277e-07,0.5000085830688477,0.5000085830688477,0.610797107219696,1.5708129405975342,0.3899433156847954,0.0,-3.141592675445488,-1.662921467193712e-09,0.5000089406967163,0.5000089406967163,,,,,,,,,,,,,,,,,,,,,,,,,,,,,,,,,,,,,,,,,,,,,,,,,,,,,,,,,,,,,,,,,,,,,,,,,,,,,,,,,,,,,,,,,,,,,,,,,,,,,,,,,,,,,,,,,,,,,,,,,,,,,,,,,,,,,,-8.782086169389913e-09,5.3413939937740915e-09,-1.2149212302858814e-08,0.0,1.854035190262948e-06,2.3014592898107367e-06,-4.332910611992702e-05,-4.326139605836943e-05,-2.2498669594028795e-10,4.1522341120980855e-11,-1.8298557113993752e-10,0.0,1.2870260412967129e-08,1.2195888743349316e-08,4.507954145083204e-05,4.500665818341077e-05,,,,,,,,,,,,,,,,,,,,,,,,,,,,,,,,,,,,,,,,,,,,,,,,,,,,,,,,,,,,,,,,,,,,,,,,,,
76,2.741907835006714,0.608109712600708,1.5724605321884155,0.3878297200798988,0.0,-3.141593033073357,-4.529225350324851e-07,0.5000085234642029,0.5000085234642029,0.610797107219696,1.5708129405975342,0.3899433156847954,0.0,-3.141592675445488,-1.662921467193712e-09,0.5000089406967163,0.5000089406967163,,,,,,,,,,,,,,,,,,,,,,,,,,,,,,,,,,,,,,,,,,,,,,,,,,,,,,,,,,,,,,,,,,,,,,,,,,,,,,,,,,,,,,,,,,,,,,,,,,,,,,,,,,,,,,,,,,,,,,,,,,,,,,,,,,,,,,-8.694933661956838e-09,5.288103288592083e-09,-1.2028038121059126e-08,0.0,1.83557233413012e-06,2.278533429489471e-06,-4.289743083063513e-05,-4.283068483346142e-05,-2.2498669594028795e-10,4.1522341120980855e-11,-1.8298557113993752e-10,0.0,1.2870260412967129e-08,1.2195888743349316e-08,4.507954145083204e-05,4.500665818341077e-05,,,,,,,,,,,,,,,,,,,,,,,,,,,,,,,,,,,,,,,,,,,,,,,,,,,,,,,,,,,,,,,,,,,,,,,,,,
77,2.7646310329437256,0.608109712600708,1.5724605321884155,0.3878297200798988,0.0,-3.141592973468712,-3.7446878309310705e-07,0.5000070333480835,0.5000070333480835,0.610797107219696,1.5708129405975342,0.3899433156847954,0.0,-3.141592675445488,-1.274713001819805e-09,0.5000075101852417,0.5000074505805969,,,,,,,,,,,,,,,,,,,,,,,,,,,,,,,,,,,,,,,,,,,,,,,,,,,,,,,,,,,,,,,,,,,,,,,,,,,,,,,,,,,,,,,,,,,,,,,,,,,,,,,,,,,,,,,,,,,,,,,,,,,,,,,,,,,,,,-7.189304707111432e-09,4.373501560905879e-09,-9.941908629684804e-09,0.0,1.5177091654550168e-06,1.8838536561816e-06,-3.5465847759041935e-05,-3.5415261663729325e-05,-1.87960758069039e-10,3.530509218307998e-11,-1.5274587150670982e-10,0.0,1.0105861036890929e-08,9.611313522839282e-09,3.7645644624717534e-05,3.7588175473501906e-05,,,,,,,,,,,,,,,,,,,,,,,,,,,,,,,,,,,,,,,,,,,,,,,,,,,,,,,,,,,,,,,,,,,,,,,,,,
78,2.7869505882263184,0.608109712600708,1.5724605321884155,0.3878297200798988,0.0,-3.141592973468712,-3.7446878309310705e-07,0.5000070333480835,0.5000070333480835,0.610797107219696,1.5708129405975342,0.3899433156847954,0.0,-3.141592675445488,-9.69318625365645e-10,0.5000062584877014,0.5000062584877014,,,,,,,,,,,,,,,,,,,,,,,,,,,,,,,,,,,,,,,,,,,,,,,,,,,,,,,,,,,,,,,,,,,,,,,,,,,,,,,,,,,,,,,,,,,,,,,,,,,,,,,,,,,,,,,,,,,,,,,,,,,,,,,,,,,,,,-7.189304707111432e-09,4.373501560905879e-09,-9.941908629684804e-09,0.0,1.5177091654550168e-06,1.8838536561816e-06,-3.5465847759041935e-05,-3.5415261663729325e-05,-1.5715206913569088e-10,2.9976021664879227e-11,-1.274952365903914e-10,0.0,7.904343846121265e-09,7.547447999911583e-09,3.143764479318634e-05,3.13924829242751e-05,,,,,,,,,,,,,,,,,,,,,,,,,,,,,,,,,,,,,,,,,,,,,,,,,,,,,,,,,,,,,,,,,,,,,,,,,,
79,2.807814598083496,0.608109712600708,1.5724605321884155,0.3878297200798988,0.0,-3.1415929138640672,-3.096045304573636e-07,0.500005841255188,0.500005841255188,0.610797107219696,1.5708129405975342,0.3899433156847954,0.0,-3.141592675445488,-9.69318625365645e-10,0.5000062584877014,0.5000062584877014,,,,,,,,,,,,,,,,,,,,,,,,,,,,,,,,,,,,,,,,,,,,,,,,,,,,,,,,,,,,,,,,,,,,,,,,,,,,,,,,,,,,,,,,,,,,,,,,,,,,,,,,,,,,,,,,,,,,,,,,,,,,,,,,,,,,,,-5.944689185355401e-09,3.6175507034386105e-09,-8.217537761368021e-09,0.0,1.2548891845653998e-06,1.5575387806165963e-06,-2.9321718102437444e-05,-2.9283699404913932e-05,-1.5715206913569088e-10,2.9976021664879227e-11,-1.274952365903914e-10,0.0,7.904343846121265e-09,7.547447999911583e-09,3.143764479318634e-05,3.13924829242751e-05,,,,,,,,,,,,,,,,,,,,,,,,,,,,,,,,,,,,,,,,,,,,,,,,,,,,,,,,,,,,,,,,,,,,,,,,,,
80,2.8298614025115967,0.608109712600708,1.5724605321884155,0.3878297200798988,0.0,-3.1415929138640672,-3.096045304573636e-07,0.500005841255188,0.500005841255188,0.610797107219696,1.5708129405975342,0.3899433156847954,0.0,-3.141592675445488,-7.299810755867496e-10,0.5000052452087402,0.5000051856040955,,,,,,,,,,,,,,,,,,,,,,,,,,,,,,,,,,,,,,,,,,,,,,,,,,,,,,,,,,,,,,,,,,,,,,,,,,,,,,,,,,,,,,,,,,,,,,,,,,,,,,,,,,,,,,,,,,,,,,,,,,,,,,,,,,,,,,-5.944689185355401e-09,3.6175507034386105e-09,-8.217537761368021e-09,0.0,1.2548891845653998e-06,1.5575387806165963e-06,-2.9321718102437444e-05,-2.9283699404913932e-05,-1.3128387266192476e-10,2.5646151868841116e-11,-1.0644957137984079e-10,0.0,6.153078047077542e-09,5.902818234204687e-09,2.625338129291777e-05,2.6218034690828063e-05,,,,,,,,,,,,,,,,,,,,,,,,,,,,,,,,,,,,,,,,,,,,,,,,,,,,,,,,,,,,,,,,,,,,,,,,,,
81,2.851311445236206,0.608109712600708,1.5724605321884155,0.3878297200798988,0.0,-3.1415928542594225,-2.559758343068097e-07,0.5000048279762268,0.5000048279762268,0.610797107219696,1.5708129405975342,0.3899433156847954,0.0,-3.141592675445488,-7.299810755867496e-10,0.5000052452087402,0.5000051856040955,,,,,,,,,,,,,,,,,,,,,,,,,,,,,,,,,,,,,,,,,,,,,,,,,,,,,,,,,,,,,,,,,,,,,,,,,,,,,,,,,,,,,,,,,,,,,,,,,,,,,,,,,,,,,,,,,,,,,,,,,,,,,,,,,,,,,,-4.915345908074187e-09,2.991940029062334e-09,-6.792275186739971e-09,0.0,1.037581569107715e-06,1.2877469544037012e-06,-2.424200101813767e-05,-2.421371209493373e-05,-1.3128387266192476e-10,2.5646151868841116e-11,-1.0644957137984079e-10,0.0,6.153078047077542e-09,5.902818234204687e-09,2.625338129291777e-05,2.6218034690828063e-05,,,,,,,,,,,,,,,,,,,,,,,,,,,,,,,,,,,,,,,,,,,,,,,,,,,,,,,,,,,,,,,,,,,,,,,,,,
82,2.873598575592041,0.608109712600708,1.5724605321884155,0.3878297200798988,0.0,-3.1415928542594225,-2.1163654650990793e-07,0.5000039935112,0.5000039935112,0.610797107219696,1.5708129405975342,0.3899433156847954,0.0,-3.141592675445488,-5.432206351407841e-10,0.5000043511390686,0.5000043511390686,,,,,,,,,,,,,,,,,,,,,,,,,,,,,,,,,,,,,,,,,,,,,,,,,,,,,,,,,,,,,,,,,,,,,,,,,,,,,,,,,,,,,,,,,,,,,,,,,,,,,,,,,,,,,,,,,,,,,,,,,,,,,,,,,,,,,,-4.064304448547773e-09,2.474243032679624e-09,-5.614196663117354e-09,0.0,8.579057748647756e-07,1.0646876944520043e-06,-2.004229827434756e-05,-2.0021509044454433e-05,-1.096345236817342e-10,2.1427304375265518e-11,-8.884559754562815e-11,0.0,4.7643555767251655e-09,4.595432923082399e-09,2.1924035536358133e-05,2.1896494217799045e-05,,,,,,,,,,,,,,,,,,,,,,,,,,,,,,,,,,,,,,,,,,,,,,,,,,,,,,,,,,,,,,,,,,,,,,,,,,
83,2.8951733112335205,0.608109712600708,1.5724605321884155,0.3878297200798988,0.0,-3.1415928542594225,-2.1163654650990793e-07,0.5000039935112,0.5000039935112,0.610797107219696,1.5708129405975342,0.3899433156847954,0.0,-3.141592675445488,-4.0532172063123534e-10,0.5000036954879761,0.5000036954879761,,,,,,,,,,,,,,,,,,,,,,,,,,,,,,,,,,,,,,,,,,,,,,,,,,,,,,,,,,,,,,,,,,,,,,,,,,,,,,,,,,,,,,,,,,,,,,,,,,,,,,,,,,,,,,,,,,,,,,,,,,,,,,,,,,,,,,-4.064304448547773e-09,2.474243032679624e-09,-5.614196663117354e-09,0.0,8.579057748647756e-07,1.0646876944520043e-06,-2.004229827434756e-05,-2.0021509044454433e-05,-9.237055564881301e-11,1.854072451124011e-11,-7.491923748048633e-11,0.0,3.7208014447287492e-09,3.6102341116617254e-09,1.849284853960853e-05,1.847118983278051e-05,,,,,,,,,,,,,,,,,,,,,,,,,,,,,,,,,,,,,,,,,,,,,,,,,,,,,,,,,,,,,,,,,,,,,,,,,,
84,2.916882038116455,0.608109712600708,1.5724605321884155,0.3878297200798988,0.0,-3.1415927946547777,-1.7497755777640125e-07,0.5000032782554626,0.5000032782554626,0.610797107219696,1.5708129405975342,0.3899433156847954,0.0,-3.141592675445488,-4.0532172063123534e-10,0.5000036954879761,0.5000036954879761,,,,,,,,,,,,,,,,,,,,,,,,,,,,,,,,,,,,,,,,,,,,,,,,,,,,,,,,,,,,,,,,,,,,,,,,,,,,,,,,,,,,,,,,,,,,,,,,,,,,,,,,,,,,,,,,,,,,,,,,,,,,,,,,,,,,,,-3.36070060669158e-09,2.0465851235940136e-09,-4.640614115203334e-09,0.0,7.093427711879485e-07,8.802660431683762e-07,-1.657015673117712e-05,-1.65551155077992e-05,-9.237055564881301e-11,1.854072451124011e-11,-7.491923748048633e-11,0.0,3.7208014447287492e-09,3.6102341116617254e-09,1.849284853960853e-05,1.847118983278051e-05,,,,,,,,,,,,,,,,,,,,,,,,,,,,,,,,,,,,,,,,,,,,,,,,,,,,,,,,,,,,,,,,,,,,,,,,,,
85,2.9379663467407227,0.608109712600708,1.5724605321884155,0.3878297200798988,0.0,-3.1415927946547777,-1.7497755777640125e-07,0.5000032782554626,0.5000032782554626,0.610797107219696,1.5708129405975342,0.3899433156847954,0.0,-3.141592675445488,-2.9172134152766205e-10,0.5000030398368835,0.5000030398368835,,,,,,,,,,,,,,,,,,,,,,,,,,,,,,,,,,,,,,,,,,,,,,,,,,,,,,,,,,,,,,,,,,,,,,,,,,,,,,,,,,,,,,,,,,,,,,,,,,,,,,,,,,,,,,,,,,,,,,,,,,,,,,,,,,,,,,-3.36070060669158e-09,2.0465851235940136e-09,-4.640614115203334e-09,0.0,7.093427711879485e-07,8.802660431683762e-07,-1.657015673117712e-05,-1.65551155077992e-05,-7.721601136267964e-11,1.5543122344752188e-11,-6.254025075591585e-11,0.0,2.8441138333334944e-09,2.779809271657996e-09,1.5443263691850007e-05,1.542656718811486e-05,,,,,,,,,,,,,,,,,,,,,,,,,,,,,,,,,,,,,,,,,,,,,,,,,,,,,,,,,,,,,,,,,,,,,,,,,,
86,2.959074020385742,0.608109712600708,1.5724605321884155,0.3878297200798988,0.0,-3.1415927946547777,-1.461241083688947e-07,0.5000027418136597,0.5000027418136597,0.610797107219696,1.5708129405975342,0.3899433156847954,0.0,-3.141592675445488,-2.9172134152766205e-10,0.5000030398368835,0.5000030398368835,,,,,,,,,,,,,,,,,,,,,,,,,,,,,,,,,,,,,,,,,,,,,,,,,,,,,,,,,,,,,,,,,,,,,,,,,,,,,,,,,,,,,,,,,,,,,,,,,,,,,,,,,,,,,,,,,,,,,,,,,,,,,,,,,,,,,,-2.8068658508573204e-09,1.709965502527666e-09,-3.874227161304589e-09,0.0,5.924067636442487e-07,7.351116551035375e-07,-1.3837388905812986e-05,-1.3826528629579116e-05,-7.721601136267964e-11,1.5543122344752188e-11,-6.254025075591585e-11,0.0,2.8441138333334944e-09,2.779809271657996e-09,1.5443263691850007e-05,1.542656718811486e-05,,,,,,,,,,,,,,,,,,,,,,,,,,,,,,,,,,,,,,,,,,,,,,,,,,,,,,,,,,,,,,,,,,,,,,,,,,
87,2.9799389839172363,0.608109712600708,1.5724605321884155,0.3878297200798988,0.0,-3.1415927946547777,-1.461241083688947e-07,0.5000027418136597,0.5000027418136597,0.610797107219696,1.5708129405975342,0.3899433156847954,0.0,-3.141592675445488,-2.003798654781619e-10,0.5000025629997253,0.5000025629997253,,,,,,,,,,,,,,,,,,,,,,,,,,,,,,,,,,,,,,,,,,,,,,,,,,,,,,,,,,,,,,,,,,,,,,,,,,,,,,,,,,,,,,,,,,,,,,,,,,,,,,,,,,,,,,,,,,,,,,,,,,,,,,,,,,,,,,-2.8068658508573204e-09,1.709965502527666e-09,-3.874227161304589e-09,0.0,5.924067636442487e-07,7.351116551035375e-07,-1.3837388905812986e-05,-1.3826528629579116e-05,-6.400435736964026e-11,1.3211653993039364e-11,-5.166006511458931e-11,0.0,2.122080289268524e-09,2.0929311617123862e-09,1.2768100532412063e-05,1.2755511306750122e-05,,,,,,,,,,,,,,,,,,,,,,,,,,,,,,,,,,,,,,,,,,,,,,,,,,,,,,,,,,,,,,,,,,,,,,,,,,
88,3.001650094985962,0.608109712600708,1.5724605321884155,0.3878297200798988,0.0,-3.1415927946547777,-1.2202852417431134e-07,0.5000023245811462,0.5000023245811462,0.610797107219696,1.5708129405975342,0.3899433156847954,0.0,-3.141592675445488,-1.3193009185119564e-10,0.5000020861625671,0.5000020861625671,,,,,,,,,,,,,,,,,,,,,,,,,,,,,,,,,,,,,,,,,,,,,,,,,,,,,,,,,,,,,,,,,,,,,,,,,,,,,,,,,,,,,,,,,,,,,,,,,,,,,,,,,,,,,,,,,,,,,,,,,,,,,,,,,,,,,,-2.3441248941935555e-09,1.4285239657851891e-09,-3.2346416656281463e-09,0.0,4.947468710270186e-07,6.138932917565398e-07,-1.1555312084965408e-05,-1.1547662325028796e-05,-5.290212712338871e-11,1.0880185641326534e-11,-4.2729708660260706e-11,0.0,1.5644707751505391e-09,1.5605879921665176e-09,1.0556344022916164e-05,1.054693893820513e-05,,,,,,,,,,,,,,,,,,,,,,,,,,,,,,,,,,,,,,,,,,,,,,,,,,,,,,,,,,,,,,,,,,,,,,,,,,
89,3.0236315727233887,0.608109712600708,1.5724605321884155,0.3878297200798988,0.0,-3.141592735050133,-1.0293157970409085e-07,0.5000019073486328,0.5000019669532776,0.610797107219696,1.5708129405975342,0.3899433156847954,0.0,-3.141592675445488,-1.3193009185119564e-10,0.5000020861625671,0.5000020861625671,,,,,,,,,,,,,,,,,,,,,,,,,,,,,,,,,,,,,,,,,,,,,,,,,,,,,,,,,,,,,,,,,,,,,,,,,,,,,,,,,,,,,,,,,,,,,,,,,,,,,,,,,,,,,,,,,,,,,,,,,,,,,,,,,,,,,,-1.9774182291598663e-09,1.2051470932306072e-09,-2.7276723102431792e-09,0.0,4.173427612386149e-07,5.178218316359562e-07,-9.746701834956184e-06,-9.74138038145611e-06,-5.290212712338871e-11,1.0880185641326534e-11,-4.2729708660260706e-11,0.0,1.5644707751505391e-09,1.5605879921665176e-09,1.0556344022916164e-05,1.054693893820513e-05,,,,,,,,,,,,,,,,,,,,,,,,,,,,,,,,,,,,,,,,,,,,,,,,,,,,,,,,,,,,,,,,,,,,,,,,,,
90,3.0454258918762207,0.608109712600708,1.5724605321884155,0.3878297200798988,0.0,-3.141592735050133,-1.0293157970409085e-07,0.5000019073486328,0.5000019669532776,0.610797107219696,1.5708129405975342,0.3899433156847954,0.0,-3.141592675445488,-8.348129826307725e-11,0.5000017285346985,0.5000017285346985,,,,,,,,,,,,,,,,,,,,,,,,,,,,,,,,,,,,,,,,,,,,,,,,,,,,,,,,,,,,,,,,,,,,,,,,,,,,,,,,,,,,,,,,,,,,,,,,,,,,,,,,,,,,,,,,,,,,,,,,,,,,,,,,,,,,,,-1.9774182291598663e-09,1.2051470932306072e-09,-2.7276723102431792e-09,0.0,4.173427612386149e-07,5.178218316359562e-07,-9.746701834956184e-06,-9.74138038145611e-06,-4.4131365228849966e-11,9.2148511043888e-12,-3.5645097984371426e-11,0.0,1.1561307466934068e-09,1.1688744416815664e-09,8.815537512418814e-06,8.80847710504895e-06,,,,,,,,,,,,,,,,,,,,,,,,,,,,,,,,,,,,,,,,,,,,,,,,,,,,,,,,,,,,,,,,,,,,,,,,,,
91,3.0679283142089844,0.608109712600708,1.5724605321884155,0.3878297200798988,0.0,-3.141592735050133,-8.5958362205929e-08,0.5000016093254089,0.5000016093254089,0.610797107219696,1.5708129405975342,0.3899433156847954,0.0,-3.141592675445488,-8.348129826307725e-11,0.5000017285346985,0.5000017285346985,,,,,,,,,,,,,,,,,,,,,,,,,,,,,,,,,,,,,,,,,,,,,,,,,,,,,,,,,,,,,,,,,,,,,,,,,,,,,,,,,,,,,,,,,,,,,,,,,,,,,,,,,,,,,,,,,,,,,,,,,,,,,,,,,,,,,,-1.6514567491299201e-09,1.006750238730092e-09,-2.277303456921231e-09,0.0,3.485426418592397e-07,4.324341773553897e-07,-8.13926544651622e-06,-8.135821190080605e-06,-4.4131365228849966e-11,9.2148511043888e-12,-3.5645097984371426e-11,0.0,1.1561307466934068e-09,1.1688744416815664e-09,8.815537512418814e-06,8.80847710504895e-06,,,,,,,,,,,,,,,,,,,,,,,,,,,,,,,,,,,,,,,,,,,,,,,,,,,,,,,,,,,,,,,,,,,,,,,,,,
92,3.090252161026001,0.608109712600708,1.5724605321884155,0.3878297200798988,0.0,-3.141592735050133,-7.178399386020828e-08,0.5000013709068298,0.5000013709068298,0.610797107219696,1.5708129405975342,0.3899433156847954,0.0,-3.141592675445488,-4.572502793065425e-11,0.5000014305114746,0.5000014305114746,,,,,,,,,,,,,,,,,,,,,,,,,,,,,,,,,,,,,,,,,,,,,,,,,,,,,,,,,,,,,,,,,,,,,,,,,,,,,,,,,,,,,,,,,,,,,,,,,,,,,,,,,,,,,,,,,,,,,,,,,,,,,,,,,,,,,,-1.379285574643063e-09,8.406608742461684e-10,-1.9013748353557958e-09,0.0,2.910850867010595e-07,3.611265810832265e-07,-6.796929028496379e-06,-6.79488766763825e-06,-3.6415315207705135e-11,7.882583474838611e-12,-2.949029909160572e-11,0.0,8.248957072964912e-10,8.493244996188308e-10,7.288463621080155e-06,7.283319519046927e-06,,,,,,,,,,,,,,,,,,,,,,,,,,,,,,,,,,,,,,,,,,,,,,,,,,,,,,,,,,,,,,,,,,,,,,,,,,
93,3.1118273735046387,0.608109712600708,1.5724605321884155,0.3878297200798988,0.0,-3.141592735050133,-7.178399386020828e-08,0.5000013709068298,0.5000013709068298,0.610797107219696,1.5708129405975342,0.3899433156847954,0.0,-3.141592675445488,-1.975545768639897e-11,0.5000011920928955,0.5000011920928955,,,,,,,,,,,,,,,,,,,,,,,,,,,,,,,,,,,,,,,,,,,,,,,,,,,,,,,,,,,,,,,,,,,,,,,,,,,,,,,,,,,,,,,,,,,,,,,,,,,,,,,,,,,,,,,,,,,,,,,,,,,,,,,,,,,,,,-1.379285574643063e-09,8.406608742461684e-10,-1.9013748353557958e-09,0.0,2.910850867010595e-07,3.611265810832265e-07,-6.796929028496379e-06,-6.79488766763825e-06,-3.036459972349803e-11,6.439293542825908e-12,-2.462613446496675e-11,0.0,5.850320228262261e-10,6.163805577052982e-10,6.086551366024651e-06,6.0828028836112935e-06,,,,,,,,,,,,,,,,,,,,,,,,,,,,,,,,,,,,,,,,,,,,,,,,,,,,,,,,,,,,,,,,,,,,,,,,,,
94,3.1338281631469727,0.608109712600708,1.5724605321884155,0.3878297200798988,0.0,-3.141592735050133,-5.994694873834305e-08,0.5000011324882507,0.5000011324882507,0.610797107219696,1.5708129405975342,0.3899433156847954,0.0,-3.141592675445488,-1.854490866426417e-11,0.5000011920928955,0.5000011920928955,,,,,,,,,,,,,,,,,,,,,,,,,,,,,,,,,,,,,,,,,,,,,,,,,,,,,,,,,,,,,,,,,,,,,,,,,,,,,,,,,,,,,,,,,,,,,,,,,,,,,,,,,,,,,,,,,,,,,,,,,,,,,,,,,,,,,,-1.1517453657461374e-09,7.024381076803364e-10,-1.5873552472456252e-09,0.0,2.430993220059463e-07,3.015773302195157e-07,-5.675972261087736e-06,-5.674964540958172e-06,-3.0309088572266774e-11,6.772360450213455e-12,-2.430000645148311e-11,0.0,5.730971253115057e-10,6.052741641227043e-10,6.025918082741555e-06,6.022237812430831e-06,,,,,,,,,,,,,,,,,,,,,,,,,,,,,,,,,,,,,,,,,,,,,,,,,,,,,,,,,,,,,,,,,,,,,,,,,,
95,3.1550726890563965,0.608109712600708,1.5724605321884155,0.3878297200798988,0.0,-3.141592735050133,-5.994694873834305e-08,0.5000011324882507,0.5000011324882507,0.610797107219696,1.5708129405975342,0.3899433156847954,0.0,-3.141592675445488,-2.497422841446495e-13,0.5000010132789612,0.5000010132789612,,,,,,,,,,,,,,,,,,,,,,,,,,,,,,,,,,,,,,,,,,,,,,,,,,,,,,,,,,,,,,,,,,,,,,,,,,,,,,,,,,,,,,,,,,,,,,,,,,,,,,,,,,,,,,,,,,,,,,,,,,,,,,,,,,,,,,-1.1517453657461374e-09,7.024381076803364e-10,-1.5873552472456252e-09,0.0,2.430993220059463e-07,3.015773302195157e-07,-5.675972261087736e-06,-5.674964540958172e-06,-2.5257573810222308e-11,5.551115123125783e-12,-2.0337898032352086e-11,0.0,3.9274139496114913e-10,4.2892134288763373e-10,5.03220735481591e-06,5.029586645832751e-06,,,,,,,,,,,,,,,,,,,,,,,,,,,,,,,,,,,,,,,,,,,,,,,,,,,,,,,,,,,,,,,,,,,,,,,,,,
96,3.176297426223755,0.608109712600708,1.5724605321884155,0.3878297200798988,0.0,-3.141592735050133,-4.9563137594077495e-08,0.5000009536743164,0.5000009536743164,0.610797107219696,1.5708129405975342,0.3899433156847954,0.0,-3.141592675445488,-2.497422841446495e-13,0.5000010132789612,0.5000010132789612,,,,,,,,,,,,,,,,,,,,,,,,,,,,,,,,,,,,,,,,,,,,,,,,,,,,,,,,,,,,,,,,,,,,,,,,,,,,,,,,,,,,,,,,,,,,,,,,,,,,,,,,,,,,,,,,,,,,,,,,,,,,,,,,,,,,,,-9.525713551283843e-10,5.810907310888068e-10,-1.311999175968026e-09,0.0,2.010019954923337e-07,2.493391946245538e-07,-4.692662969318917e-06,-4.692437869380228e-06,-2.5257573810222308e-11,5.551115123125783e-12,-2.0337898032352086e-11,0.0,3.9274139496114913e-10,4.2892134288763373e-10,5.03220735481591e-06,5.029586645832751e-06,,,,,,,,,,,,,,,,,,,,,,,,,,,,,,,,,,,,,,,,,,,,,,,,,,,,,,,,,,,,,,,,,,,,,,,,,,
97,3.197450876235962,0.608109712600708,1.5724605321884155,0.3878297200798988,0.0,-3.141592735050133,-4.9563137594077495e-08,0.5000009536743164,0.5000009536743164,0.610797107219696,1.5708129405975342,0.3899433156847954,0.0,-3.141592675445488,1.2517167857772904e-11,0.5000008344650269,0.5000008344650269,,,,,,,,,,,,,,,,,,,,,,,,,,,,,,,,,,,,,,,,,,,,,,,,,,,,,,,,,,,,,,,,,,,,,,,,,,,,,,,,,,,,,,,,,,,,,,,,,,,,,,,,,,,,,,,,,,,,,,,,,,,,,,,,,,,,,,-9.525713551283843e-10,5.810907310888068e-10,-1.311999175968026e-09,0.0,2.010019954923337e-07,2.493391946245538e-07,-4.692662969318917e-06,-4.692437869380228e-06,-2.1094237467877974e-11,4.6629367034256575e-12,-1.7062740109707875e-11,0.0,2.566835632933362e-10,2.9422370095844025e-10,4.202364380034851e-06,4.2005553950730246e-06,,,,,,,,,,,,,,,,,,,,,,,,,,,,,,,,,,,,,,,,,,,,,,,,,,,,,,,,,,,,,,,,,,,,,,,,,,
98,3.22009015083313,0.608109712600708,1.5724605321884155,0.3878297200798988,0.0,-3.141592735050133,-4.0977973014832976e-08,0.5000007748603821,0.5000007748603821,0.610797107219696,1.5708129405975342,0.3899433156847954,0.0,-3.141592675445488,2.0693885841027715e-11,0.5000007152557373,0.5000007152557373,,,,,,,,,,,,,,,,,,,,,,,,,,,,,,,,,,,,,,,,,,,,,,,,,,,,,,,,,,,,,,,,,,,,,,,,,,,,,,,,,,,,,,,,,,,,,,,,,,,,,,,,,,,,,,,,,,,,,,,,,,,,,,,,,,,,,,-7.875367025178547e-10,4.806155473602303e-10,-1.0844589670711e-09,0.0,1.6619428322428578e-07,2.0614926654616286e-07,-3.879702944686869e-06,-3.880019448843086e-06,-1.7708057242771247e-11,3.9968028886505635e-12,-1.4287182548144983e-11,0.0,1.5948353748740374e-10,1.9705886922238847e-10,3.5446796573523898e-06,3.543455250110128e-06,,,,,,,,,,,,,,,,,,,,,,,,,,,,,,,,,,,,,,,,,,,,,,,,,,,,,,,,,,,,,,,,,,,,,,,,,,
99,3.241868019104004,0.608109712600708,1.5724605321884155,0.3878297200798988,0.0,-3.141592675445488,-3.3879899774547084e-08,0.5000006556510925,0.5000006556510925,0.610797107219696,1.5708129405975342,0.3899433156847954,0.0,-3.141592675445488,2.1078251991046848e-11,0.5000007152557373,0.5000007152557373,,,,,,,,,,,,,,,,,,,,,,,,,,,,,,,,,,,,,,,,,,,,,,,,,,,,,,,,,,,,,,,,,,,,,,,,,,,,,,,,,,,,,,,,,,,,,,,,,,,,,,,,,,,,,,,,,,,,,,,,,,,,,,,,,,,,,,-6.512568262451167e-10,3.97237798210881e-10,-8.963593756128319e-10,0.0,1.3741508553266613e-07,1.7044095557139374e-07,-3.2075802209874382e-06,-3.208257794540259e-06,-1.765254609153999e-11,3.9968028886505635e-12,-1.4217793609105913e-11,0.0,1.5404344466674047e-10,1.9218344970983736e-10,3.509368525556056e-06,3.5081741316389525e-06,,,,,,,,,,,,,,,,,,,,,,,,,,,,,,,,,,,,,,,,,,,,,,,,,,,,,,,,,,,,,,,,,,,,,,,,,,
100,3.263178586959839,0.608109712600708,1.5724605321884155,0.3878297200798988,0.0,-3.141592675445488,-3.3879899774547084e-08,0.5000006556510925,0.5000006556510925,0.610797107219696,1.5708129405975342,0.3899433156847954,0.0,-3.141592675445488,2.6476489403681747e-11,0.5000005960464478,0.5000005960464478,,,,,,,,,,,,,,,,,,,,,,,,,,,,,,,,,,,,,,,,,,,,,,,,,,,,,,,,,,,,,,,,,,,,,,,,,,,,,,,,,,,,,,,,,,,,,,,,,,,,,,,,,,,,,,,,,,,,,,,,,,,,,,,,,,,,,,-6.512568262451167e-10,3.97237798210881e-10,-8.963593756128319e-10,0.0,1.3741508553266613e-07,1.7044095557139374e-07,-3.2075802209874382e-06,-3.208257794540259e-06,-1.459943277382081e-11,3.552713678800501e-12,-1.1872447469585268e-11,0.0,7.865930129469234e-11,1.1575408687125588e-10,2.930652044597082e-06,2.9299183097464265e-06,,,,,,,,,,,,,,,,,,,,,,,,,,,,,,,,,,,,,,,,,,,,,,,,,,,,,,,,,,,,,,,,,,,,,,,,,,
101,3.284356594085694,0.608109712600708,1.5724605321884155,0.3878297200798988,0.0,-3.141592675445488,-2.829317047314817e-08,0.500000536441803,0.500000536441803,0.610797107219696,1.5708129405975342,0.3899433156847954,0.0,-3.141592675445488,2.6476489403681747e-11,0.5000005960464478,0.5000005960464478,,,,,,,,,,,,,,,,,,,,,,,,,,,,,,,,,,,,,,,,,,,,,,,,,,,,,,,,,,,,,,,,,,,,,,,,,,,,,,,,,,,,,,,,,,,,,,,,,,,,,,,,,,,,,,,,,,,,,,,,,,,,,,,,,,,,,,-5.438982597638642e-10,3.3217872896784684e-10,-7.484846076266648e-10,0.0,1.1476175387770129e-07,1.4233535239327466e-07,-2.6785824047692586e-06,-2.679477347555803e-06,-1.459943277382081e-11,3.552713678800501e-12,-1.1872447469585268e-11,0.0,7.865930129469234e-11,1.1575408687125588e-10,2.930652044597082e-06,2.9299183097464265e-06,,,,,,,,,,,,,,,,,,,,,,,,,,,,,,,,,,,,,,,,,,,,,,,,,,,,,,,,,,,,,,,,,,,,,,,,,,
102,3.3057920932769775,0.608109712600708,1.5724605321884155,0.3878297200798988,0.0,-3.141592675445488,-2.829317047314817e-08,0.500000536441803,0.500000536441803,0.610797107219696,1.5708129405975342,0.3899433156847954,0.0,-3.141592675445488,2.9521007166577456e-11,0.5000004768371582,0.5000004768371582,,,,,,,,,,,,,,,,,,,,,,,,,,,,,,,,,,,,,,,,,,,,,,,,,,,,,,,,,,,,,,,,,,,,,,,,,,,,,,,,,,,,,,,,,,,,,,,,,,,,,,,,,,,,,,,,,,,,,,,,,,,,,,,,,,,,,,-5.438982597638642e-10,3.3217872896784684e-10,-7.484846076266648e-10,0.0,1.1476175387770129e-07,1.4233535239327466e-07,-2.6785824047692586e-06,-2.679477347555803e-06,-1.226796442210798e-11,2.7755575615628914e-12,-9.874046025259986e-12,0.0,2.3425705819590803e-11,5.96220087190069e-11,2.4473695248161675e-06,2.446976395731326e-06,,,,,,,,,,,,,,,,,,,,,,,,,,,,,,,,,,,,,,,,,,,,,,,,,,,,,,,,,,,,,,,,,,,,,,,,,,
103,3.3278119564056396,0.608109712600708,1.5724605321884155,0.3878297200798988,0.0,-3.141592675445488,-2.3392319192794275e-08,0.5000004172325134,0.5000004172325134,0.610797107219696,1.5708129405975342,0.3899433156847954,0.0,-3.141592675445488,3.08042549801435e-11,0.5000004172325134,0.5000004172325134,,,,,,,,,,,,,,,,,,,,,,,,,,,,,,,,,,,,,,,,,,,,,,,,,,,,,,,,,,,,,,,,,,,,,,,,,,,,,,,,,,,,,,,,,,,,,,,,,,,,,,,,,,,,,,,,,,,,,,,,,,,,,,,,,,,,,,-4.498068584268821e-10,2.7466917629226373e-10,-6.186440248967529e-10,0.0,9.488854146866289e-08,1.176805923819302e-07,-2.214542973888456e-06,-2.215570020780433e-06,-1.0436096431476471e-11,2.4424906541753444e-12,-8.36136715420821e-12,0.0,-1.2545520178264267e-11,2.0348396578828695e-11,2.064347654595622e-06,2.0641921310016187e-06,,,,,,,,,,,,,,,,,,,,,,,,,,,,,,,,,,,,,,,,,,,,,,,,,,,,,,,,,,,,,,,,,,,,,,,,,,
104,3.3499867916107178,0.608109712600708,1.5724605321884155,0.3878297200798988,0.0,-3.141592675445488,-1.9534970974177668e-08,0.5000003576278687,0.5000003576278687,0.610797107219696,1.5708129405975342,0.3899433156847954,0.0,-3.141592675445488,3.0841308673590355e-11,0.5000004172325134,0.5000004172325134,,,,,,,,,,,,,,,,,,,,,,,,,,,,,,,,,,,,,,,,,,,,,,,,,,,,,,,,,,,,,,,,,,,,,,,,,,,,,,,,,,,,,,,,,,,,,,,,,,,,,,,,,,,,,,,,,,,,,,,,,,,,,,,,,,,,,,-3.7558844923069046e-10,2.2926105458509483e-10,-5.164896288434305e-10,0.0,7.924683131932397e-08,9.827538605122754e-08,-1.8493178686185272e-06,-1.8504030094845805e-06,-1.021405182655144e-11,2.4424906541753444e-12,-8.243405957841787e-12,0.0,-1.5154544286133387e-11,1.8526836315091444e-11,2.043783069893834e-06,2.043639142357278e-06,,,,,,,,,,,,,,,,,,,,,,,,,,,,,,,,,,,,,,,,,,,,,,,,,,,,,,,,,,,,,,,,,,,,,,,,,,
105,3.371654987335205,0.608109712600708,1.5724605321884155,0.3878297200798988,0.0,-3.141592675445488,-1.9340378187848728e-08,0.5000003576278687,0.5000003576278687,0.610797107219696,1.5708129405975342,0.3899433156847954,0.0,-3.141592675445488,3.0923378441238825e-11,0.5000003576278687,0.5000003576278687,,,,,,,,,,,,,,,,,,,,,,,,,,,,,,,,,,,,,,,,,,,,,,,,,,,,,,,,,,,,,,,,,,,,,,,,,,,,,,,,,,,,,,,,,,,,,,,,,,,,,,,,,,,,,,,,,,,,,,,,,,,,,,,,,,,,,,-3.718692020981962e-10,2.2737367544323206e-10,-5.113270917789237e-10,0.0,7.845674332429553e-08,9.729664185442745e-08,-1.8308942344447132e-06,-1.8319797163712792e-06,-8.271161533457416e-12,2.109423746787798e-12,-6.890321646579878e-12,0.0,-4.1577852272212106e-11,-1.0532394401074896e-11,1.706750822449976e-06,1.7067844737539415e-06,,,,,,,,,,,,,,,,,,,,,,,,,,,,,,,,,,,,,,,,,,,,,,,,,,,,,,,,,,,,,,,,,,,,,,,,,,
106,3.3938889503479004,0.608109712600708,1.5724605321884155,0.3878297200798988,0.0,-3.141592675445488,-1.615118705444729e-08,0.5000002980232239,0.5000002980232239,0.610797107219696,1.5708129405975342,0.3899433156847954,0.0,-3.141592675445488,3.0923378441238825e-11,0.5000003576278687,0.5000003576278687,,,,,,,,,,,,,,,,,,,,,,,,,,,,,,,,,,,,,,,,,,,,,,,,,,,,,,,,,,,,,,,,,,,,,,,,,,,,,,,,,,,,,,,,,,,,,,,,,,,,,,,,,,,,,,,,,,,,,,,,,,,,,,,,,,,,,,-3.105293799876563e-10,1.8940404800105168e-10,-4.2688769186227655e-10,0.0,6.552336628828925e-08,8.125244477241722e-08,-1.5289406292140484e-06,-1.530036456642847e-06,-8.271161533457416e-12,2.109423746787798e-12,-6.890321646579878e-12,0.0,-4.1577852272212106e-11,-1.0532394401074896e-11,1.706750822449976e-06,1.7067844737539415e-06,,,,,,,,,,,,,,,,,,,,,,,,,,,,,,,,,,,,,,,,,,,,,,,,,,,,,,,,,,,,,,,,,,,,,,,,,,
107,3.416128635406494,0.608109712600708,1.5724605321884155,0.3878297200798988,0.0,-3.141592675445488,-1.615118705444729e-08,0.5000002980232239,0.5000002980232239,0.610797107219696,1.5708129405975342,0.3899433156847954,0.0,-3.141592675445488,3.007673624044749e-11,0.5000002980232239,0.5000002980232239,,,,,,,,,,,,,,,,,,,,,,,,,,,,,,,,,,,,,,,,,,,,,,,,,,,,,,,,,,,,,,,,,,,,,,,,,,,,,,,,,,,,,,,,,,,,,,,,,,,,,,,,,,,,,,,,,,,,,,,,,,,,,,,,,,,,,,-3.105293799876563e-10,1.8940404800105168e-10,-4.2688769186227655e-10,0.0,6.552336628828925e-08,8.125244477241722e-08,-1.5289406292140484e-06,-1.530036456642847e-06,-6.8833827526759706e-12,1.6653345369377348e-12,-5.676015213396113e-12,0.0,-5.900835375882707e-11,-3.1620792789732726e-11,1.4110979691395189e-06,1.4112604276306229e-06,,,,,,,,,,,,,,,,,,,,,,,,,,,,,,,,,,,,,,,,,,,,,,,,,,,,,,,,,,,,,,,,,,,,,,,,,,
108,3.438185930252075,0.608109712600708,1.5724605321884155,0.3878297200798988,0.0,-3.141592675445488,-1.34878863633503e-08,0.5000002384185791,0.5000002384185791,0.610797107219696,1.5708129405975342,0.3899433156847954,0.0,-3.141592675445488,3.007673624044749e-11,0.5000002980232239,0.5000002980232239,,,,,,,,,,,,,,,,,,,,,,,,,,,,,,,,,,,,,,,,,,,,,,,,,,,,,,,,,,,,,,,,,,,,,,,,,,,,,,,,,,,,,,,,,,,,,,,,,,,,,,,,,,,,,,,,,,,,,,,,,,,,,,,,,,,,,,-2.5940360970366777e-10,1.5865087021893487e-10,-3.564093464802909e-10,0.0,5.4721560616144416e-08,6.785392514530032e-08,-1.2767864063789602e-06,-1.27785722270346e-06,-6.8833827526759706e-12,1.6653345369377348e-12,-5.676015213396113e-12,0.0,-5.900835375882707e-11,-3.1620792789732726e-11,1.4110979691395189e-06,1.4112604276306229e-06,,,,,,,,,,,,,,,,,,,,,,,,,,,,,,,,,,,,,,,,,,,,,,,,,,,,,,,,,,,,,,,,,,,,,,,,,,
109,3.459503173828125,0.608109712600708,1.5724605321884155,0.3878297200798988,0.0,-3.141592675445488,-1.1377089492725645e-08,0.5000002384185791,0.5000002384185791,0.610797107219696,1.5708129405975342,0.3899433156847954,0.0,-3.141592675445488,2.8595827095134748e-11,0.5000002384185791,0.5000002384185791,,,,,,,,,,,,,,,,,,,,,,,,,,,,,,,,,,,,,,,,,,,,,,,,,,,,,,,,,,,,,,,,,,,,,,,,,,,,,,,,,,,,,,,,,,,,,,,,,,,,,,,,,,,,,,,,,,,,,,,,,,,,,,,,,,,,,,-2.1882495815361835e-10,1.3367085216486882e-10,-3.005512505538377e-10,0.0,4.6160351985236054e-08,5.72350664640453e-08,-1.076947228284553e-06,-1.077974957297556e-06,-5.88418203051333e-12,1.4432899320127037e-12,-4.711508960753008e-12,0.0,-6.999956170261612e-11,-4.480439630416555e-11,1.1666605814752984e-06,1.1669051218632376e-06,,,,,,,,,,,,,,,,,,,,,,,,,,,,,,,,,,,,,,,,,,,,,,,,,,,,,,,,,,,,,,,,,,,,,,,,,,
110,3.4809906482696533,0.608109712600708,1.5724605321884155,0.3878297200798988,0.0,-3.141592675445488,-1.1377089492725645e-08,0.5000002384185791,0.5000002384185791,0.610797107219696,1.5708129405975342,0.3899433156847954,0.0,-3.141592675445488,2.6830359114993207e-11,0.5000001788139343,0.5000001788139343,,,,,,,,,,,,,,,,,,,,,,,,,,,,,,,,,,,,,,,,,,,,,,,,,,,,,,,,,,,,,,,,,,,,,,,,,,,,,,,,,,,,,,,,,,,,,,,,,,,,,,,,,,,,,,,,,,,,,,,,,,,,,,,,,,,,,,-2.1882495815361835e-10,1.3367085216486882e-10,-3.005512505538377e-10,0.0,4.6160351985236054e-08,5.72350664640453e-08,-1.076947228284553e-06,-1.077974957297556e-06,-4.884981308350689e-12,1.1102230246251565e-12,-3.95516952522712e-12,0.0,-7.577272143066692e-11,-5.232664301857426e-11,9.742713018567883e-07,9.745627949087066e-07,,,,,,,,,,,,,,,,,,,,,,,,,,,,,,,,,,,,,,,,,,,,,,,,,,,,,,,,,,,,,,,,,,,,,,,,,,
111,3.502316951751709,0.608109712600708,1.5724605321884155,0.3878297200798988,0.0,-3.141592675445488,-9.501028408465118e-09,0.5000001788139343,0.5000001788139343,0.610797107219696,1.5708129405975342,0.3899433156847954,0.0,-3.141592675445488,2.6830359114993207e-11,0.5000001788139343,0.5000001788139343,,,,,,,,,,,,,,,,,,,,,,,,,,,,,,,,,,,,,,,,,,,,,,,,,,,,,,,,,,,,,,,,,,,,,,,,,,,,,,,,,,,,,,,,,,,,,,,,,,,,,,,,,,,,,,,,,,,,,,,,,,,,,,,,,,,,,,-1.8268719870206948e-10,1.1191048088221578e-10,-2.508687702018619e-10,0.0,3.855027586041615e-08,4.7797151125905664e-08,-8.993356459541246e-07,-9.003048830891203e-07,-4.884981308350689e-12,1.1102230246251565e-12,-3.95516952522712e-12,0.0,-7.577272143066692e-11,-5.232664301857426e-11,9.742713018567883e-07,9.745627949087066e-07,,,,,,,,,,,,,,,,,,,,,,,,,,,,,,,,,,,,,,,,,,,,,,,,,,,,,,,,,,,,,,,,,,,,,,,,,,
112,3.524303436279297,0.608109712600708,1.5724605321884155,0.3878297200798988,0.0,-3.141592675445488,-9.501028408465118e-09,0.5000001788139343,0.5000001788139343,0.610797107219696,1.5708129405975342,0.3899433156847954,0.0,-3.141592675445488,2.4757364561200923e-11,0.5000001788139343,0.5000001788139343,,,,,,,,,,,,,,,,,,,,,,,,,,,,,,,,,,,,,,,,,,,,,,,,,,,,,,,,,,,,,,,,,,,,,,,,,,,,,,,,,,,,,,,,,,,,,,,,,,,,,,,,,,,,,,,,,,,,,,,,,,,,,,,,,,,,,,-1.8268719870206948e-10,1.1191048088221578e-10,-2.508687702018619e-10,0.0,3.855027586041615e-08,4.7797151125905664e-08,-8.993356459541246e-07,-9.003048830891203e-07,-3.885780586188048e-12,9.992007221626409e-13,-3.247402347028583e-12,0.0,-7.693845560652335e-11,-5.6167997336542535e-11,8.055027365116985e-07,8.05820661753387e-07,,,,,,,,,,,,,,,,,,,,,,,,,,,,,,,,,,,,,,,,,,,,,,,,,,,,,,,,,,,,,,,,,,,,,,,,,,
113,3.545518636703491,0.608109712600708,1.5724605321884155,0.3878297200798988,0.0,-3.141592675445488,-7.934326973213501e-09,0.5000001788139343,0.5000001788139343,0.610797107219696,1.5708129405975342,0.3899433156847954,0.0,-3.141592675445488,2.4757364561200923e-11,0.5000001788139343,0.5000001788139343,,,,,,,,,,,,,,,,,,,,,,,,,,,,,,,,,,,,,,,,,,,,,,,,,,,,,,,,,,,,,,,,,,,,,,,,,,,,,,,,,,,,,,,,,,,,,,,,,,,,,,,,,,,,,,,,,,,,,,,,,,,,,,,,,,,,,,-1.5276668818842154e-10,9.325873406851315e-11,-2.095476570040944e-10,0.0,3.219519228991885e-08,3.991546648762778e-08,-7.510159889534407e-07,-7.519178666370863e-07,-3.885780586188048e-12,9.992007221626409e-13,-3.247402347028583e-12,0.0,-7.693845560652335e-11,-5.6167997336542535e-11,8.055027365116985e-07,8.05820661753387e-07,,,,,,,,,,,,,,,,,,,,,,,,,,,,,,,,,,,,,,,,,,,,,,,,,,,,,,,,,,,,,,,,,,,,,,,,,,
114,3.5675299167633057,0.608109712600708,1.5724605321884155,0.3878297200798988,0.0,-3.141592675445488,-6.62597088307848e-09,0.5000001192092896,0.5000001192092896,0.610797107219696,1.5708129405975342,0.3899433156847954,0.0,-3.141592675445488,2.2597019741499302e-11,0.5000001192092896,0.5000001192092896,,,,,,,,,,,,,,,,,,,,,,,,,,,,,,,,,,,,,,,,,,,,,,,,,,,,,,,,,,,,,,,,,,,,,,,,,,,,,,,,,,,,,,,,,,,,,,,,,,,,,,,,,,,,,,,,,,,,,,,,,,,,,,,,,,,,,,-1.2756462552943049e-10,7.804867863114849e-11,-1.748323708028465e-10,0.0,2.688810241124884e-08,3.3333698468140944e-08,-6.271580446082226e-07,-6.279873900894017e-07,-3.3306690738754696e-12,6.661338147750939e-13,-2.6575963651964685e-12,0.0,-7.543965452327939e-11,-5.7324034408168245e-11,6.659694236077485e-07,6.662954206149152e-07,,,,,,,,,,,,,,,,,,,,,,,,,,,,,,,,,,,,,,,,,,,,,,,,,,,,,,,,,,,,,,,,,,,,,,,,,,
115,3.5898773670196533,0.608109712600708,1.5724605321884155,0.3878297200798988,0.0,-3.141592675445488,-6.62597088307848e-09,0.5000001192092896,0.5000001192092896,0.610797107219696,1.5708129405975342,0.3899433156847954,0.0,-3.141592675445488,2.0554920612814165e-11,0.5000001192092896,0.5000001192092896,,,,,,,,,,,,,,,,,,,,,,,,,,,,,,,,,,,,,,,,,,,,,,,,,,,,,,,,,,,,,,,,,,,,,,,,,,,,,,,,,,,,,,,,,,,,,,,,,,,,,,,,,,,,,,,,,,,,,,,,,,,,,,,,,,,,,,-1.2756462552943049e-10,7.804867863114849e-11,-1.748323708028465e-10,0.0,2.688810241124884e-08,3.3333698468140944e-08,-6.271580446082226e-07,-6.279873900894017e-07,-2.8310687127941488e-12,7.771561172376097e-13,-2.2343238370581275e-12,0.0,-7.199796314694139e-11,-5.6219518623779046e-11,5.56146460439777e-07,5.564695584325818e-07,,,,,,,,,,,,,,,,,,,,,,,,,,,,,,,,,,,,,,,,,,,,,,,,,,,,,,,,,,,,,,,,,,,,,,,,,,
116,3.611675977706909,0.608109712600708,1.5724605321884155,0.3878297200798988,0.0,-3.141592675445488,-5.4782423042354375e-09,0.5000001192092896,0.5000001192092896,0.610797107219696,1.5708129405975342,0.3899433156847954,0.0,-3.141592675445488,2.0554920612814165e-11,0.5000001192092896,0.5000001192092896,,,,,,,,,,,,,,,,,,,,,,,,,,,,,,,,,,,,,,,,,,,,,,,,,,,,,,,,,,,,,,,,,,,,,,,,,,,,,,,,,,,,,,,,,,,,,,,,,,,,,,,,,,,,,,,,,,,,,,,,,,,,,,,,,,,,,,-1.0536016503692736e-10,6.472600233564663e-11,-1.4460654895742664e-10,0.0,2.223160500136601e-08,2.7559512005836954e-08,-5.185080453884439e-07,-5.192616754357005e-07,-2.8310687127941488e-12,7.771561172376097e-13,-2.2343238370581275e-12,0.0,-7.199796314694139e-11,-5.6219518623779046e-11,5.56146460439777e-07,5.564695584325818e-07,,,,,,,,,,,,,,,,,,,,,,,,,,,,,,,,,,,,,,,,,,,,,,,,,,,,,,,,,,,,,,,,,,,,,,,,,,
117,3.6330723762512207,0.608109712600708,1.5724605321884155,0.3878297200798988,0.0,-3.141592675445488,-5.4782423042354375e-09,0.5000001192092896,0.5000001192092896,0.610797107219696,1.5708129405975342,0.3899433156847954,0.0,-3.141592675445488,1.8571632079411593e-11,0.5000001192092896,0.5000001192092896,,,,,,,,,,,,,,,,,,,,,,,,,,,,,,,,,,,,,,,,,,,,,,,,,,,,,,,,,,,,,,,,,,,,,,,,,,,,,,,,,,,,,,,,,,,,,,,,,,,,,,,,,,,,,,,,,,,,,,,,,,,,,,,,,,,,,,-1.0536016503692736e-10,6.472600233564663e-11,-1.4460654895742664e-10,0.0,2.223160500136601e-08,2.7559512005836954e-08,-5.185080453884439e-07,-5.192616754357005e-07,-2.4980018054066026e-12,8.881784197001252e-13,-1.85268467234323e-12,0.0,-6.861178292183466e-11,-5.4105959296224526e-11,4.644351463412022e-07,4.647456819384388e-07,,,,,,,,,,,,,,,,,,,,,,,,,,,,,,,,,,,,,,,,,,,,,,,,,,,,,,,,,,,,,,,,,,,,,,,,,,
118,3.654393196105957,0.608109712600708,1.5724605321884155,0.3878297200798988,0.0,-3.141592675445488,-4.529316921519921e-09,0.5000000596046448,0.5000000596046448,0.610797107219696,1.5708129405975342,0.3899433156847954,0.0,-3.141592675445488,1.8571632079411593e-11,0.5000001192092896,0.5000001192092896,,,,,,,,,,,,,,,,,,,,,,,,,,,,,,,,,,,,,,,,,,,,,,,,,,,,,,,,,,,,,,,,,,,,,,,,,,,,,,,,,,,,,,,,,,,,,,,,,,,,,,,,,,,,,,,,,,,,,,,,,,,,,,,,,,,,,,-8.693046282814976e-11,5.3179682879545e-11,-1.1944611966185903e-10,0.0,1.8381907551656695e-08,2.2785959785665e-08,-4.2868137484219915e-07,-4.293600568416878e-07,-2.4980018054066026e-12,8.881784197001252e-13,-1.85268467234323e-12,0.0,-6.861178292183466e-11,-5.4105959296224526e-11,4.644351463412022e-07,4.647456819384388e-07,,,,,,,,,,,,,,,,,,,,,,,,,,,,,,,,,,,,,,,,,,,,,,,,,,,,,,,,,,,,,,,,,,,,,,,,,,
