MHC-RobotSimulators-Research/Data_Analysis_MotionReplication/mai_plotter/offset_fixed/0arm__a2.csv
Unnamed: 0,time,jpos0,jpos1,jpos2,jpos3,jpos4,jpos5,jpos6,jpos7,jpos8,jpos9,jpos10,jpos11,jpos12,jpos13,jpos14,jpos15,runlevel,sublevel,last_seq,type0,type1,pos0,pos1,pos2,pos3,pos4,pos5,ori0,ori1,ori2,ori3,ori4,ori5,ori6,ori7,ori8,ori9,ori10,ori11,ori12,ori13,ori14,ori15,ori16,ori17,ori_d0,ori_d1,ori_d2,ori_d3,ori_d4,ori_d5,ori_d6,ori_d7,ori_d8,ori_d9,ori_d10,ori_d11,ori_d12,ori_d13,ori_d14,ori_d15,ori_d16,ori_d17,pos_d0,pos_d1,pos_d2,pos_d3,pos_d4,pos_d5,encVals0,encVals1,encVals2,encVals3,encVals4,encVals5,encVals6,encVals7,encVals8,encVals9,encVals10,encVals11,encVals12,encVals13,encVals14,encVals15,dac_vals0,dac_vals1,dac_vals2,dac_vals3,dac_vals4,dac_vals5,dac_vals6,dac_vals7,dac_vals8,dac_vals9,dac_vals10,dac_vals11,dac_vals12,dac_vals13,dac_vals14,dac_vals15,Tau0,Tau1,Tau2,Tau3,Tau4,Tau5,Tau6,Tau7,Tau8,Tau9,Tau10,Tau11,Tau12,Tau13,Tau14,Tau15,mpos0,mpos1,mpos2,mpos3,mpos4,mpos5,mpos6,mpos7,mpos8,mpos9,mpos10,mpos11,mpos12,mpos13,mpos14,mpos15,mvel0,mvel1,mvel2,mvel3,mvel4,mvel5,mvel6,mvel7,mvel8,mvel9,mvel10,mvel11,mvel12,mvel13,mvel14,mvel15,jvel0,jvel1,jvel2,jvel3,jvel4,jvel5,jvel6,jvel7,jvel8,jvel9,jvel10,jvel11,jvel12,jvel13,jvel14,jvel15,mpos_d0,mpos_d1,mpos_d2,mpos_d3,mpos_d4,mpos_d5,mpos_d6,mpos_d7,mpos_d8,mpos_d9,mpos_d10,mpos_d11,mpos_d12,mpos_d13,mpos_d14,mpos_d15,jpos_d0,jpos_d1,jpos_d2,jpos_d3,jpos_d4,jpos_d5,jpos_d6,jpos_d7,jpos_d8,jpos_d9,jpos_d10,jpos_d11,jpos_d12,jpos_d13,jpos_d14,jpos_d15,grasp_d0,grasp_d1,encoffsets0,encoffsets1,encoffsets2,encoffsets3,encoffsets4,encoffsets5,encoffsets6,encoffsets7,encoffsets8,encoffsets9,encoffsets10,encoffsets11,encoffsets12,encoffsets13,encoffsets14,encoffsets15,jac_vel0,jac_vel1,jac_vel2,jac_vel3,jac_vel4,jac_vel5,jac_vel6,jac_vel7,jac_vel8,jac_vel9,jac_vel10,jac_vel11,jac_f0,jac_f1,jac_f2,jac_f3,jac_f4,jac_f5,jac_f6,jac_f7,jac_f8,jac_f9,jac_f10,jac_f11
0,0.0,0.6108641624450684,1.5707969665527344,0.3899990981817245,0.0,-3.141592675445488,1.123278025803832e-15,0.7852993607521057,0.7852993607521057,0.6108167171478271,1.570808172225952,0.3899600049853325,0.0,-3.141738408801964,-0.0004195828805677,0.7852993607521057,0.7852993607521057,,,,,,,,,,,,,,,,,,,,,,,,,,,,,,,,,,,,,,,,,,,,,,,,,,,,,,,,,,,,,,,,,,,,,,,,,,,,,,,,,,,,,,,,,,,,,,,,,,,,,,,,,,,,,,,,,,,,,,,,,,,,,,,,,,,,,,0.0,0.0,0.0,0.0,0.0,0.0,0.0,0.0,0.0,0.0,0.0,0.0,0.0,1.3877787807814455e-14,-1.1102230246251565e-13,0.0,,,,,,,,,,,,,,,,,,,,,,,,,,,,,,,,,,,,,,,,,,,,,,,,,,,,,,,,,,,,,,,,,,,,,,,,,,
1,1.115234136581421,0.6108040809631348,1.5708341598510742,0.3899488887190819,0.0,-3.141570204494408,2.209870672231773e-06,0.5334435701370239,0.5330225229263306,0.6077053546905518,1.571566462516785,0.3873878633975983,0.0,-3.1426153719405443,-0.0028337312396615,0.5290486812591553,0.5287042260169983,,,,,,,,,,,,,,,,,,,,,,,,,,,,,,,,,,,,,,,,,,,,,,,,,,,,,,,,,,,,,,,,,,,,,,,,,,,,,,,,,,,,,,,,,,,,,,,,,,,,,,,,,,,,,,,,,,,,,,,,,,,,,,,,,,,,,,2.2275198716670275e-06,-2.1128311345819384e-05,3.280805913163931e-06,0.0,0.0147423017770051,0.0014294132124632,-0.3379503190517425,-0.3954567015171051,-2.8424965421436355e-05,3.630900027928874e-05,-4.54779619758483e-05,0.0,0.0108662331476807,0.0440161935985088,0.341855525970459,0.3899903893470764,,,,,,,,,,,,,,,,,,,,,,,,,,,,,,,,,,,,,,,,,,,,,,,,,,,,,,,,,,,,,,,,,,,,,,,,,,
2,1.1369450092315674,0.6108040809631348,1.5708342790603638,0.3899488589167595,0.0,-3.141591364143303,-3.9656850958635914e-07,0.5244413018226624,0.5241551399230957,0.6077053546905518,1.571566462516785,0.3873878633975983,0.0,-3.1426153719405443,-0.0028337312396615,0.5290486812591553,0.5287042260169983,,,,,,,,,,,,,,,,,,,,,,,,,,,,,,,,,,,,,,,,,,,,,,,,,,,,,,,,,,,,,,,,,,,,,,,,,,,,,,,,,,,,,,,,,,,,,,,,,,,,,,,,,,,,,,,,,,,,,,,,,,,,,,,,,,,,,,-1.271061819352326e-06,5.76552702113986e-06,-3.1815495731279952e-06,0.0,0.0040034973062574,0.000339429709129,-0.1683140695095062,-0.1468627154827118,-2.8424965421436355e-05,3.630900027928874e-05,-4.54779619758483e-05,0.0,0.0108662331476807,0.0440161935985088,0.341855525970459,0.3899903893470764,,,,,,,,,,,,,,,,,,,,,,,,,,,,,,,,,,,,,,,,,,,,,,,,,,,,,,,,,,,,,,,,,,,,,,,,,,
3,1.158304214477539,0.6108040809631348,1.5708342790603638,0.3899488589167595,0.0,-3.141591364143303,-3.9656850958635914e-07,0.5244413018226624,0.5241551399230957,0.6077043414115906,1.5715667009353638,0.3873863062262535,0.0,-3.142364913223198,-0.0021864399313926,0.5224737524986267,0.5223440527915955,,,,,,,,,,,,,,,,,,,,,,,,,,,,,,,,,,,,,,,,,,,,,,,,,,,,,,,,,,,,,,,,,,,,,,,,,,,,,,,,,,,,,,,,,,,,,,,,,,,,,,,,,,,,,,,,,,,,,,,,,,,,,,,,,,,,,,-1.271061819352326e-06,5.76552702113986e-06,-3.1815495731279952e-06,0.0,0.0040034973062574,0.000339429709129,-0.1683140695095062,-0.1468627154827118,-2.6221785446978178e-05,6.582656624232186e-06,-3.9489183109253645e-05,0.0,0.0041766711510717,0.0110332062467932,0.1132603660225868,0.1119215413928031,,,,,,,,,,,,,,,,,,,,,,,,,,,,,,,,,,,,,,,,,,,,,,,,,,,,,,,,,,,,,,,,,,,,,,,,,,
4,1.1794636249542236,0.6108040809631348,1.5708342790603638,0.3899488440155983,0.0,-3.1415923178176195,-1.036261654263626e-08,0.5203556418418884,0.5202187895774841,0.6077043414115906,1.5715667009353638,0.3873863062262535,0.0,-3.142364913223198,-0.0021864399313926,0.5224737524986267,0.5223440527915955,,,,,,,,,,,,,,,,,,,,,,,,,,,,,,,,,,,,,,,,,,,,,,,,,,,,,,,,,,,,,,,,,,,,,,,,,,,,,,,,,,,,,,,,,,,,,,,,,,,,,,,,,,,,,,,,,,,,,,,,,,,,,,,,,,,,,,-4.779961955136969e-07,2.962816552098957e-07,-3.860678248202021e-07,0.0,7.250237104017287e-07,-1.5932015458020032e-06,-0.1024045422673225,-0.1017034798860549,-2.6221785446978178e-05,6.582656624232186e-06,-3.9489183109253645e-05,0.0,0.0041766711510717,0.0110332062467932,0.1132603660225868,0.1119215413928031,,,,,,,,,,,,,,,,,,,,,,,,,,,,,,,,,,,,,,,,,,,,,,,,,,,,,,,,,,,,,,,,,,,,,,,,,,
5,1.2021918296813965,0.6108040809631348,1.5708342790603638,0.3899488440155983,0.0,-3.1415923178176195,-1.036261654263626e-08,0.5203556418418884,0.5202187895774841,0.607703447341919,1.5715669393539429,0.3873850098252296,0.0,-3.1422389686087877,-0.0018275794573128,0.5187675952911377,0.5186607241630554,,,,,,,,,,,,,,,,,,,,,,,,,,,,,,,,,,,,,,,,,,,,,,,,,,,,,,,,,,,,,,,,,,,,,,,,,,,,,,,,,,,,,,,,,,,,,,,,,,,,,,,,,,,,,,,,,,,,,,,,,,,,,,,,,,,,,,-4.779961955136969e-07,2.962816552098957e-07,-3.860678248202021e-07,0.0,7.250237104017287e-07,-1.5932015458020032e-06,-0.1024045422673225,-0.1017034798860549,-2.1963245671940967e-05,5.378551122703357e-06,-3.302893310319632e-05,0.0,0.0032410372514277,0.0091932192444801,0.0944190099835395,0.0938367918133735,,,,,,,,,,,,,,,,,,,,,,,,,,,,,,,,,,,,,,,,,,,,,,,,,,,,,,,,,,,,,,,,,,,,,,,,,,
6,1.2238318920135498,0.61080402135849,1.5708342790603638,0.3899488365650177,0.0,-3.1415923178176195,-2.1025972074539826e-08,0.5169987082481384,0.5168861150741577,0.6077027320861816,1.5715670585632324,0.3873839294910431,0.0,-3.14213215708535,-0.0015260194195434,0.5156726837158203,0.5155848264694214,,,,,,,,,,,,,,,,,,,,,,,,,,,,,,,,,,,,,,,,,,,,,,,,,,,,,,,,,,,,,,,,,,,,,,,,,,,,,,,,,,,,,,,,,,,,,,,,,,,,,,,,,,,,,,,,,,,,,,,,,,,,,,,,,,,,,,-3.842192768388486e-07,2.2461365745130027e-07,-3.2280686923513713e-07,0.0,-2.4469766231050016e-06,2.611065212931863e-07,-0.0855285450816154,-0.0849048420786857,-1.83376541826874e-05,4.499964234128129e-06,-2.7575306376093067e-05,0.0,0.002721790689975,0.007683444302529,0.0788509026169776,0.0783683136105537,,,,,,,,,,,,,,,,,,,,,,,,,,,,,,,,,,,,,,,,,,,,,,,,,,,,,,,,,,,,,,,,,,,,,,,,,,
7,1.2450792789459229,0.61080402135849,1.5708342790603638,0.3899488216638565,0.0,-3.1415923774222643,-1.2707648266996331e-08,0.5140538215637207,0.5139625668525696,0.6077027320861816,1.5715670585632324,0.3873839294910431,0.0,-3.14213215708535,-0.0015260194195434,0.5156726837158203,0.5155848264694214,,,,,,,,,,,,,,,,,,,,,,,,,,,,,,,,,,,,,,,,,,,,,,,,,,,,,,,,,,,,,,,,,,,,,,,,,,,,,,,,,,,,,,,,,,,,,,,,,,,,,,,,,,,,,,,,,,,,,,,,,,,,,,,,,,,,,,-3.177117378072581e-07,1.8589419426007225e-07,-2.667163414571405e-07,0.0,-1.5513920743615015e-06,1.8173199123339145e-07,-0.0707117170095443,-0.0702044814825058,-1.83376541826874e-05,4.499964234128129e-06,-2.7575306376093067e-05,0.0,0.002721790689975,0.007683444302529,0.0788509026169776,0.0783683136105537,,,,,,,,,,,,,,,,,,,,,,,,,,,,,,,,,,,,,,,,,,,,,,,,,,,,,,,,,,,,,,,,,,,,,,,,,,
8,1.2667858600616455,0.61080402135849,1.5708342790603638,0.3899488216638565,0.0,-3.1415923774222643,-1.2707648266996331e-08,0.5140538215637207,0.5139625668525696,0.6077021360397339,1.5715672969818115,0.3873829758167267,0.0,-3.1420384585837633,-0.0012614896986633,0.512957751750946,0.5128863453865051,,,,,,,,,,,,,,,,,,,,,,,,,,,,,,,,,,,,,,,,,,,,,,,,,,,,,,,,,,,,,,,,,,,,,,,,,,,,,,,,,,,,,,,,,,,,,,,,,,,,,,,,,,,,,,,,,,,,,,,,,,,,,,,,,,,,,,-3.177117378072581e-07,1.8589419426007225e-07,-2.667163414571405e-07,0.0,-1.5513920743615015e-06,1.8173199123339145e-07,-0.0707117170095443,-0.0702044814825058,-1.516319844085956e-05,3.7237157357594697e-06,-2.2792661184212193e-05,0.0,0.0022485922090709,0.006351483054459,0.065191701054573,0.0647989213466644,,,,,,,,,,,,,,,,,,,,,,,,,,,,,,,,,,,,,,,,,,,,,,,,,,,,,,,,,,,,,,,,,,,,,,,,,,
9,1.2877061367034912,0.61080402135849,1.5708342790603638,0.3899488142132759,0.0,-3.141592437026909,-7.141130797805317e-09,0.5117360353469849,0.5116612911224365,0.6077021360397339,1.5715672969818115,0.3873829758167267,0.0,-3.1420384585837633,-0.0012614896986633,0.512957751750946,0.5128863453865051,,,,,,,,,,,,,,,,,,,,,,,,,,,,,,,,,,,,,,,,,,,,,,,,,,,,,,,,,,,,,,,,,,,,,,,,,,,,,,,,,,,,,,,,,,,,,,,,,,,,,,,,,,,,,,,,,,,,,,,,,,,,,,,,,,,,,,-2.6534081598583725e-07,1.5553369792087326e-07,-2.225852284709618e-07,0.0,-1.3208403970565996e-06,1.32390212570499e-07,-0.0590499229729175,-0.0586334951221942,-1.516319844085956e-05,3.7237157357594697e-06,-2.2792661184212193e-05,0.0,0.0022485922090709,0.006351483054459,0.065191701054573,0.0647989213466644,,,,,,,,,,,,,,,,,,,,,,,,,,,,,,,,,,,,,,,,,,,,,,,,,,,,,,,,,,,,,,,,,,,,,,,,,,
10,1.3101794719696045,0.61080402135849,1.5708342790603638,0.3899488142132759,0.0,-3.141592437026909,-7.141130797805317e-09,0.5117360353469849,0.5116612911224365,0.6077015995979309,1.571567416191101,0.387382193505764,0.0,-3.141961091754845,-0.0010428141104057,0.5107131004333496,0.5106551647186279,,,,,,,,,,,,,,,,,,,,,,,,,,,,,,,,,,,,,,,,,,,,,,,,,,,,,,,,,,,,,,,,,,,,,,,,,,,,,,,,,,,,,,,,,,,,,,,,,,,,,,,,,,,,,,,,,,,,,,,,,,,,,,,,,,,,,,-2.6534081598583725e-07,1.5553369792087326e-07,-2.225852284709618e-07,0.0,-1.3208403970565996e-06,1.32390212570499e-07,-0.0590499229729175,-0.0586334951221942,-1.2538297596620396e-05,3.08125186165853e-06,-1.883952063508332e-05,0.0,0.0018581845797598,0.0052505140192806,0.0538986660540103,0.053579207509756,,,,,,,,,,,,,,,,,,,,,,,,,,,,,,,,,,,,,,,,,,,,,,,,,,,,,,,,,,,,,,,,,,,,,,,,,,
11,1.3318579196929932,0.61080402135849,1.5708342790603638,0.3899488067626953,0.0,-3.141592437026909,-2.943679522360298e-09,0.5097029209136963,0.5096423029899597,0.6077011823654175,1.5715675354003906,0.3873816049098968,0.0,-3.1419032752494127,-0.0008794930763542,0.5090364217758179,0.5089883208274841,,,,,,,,,,,,,,,,,,,,,,,,,,,,,,,,,,,,,,,,,,,,,,,,,,,,,,,,,,,,,,,,,,,,,,,,,,,,,,,,,,,,,,,,,,,,,,,,,,,,,,,,,,,,,,,,,,,,,,,,,,,,,,,,,,,,,,-2.193991122112493e-07,1.2881828581612353e-07,-1.839017187421632e-07,0.0,-1.0987492942149402e-06,9.258461375338813e-08,-0.048820111900568,-0.0484820827841758,-1.0577334251138382e-05,2.6009679459093604e-06,-1.5887393601587974e-05,0.0,0.0015666863182559,0.004428225569427,0.0454631969332695,0.0451977178454399,,,,,,,,,,,,,,,,,,,,,,,,,,,,,,,,,,,,,,,,,,,,,,,,,,,,,,,,,,,,,,,,,,,,,,,,,,
12,1.353276014328003,0.61080402135849,1.5708342790603638,0.3899487993121147,0.0,-3.141592496631554,-1.6865703278412522e-10,0.5081027150154114,0.5080530643463135,0.6077011823654175,1.5715675354003906,0.3873816049098968,0.0,-3.1419032752494127,-0.0008794930763542,0.5090364217758179,0.5089883208274841,,,,,,,,,,,,,,,,,,,,,,,,,,,,,,,,,,,,,,,,,,,,,,,,,,,,,,,,,,,,,,,,,,,,,,,,,,,,,,,,,,,,,,,,,,,,,,,,,,,,,,,,,,,,,,,,,,,,,,,,,,,,,,,,,,,,,,-1.8323592598790128e-07,1.07745258048908e-07,-1.534775577738401e-07,0.0,-9.198756174555456e-07,6.449066347613552e-08,-0.0407686755061149,-0.0404913499951362,-1.0577334251138382e-05,2.6009679459093604e-06,-1.5887393601587974e-05,0.0,0.0015666863182559,0.004428225569427,0.0454631969332695,0.0451977178454399,,,,,,,,,,,,,,,,,,,,,,,,,,,,,,,,,,,,,,,,,,,,,,,,,,,,,,,,,,,,,,,,,,,,,,,,,,
13,1.375058650970459,0.61080402135849,1.5708342790603638,0.3899487993121147,0.0,-3.141592496631554,-1.6865703278412522e-10,0.5081027150154114,0.5080530643463135,0.6077008247375488,1.5715675354003906,0.3873810610175133,0.0,-3.141849333045891,-0.0007270338246598,0.5074710845947266,0.5074320435523987,,,,,,,,,,,,,,,,,,,,,,,,,,,,,,,,,,,,,,,,,,,,,,,,,,,,,,,,,,,,,,,,,,,,,,,,,,,,,,,,,,,,,,,,,,,,,,,,,,,,,,,,,,,,,,,,,,,,,,,,,,,,,,,,,,,,,,-1.8323592598790128e-07,1.07745258048908e-07,-1.534775577738401e-07,0.0,-9.198756174555456e-07,6.449066347613552e-08,-0.0407686755061149,-0.0404913499951362,-8.746298590267543e-06,2.1522027964238077e-06,-1.3131902051100042e-05,0.0,0.001294664107263,0.0036606164649128,0.0375876948237419,0.0373718813061714,,,,,,,,,,,,,,,,,,,,,,,,,,,,,,,,,,,,,,,,,,,,,,,,,,,,,,,,,,,,,,,,,,,,,,,,,,
14,1.3965582847595217,0.61080402135849,1.5708342790603638,0.3899487918615341,0.0,-3.1415925562361986,1.8207709784334723e-09,0.5066989660263062,0.5066588521003723,0.6077008247375488,1.5715675354003906,0.3873810610175133,0.0,-3.141849333045891,-0.0007270338246598,0.5074710845947266,0.5074320435523987,,,,,,,,,,,,,,,,,,,,,,,,,,,,,,,,,,,,,,,,,,,,,,,,,,,,,,,,,,,,,,,,,,,,,,,,,,,,,,,,,,,,,,,,,,,,,,,,,,,,,,,,,,,,,,,,,,,,,,,,,,,,,,,,,,,,,,-1.5151002230595625e-07,8.92229650162335e-08,-1.268075919824696e-07,0.0,-7.603230756103585e-07,4.2509196163109664e-08,-0.0337059013545513,-0.0334809459745883,-8.746298590267543e-06,2.1522027964238077e-06,-1.3131902051100042e-05,0.0,0.001294664107263,0.0036606164649128,0.0375876948237419,0.0373718813061714,,,,,,,,,,,,,,,,,,,,,,,,,,,,,,,,,,,,,,,,,,,,,,,,,,,,,,,,,,,,,,,,,,,,,,,,,,
15,1.419266939163208,0.61080402135849,1.5708342790603638,0.3899487918615341,0.0,-3.1415925562361986,1.8207709784334723e-09,0.5066989660263062,0.5066588521003723,0.607700526714325,1.5715676546096802,0.3873806065320969,0.0,-3.141804808376244,-0.0006010027136653,0.5061768889427185,0.506145179271698,,,,,,,,,,,,,,,,,,,,,,,,,,,,,,,,,,,,,,,,,,,,,,,,,,,,,,,,,,,,,,,,,,,,,,,,,,,,,,,,,,,,,,,,,,,,,,,,,,,,,,,,,,,,,,,,,,,,,,,,,,,,,,,,,,,,,,-1.5151002230595625e-07,8.92229650162335e-08,-1.268075919824696e-07,0.0,-7.603230756103585e-07,4.2509196163109664e-08,-0.0337059013545513,-0.0334809459745883,-7.232234111143043e-06,1.7808603161029168e-06,-1.0854320862563329e-05,0.0,0.0010698732221499,0.0030260626226663,0.0310764499008655,0.0309010650962591,,,,,,,,,,,,,,,,,,,,,,,,,,,,,,,,,,,,,,,,,,,,,,,,,,,,,,,,,,,,,,,,,,,,,,,,,,
16,1.440598487854004,0.6108039617538452,1.5708342790603638,0.3899487918615341,0.0,-3.1415925562361986,3.046339847045942e-09,0.5055941939353943,0.505561351776123,0.6077002882957458,1.5715676546096802,0.38738027125597,0.0,-3.1417714893798143,-0.0005068750469945,0.5052101612091064,0.5051838755607605,,,,,,,,,,,,,,,,,,,,,,,,,,,,,,,,,,,,,,,,,,,,,,,,,,,,,,,,,,,,,,,,,,,,,,,,,,,,,,,,,,,,,,,,,,,,,,,,,,,,,,,,,,,,,,,,,,,,,,,,,,,,,,,,,,,,,,-1.2653694625441858e-07,7.46175317090092e-08,-1.0583088538851373e-07,0.0,-6.33314641618199e-07,2.7199684282663842e-08,-0.028147105127573,-0.0279626734554767,-6.101131930336123e-06,1.5032584315122222e-06,-9.15346754482016e-06,0.0,0.0009020403958857,0.0025521360803395,0.0262127965688705,0.0260671563446521,,,,,,,,,,,,,,,,,,,,,,,,,,,,,,,,,,,,,,,,,,,,,,,,,,,,,,,,,,,,,,,,,,,,,,,,,,
17,1.4628756046295166,0.6108039617538452,1.5708342790603638,0.3899487844109535,0.0,-3.1415925562361986,3.801314374385356e-09,0.504671573638916,0.5046446919441223,0.6077002882957458,1.5715677738189695,0.3873802489042282,0.0,-3.141769701240471,-0.0005018216907046,0.5051582455635071,0.505132257938385,,,,,,,,,,,,,,,,,,,,,,,,,,,,,,,,,,,,,,,,,,,,,,,,,,,,,,,,,,,,,,,,,,,,,,,,,,,,,,,,,,,,,,,,,,,,,,,,,,,,,,,,,,,,,,,,,,,,,,,,,,,,,,,,,,,,,,-1.0568012953626749e-07,6.24001970095378e-08,-8.832491715793368e-08,0.0,-5.265335971671448e-07,1.5954741527934857e-08,-0.0235050674527883,-0.0233539137989282,-6.0403986026358325e-06,1.4883478343108436e-06,-9.062159733730368e-06,0.0,0.0008930315379984,0.002526692347601,0.0259516667574644,0.0258076097816228,,,,,,,,,,,,,,,,,,,,,,,,,,,,,,,,,,,,,,,,,,,,,,,,,,,,,,,,,,,,,,,,,,,,,,,,,,
18,1.4838886260986328,0.6108039617538452,1.5708342790603638,0.3899487844109535,0.0,-3.1415925562361986,3.801314374385356e-09,0.504671573638916,0.5046446919441223,0.6077001094818115,1.5715677738189695,0.3873799434304237,0.0,-3.1417390048484117,-0.0004148304578848,0.5042647123336792,0.5042436718940735,,,,,,,,,,,,,,,,,,,,,,,,,,,,,,,,,,,,,,,,,,,,,,,,,,,,,,,,,,,,,,,,,,,,,,,,,,,,,,,,,,,,,,,,,,,,,,,,,,,,,,,,,,,,,,,,,,,,,,,,,,,,,,,,,,,,,,-1.0568012953626749e-07,6.24001970095378e-08,-8.832491715793368e-08,0.0,-5.265335971671448e-07,1.5954741527934857e-08,-0.0235050674527883,-0.0233539137989282,-4.994752089260146e-06,1.2315404092078095e-06,-7.490431471524062e-06,0.0,0.0007379758753813,0.0020886943675577,0.0214561093598604,0.0213391073048114,,,,,,,,,,,,,,,,,,,,,,,,,,,,,,,,,,,,,,,,,,,,,,,,,,,,,,,,,,,,,,,,,,,,,,,,,,
19,1.5052049160003662,0.6108039617538452,1.5708342790603638,0.3899487844109535,0.0,-3.1415926158408434,4.212709292517047e-09,0.5039011240005493,0.503879189491272,0.6077001094818115,1.5715677738189695,0.3873799434304237,0.0,-3.1417390048484117,-0.0004148304578848,0.5042647123336792,0.5042436718940735,,,,,,,,,,,,,,,,,,,,,,,,,,,,,,,,,,,,,,,,,,,,,,,,,,,,,,,,,,,,,,,,,,,,,,,,,,,,,,,,,,,,,,,,,,,,,,,,,,,,,,,,,,,,,,,,,,,,,,,,,,,,,,,,,,,,,,-8.826134489936521e-08,5.218103638071626e-08,-7.371497190433729e-08,0.0,-4.3706316432690073e-07,7.798664825031665e-09,-0.0196285955607891,-0.0195047613233327,-4.994752089260146e-06,1.2315404092078095e-06,-7.490431471524062e-06,0.0,0.0007379758753813,0.0020886943675577,0.0214561093598604,0.0213391073048114,,,,,,,,,,,,,,,,,,,,,,,,,,,,,,,,,,,,,,,,,,,,,,,,,,,,,,,,,,,,,,,,,,,,,,,,,,
20,1.527791976928711,0.6108039617538452,1.5708342790603638,0.3899487844109535,0.0,-3.1415926158408434,4.212709292517047e-09,0.5039011240005493,0.503879189491272,0.6076999306678772,1.5715677738189695,0.3873796826601028,0.0,-3.1417135536650926,-0.0003429190837778,0.5035259127616882,0.5035088658332825,,,,,,,,,,,,,,,,,,,,,,,,,,,,,,,,,,,,,,,,,,,,,,,,,,,,,,,,,,,,,,,,,,,,,,,,,,,,,,,,,,,,,,,,,,,,,,,,,,,,,,,,,,,,,,,,,,,,,,,,,,,,,,,,,,,,,,-8.826134489936521e-08,5.218103638071626e-08,-7.371497190433729e-08,0.0,-4.3706316432690073e-07,7.798664825031665e-09,-0.0196285955607891,-0.0195047613233327,-4.130116849410115e-06,1.0190416332989116e-06,-6.191302418301348e-06,0.0,0.0006098423036746,0.0017266209470108,0.0177393108606338,0.0176443122327327,,,,,,,,,,,,,,,,,,,,,,,,,,,,,,,,,,,,,,,,,,,,,,,,,,,,,,,,,,,,,,,,,,,,,,,,,,
21,1.549579620361328,0.6108039617538452,1.5708342790603638,0.3899487844109535,0.0,-3.1415926158408434,4.372927797646753e-09,0.5032905340194702,0.5032724142074585,0.6076999306678772,1.5715677738189695,0.3873796826601028,0.0,-3.1417135536650926,-0.0003429190837778,0.5035259127616882,0.5035088658332825,,,,,,,,,,,,,,,,,,,,,,,,,,,,,,,,,,,,,,,,,,,,,,,,,,,,,,,,,,,,,,,,,,,,,,,,,,,,,,,,,,,,,,,,,,,,,,,,,,,,,,,,,,,,,,,,,,,,,,,,,,,,,,,,,,,,,,-7.445494532021257e-08,4.406997078376662e-08,-6.214310133145774e-08,0.0,-3.661136531718512e-07,2.254474162910469e-09,-0.0165563821792602,-0.0164538342505693,-4.130116849410115e-06,1.0190416332989116e-06,-6.191302418301348e-06,0.0,0.0006098423036746,0.0017266209470108,0.0177393108606338,0.0176443122327327,,,,,,,,,,,,,,,,,,,,,,,,,,,,,,,,,,,,,,,,,,,,,,,,,,,,,,,,,,,,,,,,,,,,,,,,,,
22,1.571377515792847,0.6108039617538452,1.5708342790603638,0.3899487769603729,0.0,-3.1415926158408434,4.370849460144654e-09,0.5027478933334351,0.502733051776886,0.6076997518539429,1.5715678930282593,0.3873794665932655,0.0,-3.1416925728301317,-0.0002834734914358,0.5029151439666748,0.5029013156890869,,,,,,,,,,,,,,,,,,,,,,,,,,,,,,,,,,,,,,,,,,,,,,,,,,,,,,,,,,,,,,,,,,,,,,,,,,,,,,,,,,,,,,,,,,,,,,,,,,,,,,,,,,,,,,,,,,,,,,,,,,,,,,,,,,,,,,-6.218247960987355e-08,3.68499684100243e-08,-5.1864486039221453e-08,0.0,-3.031585436019668e-07,-1.883137423774883e-09,-0.0138258915394544,-0.013741941191256,-3.4151578347518807e-06,8.432074878328422e-07,-5.117492491990561e-06,0.0,0.000503956398461,0.0014273113338276,0.0146663645282387,0.0145892575383186,,,,,,,,,,,,,,,,,,,,,,,,,,,,,,,,,,,,,,,,,,,,,,,,,,,,,,,,,,,,,,,,,,,,,,,,,,
23,1.5934481620788574,0.6108039617538452,1.5708342790603638,0.3899487769603729,0.0,-3.1415926158408434,4.370849460144654e-09,0.5027478933334351,0.502733051776886,0.6076996922492981,1.5715678930282593,0.3873793026804924,0.0,-3.141676062343529,-0.0002366926055401,0.5024344325065613,0.502423107624054,,,,,,,,,,,,,,,,,,,,,,,,,,,,,,,,,,,,,,,,,,,,,,,,,,,,,,,,,,,,,,,,,,,,,,,,,,,,,,,,,,,,,,,,,,,,,,,,,,,,,,,,,,,,,,,,,,,,,,,,,,,,,,,,,,,,,,-6.218247960987355e-08,3.68499684100243e-08,-5.1864486039221453e-08,0.0,-3.031585436019668e-07,-1.883137423774883e-09,-0.0138258915394544,-0.013741941191256,-2.8523581931949593e-06,7.047018470984767e-07,-4.272542355465703e-06,0.0,0.0004206564626656,0.0011917678639292,0.0122477505356073,0.0121844941750168,,,,,,,,,,,,,,,,,,,,,,,,,,,,,,,,,,,,,,,,,,,,,,,,,,,,,,,,,,,,,,,,,,,,,,,,,,
24,1.6152915954589844,0.6108039617538452,1.5708342790603638,0.3899487769603729,0.0,-3.1415926158408434,4.236943684787775e-09,0.502271831035614,0.5022598505020142,0.6076996922492981,1.5715678930282593,0.3873793026804924,0.0,-3.141676062343529,-0.0002366926055401,0.5024344325065613,0.502423107624054,,,,,,,,,,,,,,,,,,,,,,,,,,,,,,,,,,,,,,,,,,,,,,,,,,,,,,,,,,,,,,,,,,,,,,,,,,,,,,,,,,,,,,,,,,,,,,,,,,,,,,,,,,,,,,,,,,,,,,,,,,,,,,,,,,,,,,-5.1416147783811545e-08,3.0507930404155565e-08,-4.2853503856576936e-08,0.0,-2.4813905952214554e-07,-4.798967889740879e-09,-0.0114306891337037,-0.0113627528771758,-2.8523581931949593e-06,7.047018470984767e-07,-4.272542355465703e-06,0.0,0.0004206564626656,0.0011917678639292,0.0122477505356073,0.0121844941750168,,,,,,,,,,,,,,,,,,,,,,,,,,,,,,,,,,,,,,,,,,,,,,,,,,,,,,,,,,,,,,,,,,,,,,,,,,
25,1.6367290019989014,0.6108039617538452,1.5708342790603638,0.3899487769603729,0.0,-3.1415926158408434,4.236943684787775e-09,0.502271831035614,0.5022598505020142,0.6076995730400085,1.5715678930282593,0.3873791611194611,0.0,-3.141662293670586,-0.0001976317726075,0.5020329356193542,0.5020236968994141,,,,,,,,,,,,,,,,,,,,,,,,,,,,,,,,,,,,,,,,,,,,,,,,,,,,,,,,,,,,,,,,,,,,,,,,,,,,,,,,,,,,,,,,,,,,,,,,,,,,,,,,,,,,,,,,,,,,,,,,,,,,,,,,,,,,,,-5.1416147783811545e-08,3.0507930404155565e-08,-4.2853503856576936e-08,0.0,-2.4813905952214554e-07,-4.798967889740879e-09,-0.0114306891337037,-0.0113627528771758,-2.382305183346034e-06,5.889465342079347e-07,-3.567102112356224e-06,0.0,0.0003511252871248,0.0009950945386663,0.010227988474071,0.0101761110126972,,,,,,,,,,,,,,,,,,,,,,,,,,,,,,,,,,,,,,,,,,,,,,,,,,,,,,,,,,,,,,,,,,,,,,,,,,
26,1.6578564643859863,0.6108039617538452,1.5708342790603638,0.3899487769603729,0.0,-3.1415926158408434,4.015288102010572e-09,0.5018782615661621,0.5018686056137085,0.6076995730400085,1.5715678930282593,0.3873791611194611,0.0,-3.141662293670586,-0.0001976317726075,0.5020329356193542,0.5020236968994141,,,,,,,,,,,,,,,,,,,,,,,,,,,,,,,,,,,,,,,,,,,,,,,,,,,,,,,,,,,,,,,,,,,,,,,,,,,,,,,,,,,,,,,,,,,,,,,,,,,,,,,,,,,,,,,,,,,,,,,,,,,,,,,,,,,,,,-4.2513658371490244e-08,2.525613140846872e-08,-3.5408163512329345e-08,0.0,-2.029066905606669e-07,-6.617198788916312e-09,-0.0094504319131374,-0.0093954810872673,-2.382305183346034e-06,5.889465342079347e-07,-3.567102112356224e-06,0.0,0.0003511252871248,0.0009950945386663,0.010227988474071,0.0101761110126972,,,,,,,,,,,,,,,,,,,,,,,,,,,,,,,,,,,,,,,,,,,,,,,,,,,,,,,,,,,,,,,,,,,,,,,,,,
27,1.679488182067871,0.6108039617538452,1.5708342790603638,0.3899487769603729,0.0,-3.1415926158408434,3.771756240666946e-09,0.5015842914581299,0.50157630443573,0.6076995134353638,1.5715678930282593,0.3873790493607521,0.0,-3.141651386020592,-0.000166678786627,0.5017147660255432,0.501707136631012,,,,,,,,,,,,,,,,,,,,,,,,,,,,,,,,,,,,,,,,,,,,,,,,,,,,,,,,,,,,,,,,,,,,,,,,,,,,,,,,,,,,,,,,,,,,,,,,,,,,,,,,,,,,,,,,,,,,,,,,,,,,,,,,,,,,,,-3.586358943152845e-08,2.132849452607388e-08,-2.9850109939388865e-08,0.0,-1.6934886559738518e-07,-7.562258375060082e-09,-0.0079712746664881,-0.0079258428886532,-2.0097202195756836e-06,4.971358862349007e-07,-3.008144403793267e-06,0.0,0.0002960436977446,0.00083924428327,0.0086272461339831,0.0085842432454228,,,,,,,,,,,,,,,,,,,,,,,,,,,,,,,,,,,,,,,,,,,,,,,,,,,,,,,,,,,,,,,,,,,,,,,,,,
28,1.7016093730926514,0.6108039617538452,1.5708342790603638,0.3899487769603729,0.0,-3.1415926158408434,3.756552402478519e-09,0.5015684962272644,0.501560628414154,0.607699453830719,1.5715678930282593,0.3873789525032043,0.0,-3.1416416704634935,-0.000139172116178,0.5014320015907288,0.5014257431030273,,,,,,,,,,,,,,,,,,,,,,,,,,,,,,,,,,,,,,,,,,,,,,,,,,,,,,,,,,,,,,,,,,,,,,,,,,,,,,,,,,,,,,,,,,,,,,,,,,,,,,,,,,,,,,,,,,,,,,,,,,,,,,,,,,,,,,-3.550643157268496e-08,2.1117552151395106e-08,-2.9551749491929513e-08,0.0,-1.6755402043600045e-07,-7.601919982391792e-09,-0.0078918589279055,-0.0078469328582286,-1.6785290881671244e-06,4.154747728080111e-07,-2.511469347155071e-06,0.0,0.00024711000151,0.0007007461972534,0.0072045372799038,0.0071692932397127,,,,,,,,,,,,,,,,,,,,,,,,,,,,,,,,,,,,,,,,,,,,,,,,,,,,,,,,,,,,,,,,,,,,,,,,,,
29,1.7230138778686523,0.6108039617538452,1.5708342790603638,0.3899487769603729,0.0,-3.141592675445488,3.4565379447570872e-09,0.5012967586517334,0.5012904405593872,0.607699453830719,1.5715678930282593,0.3873789525032043,0.0,-3.1416416704634935,-0.000139172116178,0.5014320015907288,0.5014257431030273,,,,,,,,,,,,,,,,,,,,,,,,,,,,,,,,,,,,,,,,,,,,,,,,,,,,,,,,,,,,,,,,,,,,,,,,,,,,,,,,,,,,,,,,,,,,,,,,,,,,,,,,,,,,,,,,,,,,,,,,,,,,,,,,,,,,,,-2.9358904640730543e-08,1.7481905700833522e-08,-2.4417607491500348e-08,0.0,-1.3679635912922097e-07,-8.082907676509876e-09,-0.0065246699377894,-0.0064883669838309,-1.6785290881671244e-06,4.154747728080111e-07,-2.511469347155071e-06,0.0,0.00024711000151,0.0007007461972534,0.0072045372799038,0.0071692932397127,,,,,,,,,,,,,,,,,,,,,,,,,,,,,,,,,,,,,,,,,,,,,,,,,,,,,,,,,,,,,,,,,,,,,,,,,,
30,1.7446870803833008,0.6108039617538452,1.5708342790603638,0.3899487769603729,0.0,-3.141592675445488,3.4565379447570872e-09,0.5012967586517334,0.5012904405593872,0.6076993942260742,1.5715678930282593,0.3873788705468178,0.0,-3.141633564231804,-0.0001162047992693,0.5011958479881287,0.501190721988678,,,,,,,,,,,,,,,,,,,,,,,,,,,,,,,,,,,,,,,,,,,,,,,,,,,,,,,,,,,,,,,,,,,,,,,,,,,,,,,,,,,,,,,,,,,,,,,,,,,,,,,,,,,,,,,,,,,,,,,,,,,,,,,,,,,,,,-2.9358904640730543e-08,1.7481905700833522e-08,-2.4417607491500348e-08,0.0,-1.3679635912922097e-07,-8.082907676509876e-09,-0.0065246699377894,-0.0064883669838309,-1.401916961185634e-06,3.472273704119289e-07,-2.096800471917959e-06,0.0,0.0002062646090053,0.0005851038731634,0.0060164453461766,0.0059875706210732,,,,,,,,,,,,,,,,,,,,,,,,,,,,,,,,,,,,,,,,,,,,,,,,,,,,,,,,,,,,,,,,,,,,,,,,,,
31,1.7661757469177246,0.6108039617538452,1.5708342790603638,0.3899487769603729,0.0,-3.141592675445488,3.146814142596099e-09,0.501072108745575,0.501067042350769,0.6076993942260742,1.5715678930282593,0.3873788705468178,0.0,-3.141633564231804,-0.0001162047992693,0.5011958479881287,0.501190721988678,,,,,,,,,,,,,,,,,,,,,,,,,,,,,,,,,,,,,,,,,,,,,,,,,,,,,,,,,,,,,,,,,,,,,,,,,,,,,,,,,,,,,,,,,,,,,,,,,,,,,,,,,,,,,,,,,,,,,,,,,,,,,,,,,,,,,,-2.4275470522638898e-08,1.4471868148291378e-08,-2.017550038146965e-08,0.0,-1.116088910180224e-07,-8.159223519044191e-09,-0.0053943335078656,-0.0053650136105716,-1.401916961185634e-06,3.472273704119289e-07,-2.096800471917959e-06,0.0,0.0002062646090053,0.0005851038731634,0.0060164453461766,0.0059875706210732,,,,,,,,,,,,,,,,,,,,,,,,,,,,,,,,,,,,,,,,,,,,,,,,,,,,,,,,,,,,,,,,,,,,,,,,,,
32,1.7877402305603027,0.6108039617538452,1.5708342790603638,0.3899487769603729,0.0,-3.141592675445488,3.146814142596099e-09,0.501072108745575,0.501067042350769,0.6076993346214294,1.5715680122375488,0.3873788034915924,0.0,-3.1416268289069444,-9.70277251326479e-05,0.5009986162185669,0.5009944438934326,,,,,,,,,,,,,,,,,,,,,,,,,,,,,,,,,,,,,,,,,,,,,,,,,,,,,,,,,,,,,,,,,,,,,,,,,,,,,,,,,,,,,,,,,,,,,,,,,,,,,,,,,,,,,,,,,,,,,,,,,,,,,,,,,,,,,,-2.4275470522638898e-08,1.4471868148291378e-08,-2.017550038146965e-08,0.0,-1.116088910180224e-07,-8.159223519044191e-09,-0.0053943335078656,-0.0053650136105716,-1.1708888223438407e-06,2.901900870710961e-07,-1.7505976757092867e-06,0.0,0.0001721706357784,0.0004885455709882,0.0050242799334228,0.0050006327219307,,,,,,,,,,,,,,,,,,,,,,,,,,,,,,,,,,,,,,,,,,,,,,,,,,,,,,,,,,,,,,,,,,,,,,,,,,
33,1.808852195739746,0.6108039617538452,1.5708342790603638,0.3899487695097923,0.0,-3.141592675445488,2.840055746133885e-09,0.5008863806724548,0.5008822679519653,0.6076992750167847,1.5715680122375488,0.3873787438869476,0.0,-3.141620868442467,-8.020768291316926e-05,0.5008256435394287,0.5008222460746765,,,,,,,,,,,,,,,,,,,,,,,,,,,,,,,,,,,,,,,,,,,,,,,,,,,,,,,,,,,,,,,,,,,,,,,,,,,,,,,,,,,,,,,,,,,,,,,,,,,,,,,,,,,,,,,,,,,,,,,,,,,,,,,,,,,,,,-2.0072443263075e-08,1.1979861547217752e-08,-1.6670325564405175e-08,0.0,-9.10031516809795e-08,-7.959696013415396e-09,-0.0044598164968192,-0.0044361501932144,-9.681981509856996e-07,2.401159235887463e-07,-1.4469770803771098e-06,0.0,0.0001422768254997,0.0004038550541736,0.0041539343073964,0.00413478910923,,,,,,,,,,,,,,,,,,,,,,,,,,,,,,,,,,,,,,,,,,,,,,,,,,,,,,,,,,,,,,,,,,,,,,,,,,
34,1.8299849033355713,0.6108039617538452,1.5708342790603638,0.3899487695097923,0.0,-3.141592675445488,2.575104796065375e-09,0.5007476210594177,0.5007442831993103,0.6076992750167847,1.5715680122375488,0.3873787438869476,0.0,-3.141620868442467,-8.020768291316926e-05,0.5008256435394287,0.5008222460746765,,,,,,,,,,,,,,,,,,,,,,,,,,,,,,,,,,,,,,,,,,,,,,,,,,,,,,,,,,,,,,,,,,,,,,,,,,,,,,,,,,,,,,,,,,,,,,,,,,,,,,,,,,,,,,,,,,,,,,,,,,,,,,,,,,,,,,-1.6932455437768112e-08,1.0116574244989351e-08,-1.4053632924060366e-08,0.0,-7.577688165838482e-08,-7.626170805963284e-09,-0.0037617776542901,-0.0037422489840537,-9.681981509856996e-07,2.401159235887463e-07,-1.4469770803771098e-06,0.0,0.0001422768254997,0.0004038550541736,0.0041539343073964,0.00413478910923,,,,,,,,,,,,,,,,,,,,,,,,,,,,,,,,,,,,,,,,,,,,,,,,,,,,,,,,,,,,,,,,,,,,,,,,,,
35,1.8521921634674072,0.6108039617538452,1.5708342790603638,0.3899487695097923,0.0,-3.141592675445488,2.559898293341689e-09,0.5007401704788208,0.5007368922233582,0.6076992750167847,1.5715680122375488,0.3873786917328835,0.0,-3.1416159808615953,-6.630344432778656e-05,0.5006826519966125,0.5006799101829529,,,,,,,,,,,,,,,,,,,,,,,,,,,,,,,,,,,,,,,,,,,,,,,,,,,,,,,,,,,,,,,,,,,,,,,,,,,,,,,,,,,,,,,,,,,,,,,,,,,,,,,,,,,,,,,,,,,,,,,,,,,,,,,,,,,,,,-1.6764035493110896e-08,1.0016099061260776e-08,-1.39132039223e-08,0.0,-7.496470288970158e-08,-7.603195406602481e-09,-0.0037243000697344,-0.0037049911916255,-8.00594989414094e-07,1.986824003097354e-07,-1.1960158872170723e-06,0.0,0.0001175734141725,0.0003338457609061,0.0034343565348535,0.0034188637509942,,,,,,,,,,,,,,,,,,,,,,,,,,,,,,,,,,,,,,,,,,,,,,,,,,,,,,,,,,,,,,,,,,,,,,,,,,
36,1.8736891746520996,0.6108039617538452,1.5708342790603638,0.3899487695097923,0.0,-3.141592675445488,2.2946593514205915e-09,0.5006181001663208,0.5006154179573059,0.6076992750167847,1.5715680122375488,0.3873786917328835,0.0,-3.1416159808615953,-6.630344432778656e-05,0.5006826519966125,0.5006799101829529,,,,,,,,,,,,,,,,,,,,,,,,,,,,,,,,,,,,,,,,,,,,,,,,,,,,,,,,,,,,,,,,,,,,,,,,,,,,,,,,,,,,,,,,,,,,,,,,,,,,,,,,,,,,,,,,,,,,,,,,,,,,,,,,,,,,,,-1.4000911541245388e-08,8.374523297050018e-09,-1.1612162786889256e-08,0.0,-6.17230710986405e-08,-7.144891789323537e-09,-0.0031100856140255,-0.0030943404417485,-8.00594989414094e-07,1.986824003097354e-07,-1.1960158872170723e-06,0.0,0.0001175734141725,0.0003338457609061,0.0034343565348535,0.0034188637509942,,,,,,,,,,,,,,,,,,,,,,,,,,,,,,,,,,,,,,,,,,,,,,,,,,,,,,,,,,,,,,,,,,,,,,,,,,
37,1.8948051929473877,0.6108039617538452,1.5708342790603638,0.3899487695097923,0.0,-3.141592675445488,2.2946593514205915e-09,0.5006181001663208,0.5006154179573059,0.6076992154121399,1.5715680122375488,0.3873786544799805,0.0,-3.141612106559685,-5.536148091778159e-05,0.5005700588226318,0.5005678534507751,,,,,,,,,,,,,,,,,,,,,,,,,,,,,,,,,,,,,,,,,,,,,,,,,,,,,,,,,,,,,,,,,,,,,,,,,,,,,,,,,,,,,,,,,,,,,,,,,,,,,,,,,,,,,,,,,,,,,,,,,,,,,,,,,,,,,,-1.4000911541245388e-08,8.374523297050018e-09,-1.1612162786889256e-08,0.0,-6.17230710986405e-08,-7.144891789323537e-09,-0.0031100856140255,-0.0030943404417485,-6.686615847684152e-07,1.6604539609943458e-07,-9.985417364077875e-07,0.0,9.813936776481567e-05,0.0002787518023978,0.0028680006507784,0.0028553286101669,,,,,,,,,,,,,,,,,,,,,,,,,,,,,,,,,,,,,,,,,,,,,,,,,,,,,,,,,,,,,,,,,,,,,,,,,,
38,1.9157350063323977,0.6108039617538452,1.5708342790603638,0.3899487695097923,0.0,-3.141592675445488,2.047119807002673e-09,0.5005161762237549,0.5005139708518982,0.6076992154121399,1.5715680122375488,0.3873786544799805,0.0,-3.141612106559685,-5.536148091778159e-05,0.5005700588226318,0.5005678534507751,,,,,,,,,,,,,,,,,,,,,,,,,,,,,,,,,,,,,,,,,,,,,,,,,,,,,,,,,,,,,,,,,,,,,,,,,,,,,,,,,,,,,,,,,,,,,,,,,,,,,,,,,,,,,,,,,,,,,,,,,,,,,,,,,,,,,,-1.1693201962259536e-08,7.001732527101012e-09,-9.691608404693852e-09,0.0,-5.0798643513871866e-08,-6.629284232673171e-09,-0.0025971678551286,-0.0025843360926955,-6.686615847684152e-07,1.6604539609943458e-07,-9.985417364077875e-07,0.0,9.813936776481567e-05,0.0002787518023978,0.0028680006507784,0.0028553286101669,,,,,,,,,,,,,,,,,,,,,,,,,,,,,,,,,,,,,,,,,,,,,,,,,,,,,,,,,,,,,,,,,,,,,,,,,,
39,1.9375038146972656,0.6108039617538452,1.5708342790603638,0.3899487695097923,0.0,-3.141592675445488,1.830888107789974e-09,0.5004354119300842,0.5004335641860962,0.6076992154121399,1.5715680122375488,0.3873786172270775,0.0,-3.1416087686995775,-4.576439459924586e-05,0.500471293926239,0.5004695057868958,,,,,,,,,,,,,,,,,,,,,,,,,,,,,,,,,,,,,,,,,,,,,,,,,,,,,,,,,,,,,,,,,,,,,,,,,,,,,,,,,,,,,,,,,,,,,,,,,,,,,,,,,,,,,,,,,,,,,,,,,,,,,,,,,,,,,,-9.863998506887128e-09,5.912492717641271e-09,-8.170346177394094e-09,0.0,-4.2246984577332114e-08,-6.118526130194368e-09,-0.0021906658075749,-0.0021800948306918,-5.529103646040312e-07,1.37392987653584e-07,-8.253564374172129e-07,0.0,8.10994824860245e-05,0.0002304294030182,0.0023711826652288,0.0023609376512467,,,,,,,,,,,,,,,,,,,,,,,,,,,,,,,,,,,,,,,,,,,,,,,,,,,,,,,,,,,,,,,,,,,,,,,,,,
40,1.9592769145965576,0.6108039617538452,1.5708342790603638,0.3899487695097923,0.0,-3.141592675445488,1.8187122918789102e-09,0.5004310607910156,0.5004292726516724,0.6076992154121399,1.5715680122375488,0.3873785874247551,0.0,-3.141605967281273,-3.7830988731002435e-05,0.5003896355628967,0.5003882050514221,,,,,,,,,,,,,,,,,,,,,,,,,,,,,,,,,,,,,,,,,,,,,,,,,,,,,,,,,,,,,,,,,,,,,,,,,,,,,,,,,,,,,,,,,,,,,,,,,,,,,,,,,,,,,,,,,,,,,,,,,,,,,,,,,,,,,,-9.765799724448245e-09,5.853539875033675e-09,-8.08864086820904e-09,0.0,-4.17907379812732e-08,-6.087897741480219e-09,-0.0021688407287001,-0.0021583898924291,-4.57197103287399e-07,1.1368472740969084e-07,-6.822080536039721e-07,0.0,6.701820529997349e-05,0.0001904837990878,0.0019604275003075,0.0019521487411111,,,,,,,,,,,,,,,,,,,,,,,,,,,,,,,,,,,,,,,,,,,,,,,,,,,,,,,,,,,,,,,,,,,,,,,,,,
41,1.9801123142242432,0.6108039617538452,1.5708342790603638,0.3899487695097923,0.0,-3.141592675445488,1.6209852349291511e-09,0.5003635883331299,0.5003620982170105,0.6076992154121399,1.5715680122375488,0.3873785874247551,0.0,-3.141605967281273,-3.7830988731002435e-05,0.5003896355628967,0.5003882050514221,,,,,,,,,,,,,,,,,,,,,,,,,,,,,,,,,,,,,,,,,,,,,,,,,,,,,,,,,,,,,,,,,,,,,,,,,,,,,,,,,,,,,,,,,,,,,,,,,,,,,,,,,,,,,,,,,,,,,,,,,,,,,,,,,,,,,,-8.238187909626049e-09,4.942934950236122e-09,-6.8190524338263e-09,0.0,-3.4742374310781094e-08,-5.574171790811988e-09,-0.0018293794710189,-0.0018207750981673,-4.57197103287399e-07,1.1368472740969084e-07,-6.822080536039721e-07,0.0,6.701820529997349e-05,0.0001904837990878,0.0019604275003075,0.0019521487411111,,,,,,,,,,,,,,,,,,,,,,,,,,,,,,,,,,,,,,,,,,,,,,,,,,,,,,,,,,,,,,,,,,,,,,,,,,
42,2.0020031929016113,0.6108039617538452,1.5708342790603638,0.3899487695097923,0.0,-3.141592675445488,1.6209852349291511e-09,0.5003635883331299,0.5003620982170105,0.6076991558074951,1.5715680122375488,0.3873785650730133,0.0,-3.141603642700127,-3.127286254311912e-05,0.500322163105011,0.5003209710121155,,,,,,,,,,,,,,,,,,,,,,,,,,,,,,,,,,,,,,,,,,,,,,,,,,,,,,,,,,,,,,,,,,,,,,,,,,,,,,,,,,,,,,,,,,,,,,,,,,,,,,,,,,,,,,,,,,,,,,,,,,,,,,,,,,,,,,-8.238187909626049e-09,4.942934950236122e-09,-6.8190524338263e-09,0.0,-3.4742374310781094e-08,-5.574171790811988e-09,-0.0018293794710189,-0.0018207750981673,-3.780524764351867e-07,9.40674240723638e-08,-5.638871698465664e-07,0.0,5.538184268516488e-05,0.0001574628695379,0.0016208266606554,0.0016141403466463,,,,,,,,,,,,,,,,,,,,,,,,,,,,,,,,,,,,,,,,,,,,,,,,,,,,,,,,,,,,,,,,,,,,,,,,,,
43,2.023566722869873,0.6108039617538452,1.5708342790603638,0.3899487695097923,0.0,-3.141592675445488,1.430476515018597e-09,0.5003036260604858,0.5003024339675903,0.6076991558074951,1.5715680122375488,0.3873785650730133,0.0,-3.141603642700127,-3.127286254311912e-05,0.500322163105011,0.5003209710121155,,,,,,,,,,,,,,,,,,,,,,,,,,,,,,,,,,,,,,,,,,,,,,,,,,,,,,,,,,,,,,,,,,,,,,,,,,,,,,,,,,,,,,,,,,,,,,,,,,,,,,,,,,,,,,,,,,,,,,,,,,,,,,,,,,,,,,-6.880052083602095e-09,4.132472142259758e-09,-5.6913016521775725e-09,0.0,-2.8559266951333484e-08,-5.042174677782896e-09,-0.0015276767080649,-0.0015206777025014,-3.780524764351867e-07,9.40674240723638e-08,-5.638871698465664e-07,0.0,5.538184268516488e-05,0.0001574628695379,0.0016208266606554,0.0016141403466463,,,,,,,,,,,,,,,,,,,,,,,,,,,,,,,,,,,,,,,,,,,,,,,,,,,,,,,,,,,,,,,,,,,,,,,,,,
44,2.045269250869751,0.6108039617538452,1.5708342790603638,0.3899487695097923,0.0,-3.141592675445488,1.258690818239927e-09,0.5002535581588745,0.5002526044845581,0.6076991558074951,1.5715680122375488,0.3873785501718521,0.0,-3.1416018545607836,-2.611194213386625e-05,0.5002690553665161,0.5002681016921997,,,,,,,,,,,,,,,,,,,,,,,,,,,,,,,,,,,,,,,,,,,,,,,,,,,,,,,,,,,,,,,,,,,,,,,,,,,,,,,,,,,,,,,,,,,,,,,,,,,,,,,,,,,,,,,,,,,,,,,,,,,,,,,,,,,,,,-5.746403353157348e-09,3.455014052633487e-09,-4.749985293983627e-09,0.0,-2.346822824961237e-08,-4.533903918968463e-09,-0.001275731017813,-0.0012700419174507,-3.157515777729714e-07,7.86151161946691e-08,-4.707837888417999e-07,0.0,4.622757842298597e-05,0.0001314770051976,0.0013535380130633,0.0013480797642841,,,,,,,,,,,,,,,,,,,,,,,,,,,,,,,,,,,,,,,,,,,,,,,,,,,,,,,,,,,,,,,,,,,,,,,,,,
45,2.066484212875366,0.6108039617538452,1.5708342790603638,0.3899487695097923,0.0,-3.141592675445488,1.2496779167037175e-09,0.5002509951591492,0.5002501010894775,0.6076991558074951,1.5715680122375488,0.3873785352706909,0.0,-3.141600424049309,-2.202227733505424e-05,0.5002269148826599,0.5002261400222778,,,,,,,,,,,,,,,,,,,,,,,,,,,,,,,,,,,,,,,,,,,,,,,,,,,,,,,,,,,,,,,,,,,,,,,,,,,,,,,,,,,,,,,,,,,,,,,,,,,,,,,,,,,,,,,,,,,,,,,,,,,,,,,,,,,,,,-5.6888938004817655e-09,3.4209302057774953e-09,-4.702523259680902e-09,0.0,-2.3212987088072623e-08,-4.506417905503213e-09,-0.0012630212586373,-0.0012573973508551,-2.66369028167901e-07,6.635947613631289e-08,-3.970129682784318e-07,0.0,3.8975711504463106e-05,0.0001108850410673,0.0011417012428864,0.0011371970176696,,,,,,,,,,,,,,,,,,,,,,,,,,,,,,,,,,,,,,,,,,,,,,,,,,,,,,,,,,,,,,,,,,,,,,,,,,
46,2.0872931480407715,0.6108039617538452,1.5708342790603638,0.3899487695097923,0.0,-3.141592675445488,1.088576340180225e-09,0.5002075433731079,0.5002067685127258,0.6076991558074951,1.5715680122375488,0.3873785278201103,0.0,-3.1416003048400194,-2.180271803808864e-05,0.5002246499061584,0.5002238750457764,,,,,,,,,,,,,,,,,,,,,,,,,,,,,,,,,,,,,,,,,,,,,,,,,,,,,,,,,,,,,,,,,,,,,,,,,,,,,,,,,,,,,,,,,,,,,,,,,,,,,,,,,,,,,,,,,,,,,,,,,,,,,,,,,,,,,,-4.704125977639251e-09,2.8318458689113864e-09,-3.8855656470104805e-09,0.0,-1.885985767557941e-08,-4.004872433682749e-09,-0.0010442148195579,-0.0010396996513009,-2.6371753847342916e-07,6.570088828539157e-08,-3.930526872863993e-07,0.0,3.858644777210429e-05,0.0001097795320674,0.0011303275823593,0.0011258741142228,,,,,,,,,,,,,,,,,,,,,,,,,,,,,,,,,,,,,,,,,,,,,,,,,,,,,,,,,,,,,,,,,,,,,,,,,,
47,2.109285593032837,0.6108039617538452,1.5708342790603638,0.3899487695097923,0.0,-3.141592675445488,1.088576340180225e-09,0.5002075433731079,0.5002067685127258,0.6076991558074951,1.5715680122375488,0.3873785203695297,0.0,-3.141599112747124,-1.838796742958948e-05,0.500189483165741,0.5001888871192932,,,,,,,,,,,,,,,,,,,,,,,,,,,,,,,,,,,,,,,,,,,,,,,,,,,,,,,,,,,,,,,,,,,,,,,,,,,,,,,,,,,,,,,,,,,,,,,,,,,,,,,,,,,,,,,,,,,,,,,,,,,,,,,,,,,,,,-4.704125977639251e-09,2.8318458689113864e-09,-3.8855656470104805e-09,0.0,-1.885985767557941e-08,-4.004872433682749e-09,-0.0010442148195579,-0.0010396996513009,-2.224729342970022e-07,5.545841474940971e-08,-3.314621324079781e-07,0.0,3.2533262128708884e-05,9.258583304472268e-05,0.0009534246055409,0.0009497514693066,,,,,,,,,,,,,,,,,,,,,,,,,,,,,,,,,,,,,,,,,,,,,,,,,,,,,,,,,,,,,,,,,,,,,,,,,,
48,2.130770683288574,0.6108039617538452,1.5708342790603638,0.3899487695097923,0.0,-3.141592675445488,9.528642319622802e-10,0.5001733303070068,0.5001726746559143,0.6076991558074951,1.5715680122375488,0.3873785203695297,0.0,-3.141599112747124,-1.838796742958948e-05,0.500189483165741,0.5001888871192932,,,,,,,,,,,,,,,,,,,,,,,,,,,,,,,,,,,,,,,,,,,,,,,,,,,,,,,,,,,,,,,,,,,,,,,,,,,,,,,,,,,,,,,,,,,,,,,,,,,,,,,,,,,,,,,,,,,,,,,,,,,,,,,,,,,,,,-3.928801728392273e-09,2.3675506000131463e-09,-3.2429614549300823e-09,0.0,-1.548572470255749e-08,-3.5649168061979712e-09,-0.0008720020996406,-0.0008683379273861,-2.224729342970022e-07,5.545841474940971e-08,-3.314621324079781e-07,0.0,3.2533262128708884e-05,9.258583304472268e-05,0.0009534246055409,0.0009497514693066,,,,,,,,,,,,,,,,,,,,,,,,,,,,,,,,,,,,,,,,,,,,,,,,,,,,,,,,,,,,,,,,,,,,,,,,,,
49,2.1520321369171143,0.6108039617538452,1.5708342790603638,0.3899487695097923,0.0,-3.141592675445488,9.528642319622802e-10,0.5001733303070068,0.5001726746559143,0.6076991558074951,1.5715680122375488,0.3873785054683685,0.0,-3.141598039863518,-1.535342016723007e-05,0.5001582503318787,0.5001577138900757,,,,,,,,,,,,,,,,,,,,,,,,,,,,,,,,,,,,,,,,,,,,,,,,,,,,,,,,,,,,,,,,,,,,,,,,,,,,,,,,,,,,,,,,,,,,,,,,,,,,,,,,,,,,,,,,,,,,,,,,,,,,,,,,,,,,,,-3.928801728392273e-09,2.3675506000131463e-09,-3.2429614549300823e-09,0.0,-1.548572470255749e-08,-3.5649168061979712e-09,-0.0008720020996406,-0.0008683379273861,-1.858106486452016e-07,4.634825856442149e-08,-2.767344824405882e-07,0.0,2.7155705538461916e-05,7.730651122983545e-05,0.0007961964583955,0.0007932027801871,,,,,,,,,,,,,,,,,,,,,,,,,,,,,,,,,,,,,,,,,,,,,,,,,,,,,,,,,,,,,,,,,,,,,,,,,,
50,2.1735920906066895,0.6108039617538452,1.5708342790603638,0.3899487695097923,0.0,-3.141592675445488,8.260266359805256e-10,0.50014328956604,0.5001428127288818,0.6076991558074951,1.5715680122375488,0.3873784980177879,0.0,-3.141597205398491,-1.2948759831488132e-05,0.5001335144042969,0.5001330375671387,,,,,,,,,,,,,,,,,,,,,,,,,,,,,,,,,,,,,,,,,,,,,,,,,,,,,,,,,,,,,,,,,,,,,,,,,,,,,,,,,,,,,,,,,,,,,,,,,,,,,,,,,,,,,,,,,,,,,,,,,,,,,,,,,,,,,,-3.248568081204439e-09,1.959876705370789e-09,-2.679537258742925e-09,0.0,-1.2572054508552812e-08,-3.139904336535437e-09,-0.0007209359901025,-0.0007179994718171,-1.56750772362102e-07,3.9122593165075166e-08,-2.333707556090303e-07,0.0,2.289568874402903e-05,6.51987356832251e-05,0.0006715869531035,0.0006691205198876,,,,,,,,,,,,,,,,,,,,,,,,,,,,,,,,,,,,,,,,,,,,,,,,,,,,,,,,,,,,,,,,,,,,,,,,,,
51,2.1947853565216064,0.6108039617538452,1.5708342790603638,0.3899487695097923,0.0,-3.141592675445488,7.200492979642091e-10,0.5001196265220642,0.5001192688941956,0.6076991558074951,1.5715680122375488,0.3873784980177879,0.0,-3.1415971457938463,-1.2819662515539676e-05,0.500132143497467,0.5001317262649536,,,,,,,,,,,,,,,,,,,,,,,,,,,,,,,,,,,,,,,,,,,,,,,,,,,,,,,,,,,,,,,,,,,,,,,,,,,,,,,,,,,,,,,,,,,,,,,,,,,,,,,,,,,,,,,,,,,,,,,,,,,,,,,,,,,,,,-2.713052005276495e-09,1.6383561174393435e-09,-2.236349994078068e-09,0.0,-1.0314582965520458e-08,-2.774191987242602e-09,-0.0006020386354066,-0.000599659862928,-1.551900226104408e-07,3.873445919566621e-08,-2.3104286128727838e-07,0.0,2.2667019948130473e-05,6.454871618188918e-05,0.0006648966227658,0.0006624581874348,,,,,,,,,,,,,,,,,,,,,,,,,,,,,,,,,,,,,,,,,,,,,,,,,,,,,,,,,,,,,,,,,,,,,,,,,,
52,2.2157938480377197,0.6108039617538452,1.5708342790603638,0.3899487695097923,0.0,-3.141592675445488,7.145392055818434e-10,0.5001184344291687,0.5001180768013,0.6076990962028503,1.5715680122375488,0.3873784905672073,0.0,-3.141596430538109,-1.070404687197879e-05,0.500110387802124,0.5001100301742554,,,,,,,,,,,,,,,,,,,,,,,,,,,,,,,,,,,,,,,,,,,,,,,,,,,,,,,,,,,,,,,,,,,,,,,,,,,,,,,,,,,,,,,,,,,,,,,,,,,,,,,,,,,,,,,,,,,,,,,,,,,,,,,,,,,,,,-2.685962563475641e-09,1.6220358389773535e-09,-2.214069150241471e-09,0.0,-1.0202061417885488e-08,-2.755029537837572e-09,-0.0005960406851954,-0.0005936896195635,-1.2961560003077466e-07,3.2371438862810464e-08,-1.9289535657662785e-07,0.0,1.892028740257956e-05,5.389631769503467e-05,0.0005552492802962,0.0005532643990591,,,,,,,,,,,,,,,,,,,,,,,,,,,,,,,,,,,,,,,,,,,,,,,,,,,,,,,,,,,,,,,,,,,,,,,,,,
53,2.237538576126098,0.6108039617538452,1.5708342790603638,0.3899487695097923,0.0,-3.141592675445488,6.217108494688262e-10,0.5000989437103271,0.5000985860824585,0.6076990962028503,1.5715680122375488,0.3873784905672073,0.0,-3.141596430538109,-1.070404687197879e-05,0.500110387802124,0.5001100301742554,,,,,,,,,,,,,,,,,,,,,,,,,,,,,,,,,,,,,,,,,,,,,,,,,,,,,,,,,,,,,,,,,,,,,,,,,,,,,,,,,,,,,,,,,,,,,,,,,,,,,,,,,,,,,,,,,,,,,,,,,,,,,,,,,,,,,,-2.24326113240636e-09,1.356026402277166e-09,-1.8477858132470715e-09,0.0,-8.366585646513158e-09,-2.426397083254983e-09,-0.0004977411590516,-0.0004958385252393,-1.2961560003077466e-07,3.2371438862810464e-08,-1.9289535657662785e-07,0.0,1.892028740257956e-05,5.389631769503467e-05,0.0005552492802962,0.0005532643990591,,,,,,,,,,,,,,,,,,,,,,,,,,,,,,,,,,,,,,,,,,,,,,,,,,,,,,,,,,,,,,,,,,,,,,,,,,
54,2.259982109069824,0.6108039617538452,1.5708342790603638,0.3899487695097923,0.0,-3.141592675445488,6.217108494688262e-10,0.5000989437103271,0.5000985860824585,0.6076990962028503,1.5715680122375488,0.3873784831166267,0.0,-3.1415957748870165,-8.848463039612398e-06,0.5000912547111511,0.5000909566879272,,,,,,,,,,,,,,,,,,,,,,,,,,,,,,,,,,,,,,,,,,,,,,,,,,,,,,,,,,,,,,,,,,,,,,,,,,,,,,,,,,,,,,,,,,,,,,,,,,,,,,,,,,,,,,,,,,,,,,,,,,,,,,,,,,,,,,-2.24326113240636e-09,1.356026402277166e-09,-1.8477858132470715e-09,0.0,-8.366585646513158e-09,-2.426397083254983e-09,-0.0004977411590516,-0.0004958385252393,-1.0717810283722429e-07,2.6785574647192337e-08,-1.594399208215691e-07,0.0,1.563513433211483e-05,4.455320959095843e-05,0.0004590645839925,0.0004574683553073,,,,,,,,,,,,,,,,,,,,,,,,,,,,,,,,,,,,,,,,,,,,,,,,,,,,,,,,,,,,,,,,,,,,,,,,,,
55,2.282036304473877,0.6108039617538452,1.5708342790603638,0.3899487695097923,0.0,-3.141592675445488,5.400689895296296e-10,0.5000826120376587,0.5000823736190796,0.6076990962028503,1.5715680122375488,0.3873784831166267,0.0,-3.1415957748870165,-8.848463039612398e-06,0.5000912547111511,0.5000909566879272,,,,,,,,,,,,,,,,,,,,,,,,,,,,,,,,,,,,,,,,,,,,,,,,,,,,,,,,,,,,,,,,,,,,,,,,,,,,,,,,,,,,,,,,,,,,,,,,,,,,,,,,,,,,,,,,,,,,,,,,,,,,,,,,,,,,,,-1.8737233986598767e-09,1.1337597527472099e-09,-1.5422594312752835e-09,0.0,-6.858902334982986e-09,-2.131101961566628e-09,-0.0004156533104833,-0.0004141151439398,-1.0717810283722429e-07,2.6785574647192337e-08,-1.594399208215691e-07,0.0,1.563513433211483e-05,4.455320959095843e-05,0.0004590645839925,0.0004574683553073,,,,,,,,,,,,,,,,,,,,,,,,,,,,,,,,,,,,,,,,,,,,,,,,,,,,,,,,,,,,,,,,,,,,,,,,,,
56,2.3041787147521973,0.6108039617538452,1.5708342790603638,0.3899487695097923,0.0,-3.141592675445488,4.721850133115879e-10,0.5000696778297424,0.5000694990158081,0.6076990962028503,1.5715680122375488,0.3873784831166267,0.0,-3.1415952384452135,-7.3145502028637566e-06,0.5000754594802856,0.5000752210617065,,,,,,,,,,,,,,,,,,,,,,,,,,,,,,,,,,,,,,,,,,,,,,,,,,,,,,,,,,,,,,,,,,,,,,,,,,,,,,,,,,,,,,,,,,,,,,,,,,,,,,,,,,,,,,,,,,,,,,,,,,,,,,,,,,,,,,-1.5805134978563726e-09,9.575673587391975e-10,-1.300189178543576e-09,0.0,-5.683620241114795e-09,-1.881348854482212e-09,-0.0003505963250063,-0.000349339301465,-8.862466671644142e-08,2.2163272106467957e-08,-1.3178694757698397e-07,0.0,1.2920382687298115e-05,3.682975875562988e-05,0.0003795417724177,0.0003782591375056,,,,,,,,,,,,,,,,,,,,,,,,,,,,,,,,,,,,,,,,,,,,,,,,,,,,,,,,,,,,,,,,,,,,,,,,,,
57,2.3255438804626465,0.6108039617538452,1.5708342790603638,0.3899487695097923,0.0,-3.141592675445488,4.721850133115879e-10,0.5000696778297424,0.5000694990158081,0.6076990962028503,1.5715680122375488,0.3873784756660461,0.0,-3.1415948212127,-6.107437002356164e-06,0.5000630021095276,0.5000628232955933,,,,,,,,,,,,,,,,,,,,,,,,,,,,,,,,,,,,,,,,,,,,,,,,,,,,,,,,,,,,,,,,,,,,,,,,,,,,,,,,,,,,,,,,,,,,,,,,,,,,,,,,,,,,,,,,,,,,,,,,,,,,,,,,,,,,,,-1.5805134978563726e-09,9.575673587391975e-10,-1.300189178543576e-09,0.0,-5.683620241114795e-09,-1.881348854482212e-09,-0.0003505963250063,-0.000349339301465,-7.401990131938875e-08,1.8522738898241187e-08,-1.1002759947587037e-07,0.0,1.0784708138089629e-05,3.075178392464295e-05,0.0003169519768562,0.000315910205245,,,,,,,,,,,,,,,,,,,,,,,,,,,,,,,,,,,,,,,,,,,,,,,,,,,,,,,,,,,,,,,,,,,,,,,,,,
58,2.346459150314331,0.6108039617538452,1.5708342790603638,0.3899487695097923,0.0,-3.141592675445488,4.0903483378151856e-10,0.5000581741333008,0.5000580549240112,0.6076990962028503,1.5715680122375488,0.3873784756660461,0.0,-3.1415948212127,-6.107437002356164e-06,0.5000630021095276,0.5000628232955933,,,,,,,,,,,,,,,,,,,,,,,,,,,,,,,,,,,,,,,,,,,,,,,,,,,,,,,,,,,,,,,,,,,,,,,,,,,,,,,,,,,,,,,,,,,,,,,,,,,,,,,,,,,,,,,,,,,,,,,,,,,,,,,,,,,,,,-1.3198886428256174e-09,8.004708007547379e-10,-1.0851251008858751e-09,0.0,-4.656108831824213e-09,-1.6450258932820814e-09,-0.0002927756868302,-0.0002917616802733,-7.401990131938875e-08,1.8522738898241187e-08,-1.1002759947587037e-07,0.0,1.0784708138089629e-05,3.075178392464295e-05,0.0003169519768562,0.000315910205245,,,,,,,,,,,,,,,,,,,,,,,,,,,,,,,,,,,,,,,,,,,,,,,,,,,,,,,,,,,,,,,,,,,,,,,,,,
59,2.3688859939575195,0.6108039617538452,1.5708342790603638,0.3899487695097923,0.0,-3.141592675445488,4.0903483378151856e-10,0.5000581741333008,0.5000580549240112,0.6076990962028503,1.5715680122375488,0.3873784682154655,0.0,-3.1415944635848314,-5.048691036790842e-06,0.5000520944595337,0.5000519752502441,,,,,,,,,,,,,,,,,,,,,,,,,,,,,,,,,,,,,,,,,,,,,,,,,,,,,,,,,,,,,,,,,,,,,,,,,,,,,,,,,,,,,,,,,,,,,,,,,,,,,,,,,,,,,,,,,,,,,,,,,,,,,,,,,,,,,,-1.3198886428256174e-09,8.004708007547379e-10,-1.0851251008858751e-09,0.0,-4.656108831824213e-09,-1.6450258932820814e-09,-0.0002927756868302,-0.0002917616802733,-6.120648521346085e-08,1.5326074631616393e-08,-9.094461717040758e-08,0.0,8.912139492167626e-06,2.5420855308766477e-05,0.0002620470186229,0.0002612113312352,,,,,,,,,,,,,,,,,,,,,,,,,,,,,,,,,,,,,,,,,,,,,,,,,,,,,,,,,,,,,,,,,,,,,,,,,,
60,2.3903777599334717,0.6108039617538452,1.5708342790603638,0.3899487695097923,0.0,-3.141592675445488,3.538730974916859e-10,0.5000485777854919,0.5000484585762024,0.6076990962028503,1.5715680122375488,0.3873784682154655,0.0,-3.1415944635848314,-5.048691036790842e-06,0.5000520944595337,0.5000519752502441,,,,,,,,,,,,,,,,,,,,,,,,,,,,,,,,,,,,,,,,,,,,,,,,,,,,,,,,,,,,,,,,,,,,,,,,,,,,,,,,,,,,,,,,,,,,,,,,,,,,,,,,,,,,,,,,,,,,,,,,,,,,,,,,,,,,,,-1.1024514634527802e-09,6.694644838489693e-10,-9.057130045952987e-10,0.0,-3.812894444621406e-09,-1.435529584092876e-09,-0.0002444908895995,-0.0002436739305267,-6.120648521346085e-08,1.5326074631616393e-08,-9.094461717040758e-08,0.0,8.912139492167626e-06,2.5420855308766477e-05,0.0002620470186229,0.0002612113312352,,,,,,,,,,,,,,,,,,,,,,,,,,,,,,,,,,,,,,,,,,,,,,,,,,,,,,,,,,,,,,,,,,,,,,,,,,
61,2.411445140838623,0.6108039617538452,1.5708342790603638,0.3899487695097923,0.0,-3.141592675445488,3.0578459209174014e-10,0.500040590763092,0.5000404715538025,0.6076990962028503,1.5715680122375488,0.3873784682154655,0.0,-3.1415941059569628,-4.173482011537999e-06,0.5000430345535278,0.5000429749488831,,,,,,,,,,,,,,,,,,,,,,,,,,,,,,,,,,,,,,,,,,,,,,,,,,,,,,,,,,,,,,,,,,,,,,,,,,,,,,,,,,,,,,,,,,,,,,,,,,,,,,,,,,,,,,,,,,,,,,,,,,,,,,,,,,,,,,-9.206524431704112e-10,5.596634267135413e-10,-7.558675907404221e-10,0.0,-3.120448344162696e-09,-1.2503649227113556e-09,-0.0002041692496277,-0.0002035119250649,-5.06111277331911e-08,1.268152249878085e-08,-7.517134292811535e-08,0.0,7.364705652435077e-06,2.1014062440372072e-05,0.0002166531485272,0.0002159833820769,,,,,,,,,,,,,,,,,,,,,,,,,,,,,,,,,,,,,,,,,,,,,,,,,,,,,,,,,,,,,,,,,,,,,,,,,,
62,2.4333810806274414,0.6108039617538452,1.5708342790603638,0.3899487695097923,0.0,-3.141592675445488,3.0578459209174014e-10,0.500040590763092,0.5000404715538025,0.6076990962028503,1.5715680122375488,0.3873784682154655,0.0,-3.1415939271430284,-3.519828396747471e-06,0.5000362992286682,0.5000362396240234,,,,,,,,,,,,,,,,,,,,,,,,,,,,,,,,,,,,,,,,,,,,,,,,,,,,,,,,,,,,,,,,,,,,,,,,,,,,,,,,,,,,,,,,,,,,,,,,,,,,,,,,,,,,,,,,,,,,,,,,,,,,,,,,,,,,,,-9.206524431704112e-10,5.596634267135413e-10,-7.558675907404221e-10,0.0,-3.120448344162696e-09,-1.2503649227113556e-09,-0.0002041692496277,-0.0002035119250649,-4.2695958768490534e-08,1.0704437336528372e-08,-6.339217151207778e-08,0.0,6.209367711562663e-06,1.7722826669341885e-05,0.0001827456435421,0.0001821966579882,,,,,,,,,,,,,,,,,,,,,,,,,,,,,,,,,,,,,,,,,,,,,,,,,,,,,,,,,,,,,,,,,,,,,,,,,,
63,2.4549999237060547,0.6108039617538452,1.5708342790603638,0.3899487695097923,0.0,-3.141592675445488,2.6177743306377005e-10,0.5000335574150085,0.500033438205719,0.6076990962028503,1.5715680122375488,0.3873784682154655,0.0,-3.1415938675383837,-3.4847359984269133e-06,0.5000359416007996,0.5000358819961548,,,,,,,,,,,,,,,,,,,,,,,,,,,,,,,,,,,,,,,,,,,,,,,,,,,,,,,,,,,,,,,,,,,,,,,,,,,,,,,,,,,,,,,,,,,,,,,,,,,,,,,,,,,,,,,,,,,,,,,,,,,,,,,,,,,,,,-7.614464614391635e-10,4.6329606817607777e-10,-6.245004513516506e-10,0.0,-2.525091247207456e-09,-1.0787206683460224e-09,-0.0001687988697085,-0.0001682771544437,-4.2270574596159356e-08,1.0598188993071744e-08,-6.275983821524278e-08,0.0,6.147351541585522e-06,1.7546131857670844e-05,0.0001809251407394,0.0001803825580282,,,,,,,,,,,,,,,,,,,,,,,,,,,,,,,,,,,,,,,,,,,,,,,,,,,,,,,,,,,,,,,,,,,,,,,,,,
64,2.476613759994507,0.6108039617538452,1.5708342790603638,0.3899487695097923,0.0,-3.141592675445488,2.6177743306377005e-10,0.5000335574150085,0.500033438205719,0.6076990962028503,1.5715680122375488,0.3873784607648849,0.0,-3.1415936887244493,-2.9096531761751976e-06,0.5000300407409668,0.500029981136322,,,,,,,,,,,,,,,,,,,,,,,,,,,,,,,,,,,,,,,,,,,,,,,,,,,,,,,,,,,,,,,,,,,,,,,,,,,,,,,,,,,,,,,,,,,,,,,,,,,,,,,,,,,,,,,,,,,,,,,,,,,,,,,,,,,,,,-7.614464614391635e-10,4.6329606817607777e-10,-6.245004513516506e-10,0.0,-2.525091247207456e-09,-1.0787206683460224e-09,-0.0001687988697085,-0.0001682771544437,-3.5304648093870135e-08,8.857137245854574e-09,-5.239757072672546e-08,0.0,5.1312194955244195e-06,1.4650511729996651e-05,0.0001510889851488,0.0001506498665548,,,,,,,,,,,,,,,,,,,,,,,,,,,,,,,,,,,,,,,,,,,,,,,,,,,,,,,,,,,,,,,,,,,,,,,,,,
65,2.4980010986328125,0.6108039617538452,1.5708342790603638,0.3899487695097923,0.0,-3.141592675445488,2.2384433195909992e-10,0.5000277161598206,0.5000276565551758,0.6076990962028503,1.5715680122375488,0.3873784607648849,0.0,-3.1415936887244493,-2.9096531761751976e-06,0.5000300407409668,0.500029981136322,,,,,,,,,,,,,,,,,,,,,,,,,,,,,,,,,,,,,,,,,,,,,,,,,,,,,,,,,,,,,,,,,,,,,,,,,,,,,,,,,,,,,,,,,,,,,,,,,,,,,,,,,,,,,,,,,,,,,,,,,,,,,,,,,,,,,,-6.292744103575386e-10,3.8336001040306655e-10,-5.159969673762531e-10,0.0,-2.04203320919305e-09,-9.289173319437791e-10,-0.0001395560684613,-0.0001391426922054,-3.5304648093870135e-08,8.857137245854574e-09,-5.239757072672546e-08,0.0,5.1312194955244195e-06,1.4650511729996651e-05,0.0001510889851488,0.0001506498665548,,,,,,,,,,,,,,,,,,,,,,,,,,,,,,,,,,,,,,,,,,,,,,,,,,,,,,,,,,,,,,,,,,,,,,,,,,
66,2.520376205444336,0.6108039617538452,1.5708342790603638,0.3899487695097923,0.0,-3.141592675445488,2.2384433195909992e-10,0.5000277161598206,0.5000276565551758,0.6076990962028503,1.5715680122375488,0.3873784607648849,0.0,-3.141593509910515,-2.453941078783828e-06,0.5000253319740295,0.5000252723693848,,,,,,,,,,,,,,,,,,,,,,,,,,,,,,,,,,,,,,,,,,,,,,,,,,,,,,,,,,,,,,,,,,,,,,,,,,,,,,,,,,,,,,,,,,,,,,,,,,,,,,,,,,,,,,,,,,,,,,,,,,,,,,,,,,,,,,-6.292744103575386e-10,3.8336001040306655e-10,-5.159969673762531e-10,0.0,-2.04203320919305e-09,-9.289173319437791e-10,-0.0001395560684613,-0.0001391426922054,-2.978323188074228e-08,7.476352870128267e-09,-4.418698651420527e-08,0.0,4.326257112552412e-06,1.2355939361441416e-05,0.0001274426613235,0.0001270833890885,,,,,,,,,,,,,,,,,,,,,,,,,,,,,,,,,,,,,,,,,,,,,,,,,,,,,,,,,,,,,,,,,,,,,,,,,,
67,2.542479991912842,0.6108039617538452,1.5708342790603638,0.3899487695097923,0.0,-3.141592675445488,1.927971393644867e-10,0.5000231862068176,0.5000231266021729,0.6076990962028503,1.5715680122375488,0.3873784607648849,0.0,-3.1415933907012255,-2.0696029423561413e-06,0.5000213384628296,0.5000213384628296,,,,,,,,,,,,,,,,,,,,,,,,,,,,,,,,,,,,,,,,,,,,,,,,,,,,,,,,,,,,,,,,,,,,,,,,,,,,,,,,,,,,,,,,,,,,,,,,,,,,,,,,,,,,,,,,,,,,,,,,,,,,,,,,,,,,,,-5.25801624462474e-10,3.2063240951174516e-10,-4.307595946606568e-10,0.0,-1.6689982729189976e-09,-8.053221978165935e-10,-0.0001165403664344,-0.0001162093831226,-2.5125235225686993e-08,6.310840738876777e-09,-3.7262964269757504e-08,0.0,3.647573294074391e-06,1.0420743819850031e-05,0.0001074971223715,0.0001072034792741,,,,,,,,,,,,,,,,,,,,,,,,,,,,,,,,,,,,,,,,,,,,,,,,,,,,,,,,,,,,,,,,,,,,,,,,,,
68,2.5634706020355225,0.6108039617538452,1.5708342790603638,0.3899487695097923,0.0,-3.141592675445488,1.6452093853924763e-10,0.5000191330909729,0.5000191330909729,0.6076990962028503,1.5715680122375488,0.3873784607648849,0.0,-3.1415933907012255,-2.0696029423561413e-06,0.5000213384628296,0.5000213384628296,,,,,,,,,,,,,,,,,,,,,,,,,,,,,,,,,,,,,,,,,,,,,,,,,,,,,,,,,,,,,,,,,,,,,,,,,,,,,,,,,,,,,,,,,,,,,,,,,,,,,,,,,,,,,,,,,,,,,,,,,,,,,,,,,,,,,,-4.3476333644321125e-10,2.651212582804874e-10,-3.559236239070173e-10,0.0,-1.34825484110479e-09,-6.916525685518592e-10,-9.635085734771565e-05,-9.60896140895784e-05,-2.5125235225686993e-08,6.310840738876777e-09,-3.7262964269757504e-08,0.0,3.647573294074391e-06,1.0420743819850031e-05,0.0001074971223715,0.0001072034792741,,,,,,,,,,,,,,,,,,,,,,,,,,,,,,,,,,,,,,,,,,,,,,,,,,,,,,,,,,,,,,,,,,,,,,,,,,
69,2.5851924419403076,0.6108039617538452,1.5708342790603638,0.3899487695097923,0.0,-3.141592675445488,1.6452093853924763e-10,0.5000191330909729,0.5000191330909729,0.6076990962028503,1.5715680122375488,0.3873784607648849,0.0,-3.141593271491936,-1.7108295651269143e-06,0.5000176429748535,0.5000176429748535,,,,,,,,,,,,,,,,,,,,,,,,,,,,,,,,,,,,,,,,,,,,,,,,,,,,,,,,,,,,,,,,,,,,,,,,,,,,,,,,,,,,,,,,,,,,,,,,,,,,,,,,,,,,,,,,,,,,,,,,,,,,,,,,,,,,,,-4.3476333644321125e-10,2.651212582804874e-10,-3.559236239070173e-10,0.0,-1.34825484110479e-09,-6.916525685518592e-10,-9.635085734771565e-05,-9.60896140895784e-05,-2.0775825504415483e-08,5.221822974021961e-09,-3.0800126893382185e-08,0.0,3.0142339255689876e-06,8.614269972895272e-06,8.887561125447974e-05,8.864152187015861e-05,,,,,,,,,,,,,,,,,,,,,,,,,,,,,,,,,,,,,,,,,,,,,,,,,,,,,,,,,,,,,,,,,,,,,,,,,,
70,2.606278419494629,0.6108039617538452,1.5708342790603638,0.3899487695097923,0.0,-3.141592675445488,1.4144301008212068e-10,0.5000159740447998,0.5000159740447998,0.6076990962028503,1.5715680122375488,0.3873784607648849,0.0,-3.141593271491936,-1.7108295651269143e-06,0.5000176429748535,0.5000176429748535,,,,,,,,,,,,,,,,,,,,,,,,,,,,,,,,,,,,,,,,,,,,,,,,,,,,,,,,,,,,,,,,,,,,,,,,,,,,,,,,,,,,,,,,,,,,,,,,,,,,,,,,,,,,,,,,,,,,,,,,,,,,,,,,,,,,,,-3.6315395135488865e-10,2.2215562722749382e-10,-2.970054757689411e-10,0.0,-1.1009526623695363e-09,-5.980151929207976e-10,-8.046059519983828e-05,-8.025224815355614e-05,-2.0775825504415483e-08,5.221822974021961e-09,-3.0800126893382185e-08,0.0,3.0142339255689876e-06,8.614269972895272e-06,8.887561125447974e-05,8.864152187015861e-05,,,,,,,,,,,,,,,,,,,,,,,,,,,,,,,,,,,,,,,,,,,,,,,,,,,,,,,,,,,,,,,,,,,,,,,,,,
71,2.6274123191833496,0.6108039617538452,1.5708342790603638,0.3899487695097923,0.0,-3.141592675445488,1.4144301008212068e-10,0.5000159740447998,0.5000159740447998,0.6076990962028503,1.5715680122375488,0.3873784607648849,0.0,-3.1415931522826464,-1.4142508462100525e-06,0.50001460313797,0.50001460313797,,,,,,,,,,,,,,,,,,,,,,,,,,,,,,,,,,,,,,,,,,,,,,,,,,,,,,,,,,,,,,,,,,,,,,,,,,,,,,,,,,,,,,,,,,,,,,,,,,,,,,,,,,,,,,,,,,,,,,,,,,,,,,,,,,,,,,-3.6315395135488865e-10,2.2215562722749382e-10,-2.970054757689411e-10,0.0,-1.1009526623695363e-09,-5.980151929207976e-10,-8.046059519983828e-05,-8.025224815355614e-05,-1.7179424105506772e-08,4.320654944933722e-09,-2.545817778809578e-08,0.0,2.4908624709496507e-06,7.120955160644371e-06,7.347987411776558e-05,7.329350773943588e-05,,,,,,,,,,,,,,,,,,,,,,,,,,,,,,,,,,,,,,,,,,,,,,,,,,,,,,,,,,,,,,,,,,,,,,,,,,
72,2.6489109992980957,0.6108039617538452,1.5708342790603638,0.3899487695097923,0.0,-3.141592675445488,1.204803479204486e-10,0.5000132322311401,0.5000131726264954,0.6076990962028503,1.5715680122375488,0.3873784607648849,0.0,-3.1415930926780016,-1.1927496643693305e-06,0.5000123381614685,0.5000122785568237,,,,,,,,,,,,,,,,,,,,,,,,,,,,,,,,,,,,,,,,,,,,,,,,,,,,,,,,,,,,,,,,,,,,,,,,,,,,,,,,,,,,,,,,,,,,,,,,,,,,,,,,,,,,,,,,,,,,,,,,,,,,,,,,,,,,,,-3.0020430585864233e-10,1.8374191057546338e-10,-2.4549112742633383e-10,0.0,-8.887335312124377e-10,-5.121844615096903e-10,-6.652156298514456e-05,-6.635786849074066e-05,-1.4492574251789849e-08,3.646860591288714e-09,-2.146897948307469e-08,0.0,2.1001055756642018e-06,6.005665909469826e-06,6.19798302068375e-05,6.182804645504802e-05,,,,,,,,,,,,,,,,,,,,,,,,,,,,,,,,,,,,,,,,,,,,,,,,,,,,,,,,,,,,,,,,,,,,,,,,,,
73,2.670215845108032,0.6108039617538452,1.5708342790603638,0.3899487695097923,0.0,-3.141592675445488,1.0429602320671803e-10,0.500011146068573,0.500011146068573,0.6076990962028503,1.5715680122375488,0.3873784607648849,0.0,-3.1415930926780016,-1.180858134830487e-06,0.500012218952179,0.5000121593475342,,,,,,,,,,,,,,,,,,,,,,,,,,,,,,,,,,,,,,,,,,,,,,,,,,,,,,,,,,,,,,,,,,,,,,,,,,,,,,,,,,,,,,,,,,,,,,,,,,,,,,,,,,,,,,,,,,,,,,,,,,,,,,,,,,,,,,-2.5335289421946067e-10,1.5509815654013434e-10,-2.06883121744994e-10,0.0,-7.326361739501407e-10,-4.455755764354308e-10,-5.610978041659109e-05,-5.5978169257286936e-05,-1.4348467303193502e-08,3.610889365290859e-09,-2.1254789928093487e-08,0.0,2.0791308088519145e-06,5.945790235273307e-06,6.13623924436979e-05,6.121243495726958e-05,,,,,,,,,,,,,,,,,,,,,,,,,,,,,,,,,,,,,,,,,,,,,,,,,,,,,,,,,,,,,,,,,,,,,,,,,,
74,2.6913678646087646,0.6108039617538452,1.5708342790603638,0.3899487695097923,0.0,-3.141592675445488,1.0429602320671803e-10,0.500011146068573,0.500011146068573,0.6076990962028503,1.5715680122375488,0.3873784533143043,0.0,-3.141593033073357,-9.76151909526379e-07,0.500010073184967,0.500010073184967,,,,,,,,,,,,,,,,,,,,,,,,,,,,,,,,,,,,,,,,,,,,,,,,,,,,,,,,,,,,,,,,,,,,,,,,,,,,,,,,,,,,,,,,,,,,,,,,,,,,,,,,,,,,,,,,,,,,,,,,,,,,,,,,,,,,,,-2.5335289421946067e-10,1.5509815654013434e-10,-2.06883121744994e-10,0.0,-7.326361739501407e-10,-4.455755764354308e-10,-5.610978041659109e-05,-5.5978169257286936e-05,-1.1864287330354273e-08,2.9876101592662963e-09,-1.7568439147908066e-08,0.0,1.7181233715746205e-06,4.915065346722258e-06,5.073270949651487e-05,5.061368574388325e-05,,,,,,,,,,,,,,,,,,,,,,,,,,,,,,,,,,,,,,,,,,,,,,,,,,,,,,,,,,,,,,,,,,,,,,,,,,
75,2.713193893432617,0.6108039617538452,1.5708342790603638,0.3899487695097923,0.0,-3.141592675445488,8.945989088404716e-11,0.500009298324585,0.500009298324585,0.6076990962028503,1.5715680122375488,0.3873784533143043,0.0,-3.141593033073357,-9.76151909526379e-07,0.500010073184967,0.500010073184967,,,,,,,,,,,,,,,,,,,,,,,,,,,,,,,,,,,,,,,,,,,,,,,,,,,,,,,,,,,,,,,,,,,,,,,,,,,,,,,,,,,,,,,,,,,,,,,,,,,,,,,,,,,,,,,,,,,,,,,,,,,,,,,,,,,,,,-2.1155299734232358e-10,1.2967404927621828e-10,-1.7262580254140403e-10,0.0,-5.976330541557218e-10,-3.8364353360798015e-10,-4.68561083835084e-05,-4.675191667047329e-05,-1.1864287330354273e-08,2.9876101592662963e-09,-1.7568439147908066e-08,0.0,1.7181233715746205e-06,4.915065346722258e-06,5.073270949651487e-05,5.061368574388325e-05,,,,,,,,,,,,,,,,,,,,,,,,,,,,,,,,,,,,,,,,,,,,,,,,,,,,,,,,,,,,,,,,,,,,,,,,,,
76,2.735558271408081,0.6108039617538452,1.5708342790603638,0.3899487695097923,0.0,-3.141592675445488,8.945989088404716e-11,0.500009298324585,0.500009298324585,0.6076990962028503,1.5715680122375488,0.3873784533143043,0.0,-3.141592973468712,-8.069321779657912e-07,0.5000083446502686,0.5000083446502686,,,,,,,,,,,,,,,,,,,,,,,,,,,,,,,,,,,,,,,,,,,,,,,,,,,,,,,,,,,,,,,,,,,,,,,,,,,,,,,,,,,,,,,,,,,,,,,,,,,,,,,,,,,,,,,,,,,,,,,,,,,,,,,,,,,,,,-2.1155299734232358e-10,1.2967404927621828e-10,-1.7262580254140403e-10,0.0,-5.976330541557218e-10,-3.8364353360798015e-10,-4.68561083835084e-05,-4.675191667047329e-05,-9.810763756945562e-09,2.472133608932836e-09,-1.452141162872067e-08,0.0,1.4197987638908671e-06,4.0630206967762206e-06,4.194438588456251e-05,4.185007492196746e-05,,,,,,,,,,,,,,,,,,,,,,,,,,,,,,,,,,,,,,,,,,,,,,,,,,,,,,,,,,,,,,,,,,,,,,,,,,
77,2.7569029331207275,0.6108039617538452,1.5708342790603638,0.3899487695097923,0.0,-3.141592675445488,7.668238960478746e-11,0.5000077486038208,0.5000077486038208,0.6076990962028503,1.5715680122375488,0.3873784533143043,0.0,-3.141592973468712,-8.069321779657912e-07,0.5000083446502686,0.5000083446502686,,,,,,,,,,,,,,,,,,,,,,,,,,,,,,,,,,,,,,,,,,,,,,,,,,,,,,,,,,,,,,,,,,,,,,,,,,,,,,,,,,,,,,,,,,,,,,,,,,,,,,,,,,,,,,,,,,,,,,,,,,,,,,,,,,,,,,-1.7663648321786238e-10,1.084687895058778e-10,-1.4410694859634532e-10,0.0,-4.867217739956685e-10,-3.3039498914533283e-10,-3.9128561184043065e-05,-3.904632467310876e-05,-9.810763756945562e-09,2.472133608932836e-09,-1.452141162872067e-08,0.0,1.4197987638908671e-06,4.0630206967762206e-06,4.194438588456251e-05,4.185007492196746e-05,,,,,,,,,,,,,,,,,,,,,,,,,,,,,,,,,,,,,,,,,,,,,,,,,,,,,,,,,,,,,,,,,,,,,,,,,,
78,2.7780559062957764,0.6108039617538452,1.5708342790603638,0.3899487695097923,0.0,-3.141592675445488,6.625459209042006e-11,0.5000065565109253,0.5000065565109253,0.6076990962028503,1.5715680122375488,0.3873784533143043,0.0,-3.1415929138640672,-6.737647595400631e-07,0.5000069737434387,0.5000069737434387,,,,,,,,,,,,,,,,,,,,,,,,,,,,,,,,,,,,,,,,,,,,,,,,,,,,,,,,,,,,,,,,,,,,,,,,,,,,,,,,,,,,,,,,,,,,,,,,,,,,,,,,,,,,,,,,,,,,,,,,,,,,,,,,,,,,,,-1.4893641875346475e-10,9.137135492665037e-11,-1.2146533778789603e-10,0.0,-4.0079051188968146e-10,-2.866902548692707e-10,-3.300426033092663e-05,-3.293869303888641e-05,-8.193778988641043e-09,2.0660140265249542e-09,-1.2123746451209172e-08,0.0,1.1851097951876e-06,3.3925036859727697e-06,3.502738763927482e-05,3.495187047519721e-05,,,,,,,,,,,,,,,,,,,,,,,,,,,,,,,,,,,,,,,,,,,,,,,,,,,,,,,,,,,,,,,,,,,,,,,,,,
79,2.7991747856140137,0.6108039617538452,1.5708342790603638,0.3899487695097923,0.0,-3.141592675445488,6.625459209042006e-11,0.5000065565109253,0.5000065565109253,0.6076990962028503,1.5715680122375488,0.3873784533143043,0.0,-3.1415928542594225,-5.625738594972063e-07,0.500005841255188,0.5000057816505432,,,,,,,,,,,,,,,,,,,,,,,,,,,,,,,,,,,,,,,,,,,,,,,,,,,,,,,,,,,,,,,,,,,,,,,,,,,,,,,,,,,,,,,,,,,,,,,,,,,,,,,,,,,,,,,,,,,,,,,,,,,,,,,,,,,,,,-1.4893641875346475e-10,9.137135492665037e-11,-1.2146533778789603e-10,0.0,-4.0079051188968146e-10,-2.866902548692707e-10,-3.300426033092663e-05,-3.293869303888641e-05,-6.8435812572431595e-09,1.7266188478970435e-09,-1.01220001269553e-08,0.0,9.892141861200798e-07,2.832641484928899e-06,2.9251063097035512e-05,2.919070357165765e-05,,,,,,,,,,,,,,,,,,,,,,,,,,,,,,,,,,,,,,,,,,,,,,,,,,,,,,,,,,,,,,,,,,,,,,,,,,
80,2.820559024810791,0.6108039617538452,1.5708342790603638,0.3899487695097923,0.0,-3.141592675445488,5.6721446983765134e-11,0.5000054836273193,0.5000054836273193,0.6076990962028503,1.5715680122375488,0.3873784533143043,0.0,-3.1415928542594225,-5.569650625147915e-07,0.5000057816505432,0.5000057220458984,,,,,,,,,,,,,,,,,,,,,,,,,,,,,,,,,,,,,,,,,,,,,,,,,,,,,,,,,,,,,,,,,,,,,,,,,,,,,,,,,,,,,,,,,,,,,,,,,,,,,,,,,,,,,,,,,,,,,,,,,,,,,,,,,,,,,,-1.2445600106048002e-10,7.649436639667329e-11,-1.013772399360846e-10,0.0,-3.2629454693733346e-10,-2.4614846272363877e-10,-2.7561171009438112e-05,-2.7509777282830328e-05,-6.775413563531174e-09,1.7096324356202783e-09,-1.0021032892382209e-08,0.0,9.793342314878828e-07,2.804400537570473e-06,2.8959664632566273e-05,2.8900056349812075e-05,,,,,,,,,,,,,,,,,,,,,,,,,,,,,,,,,,,,,,,,,,,,,,,,,,,,,,,,,,,,,,,,,,,,,,,,,,
81,2.8416693210601807,0.6108039617538452,1.5708342790603638,0.3899487695097923,0.0,-3.141592675445488,5.6721446983765134e-11,0.5000054836273193,0.5000054836273193,0.6076990962028503,1.5715680122375488,0.3873784533143043,0.0,-3.1415928542594225,-4.650494815905404e-07,0.5000048279762268,0.5000048279762268,,,,,,,,,,,,,,,,,,,,,,,,,,,,,,,,,,,,,,,,,,,,,,,,,,,,,,,,,,,,,,,,,,,,,,,,,,,,,,,,,,,,,,,,,,,,,,,,,,,,,,,,,,,,,,,,,,,,,,,,,,,,,,,,,,,,,,-1.2445600106048002e-10,7.649436639667329e-11,-1.013772399360846e-10,0.0,-3.2629454693733346e-10,-2.4614846272363877e-10,-2.7561171009438112e-05,-2.7509777282830328e-05,-5.6589732899681175e-09,1.428746010390114e-09,-8.366474624210696e-09,0.0,8.174520189641044e-07,2.3415925625158707e-06,2.418396070424933e-05,2.4136417778208852e-05,,,,,,,,,,,,,,,,,,,,,,,,,,,,,,,,,,,,,,,,,,,,,,,,,,,,,,,,,,,,,,,,,,,,,,,,,,
82,2.8631041049957275,0.6108039617538452,1.5708342790603638,0.3899487695097923,0.0,-3.141592675445488,4.8530162527482545e-11,0.5000045895576477,0.5000045895576477,0.6076990962028503,1.5715680122375488,0.3873784533143043,0.0,-3.1415928542594225,-4.650494815905404e-07,0.5000048279762268,0.5000048279762268,,,,,,,,,,,,,,,,,,,,,,,,,,,,,,,,,,,,,,,,,,,,,,,,,,,,,,,,,,,,,,,,,,,,,,,,,,,,,,,,,,,,,,,,,,,,,,,,,,,,,,,,,,,,,,,,,,,,,,,,,,,,,,,,,,,,,,-1.0380585280245214e-10,6.394884621840902e-11,-8.459205558253302e-11,0.0,-2.6567636979279996e-10,-2.1155739660105863e-10,-2.3015760234557092e-05,-2.2975649699219503e-05,-5.6589732899681175e-09,1.428746010390114e-09,-8.366474624210696e-09,0.0,8.174520189641044e-07,2.3415925625158707e-06,2.418396070424933e-05,2.4136417778208852e-05,,,,,,,,,,,,,,,,,,,,,,,,,,,,,,,,,,,,,,,,,,,,,,,,,,,,,,,,,,,,,,,,,,,,,,,,,,
83,2.884098768234253,0.6108039617538452,1.5708342790603638,0.3899487695097923,0.0,-3.141592675445488,4.149883214843442e-11,0.5000038146972656,0.5000038146972656,0.6076990962028503,1.5715680122375488,0.3873784533143043,0.0,-3.1415927946547777,-3.883026806761336e-07,0.5000039935112,0.5000039935112,,,,,,,,,,,,,,,,,,,,,,,,,,,,,,,,,,,,,,,,,,,,,,,,,,,,,,,,,,,,,,,,,,,,,,,,,,,,,,,,,,,,,,,,,,,,,,,,,,,,,,,,,,,,,,,,,,,,,,,,,,,,,,,,,,,,,,-8.676392937445597e-11,5.3179682879545e-11,-7.059630657835214e-11,0.0,-2.1554980023097414e-10,-1.8168941351426326e-10,-1.9219982277718373e-05,-1.918883026519325e-05,-4.726385949282985e-09,1.1939338406818931e-09,-6.985044542773266e-09,0.0,6.823287321822136e-07,1.9551612240320537e-06,2.019581188505981e-05,2.015797872445546e-05,,,,,,,,,,,,,,,,,,,,,,,,,,,,,,,,,,,,,,,,,,,,,,,,,,,,,,,,,,,,,,,,,,,,,,,,,,
84,2.9049015045166016,0.6108039617538452,1.5708342790603638,0.3899487695097923,0.0,-3.141592675445488,4.1139307238591265e-11,0.5000037550926208,0.5000037550926208,0.6076990962028503,1.5715680122375488,0.3873784533143043,0.0,-3.1415927946547777,-3.883026806761336e-07,0.5000039935112,0.5000039935112,,,,,,,,,,,,,,,,,,,,,,,,,,,,,,,,,,,,,,,,,,,,,,,,,,,,,,,,,,,,,,,,,,,,,,,,,,,,,,,,,,,,,,,,,,,,,,,,,,,,,,,,,,,,,,,,,,,,,,,,,,,,,,,,,,,,,,-8.609779555968089e-11,5.3179682879545e-11,-6.999956170261612e-11,0.0,-2.1255219806448622e-10,-1.7976257982166288e-10,-1.9028499082196504e-05,-1.8997785446117632e-05,-4.726385949282985e-09,1.1939338406818931e-09,-6.985044542773266e-09,0.0,6.823287321822136e-07,1.9551612240320537e-06,2.019581188505981e-05,2.015797872445546e-05,,,,,,,,,,,,,,,,,,,,,,,,,,,,,,,,,,,,,,,,,,,,,,,,,,,,,,,,,,,,,,,,,,,,,,,,,,
85,2.927528142929077,0.6108039617538452,1.5708342790603638,0.3899487695097923,0.0,-3.141592675445488,3.485168750816392e-11,0.5000030994415283,0.5000030994415283,0.6076990962028503,1.5715680122375488,0.3873784533143043,0.0,-3.1415927946547777,-3.2422133244836004e-07,0.5000033378601074,0.5000033378601074,,,,,,,,,,,,,,,,,,,,,,,,,,,,,,,,,,,,,,,,,,,,,,,,,,,,,,,,,,,,,,,,,,,,,,,,,,,,,,,,,,,,,,,,,,,,,,,,,,,,,,,,,,,,,,,,,,,,,,,,,,,,,,,,,,,,,,-7.099876242477876e-11,4.385380947269368e-11,-5.7773230643931583e-11,0.0,-1.7108536809473662e-10,-1.5321389990052836e-10,-1.573199187987484e-05,-1.5708623323007487e-05,-3.947453475205975e-09,9.978684545330907e-10,-5.831779503751022e-09,0.0,5.695409868167189e-07,1.6325025171681773e-06,1.686534596956335e-05,1.6835308997542597e-05,,,,,,,,,,,,,,,,,,,,,,,,,,,,,,,,,,,,,,,,,,,,,,,,,,,,,,,,,,,,,,,,,,,,,,,,,,
86,2.948892116546631,0.6108039617538452,1.5708342790603638,0.3899487695097923,0.0,-3.141592675445488,3.485168750816392e-11,0.5000030994415283,0.5000030994415283,0.6076990962028503,1.5715680122375488,0.3873784533143043,0.0,-3.1415927946547777,-2.707153043957078e-07,0.5000028014183044,0.5000028014183044,,,,,,,,,,,,,,,,,,,,,,,,,,,,,,,,,,,,,,,,,,,,,,,,,,,,,,,,,,,,,,,,,,,,,,,,,,,,,,,,,,,,,,,,,,,,,,,,,,,,,,,,,,,,,,,,,,,,,,,,,,,,,,,,,,,,,,-7.099876242477876e-11,4.385380947269368e-11,-5.7773230643931583e-11,0.0,-1.7108536809473662e-10,-1.5321389990052836e-10,-1.573199187987484e-05,-1.5708623323007487e-05,-3.296862782775633e-09,8.3366646919103e-10,-4.8688901799209824e-09,0.0,4.7539677439090166e-07,1.363091769235325e-06,1.4084101167100016e-05,1.406032151862746e-05,,,,,,,,,,,,,,,,,,,,,,,,,,,,,,,,,,,,,,,,,,,,,,,,,,,,,,,,,,,,,,,,,,,,,,,,,,
87,2.969899892807007,0.6108039617538452,1.5708342790603638,0.3899487695097923,0.0,-3.141592675445488,2.9509412274864027e-11,0.5000025629997253,0.5000025629997253,0.6076990962028503,1.5715680122375488,0.3873784533143043,0.0,-3.1415927946547777,-2.707153043957078e-07,0.5000028014183044,0.5000028014183044,,,,,,,,,,,,,,,,,,,,,,,,,,,,,,,,,,,,,,,,,,,,,,,,,,,,,,,,,,,,,,,,,,,,,,,,,,,,,,,,,,,,,,,,,,,,,,,,,,,,,,,,,,,,,,,,,,,,,,,,,,,,,,,,,,,,,,-5.867528685143952e-11,3.630429290524262e-11,-4.771877337717001e-11,0.0,-1.3761214390228815e-10,-1.3006243304580778e-10,-1.3006573681195732e-05,-1.2988927664991934e-05,-3.296862782775633e-09,8.3366646919103e-10,-4.8688901799209824e-09,0.0,4.7539677439090166e-07,1.363091769235325e-06,1.4084101167100016e-05,1.406032151862746e-05,,,,,,,,,,,,,,,,,,,,,,,,,,,,,,,,,,,,,,,,,,,,,,,,,,,,,,,,,,,,,,,,,,,,,,,,,,
88,2.9914333820343018,0.6108039617538452,1.5708342790603638,0.3899487695097923,0.0,-3.141592675445488,2.9509412274864027e-11,0.5000025629997253,0.5000025629997253,0.6076990962028503,1.5715680122375488,0.3873784533143043,0.0,-3.141592735050133,-2.2603931881803874e-07,0.5000023245811462,0.5000023245811462,,,,,,,,,,,,,,,,,,,,,,,,,,,,,,,,,,,,,,,,,,,,,,,,,,,,,,,,,,,,,,,,,,,,,,,,,,,,,,,,,,,,,,,,,,,,,,,,,,,,,,,,,,,,,,,,,,,,,,,,,,,,,,,,,,,,,,-5.867528685143952e-11,3.630429290524262e-11,-4.771877337717001e-11,0.0,-1.3761214390228815e-10,-1.3006243304580778e-10,-1.3006573681195732e-05,-1.2988927664991934e-05,-2.7536861679777758e-09,6.969980148596733e-10,-4.064928837976822e-09,0.0,3.968139594690001e-07,1.1381418971723178e-06,1.176150908577256e-05,1.1742738024622668e-05,,,,,,,,,,,,,,,,,,,,,,,,,,,,,,,,,,,,,,,,,,,,,,,,,,,,,,,,,,,,,,,,,,,,,,,,,,
89,3.0126163959503174,0.6108039617538452,1.5708342790603638,0.3899487695097923,0.0,-3.141592675445488,2.497289007530323e-11,0.5000021457672119,0.5000021457672119,0.6076990962028503,1.5715680122375488,0.3873784533143043,0.0,-3.141592735050133,-2.2603931881803874e-07,0.5000023245811462,0.5000023245811462,,,,,,,,,,,,,,,,,,,,,,,,,,,,,,,,,,,,,,,,,,,,,,,,,,,,,,,,,,,,,,,,,,,,,,,,,,,,,,,,,,,,,,,,,,,,,,,,,,,,,,,,,,,,,,,,,,,,,,,,,,,,,,,,,,,,,,-4.8405723873656825e-11,2.986499936241671e-11,-3.938516179857743e-11,0.0,-1.0980105713542797e-10,-1.1037669389590832e-10,-1.0753308743005618e-05,-1.0740102879935876e-05,-2.7536861679777758e-09,6.969980148596733e-10,-4.064928837976822e-09,0.0,3.968139594690001e-07,1.1381418971723178e-06,1.176150908577256e-05,1.1742738024622668e-05,,,,,,,,,,,,,,,,,,,,,,,,,,,,,,,,,,,,,,,,,,,,,,,,,,,,,,,,,,,,,,,,,,,,,,,,,,
90,3.0340418815612793,0.6108039617538452,1.5708342790603638,0.3899487695097923,0.0,-3.141592675445488,2.497289007530323e-11,0.5000021457672119,0.5000021457672119,0.6076990962028503,1.5715680122375488,0.3873784533143043,0.0,-3.141592735050133,-1.8873618046200138e-07,0.5000019669532776,0.5000019669532776,,,,,,,,,,,,,,,,,,,,,,,,,,,,,,,,,,,,,,,,,,,,,,,,,,,,,,,,,,,,,,,,,,,,,,,,,,,,,,,,,,,,,,,,,,,,,,,,,,,,,,,,,,,,,,,,,,,,,,,,,,,,,,,,,,,,,,-4.8405723873656825e-11,2.986499936241671e-11,-3.938516179857743e-11,0.0,-1.0980105713542797e-10,-1.1037669389590832e-10,-1.0753308743005618e-05,-1.0740102879935876e-05,-2.3000490401159372e-09,5.82422998718357e-10,-3.3938269972111353e-09,0.0,3.3122094578175165e-07,9.503150977252516e-07,9.821932508202735e-06,9.807165042730048e-06,,,,,,,,,,,,,,,,,,,,,,,,,,,,,,,,,,,,,,,,,,,,,,,,,,,,,,,,,,,,,,,,,,,,,,,,,,
91,3.055354356765747,0.6108039617538452,1.5708342790603638,0.3899487695097923,0.0,-3.141592675445488,2.1122246313121096e-11,0.5000017881393433,0.5000017881393433,0.6076990962028503,1.5715680122375488,0.3873784533143043,0.0,-3.141592735050133,-1.5758915594688008e-07,0.5000016093254089,0.5000016093254089,,,,,,,,,,,,,,,,,,,,,,,,,,,,,,,,,,,,,,,,,,,,,,,,,,,,,,,,,,,,,,,,,,,,,,,,,,,,,,,,,,,,,,,,,,,,,,,,,,,,,,,,,,,,,,,,,,,,,,,,,,,,,,,,,,,,,,-4.019007349143066e-11,2.4757973449140988e-11,-3.252259572761318e-11,0.0,-8.798517470154366e-11,-9.361154212905731e-11,-8.890399840311147e-06,-8.880626410245895e-06,-1.920741343752752e-09,4.867217739956685e-10,-2.833497436682819e-09,0.0,2.764705016033986e-07,7.93485071426403e-07,8.20220975583652e-06,8.190635526261758e-06,,,,,,,,,,,,,,,,,,,,,,,,,,,,,,,,,,,,,,,,,,,,,,,,,,,,,,,,,,,,,,,,,,,,,,,,,,
92,3.0776591300964355,0.6108039617538452,1.5708342790603638,0.3899487695097923,0.0,-3.141592675445488,1.8014468389226934e-11,0.5000014901161194,0.5000014901161194,0.6076990962028503,1.5715680122375488,0.3873784533143043,0.0,-3.141592735050133,-1.5758915594688008e-07,0.5000016093254089,0.5000016093254089,,,,,,,,,,,,,,,,,,,,,,,,,,,,,,,,,,,,,,,,,,,,,,,,,,,,,,,,,,,,,,,,,,,,,,,,,,,,,,,,,,,,,,,,,,,,,,,,,,,,,,,,,,,,,,,,,,,,,,,,,,,,,,,,,,,,,,-3.375077994860476e-11,2.098321516541546e-11,-2.7200464103316335e-11,0.0,-7.088774012231625e-11,-8.010669905189616e-11,-7.424188879667781e-06,-7.416930657200282e-06,-1.920741343752752e-09,4.867217739956685e-10,-2.833497436682819e-09,0.0,2.764705016033986e-07,7.93485071426403e-07,8.20220975583652e-06,8.190635526261758e-06,,,,,,,,,,,,,,,,,,,,,,,,,,,,,,,,,,,,,,,,,,,,,,,,,,,,,,,,,,,,,,,,,,,,,,,,,,
93,3.0990357398986816,0.6108039617538452,1.5708342790603638,0.3899487695097923,0.0,-3.141592675445488,1.8014468389226934e-11,0.5000014901161194,0.5000014901161194,0.6076990962028503,1.5715680122375488,0.3873784533143043,0.0,-3.141592735050133,-1.3027045042690588e-07,0.5000013709068298,0.5000013709068298,,,,,,,,,,,,,,,,,,,,,,,,,,,,,,,,,,,,,,,,,,,,,,,,,,,,,,,,,,,,,,,,,,,,,,,,,,,,,,,,,,,,,,,,,,,,,,,,,,,,,,,,,,,,,,,,,,,,,,,,,,,,,,,,,,,,,,-3.375077994860476e-11,2.098321516541546e-11,-2.7200464103316335e-11,0.0,-7.088774012231625e-11,-8.010669905189616e-11,-7.424188879667781e-06,-7.416930657200282e-06,-1.5882295478775175e-09,4.0289993563646926e-10,-2.3419945982539048e-09,0.0,2.28465196983052e-07,6.559312737408618e-07,6.781358024454676e-06,6.772449978598161e-06,,,,,,,,,,,,,,,,,,,,,,,,,,,,,,,,,,,,,,,,,,,,,,,,,,,,,,,,,,,,,,,,,,,,,,,,,,
94,3.1203534603118896,0.6108039617538452,1.5708342790603638,0.3899487695097923,0.0,-3.141592675445488,1.5358317048685954e-11,0.5000012516975403,0.5000012516975403,0.6076990962028503,1.5715680122375488,0.3873784533143043,0.0,-3.141592735050133,-1.3027045042690588e-07,0.5000013709068298,0.5000013709068298,,,,,,,,,,,,,,,,,,,,,,,,,,,,,,,,,,,,,,,,,,,,,,,,,,,,,,,,,,,,,,,,,,,,,,,,,,,,,,,,,,,,,,,,,,,,,,,,,,,,,,,,,,,,,,,,,,,,,,,,,,,,,,,,,,,,,,-2.8033131371785203e-11,1.7208456881689926e-11,-2.2697121959680544e-11,0.0,-5.728750807065808e-11,-6.85604975569909e-11,-6.199785275384784e-06,-6.194480192789342e-06,-1.5882295478775175e-09,4.0289993563646926e-10,-2.3419945982539048e-09,0.0,2.28465196983052e-07,6.559312737408618e-07,6.781358024454676e-06,6.772449978598161e-06,,,,,,,,,,,,,,,,,,,,,,,,,,,,,,,,,,,,,,,,,,,,,,,,,,,,,,,,,,,,,,,,,,,,,,,,,,
95,3.141662359237671,0.6108039617538452,1.5708342790603638,0.3899487695097923,0.0,-3.141592675445488,1.3322700581630542e-11,0.500001072883606,0.500001072883606,0.6076990962028503,1.5715680122375488,0.3873784533143043,0.0,-3.141592735050133,-1.076875406624822e-07,0.5000011324882507,0.5000011324882507,,,,,,,,,,,,,,,,,,,,,,,,,,,,,,,,,,,,,,,,,,,,,,,,,,,,,,,,,,,,,,,,,,,,,,,,,,,,,,,,,,,,,,,,,,,,,,,,,,,,,,,,,,,,,,,,,,,,,,,,,,,,,,,,,,,,,,-2.3869795029440862e-11,1.509903313490213e-11,-1.935257509799726e-11,0.0,-4.723998969780041e-11,-5.992428775414281e-11,-5.28203372596181e-06,-5.278087428450817e-06,-1.31339383813156e-09,3.3306690738754696e-10,-1.9358334935049015e-09,0.0,1.8879525498505245e-07,5.422228355200787e-07,5.606636932498077e-06,5.599819814960938e-06,,,,,,,,,,,,,,,,,,,,,,,,,,,,,,,,,,,,,,,,,,,,,,,,,,,,,,,,,,,,,,,,,,,,,,,,,,
96,3.1627612113952637,0.6108039617538452,1.5708342790603638,0.3899487695097923,0.0,-3.141592675445488,1.3204641373387728e-11,0.5000010132789612,0.5000010132789612,0.6076990962028503,1.5715680122375488,0.3873784533143043,0.0,-3.141592735050133,-9.082140195459942e-08,0.5000009536743164,0.5000009536743164,,,,,,,,,,,,,,,,,,,,,,,,,,,,,,,,,,,,,,,,,,,,,,,,,,,,,,,,,,,,,,,,,,,,,,,,,,,,,,,,,,,,,,,,,,,,,,,,,,,,,,,,,,,,,,,,,,,,,,,,,,,,,,,,,,,,,,-2.3869795029440862e-11,1.4543921622589549e-11,-1.91027749174566e-11,0.0,-4.7184478546569147e-11,-5.902928146284124e-11,-5.229410817264579e-06,-5.225538643571781e-06,-1.108002578575906e-09,2.814415367424772e-10,-1.6325135687722534e-09,0.0,1.5917750317839818e-07,4.57299591971605e-07,4.729164629679872e-06,4.723827714769868e-06,,,,,,,,,,,,,,,,,,,,,,,,,,,,,,,,,,,,,,,,,,,,,,,,,,,,,,,,,,,,,,,,,,,,,,,,,,
97,3.1841299533843994,0.6108039617538452,1.5708342790603638,0.3899487695097923,0.0,-3.141592675445488,1.1250010471808292e-11,0.5000008940696716,0.5000008940696716,0.6076990962028503,1.5715680122375488,0.3873784533143043,0.0,-3.141592735050133,-8.991592181928355e-08,0.5000009536743164,0.5000009536743164,,,,,,,,,,,,,,,,,,,,,,,,,,,,,,,,,,,,,,,,,,,,,,,,,,,,,,,,,,,,,,,,,,,,,,,,,,,,,,,,,,,,,,,,,,,,,,,,,,,,,,,,,,,,,,,,,,,,,,,,,,,,,,,,,,,,,,-1.970645868709653e-11,1.2212453270876722e-11,-1.5959455978986625e-11,0.0,-3.7914116290949096e-11,-5.0147143382250896e-11,-4.3669724618666805e-06,-4.364270807855064e-06,-1.0969003483296547e-09,2.7844393457598926e-10,-1.6162071680980714e-09,0.0,1.5758777749397268e-07,4.527402666099079e-07,4.682053258875385e-06,4.67679274152033e-06,,,,,,,,,,,,,,,,,,,,,,,,,,,,,,,,,,,,,,,,,,,,,,,,,,,,,,,,,,,,,,,,,,,,,,,,,,
98,3.205382823944092,0.6108039617538452,1.5708342790603638,0.3899487695097923,0.0,-3.141592675445488,1.1250010471808292e-11,0.5000008940696716,0.5000008940696716,0.6076990962028503,1.5715680122375488,0.3873784533143043,0.0,-3.141592675445488,-7.432862503264914e-08,0.5000007748603821,0.5000007748603821,,,,,,,,,,,,,,,,,,,,,,,,,,,,,,,,,,,,,,,,,,,,,,,,,,,,,,,,,,,,,,,,,,,,,,,,,,,,,,,,,,,,,,,,,,,,,,,,,,,,,,,,,,,,,,,,,,,,,,,,,,,,,,,,,,,,,,-1.970645868709653e-11,1.2212453270876722e-11,-1.5959455978986625e-11,0.0,-3.7914116290949096e-11,-5.0147143382250896e-11,-4.3669724618666805e-06,-4.364270807855064e-06,-9.071077222699842e-10,2.3048229991218247e-10,-1.3358897321680272e-09,0.0,1.3022449252275692e-07,3.742561602848582e-07,3.870990440191235e-06,3.867019131575944e-06,,,,,,,,,,,,,,,,,,,,,,,,,,,,,,,,,,,,,,,,,,,,,,,,,,,,,,,,,,,,,,,,,,,,,,,,,,
99,3.226588010787964,0.6108039617538452,1.5708342790603638,0.3899487695097923,0.0,-3.141592675445488,9.57972416670838e-12,0.5000007152557373,0.5000007152557373,0.6076990962028503,1.5715680122375488,0.3873784533143043,0.0,-3.141592675445488,-7.432862503264914e-08,0.5000007748603821,0.5000007748603821,,,,,,,,,,,,,,,,,,,,,,,,,,,,,,,,,,,,,,,,,,,,,,,,,,,,,,,,,,,,,,,,,,,,,,,,,,,,,,,,,,,,,,,,,,,,,,,,,,,,,,,,,,,,,,,,,,,,,,,,,,,,,,,,,,,,,,-1.659783421814609e-11,1.021405182655144e-11,-1.3329615189405786e-11,0.0,-3.036459972349803e-11,-4.3235377084061e-11,-3.6467670270212697e-06,-3.644956223070039e-06,-9.071077222699842e-10,2.3048229991218247e-10,-1.3358897321680272e-09,0.0,1.3022449252275692e-07,3.742561602848582e-07,3.870990440191235e-06,3.867019131575944e-06,,,,,,,,,,,,,,,,,,,,,,,,,,,,,,,,,,,,,,,,,,,,,,,,,,,,,,,,,,,,,,,,,,,,,,,,,,
100,3.2474212646484375,0.6108039617538452,1.5708342790603638,0.3899487695097923,0.0,-3.141592675445488,9.57972416670838e-12,0.5000007152557373,0.5000007152557373,0.6076990962028503,1.5715680122375488,0.3873784533143043,0.0,-3.141592675445488,-6.14434583212642e-08,0.5000006556510925,0.5000006556510925,,,,,,,,,,,,,,,,,,,,,,,,,,,,,,,,,,,,,,,,,,,,,,,,,,,,,,,,,,,,,,,,,,,,,,,,,,,,,,,,,,,,,,,,,,,,,,,,,,,,,,,,,,,,,,,,,,,,,,,,,,,,,,,,,,,,,,-1.659783421814609e-11,1.021405182655144e-11,-1.3329615189405786e-11,0.0,-3.036459972349803e-11,-4.3235377084061e-11,-3.6467670270212697e-06,-3.644956223070039e-06,-7.498446308318306e-10,1.9062529332813935e-10,-1.104200064716565e-09,0.0,1.0761258550928689e-07,3.093772704687581e-07,3.200427045157994e-06,3.197456180714653e-06,,,,,,,,,,,,,,,,,,,,,,,,,,,,,,,,,,,,,,,,,,,,,,,,,,,,,,,,,,,,,,,,,,,,,,,,,,
101,3.2706964015960693,0.6108039617538452,1.5708342790603638,0.3899487695097923,0.0,-3.141592675445488,8.154924652226114e-12,0.5000005960464478,0.5000005960464478,0.6076990962028503,1.5715680122375488,0.3873784533143043,0.0,-3.141592675445488,-6.14434583212642e-08,0.5000006556510925,0.5000006556510925,,,,,,,,,,,,,,,,,,,,,,,,,,,,,,,,,,,,,,,,,,,,,,,,,,,,,,,,,,,,,,,,,,,,,,,,,,,,,,,,,,,,,,,,,,,,,,,,,,,,,,,,,,,,,,,,,,,,,,,,,,,,,,,,,,,,,,-1.3933298959045716e-11,8.881784197001252e-12,-1.1088352458443753e-11,0.0,-2.4091839634365897e-11,-3.6762076022212036e-11,-3.0453395538643235e-06,-3.044197910639923e-06,-7.498446308318306e-10,1.9062529332813935e-10,-1.104200064716565e-09,0.0,1.0761258550928689e-07,3.093772704687581e-07,3.200427045157994e-06,3.197456180714653e-06,,,,,,,,,,,,,,,,,,,,,,,,,,,,,,,,,,,,,,,,,,,,,,,,,,,,,,,,,,,,,,,,,,,,,,,,,,
102,3.2932021617889404,0.6108039617538452,1.5708342790603638,0.3899487695097923,0.0,-3.141592675445488,6.9398761910754994e-12,0.5000004768371582,0.5000004768371582,0.6076990962028503,1.5715680122375488,0.3873784533143043,0.0,-3.141592675445488,-5.13034699167747e-08,0.500000536441803,0.500000536441803,,,,,,,,,,,,,,,,,,,,,,,,,,,,,,,,,,,,,,,,,,,,,,,,,,,,,,,,,,,,,,,,,,,,,,,,,,,,,,,,,,,,,,,,,,,,,,,,,,,,,,,,,,,,,,,,,,,,,,,,,,,,,,,,,,,,,,-1.1546319456101628e-11,7.216449660063517e-12,-9.23566778610052e-12,0.0,-1.9373391779708985e-11,-3.128087719406203e-11,-2.5431002086406806e-06,-2.542456513765501e-06,-6.263878304935132e-10,1.590949594287849e-10,-9.218806273914025e-10,0.0,8.982420496295164e-08,2.583208811302029e-07,2.672648861334892e-06,2.670414232852636e-06,,,,,,,,,,,,,,,,,,,,,,,,,,,,,,,,,,,,,,,,,,,,,,,,,,,,,,,,,,,,,,,,,,,,,,,,,,
103,3.314776659011841,0.6108039617538452,1.5708342790603638,0.3899487695097923,0.0,-3.141592675445488,6.9398761910754994e-12,0.5000004768371582,0.5000004768371582,0.6076990962028503,1.5715680122375488,0.3873784533143043,0.0,-3.141592675445488,-4.2836884261987513e-08,0.5000004172325134,0.5000004172325134,,,,,,,,,,,,,,,,,,,,,,,,,,,,,,,,,,,,,,,,,,,,,,,,,,,,,,,,,,,,,,,,,,,,,,,,,,,,,,,,,,,,,,,,,,,,,,,,,,,,,,,,,,,,,,,,,,,,,,,,,,,,,,,,,,,,,,-1.1546319456101628e-11,7.216449660063517e-12,-9.23566778610052e-12,0.0,-1.9373391779708985e-11,-3.128087719406203e-11,-2.5431002086406806e-06,-2.542456513765501e-06,-5.230815780521425e-10,1.3300471835009375e-10,-7.69641295139678e-10,0.0,7.49769668573208e-08,2.1569033492596645e-07,2.2319050003716256e-06,2.2302458546619164e-06,,,,,,,,,,,,,,,,,,,,,,,,,,,,,,,,,,,,,,,,,,,,,,,,,,,,,,,,,,,,,,,,,,,,,,,,,,
104,3.3375415802001953,0.6108039617538452,1.5708342790603638,0.3899487695097923,0.0,-3.141592675445488,5.850492833248122e-12,0.5000004172325134,0.5000004172325134,0.6076990962028503,1.5715680122375488,0.3873784533143043,0.0,-3.141592675445488,-4.2836884261987513e-08,0.5000004172325134,0.5000004172325134,,,,,,,,,,,,,,,,,,,,,,,,,,,,,,,,,,,,,,,,,,,,,,,,,,,,,,,,,,,,,,,,,,,,,,,,,,,,,,,,,,,,,,,,,,,,,,,,,,,,,,,,,,,,,,,,,,,,,,,,,,,,,,,,,,,,,,-9.492406860545088e-12,6.106226635438361e-12,-7.681355551625302e-12,0.0,-1.5376588891058418e-11,-2.6734416763707358e-11,-2.1025318801548565e-06,-2.1022708551754477e-06,-5.230815780521425e-10,1.3300471835009375e-10,-7.69641295139678e-10,0.0,7.49769668573208e-08,2.1569033492596645e-07,2.2319050003716256e-06,2.2302458546619164e-06,,,,,,,,,,,,,,,,,,,,,,,,,,,,,,,,,,,,,,,,,,,,,,,,,,,,,,,,,,,,,,,,,,,,,,,,,,
105,3.360751152038574,0.6108039617538452,1.5708342790603638,0.3899487695097923,0.0,-3.141592675445488,4.975653569716521e-12,0.5000003576278687,0.5000003576278687,0.6076990962028503,1.5715680122375488,0.3873784533143043,0.0,-3.141592675445488,-3.5767531159081045e-08,0.5000003576278687,0.5000003576278687,,,,,,,,,,,,,,,,,,,,,,,,,,,,,,,,,,,,,,,,,,,,,,,,,,,,,,,,,,,,,,,,,,,,,,,,,,,,,,,,,,,,,,,,,,,,,,,,,,,,,,,,,,,,,,,,,,,,,,,,,,,,,,,,,,,,,,-7.882583474838611e-12,4.884981308350689e-12,-6.383782391594649e-12,0.0,-1.2434497875801752e-11,-2.266618663593345e-11,-1.7557804312673395e-06,-1.755776679601695e-06,-4.3703929364369287e-10,1.1135536936990319e-10,-6.426040255469444e-10,0.0,6.258304807715831e-08,1.8009514235473034e-07,1.863844204308407e-06,1.8626305973157289e-06,,,,,,,,,,,,,,,,,,,,,,,,,,,,,,,,,,,,,,,,,,,,,,,,,,,,,,,,,,,,,,,,,,,,,,,,,,
106,3.3826093673706055,0.6108039617538452,1.5708342790603638,0.3899487695097923,0.0,-3.141592675445488,4.9307832122869044e-12,0.5000003576278687,0.5000003576278687,0.6076990962028503,1.5715680122375488,0.3873784533143043,0.0,-3.141592675445488,-3.0165576703211634e-08,0.5000002980232239,0.5000002980232239,,,,,,,,,,,,,,,,,,,,,,,,,,,,,,,,,,,,,,,,,,,,,,,,,,,,,,,,,,,,,,,,,,,,,,,,,,,,,,,,,,,,,,,,,,,,,,,,,,,,,,,,,,,,,,,,,,,,,,,,,,,,,,,,,,,,,,-7.827072323607354e-12,4.996003610813205e-12,-6.404599073306372e-12,0.0,-1.1990408665951689e-11,-2.2435244634300133e-11,-1.7382878922944656e-06,-1.7382956229994306e-06,-3.68816088780477e-10,9.403589018575076e-11,-5.418721027439233e-10,0.0,5.2764846714126186e-08,1.5188838631274848e-07,1.5721415138614248e-06,1.5712555523350602e-06,,,,,,,,,,,,,,,,,,,,,,,,,,,,,,,,,,,,,,,,,,,,,,,,,,,,,,,,,,,,,,,,,,,,,,,,,,
107,3.404334783554077,0.6108039617538452,1.5708342790603638,0.3899487695097923,0.0,-3.141592675445488,4.155337098715739e-12,0.5000002980232239,0.5000002980232239,0.6076990962028503,1.5715680122375488,0.3873784533143043,0.0,-3.141592675445488,-2.9864828832160135e-08,0.5000002980232239,0.5000002980232239,,,,,,,,,,,,,,,,,,,,,,,,,,,,,,,,,,,,,,,,,,,,,,,,,,,,,,,,,,,,,,,,,,,,,,,,,,,,,,,,,,,,,,,,,,,,,,,,,,,,,,,,,,,,,,,,,,,,,,,,,,,,,,,,,,,,,,-6.439293542825908e-12,3.9968028886505635e-12,-5.211109321834329e-12,0.0,-9.658940314238862e-12,-1.8727120548733822e-11,-1.4371463521456462e-06,-1.4373373460330183e-06,-3.6493030819428895e-10,9.314771176605063e-11,-5.36508337756203e-10,0.0,5.223782650887187e-08,1.503741202668607e-07,1.5564802424705704e-06,1.5556103107883246e-06,,,,,,,,,,,,,,,,,,,,,,,,,,,,,,,,,,,,,,,,,,,,,,,,,,,,,,,,,,,,,,,,,,,,,,,,,,
108,3.4256036281585693,0.6108039617538452,1.5708342790603638,0.3899487695097923,0.0,-3.141592675445488,4.155337098715739e-12,0.5000002980232239,0.5000002980232239,0.6076990962028503,1.5715680122375488,0.3873784533143043,0.0,-3.141592675445488,-2.49362486215432e-08,0.5000002384185791,0.5000002384185791,,,,,,,,,,,,,,,,,,,,,,,,,,,,,,,,,,,,,,,,,,,,,,,,,,,,,,,,,,,,,,,,,,,,,,,,,,,,,,,,,,,,,,,,,,,,,,,,,,,,,,,,,,,,,,,,,,,,,,,,,,,,,,,,,,,,,,-6.439293542825908e-12,3.9968028886505635e-12,-5.211109321834329e-12,0.0,-9.658940314238862e-12,-1.8727120548733822e-11,-1.4371463521456462e-06,-1.4373373460330183e-06,-3.0497826486453045e-10,7.760458942129844e-11,-4.479402959667311e-10,0.0,4.3602955912547265e-08,1.2555788941881474e-07,1.2998024203625391e-06,1.299196469517483e-06,,,,,,,,,,,,,,,,,,,,,,,,,,,,,,,,,,,,,,,,,,,,,,,,,,,,,,,,,,,,,,,,,,,,,,,,,,
109,3.447227478027344,0.6108039617538452,1.5708342790603638,0.3899487695097923,0.0,-3.141592675445488,3.4992427792174267e-12,0.5000002384185791,0.5000002384185791,0.6076990962028503,1.5715680122375488,0.3873784533143043,0.0,-3.141592675445488,-2.49362486215432e-08,0.5000002384185791,0.5000002384185791,,,,,,,,,,,,,,,,,,,,,,,,,,,,,,,,,,,,,,,,,,,,,,,,,,,,,,,,,,,,,,,,,,,,,,,,,,,,,,,,,,,,,,,,,,,,,,,,,,,,,,,,,,,,,,,,,,,,,,,,,,,,,,,,,,,,,,-5.440092820663267e-12,3.3306690738754696e-12,-4.3021142204224816e-12,0.0,-7.549516567451064e-12,-1.5693633892421843e-11,-1.188174223898386e-06,-1.188485043712717e-06,-3.0497826486453045e-10,7.760458942129844e-11,-4.479402959667311e-10,0.0,4.3602955912547265e-08,1.2555788941881474e-07,1.2998024203625391e-06,1.299196469517483e-06,,,,,,,,,,,,,,,,,,,,,,,,,,,,,,,,,,,,,,,,,,,,,,,,,,,,,,,,,,,,,,,,,,,,,,,,,,
110,3.4697916507720947,0.6108039617538452,1.5708342790603638,0.3899487695097923,0.0,-3.141592675445488,3.4992427792174267e-12,0.5000002384185791,0.5000002384185791,0.6076990962028503,1.5715680122375488,0.3873784533143043,0.0,-3.141592675445488,-2.0821028456907698e-08,0.5000002384185791,0.5000002384185791,,,,,,,,,,,,,,,,,,,,,,,,,,,,,,,,,,,,,,,,,,,,,,,,,,,,,,,,,,,,,,,,,,,,,,,,,,,,,,,,,,,,,,,,,,,,,,,,,,,,,,,,,,,,,,,,,,,,,,,,,,,,,,,,,,,,,,-5.440092820663267e-12,3.3306690738754696e-12,-4.3021142204224816e-12,0.0,-7.549516567451064e-12,-1.5693633892421843e-11,-1.188174223898386e-06,-1.188485043712717e-06,-2.545186283953171e-10,6.494804694057166e-11,-3.7396474805717617e-10,0.0,3.6395555014223646e-08,1.0483726242682678e-07,1.0854537322302349e-06,1.0850478702195687e-06,,,,,,,,,,,,,,,,,,,,,,,,,,,,,,,,,,,,,,,,,,,,,,,,,,,,,,,,,,,,,,,,,,,,,,,,,,
111,3.4917666912078857,0.6108039617538452,1.5708342790603638,0.3899487695097923,0.0,-3.141592675445488,2.947082031537485e-12,0.5000001788139343,0.5000001788139343,0.6076990962028503,1.5715680122375488,0.3873784533143043,0.0,-3.141592675445488,-1.756001388741879e-08,0.5000001788139343,0.5000001788139343,,,,,,,,,,,,,,,,,,,,,,,,,,,,,,,,,,,,,,,,,,,,,,,,,,,,,,,,,,,,,,,,,,,,,,,,,,,,,,,,,,,,,,,,,,,,,,,,,,,,,,,,,,,,,,,,,,,,,,,,,,,,,,,,,,,,,,-4.440892098500626e-12,2.6645352591003757e-12,-3.5041414214731507e-12,0.0,-5.995204332975845e-12,-1.3248903710239011e-11,-9.823344271353562e-07,-9.827178928389912e-07,-2.1471713296250527e-10,5.473399511402022e-11,-3.153935446142952e-10,0.0,3.068584319976253e-08,8.841745113841172e-08,9.155734232990652e-07,9.153114888249548e-07,,,,,,,,,,,,,,,,,,,,,,,,,,,,,,,,,,,,,,,,,,,,,,,,,,,,,,,,,,,,,,,,,,,,,,,,,,
112,3.5130014419555664,0.6108039617538452,1.5708342790603638,0.3899487695097923,0.0,-3.141592675445488,2.502298281775728e-12,0.5000001788139343,0.5000001788139343,0.6076990962028503,1.5715680122375488,0.3873784533143043,0.0,-3.141592675445488,-1.738494148639802e-08,0.5000001788139343,0.5000001788139343,,,,,,,,,,,,,,,,,,,,,,,,,,,,,,,,,,,,,,,,,,,,,,,,,,,,,,,,,,,,,,,,,,,,,,,,,,,,,,,,,,,,,,,,,,,,,,,,,,,,,,,,,,,,,,,,,,,,,,,,,,,,,,,,,,,,,,-3.885780586188048e-12,2.4424906541753444e-12,-2.9559688030644793e-12,0.0,-4.829470157119431e-12,-1.1421647481968387e-11,-8.203269317164086e-07,-8.207470614252088e-07,-2.1277424266941123e-10,5.428990590417015e-11,-3.1218083673678615e-10,0.0,3.037864360067033e-08,8.753587366072679e-08,9.064528967428488e-07,9.061977266355824e-07,,,,,,,,,,,,,,,,,,,,,,,,,,,,,,,,,,,,,,,,,,,,,,,,,,,,,,,,,,,,,,,,,,,,,,,,,,
113,3.5339488983154297,0.6108039617538452,1.5708342790603638,0.3899487695097923,0.0,-3.141592675445488,2.502298281775728e-12,0.5000001788139343,0.5000001788139343,0.6076990962028503,1.5715680122375488,0.3873784533143043,0.0,-3.141592675445488,-1.4371188683526272e-08,0.5000001192092896,0.5000001192092896,,,,,,,,,,,,,,,,,,,,,,,,,,,,,,,,,,,,,,,,,,,,,,,,,,,,,,,,,,,,,,,,,,,,,,,,,,,,,,,,,,,,,,,,,,,,,,,,,,,,,,,,,,,,,,,,,,,,,,,,,,,,,,,,,,,,,,-3.885780586188048e-12,2.4424906541753444e-12,-2.9559688030644793e-12,0.0,-4.829470157119431e-12,-1.1421647481968387e-11,-8.203269317164086e-07,-8.207470614252088e-07,-1.7580381594939354e-10,4.474198789239381e-11,-2.580297087106942e-10,0.0,2.5104030854095072e-08,7.236126009502186e-08,7.494297733501298e-07,7.492922122764867e-07,,,,,,,,,,,,,,,,,,,,,,,,,,,,,,,,,,,,,,,,,,,,,,,,,,,,,,,,,,,,,,,,,,,,,,,,,,
114,3.555302619934082,0.6108039617538452,1.5708342790603638,0.3899487695097923,0.0,-3.141592675445488,2.1248454384892312e-12,0.5000001192092896,0.5000001192092896,0.6076990962028503,1.5715680122375488,0.3873784533143043,0.0,-3.141592675445488,-1.4371188683526272e-08,0.5000001192092896,0.5000001192092896,,,,,,,,,,,,,,,,,,,,,,,,,,,,,,,,,,,,,,,,,,,,,,,,,,,,,,,,,,,,,,,,,,,,,,,,,,,,,,,,,,,,,,,,,,,,,,,,,,,,,,,,,,,,,,,,,,,,,,,,,,,,,,,,,,,,,,-3.0531133177191805e-12,1.887379141862766e-12,-2.55351295663786e-12,0.0,-3.885780586188048e-12,-9.80004532386003e-12,-6.850381168987951e-07,-6.854723437754728e-07,-1.7580381594939354e-10,4.474198789239381e-11,-2.580297087106942e-10,0.0,2.5104030854095072e-08,7.236126009502186e-08,7.494297733501298e-07,7.492922122764867e-07,,,,,,,,,,,,,,,,,,,,,,,,,,,,,,,,,,,,,,,,,,,,,,,,,,,,,,,,,,,,,,,,,,,,,,,,,,
115,3.5778372287750244,0.6108039617538452,1.5708342790603638,0.3899487695097923,0.0,-3.141592675445488,2.1248454384892312e-12,0.5000001192092896,0.5000001192092896,0.6076990962028503,1.5715680122375488,0.3873784533143043,0.0,-3.141592675445488,-1.1879882855225789e-08,0.5000001192092896,0.5000001192092896,,,,,,,,,,,,,,,,,,,,,,,,,,,,,,,,,,,,,,,,,,,,,,,,,,,,,,,,,,,,,,,,,,,,,,,,,,,,,,,,,,,,,,,,,,,,,,,,,,,,,,,,,,,,,,,,,,,,,,,,,,,,,,,,,,,,,,-3.0531133177191805e-12,1.887379141862766e-12,-2.55351295663786e-12,0.0,-3.885780586188048e-12,-9.80004532386003e-12,-6.850381168987951e-07,-6.854723437754728e-07,-1.4521717162097048e-10,3.6970426720017706e-11,-2.1330159860610817e-10,0.0,2.07449613043309e-08,5.981679152000653e-08,6.19607703811198e-07,6.1955421415405e-07,,,,,,,,,,,,,,,,,,,,,,,,,,,,,,,,,,,,,,,,,,,,,,,,,,,,,,,,,,,,,,,,,,,,,,,,,,
116,3.600707530975342,0.6108039617538452,1.5708342790603638,0.3899487695097923,0.0,-3.141592675445488,1.820777686609154e-12,0.5000001192092896,0.5000001192092896,0.6076990962028503,1.5715680122375488,0.3873784533143043,0.0,-3.141592675445488,-1.1879882855225789e-08,0.5000001192092896,0.5000001192092896,,,,,,,,,,,,,,,,,,,,,,,,,,,,,,,,,,,,,,,,,,,,,,,,,,,,,,,,,,,,,,,,,,,,,,,,,,,,,,,,,,,,,,,,,,,,,,,,,,,,,,,,,,,,,,,,,,,,,,,,,,,,,,,,,,,,,,-2.7755575615628914e-12,1.7763568394002505e-12,-2.123301534595612e-12,0.0,-3.164135620181696e-12,-8.402112339211953e-12,-5.778179001936223e-07,-5.782503080808965e-07,-1.4521717162097048e-10,3.6970426720017706e-11,-2.1330159860610817e-10,0.0,2.07449613043309e-08,5.981679152000653e-08,6.19607703811198e-07,6.1955421415405e-07,,,,,,,,,,,,,,,,,,,,,,,,,,,,,,,,,,,,,,,,,,,,,,,,,,,,,,,,,,,,,,,,,,,,,,,,,,
117,3.6214964389801025,0.6108039617538452,1.5708342790603638,0.3899487695097923,0.0,-3.141592675445488,1.5589435124752082e-12,0.5000001192092896,0.5000001192092896,0.6076990962028503,1.5715680122375488,0.3873784533143043,0.0,-3.141592675445488,-9.919348009646e-09,0.5000001192092896,0.5000001192092896,,,,,,,,,,,,,,,,,,,,,,,,,,,,,,,,,,,,,,,,,,,,,,,,,,,,,,,,,,,,,,,,,,,,,,,,,,,,,,,,,,,,,,,,,,,,,,,,,,,,,,,,,,,,,,,,,,,,,,,,,,,,,,,,,,,,,,-2.3869795029440866e-12,1.6653345369377348e-12,-1.7832957333041577e-12,0.0,-2.3869795029440866e-12,-7.102754148724522e-12,-4.873791681347939e-07,-4.878003210251336e-07,-1.2151391004522338e-10,3.11972669919669e-11,-1.7810752872549074e-10,0.0,1.7316093448016545e-08,4.9945423796771144e-08,5.174289867682091e-07,5.174322268430842e-07,,,,,,,,,,,,,,,,,,,,,,,,,,,,,,,,,,,,,,,,,,,,,,,,,,,,,,,,,,,,,,,,,,,,,,,,,,
