MHC-RobotSimulators-Research/Data_Analysis_MotionReplication/mai_plotter/offset_fixed/0arm__a1.csv
Unnamed: 0,time,jpos0,jpos1,jpos2,jpos3,jpos4,jpos5,jpos6,jpos7,jpos8,jpos9,jpos10,jpos11,jpos12,jpos13,jpos14,jpos15,runlevel,sublevel,last_seq,type0,type1,pos0,pos1,pos2,pos3,pos4,pos5,ori0,ori1,ori2,ori3,ori4,ori5,ori6,ori7,ori8,ori9,ori10,ori11,ori12,ori13,ori14,ori15,ori16,ori17,ori_d0,ori_d1,ori_d2,ori_d3,ori_d4,ori_d5,ori_d6,ori_d7,ori_d8,ori_d9,ori_d10,ori_d11,ori_d12,ori_d13,ori_d14,ori_d15,ori_d16,ori_d17,pos_d0,pos_d1,pos_d2,pos_d3,pos_d4,pos_d5,encVals0,encVals1,encVals2,encVals3,encVals4,encVals5,encVals6,encVals7,encVals8,encVals9,encVals10,encVals11,encVals12,encVals13,encVals14,encVals15,dac_vals0,dac_vals1,dac_vals2,dac_vals3,dac_vals4,dac_vals5,dac_vals6,dac_vals7,dac_vals8,dac_vals9,dac_vals10,dac_vals11,dac_vals12,dac_vals13,dac_vals14,dac_vals15,Tau0,Tau1,Tau2,Tau3,Tau4,Tau5,Tau6,Tau7,Tau8,Tau9,Tau10,Tau11,Tau12,Tau13,Tau14,Tau15,mpos0,mpos1,mpos2,mpos3,mpos4,mpos5,mpos6,mpos7,mpos8,mpos9,mpos10,mpos11,mpos12,mpos13,mpos14,mpos15,mvel0,mvel1,mvel2,mvel3,mvel4,mvel5,mvel6,mvel7,mvel8,mvel9,mvel10,mvel11,mvel12,mvel13,mvel14,mvel15,jvel0,jvel1,jvel2,jvel3,jvel4,jvel5,jvel6,jvel7,jvel8,jvel9,jvel10,jvel11,jvel12,jvel13,jvel14,jvel15,mpos_d0,mpos_d1,mpos_d2,mpos_d3,mpos_d4,mpos_d5,mpos_d6,mpos_d7,mpos_d8,mpos_d9,mpos_d10,mpos_d11,mpos_d12,mpos_d13,mpos_d14,mpos_d15,jpos_d0,jpos_d1,jpos_d2,jpos_d3,jpos_d4,jpos_d5,jpos_d6,jpos_d7,jpos_d8,jpos_d9,jpos_d10,jpos_d11,jpos_d12,jpos_d13,jpos_d14,jpos_d15,grasp_d0,grasp_d1,encoffsets0,encoffsets1,encoffsets2,encoffsets3,encoffsets4,encoffsets5,encoffsets6,encoffsets7,encoffsets8,encoffsets9,encoffsets10,encoffsets11,encoffsets12,encoffsets13,encoffsets14,encoffsets15,jac_vel0,jac_vel1,jac_vel2,jac_vel3,jac_vel4,jac_vel5,jac_vel6,jac_vel7,jac_vel8,jac_vel9,jac_vel10,jac_vel11,jac_f0,jac_f1,jac_f2,jac_f3,jac_f4,jac_f5,jac_f6,jac_f7,jac_f8,jac_f9,jac_f10,jac_f11
0,0.0,0.6109181642532349,1.5708619356155396,0.3899600124359131,0.0,-3.141592675445488,-1.9937688093785108e-15,0.7853038311004639,0.7853038311004639,0.6109070181846619,1.5708434581756592,0.3899620017409325,0.0,-3.141592675445488,2.8242856729525367e-15,0.7853038311004639,0.7853038311004639,,,,,,,,,,,,,,,,,,,,,,,,,,,,,,,,,,,,,,,,,,,,,,,,,,,,,,,,,,,,,,,,,,,,,,,,,,,,,,,,,,,,,,,,,,,,,,,,,,,,,,,,,,,,,,,,,,,,,,,,,,,,,,,,,,,,,,0.0,0.0,0.0,0.0,0.0,0.0,0.0,0.0,0.0,0.0,0.0,0.0,0.0,0.0,0.0,1.1102230246251565e-13,,,,,,,,,,,,,,,,,,,,,,,,,,,,,,,,,,,,,,,,,,,,,,,,,,,,,,,,,,,,,,,,,,,,,,,,,,
1,1.114624261856079,0.6139726638793945,1.5746506452560425,0.3876601076126099,0.0,-3.1416090071181566,-2.3657290512346663e-05,0.5353394746780396,0.5348953604698181,0.6134883761405945,1.5737717151641846,0.3876165515184402,0.0,-3.1416340410689623,-3.096265936619602e-05,0.5303928852081299,0.530188262462616,,,,,,,,,,,,,,,,,,,,,,,,,,,,,,,,,,,,,,,,,,,,,,,,,,,,,,,,,,,,,,,,,,,,,,,,,,,,,,,,,,,,,,,,,,,,,,,,,,,,,,,,,,,,,,,,,,,,,,,,,,,,,,,,,,,,,,3.1643285183236e-05,5.129670898895711e-05,-4.6500870666932315e-05,0.0,-0.0172677263617515,-0.0022239258978515,-0.3130390644073486,-0.3210050761699676,2.497795867384411e-05,1.1489735697978176e-05,-4.324063047533855e-05,0.0,0.0069592879153788,0.0033636358566582,0.1521237939596176,0.1275026500225067,,,,,,,,,,,,,,,,,,,,,,,,,,,,,,,,,,,,,,,,,,,,,,,,,,,,,,,,,,,,,,,,,,,,,,,,,,
2,1.1374833583831787,0.6139737963676453,1.5746519565582275,0.3876586100459099,0.0,-3.141607815025261,-1.8647260731086135e-05,0.5269067883491516,0.526466429233551,0.6134883761405945,1.5737717151641846,0.3876165515184402,0.0,-3.1416340410689623,-3.096265936619602e-05,0.5303928852081299,0.530188262462616,,,,,,,,,,,,,,,,,,,,,,,,,,,,,,,,,,,,,,,,,,,,,,,,,,,,,,,,,,,,,,,,,,,,,,,,,,,,,,,,,,,,,,,,,,,,,,,,,,,,,,,,,,,,,,,,,,,,,,,,,,,,,,,,,,,,,,2.612501339172013e-05,4.445694503374398e-05,-3.862131416099146e-05,0.0,-0.0170770958065986,-0.0021861512213945,-0.3125271499156952,-0.3214505314826965,2.497795867384411e-05,1.1489735697978176e-05,-4.324063047533855e-05,0.0,0.0069592879153788,0.0033636358566582,0.1521237939596176,0.1275026500225067,,,,,,,,,,,,,,,,,,,,,,,,,,,,,,,,,,,,,,,,,,,,,,,,,,,,,,,,,,,,,,,,,,,,,,,,,,
3,1.1597471237182615,0.6139747500419617,1.574653148651123,0.387657276391983,0.0,-3.141594523189476,-1.2975868230569176e-05,0.5215796828269958,0.5214294791221619,0.6134892702102661,1.5737727880477903,0.387615113556385,0.0,-3.1416186034659654,-1.532089117972646e-05,0.5230799913406372,0.522975504398346,,,,,,,,,,,,,,,,,,,,,,,,,,,,,,,,,,,,,,,,,,,,,,,,,,,,,,,,,,,,,,,,,,,,,,,,,,,,,,,,,,,,,,,,,,,,,,,,,,,,,,,,,,,,,,,,,,,,,,,,,,,,,,,,,,,,,,2.4562719772802662e-05,3.0654631700599566e-05,-3.376835593371652e-05,0.0,-7.054205343592912e-05,6.590890552615747e-05,-0.1085510104894638,-0.1077897697687149,2.26285592361819e-05,2.658014273038134e-05,-3.674655454233289e-05,0.0,0.0005397634231485,0.000650854257401,0.1167972087860107,0.1136107891798019,,,,,,,,,,,,,,,,,,,,,,,,,,,,,,,,,,,,,,,,,,,,,,,,,,,,,,,,,,,,,,,,,,,,,,,,,,
4,1.181168556213379,0.6139747500419617,1.574653148651123,0.387657276391983,0.0,-3.141594523189476,-1.2975868230569176e-05,0.5215796828269958,0.5214294791221619,0.6134900450706482,1.5737736225128174,0.3876138469576836,0.0,-3.141612643001488,-1.2131661605963018e-05,0.5190808176994324,0.5190000534057617,,,,,,,,,,,,,,,,,,,,,,,,,,,,,,,,,,,,,,,,,,,,,,,,,,,,,,,,,,,,,,,,,,,,,,,,,,,,,,,,,,,,,,,,,,,,,,,,,,,,,,,,,,,,,,,,,,,,,,,,,,,,,,,,,,,,,,2.4562719772802662e-05,3.0654631700599566e-05,-3.376835593371652e-05,0.0,-7.054205343592912e-05,6.590890552615747e-05,-0.1085510104894638,-0.1077897697687149,1.8408947653369975e-05,2.096768730552867e-05,-3.0299512218334712e-05,0.0,8.354463352588937e-05,6.157514144433662e-05,0.0959923192858696,0.0955466404557228,,,,,,,,,,,,,,,,,,,,,,,,,,,,,,,,,,,,,,,,,,,,,,,,,,,,,,,,,,,,,,,,,,,,,,,,,,
5,1.202706813812256,0.6139755845069885,1.574654221534729,0.3876561141014099,0.0,-3.141594284770897,-1.075495129043702e-05,0.5178415179252625,0.517718493938446,0.6134900450706482,1.5737736225128174,0.3876138469576836,0.0,-3.141612643001488,-1.2131661605963018e-05,0.5190808176994324,0.5190000534057617,,,,,,,,,,,,,,,,,,,,,,,,,,,,,,,,,,,,,,,,,,,,,,,,,,,,,,,,,,,,,,,,,,,,,,,,,,,,,,,,,,,,,,,,,,,,,,,,,,,,,,,,,,,,,,,,,,,,,,,,,,,,,,,,,,,,,,2.034235694736708e-05,2.5265311705879867e-05,-2.79063569905702e-05,0.0,8.112081559374928e-06,5.4158885177457705e-05,-0.0897689834237098,-0.0890911370515823,1.8408947653369975e-05,2.096768730552867e-05,-3.0299512218334712e-05,0.0,8.354463352588937e-05,6.157514144433662e-05,0.0959923192858696,0.0955466404557228,,,,,,,,,,,,,,,,,,,,,,,,,,,,,,,,,,,,,,,,,,,,,,,,,,,,,,,,,,,,,,,,,,,,,,,,,,
6,1.2238144874572754,0.6139755845069885,1.574654221534729,0.3876561141014099,0.0,-3.141594284770897,-1.075495129043702e-05,0.5178415179252625,0.517718493938446,0.613490641117096,1.573774337768555,0.3876128560304642,0.0,-3.141609185932091,-9.924176083586644e-06,0.5159342885017395,0.5158682465553284,,,,,,,,,,,,,,,,,,,,,,,,,,,,,,,,,,,,,,,,,,,,,,,,,,,,,,,,,,,,,,,,,,,,,,,,,,,,,,,,,,,,,,,,,,,,,,,,,,,,,,,,,,,,,,,,,,,,,,,,,,,,,,,,,,,,,,2.034235694736708e-05,2.5265311705879867e-05,-2.79063569905702e-05,0.0,8.112081559374928e-06,5.4158885177457705e-05,-0.0897689834237098,-0.0890911370515823,1.537983371235896e-05,1.7520924302516505e-05,-2.5296900275861844e-05,0.0,9.134508582064882e-05,5.6822180340532213e-05,0.0801656171679496,0.0797933414578437,,,,,,,,,,,,,,,,,,,,,,,,,,,,,,,,,,,,,,,,,,,,,,,,,,,,,,,,,,,,,,,,,,,,,,,,,,
7,1.2457687854766846,0.613976240158081,1.574655055999756,0.3876552051305771,0.0,-3.141594046352318,-8.97764584806282e-06,0.5148990750312805,0.5147981643676758,0.613490641117096,1.573774337768555,0.3876128560304642,0.0,-3.141609185932091,-9.924176083586644e-06,0.5159342885017395,0.5158682465553284,,,,,,,,,,,,,,,,,,,,,,,,,,,,,,,,,,,,,,,,,,,,,,,,,,,,,,,,,,,,,,,,,,,,,,,,,,,,,,,,,,,,,,,,,,,,,,,,,,,,,,,,,,,,,,,,,,,,,,,,,,,,,,,,,,,,,,1.698903724900447e-05,2.1101330275996588e-05,-2.3298691303352825e-05,0.0,6.778584520361619e-06,4.526931297732517e-05,-0.0749646499752998,-0.0744059607386589,1.537983371235896e-05,1.7520924302516505e-05,-2.5296900275861844e-05,0.0,9.134508582064882e-05,5.6822180340532213e-05,0.0801656171679496,0.0797933414578437,,,,,,,,,,,,,,,,,,,,,,,,,,,,,,,,,,,,,,,,,,,,,,,,,,,,,,,,,,,,,,,,,,,,,,,,,,
8,1.268211841583252,0.6139768362045288,1.5746557712554932,0.3876544377207756,0.0,-3.141593807933739,-7.494202691304963e-06,0.5124419331550598,0.5123591423034668,0.6134911775588989,1.5737749338150024,0.3876119843125343,0.0,-3.1416060864905626,-7.994373845576774e-06,0.5131740570068359,0.513120710849762,,,,,,,,,,,,,,,,,,,,,,,,,,,,,,,,,,,,,,,,,,,,,,,,,,,,,,,,,,,,,,,,,,,,,,,,,,,,,,,,,,,,,,,,,,,,,,,,,,,,,,,,,,,,,,,,,,,,,,,,,,,,,,,,,,,,,,1.4188432032824494e-05,1.7624415704631247e-05,-1.945175972650759e-05,0.0,5.661814157065237e-06,3.7785917811561376e-05,-0.0626014545559883,-0.0621424540877342,1.2717101526504848e-05,1.4489825844066218e-05,-2.090941597998608e-05,0.0,7.363375334534794e-05,4.5801880332874134e-05,0.0662789344787597,0.0659772232174873,,,,,,,,,,,,,,,,,,,,,,,,,,,,,,,,,,,,,,,,,,,,,,,,,,,,,,,,,,,,,,,,,,,,,,,,,,
9,1.2895700931549072,0.6139768362045288,1.5746557712554932,0.3876544377207756,0.0,-3.141593807933739,-7.494202691304963e-06,0.5124419331550598,0.5123591423034668,0.6134915947914124,1.5737754106521606,0.3876112988591194,0.0,-3.141603642700127,-6.509529157483485e-06,0.5110015869140625,0.5109580159187317,,,,,,,,,,,,,,,,,,,,,,,,,,,,,,,,,,,,,,,,,,,,,,,,,,,,,,,,,,,,,,,,,,,,,,,,,,,,,,,,,,,,,,,,,,,,,,,,,,,,,,,,,,,,,,,,,,,,,,,,,,,,,,,,,,,,,,1.4188432032824494e-05,1.7624415704631247e-05,-1.945175972650759e-05,0.0,5.661814157065237e-06,3.7785917811561376e-05,-0.0626014545559883,-0.0621424540877342,1.0621097317198291e-05,1.2103369954274967e-05,-1.745703957567457e-05,0.0,6.0561156715266407e-05,3.742931949091144e-05,0.0553491339087486,0.0551021508872509,,,,,,,,,,,,,,,,,,,,,,,,,,,,,,,,,,,,,,,,,,,,,,,,,,,,,,,,,,,,,,,,,,,,,,,,,,
10,1.3111801147460938,0.6139772534370422,1.5746562480926514,0.3876538044214249,0.0,-3.141593629119805,-6.255941570998402e-06,0.5103899836540222,0.510322093963623,0.6134915947914124,1.5737754106521606,0.3876112988591194,0.0,-3.141603642700127,-6.509529157483485e-06,0.5110015869140625,0.5109580159187317,,,,,,,,,,,,,,,,,,,,,,,,,,,,,,,,,,,,,,,,,,,,,,,,,,,,,,,,,,,,,,,,,,,,,,,,,,,,,,,,,,,,,,,,,,,,,,,,,,,,,,,,,,,,,,,,,,,,,,,,,,,,,,,,,,,,,,1.1849496331706176e-05,1.4720360923092812e-05,-1.624001015443355e-05,0.0,4.72044803245808e-06,3.154071237077005e-05,-0.0522771924734115,-0.0519002377986907,1.0621097317198291e-05,1.2103369954274967e-05,-1.745703957567457e-05,0.0,6.0561156715266407e-05,3.742931949091144e-05,0.0553491339087486,0.0551021508872509,,,,,,,,,,,,,,,,,,,,,,,,,,,,,,,,,,,,,,,,,,,,,,,,,,,,,,,,,,,,,,,,,,,,,,,,,,
11,1.3335521221160889,0.6139772534370422,1.5746562480926514,0.3876538044214249,0.0,-3.141593629119805,-6.255941570998402e-06,0.5103899836540222,0.510322093963623,0.613491952419281,1.5737757682800293,0.3876106953620911,0.0,-3.1416016161422045,-5.236132892605383e-06,0.5090958476066589,0.5090606808662415,,,,,,,,,,,,,,,,,,,,,,,,,,,,,,,,,,,,,,,,,,,,,,,,,,,,,,,,,,,,,,,,,,,,,,,,,,,,,,,,,,,,,,,,,,,,,,,,,,,,,,,,,,,,,,,,,,,,,,,,,,,,,,,,,,,,,,1.1849496331706176e-05,1.4720360923092812e-05,-1.624001015443355e-05,0.0,4.72044803245808e-06,3.154071237077005e-05,-0.0522771924734115,-0.0519002377986907,8.782232725934591e-06,1.0009380275732838e-05,-1.4429306247620843e-05,0.0,4.924610766465776e-05,3.0222925488487817e-05,0.0457612723112106,0.0455614179372787,,,,,,,,,,,,,,,,,,,,,,,,,,,,,,,,,,,,,,,,,,,,,,,,,,,,,,,,,,,,,,,,,,,,,,,,,,
12,1.3547444343566897,0.6139776706695557,1.5746568441390991,0.3876532456278801,0.0,-3.1415934503058702,-5.170200438442407e-06,0.508590042591095,0.5085350275039673,0.613491952419281,1.5737757682800293,0.3876106953620911,0.0,-3.1416016161422045,-5.236132892605383e-06,0.5090958476066589,0.5090606808662415,,,,,,,,,,,,,,,,,,,,,,,,,,,,,,,,,,,,,,,,,,,,,,,,,,,,,,,,,,,,,,,,,,,,,,,,,,,,,,,,,,,,,,,,,,,,,,,,,,,,,,,,,,,,,,,,,,,,,,,,,,,,,,,,,,,,,,9.797584425541572e-06,1.2172434253443498e-05,-1.3423315976979213e-05,0.0,3.9009014471957926e-06,2.606525413284544e-05,-0.043220680207014,-0.0429145693778991,8.782232725934591e-06,1.0009380275732838e-05,-1.4429306247620843e-05,0.0,4.924610766465776e-05,3.0222925488487817e-05,0.0457612723112106,0.0455614179372787,,,,,,,,,,,,,,,,,,,,,,,,,,,,,,,,,,,,,,,,,,,,,,,,,,,,,,,,,,,,,,,,,,,,,,,,,,
13,1.37715482711792,0.6139780282974243,1.5746572017669678,0.3876527836918831,0.0,-3.1415933310965807,-4.272934802429518e-06,0.5071018934249878,0.5070573091506958,0.6134922504425049,1.573776125907898,0.3876102036237717,0.0,-3.1415999472121507,-4.208270183880813e-06,0.5075201988220215,0.5074918866157532,,,,,,,,,,,,,,,,,,,,,,,,,,,,,,,,,,,,,,,,,,,,,,,,,,,,,,,,,,,,,,,,,,,,,,,,,,,,,,,,,,,,,,,,,,,,,,,,,,,,,,,,,,,,,,,,,,,,,,,,,,,,,,,,,,,,,,8.10099118098151e-06,1.006551792670507e-05,-1.1095154150098097e-05,0.0,3.226172339054756e-06,2.154075264115818e-05,-0.0357331149280071,-0.0354846231639385,7.2617363002791535e-06,8.277658707811497e-06,-1.192670242744498e-05,0.0,4.003459616797045e-05,2.4387025405303575e-05,0.0378342643380165,0.0376726277172565,,,,,,,,,,,,,,,,,,,,,,,,,,,,,,,,,,,,,,,,,,,,,,,,,,,,,,,,,,,,,,,,,,,,,,,,,,
14,1.3985693454742432,0.6139780282974243,1.5746572017669678,0.3876527836918831,0.0,-3.1415933310965807,-4.272934802429518e-06,0.5071018934249878,0.5070573091506958,0.6134922504425049,1.573776125907898,0.3876102036237717,0.0,-3.1415999472121507,-4.208270183880813e-06,0.5075201988220215,0.5074918866157532,,,,,,,,,,,,,,,,,,,,,,,,,,,,,,,,,,,,,,,,,,,,,,,,,,,,,,,,,,,,,,,,,,,,,,,,,,,,,,,,,,,,,,,,,,,,,,,,,,,,,,,,,,,,,,,,,,,,,,,,,,,,,,,,,,,,,,8.10099118098151e-06,1.006551792670507e-05,-1.1095154150098097e-05,0.0,3.226172339054756e-06,2.154075264115818e-05,-0.0357331149280071,-0.0354846231639385,7.2617363002791535e-06,8.277658707811497e-06,-1.192670242744498e-05,0.0,4.003459616797045e-05,2.4387025405303575e-05,0.0378342643380165,0.0376726277172565,,,,,,,,,,,,,,,,,,,,,,,,,,,,,,,,,,,,,,,,,,,,,,,,,,,,,,,,,,,,,,,,,,,,,,,,,,
15,1.419757843017578,0.6139783263206482,1.5746575593948364,0.387652396261692,0.0,-3.141593211887291,-3.5314130855113035e-06,0.5058715343475342,0.5058354735374451,0.613492488861084,1.5737764835357666,0.387609771490097,0.0,-3.141598516700676,-3.3402982353436528e-06,0.5061556100845337,0.5061330199241638,,,,,,,,,,,,,,,,,,,,,,,,,,,,,,,,,,,,,,,,,,,,,,,,,,,,,,,,,,,,,,,,,,,,,,,,,,,,,,,,,,,,,,,,,,,,,,,,,,,,,,,,,,,,,,,,,,,,,,,,,,,,,,,,,,,,,,6.698187007714296e-06,8.323279871547129e-06,-9.170794328383636e-06,0.0,2.6699067348090466e-06,1.780191269062925e-05,-0.0295426957309246,-0.0293410457670688,5.944706117588794e-06,6.777434464311227e-06,-9.75981129158754e-06,0.0,3.218355413991958e-05,1.9442048142082055e-05,0.0309688076376914,0.0308395996689796,,,,,,,,,,,,,,,,,,,,,,,,,,,,,,,,,,,,,,,,,,,,,,,,,,,,,,,,,,,,,,,,,,,,,,,,,,
16,1.44170880317688,0.6139783263206482,1.5746575593948364,0.387652396261692,0.0,-3.141593211887291,-3.5314130855113035e-06,0.5058715343475342,0.5058354735374451,0.6134926676750183,1.5737767219543457,0.3876094511151314,0.0,-3.14159744381707,-2.710912895054207e-06,0.505140483379364,0.5051220655441284,,,,,,,,,,,,,,,,,,,,,,,,,,,,,,,,,,,,,,,,,,,,,,,,,,,,,,,,,,,,,,,,,,,,,,,,,,,,,,,,,,,,,,,,,,,,,,,,,,,,,,,,,,,,,,,,,,,,,,,,,,,,,,,,,,,,,,6.698187007714296e-06,8.323279871547129e-06,-9.170794328383636e-06,0.0,2.6699067348090466e-06,1.780191269062925e-05,-0.0295426957309246,-0.0293410457670688,4.964908839610871e-06,5.661180694005452e-06,-8.148364031512756e-06,0.0,2.6435811378178187e-05,1.5843996152398176e-05,0.0258618593215942,0.0257562883198261,,,,,,,,,,,,,,,,,,,,,,,,,,,,,,,,,,,,,,,,,,,,,,,,,,,,,,,,,,,,,,,,,,,,,,,,,,
17,1.4629008769989014,0.6139785051345825,1.5746577978134155,0.3876521131396294,0.0,-3.1415931522826464,-2.9777393137919717e-06,0.5049525499343872,0.5049226880073547,0.6134927272796631,1.5737767219543457,0.3876094362139702,0.0,-3.1415973842124254,-2.6795837584359106e-06,0.505089282989502,0.5050711035728455,,,,,,,,,,,,,,,,,,,,,,,,,,,,,,,,,,,,,,,,,,,,,,,,,,,,,,,,,,,,,,,,,,,,,,,,,,,,,,,,,,,,,,,,,,,,,,,,,,,,,,,,,,,,,,,,,,,,,,,,,,,,,,,,,,,,,,5.6502685765735805e-06,7.021684723440558e-06,-7.733723577985074e-06,0.0,2.2550516405317467e-06,1.501040969742462e-05,-0.0249187517911195,-0.024751529097557,4.915478257316863e-06,5.604861598840216e-06,-8.067081580520608e-06,0.0,2.6148240067414008e-05,1.5664571037632413e-05,0.0256042275577783,0.0254998374730348,,,,,,,,,,,,,,,,,,,,,,,,,,,,,,,,,,,,,,,,,,,,,,,,,,,,,,,,,,,,,,,,,,,,,,,,,,
18,1.4837315082550049,0.6139785051345825,1.5746577978134155,0.3876521131396294,0.0,-3.1415931522826464,-2.9777393137919717e-06,0.5049525499343872,0.5049226880073547,0.6134928464889526,1.5737768411636353,0.3876091828942299,0.0,-3.1415966093520433,-2.1981825284456136e-06,0.5042927861213684,0.5042778253555298,,,,,,,,,,,,,,,,,,,,,,,,,,,,,,,,,,,,,,,,,,,,,,,,,,,,,,,,,,,,,,,,,,,,,,,,,,,,,,,,,,,,,,,,,,,,,,,,,,,,,,,,,,,,,,,,,,,,,,,,,,,,,,,,,,,,,,5.6502685765735805e-06,7.021684723440558e-06,-7.733723577985074e-06,0.0,2.2550516405317467e-06,1.501040969742462e-05,-0.0249187517911195,-0.024751529097557,4.146599621890346e-06,4.728772637463408e-06,-6.802983989473432e-06,0.0,2.1708663552999496e-05,1.2903026799904184e-05,0.0215970762073993,0.0215108636766672,,,,,,,,,,,,,,,,,,,,,,,,,,,,,,,,,,,,,,,,,,,,,,,,,,,,,,,,,,,,,,,,,,,,,,,,,,
19,1.5057885646820068,0.6139786839485168,1.5746580362319946,0.3876518449187279,0.0,-3.141593033073357,-2.4610128548374632e-06,0.5040945410728455,0.5040704011917114,0.6134928464889526,1.5737768411636353,0.3876091828942299,0.0,-3.1415966093520433,-2.1981825284456136e-06,0.5042927861213684,0.5042778253555298,,,,,,,,,,,,,,,,,,,,,,,,,,,,,,,,,,,,,,,,,,,,,,,,,,,,,,,,,,,,,,,,,,,,,,,,,,,,,,,,,,,,,,,,,,,,,,,,,,,,,,,,,,,,,,,,,,,,,,,,,,,,,,,,,,,,,,4.671842816605931e-06,5.806297849630937e-06,-6.392376235453412e-06,0.0,1.867985474746092e-06,1.24053321997053e-05,-0.0206018164753913,-0.0204662103205919,4.146599621890346e-06,4.728772637463408e-06,-6.802983989473432e-06,0.0,2.1708663552999496e-05,1.2903026799904184e-05,0.0215970762073993,0.0215108636766672,,,,,,,,,,,,,,,,,,,,,,,,,,,,,,,,,,,,,,,,,,,,,,,,,,,,,,,,,,,,,,,,,,,,,,,,,,
20,1.5275933742523191,0.6139788627624512,1.5746582746505735,0.3876516288518906,0.0,-3.141592973468712,-2.0339630282251164e-06,0.5033852458000183,0.503365695476532,0.613493025302887,1.5737769603729248,0.3876089519262314,0.0,-3.1415958344916612,-1.7600133332962289e-06,0.5035491585731506,0.503537118434906,,,,,,,,,,,,,,,,,,,,,,,,,,,,,,,,,,,,,,,,,,,,,,,,,,,,,,,,,,,,,,,,,,,,,,,,,,,,,,,,,,,,,,,,,,,,,,,,,,,,,,,,,,,,,,,,,,,,,,,,,,,,,,,,,,,,,,3.862845460389508e-06,4.8012811930675525e-06,-5.283674454403808e-06,0.0,1.5479291732845013e-06,1.0252462743665092e-05,-0.0170327462255954,-0.0169228240847587,3.4286836125829723e-06,3.91063667848357e-06,-5.6230842346849386e-06,0.0,1.762735155352857e-05,1.0380815183452796e-05,0.0178559180349111,0.0177863370627164,,,,,,,,,,,,,,,,,,,,,,,,,,,,,,,,,,,,,,,,,,,,,,,,,,,,,,,,,,,,,,,,,,,,,,,,,,
21,1.5492219924926758,0.6139788627624512,1.5746582746505735,0.3876516288518906,0.0,-3.141592973468712,-2.0339630282251164e-06,0.5033852458000183,0.503365695476532,0.6134930849075317,1.5737770795822144,0.3876087731122971,0.0,-3.1415952980498583,-1.4412133850782991e-06,0.5029937028884888,0.502983808517456,,,,,,,,,,,,,,,,,,,,,,,,,,,,,,,,,,,,,,,,,,,,,,,,,,,,,,,,,,,,,,,,,,,,,,,,,,,,,,,,,,,,,,,,,,,,,,,,,,,,,,,,,,,,,,,,,,,,,,,,,,,,,,,,,,,,,,3.862845460389508e-06,4.8012811930675525e-06,-5.283674454403808e-06,0.0,1.5479291732845013e-06,1.0252462743665092e-05,-0.0170327462255954,-0.0169228240847587,2.8923693662363803e-06,3.2993671084113885e-06,-4.741957127407659e-06,0.0,1.4626531992689706e-05,8.53911114973016e-06,0.0150614026933908,0.0150039959698915,,,,,,,,,,,,,,,,,,,,,,,,,,,,,,,,,,,,,,,,,,,,,,,,,,,,,,,,,,,,,,,,,,,,,,,,,,
22,1.5707905292510986,0.6139789819717407,1.5746583938598633,0.3876514425873756,0.0,-3.1415929138640672,-1.6810237184472498e-06,0.5027987360954285,0.502782940864563,0.6134930849075317,1.573777198791504,0.3876087656617165,0.0,-3.1415952980498583,-1.4243305486161262e-06,0.5029639005661011,0.5029541254043579,,,,,,,,,,,,,,,,,,,,,,,,,,,,,,,,,,,,,,,,,,,,,,,,,,,,,,,,,,,,,,,,,,,,,,,,,,,,,,,,,,,,,,,,,,,,,,,,,,,,,,,,,,,,,,,,,,,,,,,,,,,,,,,,,,,,,,3.193937573087169e-06,3.970222678617574e-06,-4.367267138150055e-06,0.0,1.283098413296102e-06,8.473275556752924e-06,-0.014081984758377,-0.0139929177239537,2.863572490241495e-06,3.266543671998079e-06,-4.694655217463151e-06,0.0,1.4466728316619992e-05,8.441395038971677e-06,0.0149113647639751,0.01485460344702,,,,,,,,,,,,,,,,,,,,,,,,,,,,,,,,,,,,,,,,,,,,,,,,,,,,,,,,,,,,,,,,,,,,,,,,,,
23,1.59320330619812,0.6139789819717407,1.5746583938598633,0.3876514425873756,0.0,-3.1415929138640672,-1.6810237184472498e-06,0.5027987360954285,0.502782940864563,0.6134932041168213,1.573777198791504,0.3876086091995239,0.0,-3.1415948212127,-1.1514690640979095e-06,0.5024751424789429,0.502467155456543,,,,,,,,,,,,,,,,,,,,,,,,,,,,,,,,,,,,,,,,,,,,,,,,,,,,,,,,,,,,,,,,,,,,,,,,,,,,,,,,,,,,,,,,,,,,,,,,,,,,,,,,,,,,,,,,,,,,,,,,,,,,,,,,,,,,,,3.193937573087169e-06,3.970222678617574e-06,-4.367267138150055e-06,0.0,1.283098413296102e-06,8.473275556752924e-06,-0.014081984758377,-0.0139929177239537,2.3916022655612323e-06,2.728533445406356e-06,-3.919519258488435e-06,0.0,1.1869194167957176e-05,6.859027507744031e-06,0.0124523872509598,0.0124061098322272,,,,,,,,,,,,,,,,,,,,,,,,,,,,,,,,,,,,,,,,,,,,,,,,,,,,,,,,,,,,,,,,,,,,,,,,,,
24,1.6147103309631348,0.6139791011810303,1.5746586322784424,0.3876512935757637,0.0,-3.1415929138640672,-1.3893316008761758e-06,0.5023139119148254,0.5023011565208435,0.6134932041168213,1.573777198791504,0.3876086091995239,0.0,-3.1415948212127,-1.1514690640979095e-06,0.5024751424789429,0.502467155456543,,,,,,,,,,,,,,,,,,,,,,,,,,,,,,,,,,,,,,,,,,,,,,,,,,,,,,,,,,,,,,,,,,,,,,,,,,,,,,,,,,,,,,,,,,,,,,,,,,,,,,,,,,,,,,,,,,,,,,,,,,,,,,,,,,,,,,2.640860884639551e-06,3.2830114378157305e-06,-3.609803343351814e-06,0.0,1.063838908521575e-06,7.002887741691666e-06,-0.0116424141451716,-0.0115702748298645,2.3916022655612323e-06,2.728533445406356e-06,-3.919519258488435e-06,0.0,1.1869194167957176e-05,6.859027507744031e-06,0.0124523872509598,0.0124061098322272,,,,,,,,,,,,,,,,,,,,,,,,,,,,,,,,,,,,,,,,,,,,,,,,,,,,,,,,,,,,,,,,,,,,,,,,,,
25,1.635814189910889,0.6139792203903198,1.5746586322784424,0.3876511818170547,0.0,-3.1415928542594225,-1.1715243317667046e-06,0.5019517540931702,0.5019412040710449,0.6134932637214661,1.5737773180007937,0.3876084825396538,0.0,-3.141594403980186,-9.298469763052708e-07,0.502066969871521,0.5020605325698853,,,,,,,,,,,,,,,,,,,,,,,,,,,,,,,,,,,,,,,,,,,,,,,,,,,,,,,,,,,,,,,,,,,,,,,,,,,,,,,,,,,,,,,,,,,,,,,,,,,,,,,,,,,,,,,,,,,,,,,,,,,,,,,,,,,,,,2.22770336222311e-06,2.7696098641172284e-06,-3.04414515994722e-06,0.0,8.997732265925151e-07,5.904973932047142e-06,-0.0098201734945178,-0.0097604552283883,1.997421577470959e-06,2.2791343781136675e-06,-3.27236671182618e-06,0.0,9.73497299128212e-06,5.568782853515586e-06,0.0103989103808999,0.0103612020611763,,,,,,,,,,,,,,,,,,,,,,,,,,,,,,,,,,,,,,,,,,,,,,,,,,,,,,,,,,,,,,,,,,,,,,,,,,
26,1.6570196151733398,0.6139792203903198,1.5746586322784424,0.3876511743664741,0.0,-3.1415928542594225,-1.159832208941225e-06,0.5019322633743286,0.5019218921661377,0.6134933233261108,1.573777437210083,0.387608385682106,0.0,-3.1415941059569628,-7.590260793222114e-07,0.501743495464325,0.5017381906509399,,,,,,,,,,,,,,,,,,,,,,,,,,,,,,,,,,,,,,,,,,,,,,,,,,,,,,,,,,,,,,,,,,,,,,,,,,,,,,,,,,,,,,,,,,,,,,,,,,,,,,,,,,,,,,,,,,,,,,,,,,,,,,,,,,,,,,2.205520104325842e-06,2.74204262495914e-06,-3.013778496097075e-06,0.0,8.90955107024638e-07,5.846037765877554e-06,-0.0097223371267318,-0.0096632800996303,1.6849846815603089e-06,1.9228823475714307e-06,-2.7595933715929277e-06,0.0,8.070491276157554e-06,4.570332748699002e-06,0.0087714437395334,0.0087403850629925,,,,,,,,,,,,,,,,,,,,,,,,,,,,,,,,,,,,,,,,,,,,,,,,,,,,,,,,,,,,,,,,,,,,,,,,,,
27,1.6786484718322754,0.6139792799949646,1.574658751487732,0.3876510700583458,0.0,-3.1415928542594225,-9.585816087565036e-07,0.50159752368927,0.5015891194343567,0.6134933233261108,1.573777437210083,0.3876083782315254,0.0,-3.1415941059569628,-7.499912726416369e-07,0.5017260909080505,0.5017208456993103,,,,,,,,,,,,,,,,,,,,,,,,,,,,,,,,,,,,,,,,,,,,,,,,,,,,,,,,,,,,,,,,,,,,,,,,,,,,,,,,,,,,,,,,,,,,,,,,,,,,,,,,,,,,,,,,,,,,,,,,,,,,,,,,,,,,,,1.8236023606732488e-06,2.2674182673654286e-06,-2.491065288268146e-06,0.0,7.389691063508508e-07,4.831605110666715e-06,-0.0080380337312817,-0.0079902429133653,1.6682088244124316e-06,1.903752831822203e-06,-2.7320656954543665e-06,0.0,7.981888302310836e-06,4.517409252002835e-06,0.0086840642616152,0.0086533585563302,,,,,,,,,,,,,,,,,,,,,,,,,,,,,,,,,,,,,,,,,,,,,,,,,,,,,,,,,,,,,,,,,,,,,,,,,,
28,1.700578212738037,0.6139792799949646,1.574658751487732,0.3876510700583458,0.0,-3.1415928542594225,-9.585816087565036e-07,0.50159752368927,0.5015891194343567,0.6134933829307556,1.573777437210083,0.3876082888245583,0.0,-3.1415938675383837,-6.041579467819247e-07,0.501441478729248,0.501437246799469,,,,,,,,,,,,,,,,,,,,,,,,,,,,,,,,,,,,,,,,,,,,,,,,,,,,,,,,,,,,,,,,,,,,,,,,,,,,,,,,,,,,,,,,,,,,,,,,,,,,,,,,,,,,,,,,,,,,,,,,,,,,,,,,,,,,,,1.8236023606732488e-06,2.2674182673654286e-06,-2.491065288268146e-06,0.0,7.389691063508508e-07,4.831605110666715e-06,-0.0080380337312817,-0.0079902429133653,1.3932566389485146e-06,1.5901972574283718e-06,-2.2809740585216787e-06,0.0,6.542268238263205e-06,3.661253231257433e-06,0.0072520077228546,0.0072270194068551,,,,,,,,,,,,,,,,,,,,,,,,,,,,,,,,,,,,,,,,,,,,,,,,,,,,,,,,,,,,,,,,,,,,,,,,,,
29,1.722445011138916,0.6139793395996094,1.5746588706970217,0.3876509881019592,0.0,-3.1415927946547777,-7.922527629489196e-07,0.5013207793235779,0.5013139843940735,0.6134933829307556,1.573777437210083,0.3876082888245583,0.0,-3.1415938675383837,-6.041579467819247e-07,0.501441478729248,0.501437246799469,,,,,,,,,,,,,,,,,,,,,,,,,,,,,,,,,,,,,,,,,,,,,,,,,,,,,,,,,,,,,,,,,,,,,,,,,,,,,,,,,,,,,,,,,,,,,,,,,,,,,,,,,,,,,,,,,,,,,,,,,,,,,,,,,,,,,,1.5078192063811002e-06,1.8749468608803e-06,-2.059012103927671e-06,0.0,6.129913003860565e-07,3.993215614173096e-06,-0.0066455202177166,-0.0066068638116121,1.3932566389485146e-06,1.5901972574283718e-06,-2.2809740585216787e-06,0.0,6.542268238263205e-06,3.661253231257433e-06,0.0072520077228546,0.0072270194068551,,,,,,,,,,,,,,,,,,,,,,,,,,,,,,,,,,,,,,,,,,,,,,,,,,,,,,,,,,,,,,,,,,,,,,,,,,
30,1.744070529937744,0.6139793395996094,1.5746588706970217,0.3876509881019592,0.0,-3.1415927946547777,-7.922527629489196e-07,0.5013207793235779,0.5013139843940735,0.6134934425354004,1.5737775564193726,0.3876082143187523,0.0,-3.141593629119805,-4.919491516375274e-07,0.5012158751487732,0.5012124180793762,,,,,,,,,,,,,,,,,,,,,,,,,,,,,,,,,,,,,,,,,,,,,,,,,,,,,,,,,,,,,,,,,,,,,,,,,,,,,,,,,,,,,,,,,,,,,,,,,,,,,,,,,,,,,,,,,,,,,,,,,,,,,,,,,,,,,,1.5078192063811002e-06,1.8749468608803e-06,-2.059012103927671e-06,0.0,6.129913003860565e-07,3.993215614173096e-06,-0.0066455202177166,-0.0066068638116121,1.1753234048228478e-06,1.3416324691206682e-06,-1.923549916682532e-06,0.0,5.4201150305743795e-06,2.999598109454382e-06,0.006117042619735,0.006096486467868,,,,,,,,,,,,,,,,,,,,,,,,,,,,,,,,,,,,,,,,,,,,,,,,,,,,,,,,,,,,,,,,,,,,,,,,,,
31,1.7662239074707031,0.6139793992042542,1.5746588706970217,0.3876509135961533,0.0,-3.1415927946547777,-6.547853672600468e-07,0.5010919570922852,0.5010864734649658,0.6134935021400452,1.5737775564193726,0.3876081547141075,0.0,-3.1415934503058702,-3.952071665480617e-07,0.5010153651237488,0.5010125637054443,,,,,,,,,,,,,,,,,,,,,,,,,,,,,,,,,,,,,,,,,,,,,,,,,,,,,,,,,,,,,,,,,,,,,,,,,,,,,,,,,,,,,,,,,,,,,,,,,,,,,,,,,,,,,,,,,,,,,,,,,,,,,,,,,,,,,,1.2467183978515095e-06,1.5504086832152095e-06,-1.7018949165503727e-06,0.0,5.085438488094951e-07,3.3003145745169604e-06,-0.0054942462593317,-0.0054629938676953,9.816079682423151e-07,1.1206601584490272e-06,-1.6059524341471842e-06,0.0,4.439420081325807e-06,2.426506398478523e-06,0.0051083038561046,0.0050915982574224,,,,,,,,,,,,,,,,,,,,,,,,,,,,,,,,,,,,,,,,,,,,,,,,,,,,,,,,,,,,,,,,,,,,,,,,,,
32,1.7875189781188965,0.6139794588088989,1.574658989906311,0.3876508614420891,0.0,-3.141592735050133,-5.466264383358066e-07,0.5009118914604187,0.5009074211120605,0.6134935021400452,1.5737775564193726,0.3876081472635269,0.0,-3.1415934503058702,-3.904111451902281e-07,0.501005232334137,0.5010024905204773,,,,,,,,,,,,,,,,,,,,,,,,,,,,,,,,,,,,,,,,,,,,,,,,,,,,,,,,,,,,,,,,,,,,,,,,,,,,,,,,,,,,,,,,,,,,,,,,,,,,,,,,,,,,,,,,,,,,,,,,,,,,,,,,,,,,,,1.0411991979708546e-06,1.2949343499712995e-06,-1.4208902712198324e-06,0.0,4.260952835011267e-07,2.755148670985363e-06,-0.0045881299301981,-0.0045625916682183,9.71834992924414e-07,1.1095113450210192e-06,-1.5899327081569936e-06,0.0,4.390416506794281e-06,2.398018523308565e-06,0.0050574159249663,0.0050409021787345,,,,,,,,,,,,,,,,,,,,,,,,,,,,,,,,,,,,,,,,,,,,,,,,,,,,,,,,,,,,,,,,,,,,,,,,,,
33,1.8084712028503416,0.6139794588088989,1.574658989906311,0.3876508614420891,0.0,-3.141592735050133,-5.466264383358066e-07,0.5009118914604187,0.5009074211120605,0.6134935021400452,1.5737775564193726,0.3876080951094627,0.0,-3.1415933310965807,-3.092853830821696e-07,0.500831127166748,0.5008289217948914,,,,,,,,,,,,,,,,,,,,,,,,,,,,,,,,,,,,,,,,,,,,,,,,,,,,,,,,,,,,,,,,,,,,,,,,,,,,,,,,,,,,,,,,,,,,,,,,,,,,,,,,,,,,,,,,,,,,,,,,,,,,,,,,,,,,,,1.0411991979708546e-06,1.2949343499712995e-06,-1.4208902712198324e-06,0.0,4.260952835011267e-07,2.755148670985363e-06,-0.0045881299301981,-0.0045625916682183,8.035774499148829e-07,9.175500395031122e-07,-1.3141774388714111e-06,0.0,3.5548187042877544e-06,1.9148096725984942e-06,0.0041813435964286,0.0041680885478854,,,,,,,,,,,,,,,,,,,,,,,,,,,,,,,,,,,,,,,,,,,,,,,,,,,,,,,,,,,,,,,,,,,,,,,,,,
34,1.829615354537964,0.6139794588088989,1.574658989906311,0.3876508167386055,0.0,-3.141592735050133,-4.56333765441741e-07,0.5007615089416504,0.5007578730583191,0.6134935021400452,1.5737775564193726,0.3876080951094627,0.0,-3.1415933310965807,-3.092853830821696e-07,0.500831127166748,0.5008289217948914,,,,,,,,,,,,,,,,,,,,,,,,,,,,,,,,,,,,,,,,,,,,,,,,,,,,,,,,,,,,,,,,,,,,,,,,,,,,,,,,,,,,,,,,,,,,,,,,,,,,,,,,,,,,,,,,,,,,,,,,,,,,,,,,,,,,,,8.695593010088487e-07,1.0815567748068131e-06,-1.1862832707265625e-06,0.0,3.5703567391465185e-07,2.3000402507022955e-06,-0.0038314515259116,-0.0038105922285467,8.035774499148829e-07,9.175500395031122e-07,-1.3141774388714111e-06,0.0,3.5548187042877544e-06,1.9148096725984942e-06,0.0041813435964286,0.0041680885478854,,,,,,,,,,,,,,,,,,,,,,,,,,,,,,,,,,,,,,,,,,,,,,,,,,,,,,,,,,,,,,,,,,,,,,,,,,
35,1.851883888244629,0.6139794588088989,1.574658989906311,0.3876508167386055,0.0,-3.141592735050133,-4.56333765441741e-07,0.5007615089416504,0.5007578730583191,0.6134935617446899,1.573777675628662,0.3876080504059792,0.0,-3.141593211887291,-2.476021165875864e-07,0.5006940364837646,0.5006922483444214,,,,,,,,,,,,,,,,,,,,,,,,,,,,,,,,,,,,,,,,,,,,,,,,,,,,,,,,,,,,,,,,,,,,,,,,,,,,,,,,,,,,,,,,,,,,,,,,,,,,,,,,,,,,,,,,,,,,,,,,,,,,,,,,,,,,,,8.695593010088487e-07,1.0815567748068131e-06,-1.1862832707265625e-06,0.0,3.5703567391465185e-07,2.3000402507022955e-06,-0.0038314515259116,-0.0038105922285467,6.711326818731322e-07,7.66425728215836e-07,-1.0971934898407198e-06,0.0,2.9092186650814256e-06,1.545373265798844e-06,0.0034918135497719,0.0034810598008334,,,,,,,,,,,,,,,,,,,,,,,,,,,,,,,,,,,,,,,,,,,,,,,,,,,,,,,,,,,,,,,,,,,,,,,,,,
36,1.872819423675537,0.6139795184135437,1.574658989906311,0.3876507720351219,0.0,-3.141592735050133,-3.809560098488874e-07,0.5006359219551086,0.5006329417228699,0.6134935617446899,1.573777675628662,0.3876080504059792,0.0,-3.141593211887291,-2.476021165875864e-07,0.5006940364837646,0.5006922483444214,,,,,,,,,,,,,,,,,,,,,,,,,,,,,,,,,,,,,,,,,,,,,,,,,,,,,,,,,,,,,,,,,,,,,,,,,,,,,,,,,,,,,,,,,,,,,,,,,,,,,,,,,,,,,,,,,,,,,,,,,,,,,,,,,,,,,,7.262140115926741e-07,9.033389574142348e-07,-9.904127864501788e-07,0.0,2.991837391164154e-07,1.9201115719624795e-06,-0.0031995649915188,-0.0031825359910726,6.711326818731322e-07,7.66425728215836e-07,-1.0971934898407198e-06,0.0,2.9092186650814256e-06,1.545373265798844e-06,0.0034918135497719,0.0034810598008334,,,,,,,,,,,,,,,,,,,,,,,,,,,,,,,,,,,,,,,,,,,,,,,,,,,,,,,,,,,,,,,,,,,,,,,,,,
37,1.89467191696167,0.6139795184135437,1.574658989906311,0.3876507720351219,0.0,-3.141592735050133,-3.809560098488874e-07,0.5006359219551086,0.5006329417228699,0.6134935617446899,1.573777675628662,0.3876080131530762,0.0,-3.1415930926780016,-1.9538875051239304e-07,0.5005738139152527,0.5005723834037781,,,,,,,,,,,,,,,,,,,,,,,,,,,,,,,,,,,,,,,,,,,,,,,,,,,,,,,,,,,,,,,,,,,,,,,,,,,,,,,,,,,,,,,,,,,,,,,,,,,,,,,,,,,,,,,,,,,,,,,,,,,,,,,,,,,,,,7.262140115926741e-07,9.033389574142348e-07,-9.904127864501788e-07,0.0,2.991837391164154e-07,1.9201115719624795e-06,-0.0031995649915188,-0.0031825359910726,5.54936832486419e-07,6.33822651252558e-07,-9.068981512427854e-07,0.0,2.353440777369542e-06,1.2308179293540888e-06,0.0028869430534541,0.0028783269226551,,,,,,,,,,,,,,,,,,,,,,,,,,,,,,,,,,,,,,,,,,,,,,,,,,,,,,,,,,,,,,,,,,,,,,,,,,
38,1.9174649715423584,0.6139795184135437,1.5746591091156006,0.3876507422327995,0.0,-3.141592735050133,-3.148554696963402e-07,0.500525712966919,0.5005233883857727,0.6134935617446899,1.573777675628662,0.3876079833507538,0.0,-3.141593033073357,-1.538337244255672e-07,0.5004744529724121,0.5004733204841614,,,,,,,,,,,,,,,,,,,,,,,,,,,,,,,,,,,,,,,,,,,,,,,,,,,,,,,,,,,,,,,,,,,,,,,,,,,,,,,,,,,,,,,,,,,,,,,,,,,,,,,,,,,,,,,,,,,,,,,,,,,,,,,,,,,,,,6.004595434205839e-07,7.46978173538082e-07,-8.186344757632469e-07,0.0,2.482665308889409e-07,1.5869451317485073e-06,-0.0026452704332768,-0.0026315320283174,4.588585511555721e-07,5.241623739493662e-07,-7.49607352190651e-07,0.0,1.9029147324545193e-06,9.788561783352634e-07,0.0023868514690548,0.0023799552582204,,,,,,,,,,,,,,,,,,,,,,,,,,,,,,,,,,,,,,,,,,,,,,,,,,,,,,,,,,,,,,,,,,,,,,,,,,
39,1.9384396076202393,0.6139795184135437,1.5746591091156006,0.3876507124304771,0.0,-3.141592735050133,-2.628474646826362e-07,0.5004390478134155,0.5004370808601379,0.6134935617446899,1.573777675628662,0.3876079833507538,0.0,-3.141593033073357,-1.538337244255672e-07,0.5004744529724121,0.5004733204841614,,,,,,,,,,,,,,,,,,,,,,,,,,,,,,,,,,,,,,,,,,,,,,,,,,,,,,,,,,,,,,,,,,,,,,,,,,,,,,,,,,,,,,,,,,,,,,,,,,,,,,,,,,,,,,,,,,,,,,,,,,,,,,,,,,,,,,5.01474801239965e-07,6.23892049134156e-07,-6.834675900790899e-07,0.0,2.0805329370432449e-07,1.3248107961771891e-06,-0.0022090098354965,-0.0021978067234158,4.588585511555721e-07,5.241623739493662e-07,-7.49607352190651e-07,0.0,1.9029147324545193e-06,9.788561783352634e-07,0.0023868514690548,0.0023799552582204,,,,,,,,,,,,,,,,,,,,,,,,,,,,,,,,,,,,,,,,,,,,,,,,,,,,,,,,,,,,,,,,,,,,,,,,,,
40,1.9603815078735352,0.6139795184135437,1.5746591091156006,0.3876507124304771,0.0,-3.141592735050133,-2.628474646826362e-07,0.5004390478134155,0.5004370808601379,0.6134936213493347,1.573777675628662,0.387607960999012,0.0,-3.141592973468712,-1.223660746063615e-07,0.500396192073822,0.5003952980041504,,,,,,,,,,,,,,,,,,,,,,,,,,,,,,,,,,,,,,,,,,,,,,,,,,,,,,,,,,,,,,,,,,,,,,,,,,,,,,,,,,,,,,,,,,,,,,,,,,,,,,,,,,,,,,,,,,,,,,,,,,,,,,,,,,,,,,5.01474801239965e-07,6.23892049134156e-07,-6.834675900790899e-07,0.0,2.0805329370432449e-07,1.3248107961771891e-06,-0.0022090098354965,-0.0021978067234158,3.832298887118668e-07,4.378303231078462e-07,-6.25839618351165e-07,0.0,1.5552112699879217e-06,7.867698741392815e-07,0.0019932445138692,0.001987665425986,,,,,,,,,,,,,,,,,,,,,,,,,,,,,,,,,,,,,,,,,,,,,,,,,,,,,,,,,,,,,,,,,,,,,,,,,,
41,1.981898307800293,0.6139795780181885,1.5746591091156006,0.3876506900787353,0.0,-3.141592735050133,-2.194302339830756e-07,0.5003666281700134,0.5003650784492493,0.6134936213493347,1.573777675628662,0.387607960999012,0.0,-3.141592973468712,-1.223660746063615e-07,0.500396192073822,0.5003952980041504,,,,,,,,,,,,,,,,,,,,,,,,,,,,,,,,,,,,,,,,,,,,,,,,,,,,,,,,,,,,,,,,,,,,,,,,,,,,,,,,,,,,,,,,,,,,,,,,,,,,,,,,,,,,,,,,,,,,,,,,,,,,,,,,,,,,,,4.188076445643674e-07,5.210873723626719e-07,-5.706183969778067e-07,0.0,1.7435797872167313e-07,1.1059768212362542e-06,-0.0018446978647261,-0.0018355675274506,3.832298887118668e-07,4.378303231078462e-07,-6.25839618351165e-07,0.0,1.5552112699879217e-06,7.867698741392815e-07,0.0019932445138692,0.001987665425986,,,,,,,,,,,,,,,,,,,,,,,,,,,,,,,,,,,,,,,,,,,,,,,,,,,,,,,,,,,,,,,,,,,,,,,,,,
42,2.0027170181274414,0.6139795780181885,1.5746591091156006,0.3876506900787353,0.0,-3.141592735050133,-2.194302339830756e-07,0.5003666281700134,0.5003650784492493,0.6134936213493347,1.573777675628662,0.3876079386472702,0.0,-3.1415929138640672,-9.709294346293973e-08,0.5003308653831482,0.5003301501274109,,,,,,,,,,,,,,,,,,,,,,,,,,,,,,,,,,,,,,,,,,,,,,,,,,,,,,,,,,,,,,,,,,,,,,,,,,,,,,,,,,,,,,,,,,,,,,,,,,,,,,,,,,,,,,,,,,,,,,,,,,,,,,,,,,,,,,4.188076445643674e-07,5.210873723626719e-07,-5.706183969778067e-07,0.0,1.7435797872167313e-07,1.1059768212362542e-06,-0.0018446978647261,-0.0018355675274506,3.2006624905989156e-07,3.657176819160668e-07,-5.225072072789771e-07,0.0,1.270435745936993e-06,6.314112397376448e-07,0.0016645459691062,0.0016600370872765,,,,,,,,,,,,,,,,,,,,,,,,,,,,,,,,,,,,,,,,,,,,,,,,,,,,,,,,,,,,,,,,,,,,,,,,,,
43,2.026129961013794,0.6139795780181885,1.5746591091156006,0.3876506751775742,0.0,-3.141592675445488,-1.8318469585665298e-07,0.5003061890602112,0.5003048777580261,0.6134936213493347,1.573777675628662,0.387607923746109,0.0,-3.1415928542594225,-7.682719882495803e-08,0.5002762675285339,0.500275731086731,,,,,,,,,,,,,,,,,,,,,,,,,,,,,,,,,,,,,,,,,,,,,,,,,,,,,,,,,,,,,,,,,,,,,,,,,,,,,,,,,,,,,,,,,,,,,,,,,,,,,,,,,,,,,,,,,,,,,,,,,,,,,,,,,,,,,,3.4976804386133153e-07,4.352230860149575e-07,-4.764020218317455e-07,0.0,1.4612200516239684e-07,9.23290713217284e-07,-0.0015404685400426,-0.0015330319292843,2.67313396307145e-07,3.0548230256499664e-07,-4.362360073173477e-07,0.0,1.037289962368959e-06,5.058927854406647e-07,0.001390051911585,0.0013864118373021,,,,,,,,,,,,,,,,,,,,,,,,,,,,,,,,,,,,,,,,,,,,,,,,,,,,,,,,,,,,,,,,,,,,,,,,,,
44,2.048081159591675,0.6139795780181885,1.5746591091156006,0.387650660276413,0.0,-3.141592675445488,-1.5292620503259968e-07,0.5002556443214417,0.5002546310424805,0.6134936213493347,1.573777675628662,0.387607923746109,0.0,-3.1415928542594225,-7.582784888882088e-08,0.5002735257148743,0.5002729892730713,,,,,,,,,,,,,,,,,,,,,,,,,,,,,,,,,,,,,,,,,,,,,,,,,,,,,,,,,,,,,,,,,,,,,,,,,,,,,,,,,,,,,,,,,,,,,,,,,,,,,,,,,,,,,,,,,,,,,,,,,,,,,,,,,,,,,,2.921094335306407e-07,3.635076666341775e-07,-3.977420419687405e-07,0.0,1.2246015046457617e-07,7.707812414992077e-07,-0.0012864130549132,-0.0012803596910089,2.64652186388048e-07,3.0244297022363753e-07,-4.318845014950057e-07,0.0,1.0256565019517438e-06,4.996767302145599e-07,0.001376204425469,0.0013726076576858,,,,,,,,,,,,,,,,,,,,,,,,,,,,,,,,,,,,,,,,,,,,,,,,,,,,,,,,,,,,,,,,,,,,,,,,,,
45,2.0691614151000977,0.6139795780181885,1.5746591091156006,0.387650660276413,0.0,-3.141592675445488,-1.5292620503259968e-07,0.5002556443214417,0.5002546310424805,0.6134936213493347,1.5737777948379517,0.3876079088449478,0.0,-3.1415927946547777,-5.9016297626612875e-08,0.5002261400222778,0.5002257227897644,,,,,,,,,,,,,,,,,,,,,,,,,,,,,,,,,,,,,,,,,,,,,,,,,,,,,,,,,,,,,,,,,,,,,,,,,,,,,,,,,,,,,,,,,,,,,,,,,,,,,,,,,,,,,,,,,,,,,,,,,,,,,,,,,,,,,,2.921094335306407e-07,3.635076666341775e-07,-3.977420419687405e-07,0.0,1.2246015046457617e-07,7.707812414992077e-07,-0.0012864130549132,-0.0012803596910089,2.1883172962589017e-07,2.501159315215773e-07,-3.569792283997231e-07,0.0,8.275580398731108e-07,3.946317406189337e-07,0.0011378109920769,0.0011349455453455,,,,,,,,,,,,,,,,,,,,,,,,,,,,,,,,,,,,,,,,,,,,,,,,,,,,,,,,,,,,,,,,,,,,,,,,,,
46,2.0901451110839844,0.6139795780181885,1.5746591091156006,0.3876506453752518,0.0,-3.141592675445488,-1.2639175395179336e-07,0.5002113580703735,0.5002105832099915,0.6134936213493347,1.5737777948379517,0.3876079088449478,0.0,-3.1415927946547777,-5.9016297626612875e-08,0.5002261400222778,0.5002257227897644,,,,,,,,,,,,,,,,,,,,,,,,,,,,,,,,,,,,,,,,,,,,,,,,,,,,,,,,,,,,,,,,,,,,,,,,,,,,,,,,,,,,,,,,,,,,,,,,,,,,,,,,,,,,,,,,,,,,,,,,,,,,,,,,,,,,,,2.4152635091923e-07,3.0058711786296044e-07,-3.287572383214865e-07,0.0,1.016284798538436e-07,6.370418077494833e-07,-0.0010635540820658,-0.0010586862917989,2.1883172962589017e-07,2.501159315215773e-07,-3.569792283997231e-07,0.0,8.275580398731108e-07,3.946317406189337e-07,0.0011378109920769,0.0011349455453455,,,,,,,,,,,,,,,,,,,,,,,,,,,,,,,,,,,,,,,,,,,,,,,,,,,,,,,,,,,,,,,,,,,,,,,,,,
47,2.111220598220825,0.6139795780181885,1.5746591091156006,0.3876506453752518,0.0,-3.141592675445488,-1.2639175395179336e-07,0.5002113580703735,0.5002105832099915,0.6134936213493347,1.5737777948379517,0.3876078939437866,0.0,-3.1415927946547777,-4.63755220891926e-08,0.5001888871192932,0.5001885294914246,,,,,,,,,,,,,,,,,,,,,,,,,,,,,,,,,,,,,,,,,,,,,,,,,,,,,,,,,,,,,,,,,,,,,,,,,,,,,,,,,,,,,,,,,,,,,,,,,,,,,,,,,,,,,,,,,,,,,,,,,,,,,,,,,,,,,,2.4152635091923e-07,3.0058711786296044e-07,-3.287572383214865e-07,0.0,1.016284798538436e-07,6.370418077494833e-07,-0.0010635540820658,-0.0010586862917989,1.82764253509049e-07,2.089205537458838e-07,-2.980384294914984e-07,0.0,6.749269800820912e-07,3.149258702705993e-07,0.0009501787717454,0.0009478716528974,,,,,,,,,,,,,,,,,,,,,,,,,,,,,,,,,,,,,,,,,,,,,,,,,,,,,,,,,,,,,,,,,,,,,,,,,,
48,2.1333377361297607,0.6139795780181885,1.57465922832489,0.3876506304740906,0.0,-3.141592675445488,-1.0446132137076348e-07,0.5001747608184814,0.5001741051673889,0.6134936213493347,1.5737777948379517,0.3876078939437866,0.0,-3.1415927946547777,-4.63755220891926e-08,0.5001888871192932,0.5001885294914246,,,,,,,,,,,,,,,,,,,,,,,,,,,,,,,,,,,,,,,,,,,,,,,,,,,,,,,,,,,,,,,,,,,,,,,,,,,,,,,,,,,,,,,,,,,,,,,,,,,,,,,,,,,,,,,,,,,,,,,,,,,,,,,,,,,,,,1.9970242703948318e-07,2.485578534106026e-07,-2.717372638016969e-07,0.0,8.434136589130503e-08,5.265077334115631e-07,-0.000879303261172,-0.0008753920556046,1.82764253509049e-07,2.089205537458838e-07,-2.980384294914984e-07,0.0,6.749269800820912e-07,3.149258702705993e-07,0.0009501787717454,0.0009478716528974,,,,,,,,,,,,,,,,,,,,,,,,,,,,,,,,,,,,,,,,,,,,,,,,,,,,,,,,,,,,,,,,,,,,,,,,,,
49,2.1544301509857178,0.6139795780181885,1.57465922832489,0.38765062302351,0.0,-3.141592675445488,-8.808545715055517e-08,0.5001474022865295,0.5001468658447266,0.6134936213493347,1.5737777948379517,0.387607886493206,0.0,-3.1415927946547777,-3.5803601861061907e-08,0.5001561641693115,0.5001558661460876,,,,,,,,,,,,,,,,,,,,,,,,,,,,,,,,,,,,,,,,,,,,,,,,,,,,,,,,,,,,,,,,,,,,,,,,,,,,,,,,,,,,,,,,,,,,,,,,,,,,,,,,,,,,,,,,,,,,,,,,,,,,,,,,,,,,,,1.684596355744361e-07,2.096877125268293e-07,-2.2915578767879197e-07,0.0,7.13816206143747e-08,4.439699239355832e-07,-0.0007416768930852,-0.0007384633063338,1.511213980620596e-07,1.7277434949392045e-07,-2.463471275859775e-07,0.0,5.439069354906678e-07,2.4760490191511053e-07,0.0007855837466195,0.0007837510784156,,,,,,,,,,,,,,,,,,,,,,,,,,,,,,,,,,,,,,,,,,,,,,,,,,,,,,,,,,,,,,,,,,,,,,,,,,
50,2.1775104999542236,0.6139795780181885,1.57465922832489,0.38765062302351,0.0,-3.141592675445488,-8.808545715055517e-08,0.5001474022865295,0.5001468658447266,0.6134936809539795,1.5737777948379517,0.3876078715920448,0.0,-3.141592735050133,-2.7890955323073285e-08,0.5001304149627686,0.5001301765441895,,,,,,,,,,,,,,,,,,,,,,,,,,,,,,,,,,,,,,,,,,,,,,,,,,,,,,,,,,,,,,,,,,,,,,,,,,,,,,,,,,,,,,,,,,,,,,,,,,,,,,,,,,,,,,,,,,,,,,,,,,,,,,,,,,,,,,1.684596355744361e-07,2.096877125268293e-07,-2.2915578767879197e-07,0.0,7.13816206143747e-08,4.439699239355832e-07,-0.0007416768930852,-0.0007384633063338,1.2621387668332318e-07,1.443174397763869e-07,-2.056727481658527e-07,0.0,4.430533238064527e-07,1.9667133699385888e-07,0.0006560360197909,0.0006545647629536,,,,,,,,,,,,,,,,,,,,,,,,,,,,,,,,,,,,,,,,,,,,,,,,,,,,,,,,,,,,,,,,,,,,,,,,,,
51,2.198519229888916,0.6139796376228333,1.57465922832489,0.3876506155729294,0.0,-3.141592675445488,-7.280160474465448e-08,0.5001218914985657,0.5001214146614075,0.6134936809539795,1.5737777948379517,0.3876078715920448,0.0,-3.141592735050133,-2.7890955323073285e-08,0.5001304149627686,0.5001301765441895,,,,,,,,,,,,,,,,,,,,,,,,,,,,,,,,,,,,,,,,,,,,,,,,,,,,,,,,,,,,,,,,,,,,,,,,,,,,,,,,,,,,,,,,,,,,,,,,,,,,,,,,,,,,,,,,,,,,,,,,,,,,,,,,,,,,,,1.3928836040122405e-07,1.7339263536086946e-07,-1.894108550004603e-07,0.0,5.923972423715895e-08,3.669360353342199e-07,-0.0006131883128546,-0.000610610411968,1.2621387668332318e-07,1.443174397763869e-07,-2.056727481658527e-07,0.0,4.430533238064527e-07,1.9667133699385888e-07,0.0006560360197909,0.0006545647629536,,,,,,,,,,,,,,,,,,,,,,,,,,,,,,,,,,,,,,,,,,,,,,,,,,,,,,,,,,,,,,,,,,,,,,,,,,
52,2.2193591594696045,0.6139796376228333,1.57465922832489,0.3876506155729294,0.0,-3.141592675445488,-7.280160474465448e-08,0.5001218914985657,0.5001214146614075,0.6134936809539795,1.5737777948379517,0.3876078715920448,0.0,-3.141592735050133,-2.1614290801608153e-08,0.5001088976860046,0.5001087188720703,,,,,,,,,,,,,,,,,,,,,,,,,,,,,,,,,,,,,,,,,,,,,,,,,,,,,,,,,,,,,,,,,,,,,,,,,,,,,,,,,,,,,,,,,,,,,,,,,,,,,,,,,,,,,,,,,,,,,,,,,,,,,,,,,,,,,,1.3928836040122405e-07,1.7339263536086946e-07,-1.894108550004603e-07,0.0,5.923972423715895e-08,3.669360353342199e-07,-0.0006131883128546,-0.000610610411968,1.0541156569843225e-07,1.2054756837187597e-07,-1.7171416288874752e-07,0.0,3.6067137898498913e-07,1.558022262315717e-07,0.0005478515522554,0.000546672323253,,,,,,,,,,,,,,,,,,,,,,,,,,,,,,,,,,,,,,,,,,,,,,,,,,,,,,,,,,,,,,,,,,,,,,,,,,
53,2.2405574321746826,0.6139796376228333,1.57465922832489,0.3876506081223488,0.0,-3.141592675445488,-6.016966835886707e-08,0.5001007318496704,0.5001004338264465,0.6134936809539795,1.5737777948379517,0.3876078715920448,0.0,-3.141592735050133,-2.1614290801608153e-08,0.5001088976860046,0.5001087188720703,,,,,,,,,,,,,,,,,,,,,,,,,,,,,,,,,,,,,,,,,,,,,,,,,,,,,,,,,,,,,,,,,,,,,,,,,,,,,,,,,,,,,,,,,,,,,,,,,,,,,,,,,,,,,,,,,,,,,,,,,,,,,,,,,,,,,,1.1516848275050506e-07,1.4337942388920058e-07,-1.5655925267310522e-07,0.0,4.9162228066279574e-08,3.032689335213945e-07,-0.0005069591570645,-0.000504893134348,1.0541156569843225e-07,1.2054756837187597e-07,-1.7171416288874752e-07,0.0,3.6067137898498913e-07,1.558022262315717e-07,0.0005478515522554,0.000546672323253,,,,,,,,,,,,,,,,,,,,,,,,,,,,,,,,,,,,,,,,,,,,,,,,,,,,,,,,,,,,,,,,,,,,,,,,,,
54,2.261940240859986,0.6139796376228333,1.57465922832489,0.3876506081223488,0.0,-3.141592675445488,-6.016966835886707e-08,0.5001007318496704,0.5001004338264465,0.6134936809539795,1.5737777948379517,0.3876078641414642,0.0,-3.141592735050133,-1.6895361554247756e-08,0.5000918507575989,0.5000917315483093,,,,,,,,,,,,,,,,,,,,,,,,,,,,,,,,,,,,,,,,,,,,,,,,,,,,,,,,,,,,,,,,,,,,,,,,,,,,,,,,,,,,,,,,,,,,,,,,,,,,,,,,,,,,,,,,,,,,,,,,,,,,,,,,,,,,,,1.1516848275050506e-07,1.4337942388920058e-07,-1.5655925267310522e-07,0.0,4.9162228066279574e-08,3.032689335213945e-07,-0.0005069591570645,-0.000504893134348,8.892286729178522e-08,1.0170475661652745e-07,-1.4480687582363316e-07,0.0,2.967995271774271e-07,1.2469716637042438e-07,0.0004621108528226,0.0004611555195879,,,,,,,,,,,,,,,,,,,,,,,,,,,,,,,,,,,,,,,,,,,,,,,,,,,,,,,,,,,,,,,,,,,,,,,,,,
55,2.2833778858184814,0.6139796376228333,1.57465922832489,0.3876506006717682,0.0,-3.141592675445488,-4.9729514728369395e-08,0.500083327293396,0.5000830292701721,0.6134936809539795,1.5737777948379517,0.3876078566908836,0.0,-3.141592735050133,-1.2927674042373384e-08,0.5000767111778259,0.5000765919685364,,,,,,,,,,,,,,,,,,,,,,,,,,,,,,,,,,,,,,,,,,,,,,,,,,,,,,,,,,,,,,,,,,,,,,,,,,,,,,,,,,,,,,,,,,,,,,,,,,,,,,,,,,,,,,,,,,,,,,,,,,,,,,,,,,,,,,9.522527477656696e-08,1.1856149484401612e-07,-1.2940547833295568e-07,0.0,4.0799474021468995e-08,2.506480427655333e-07,-0.0004191332263872,-0.0004174790810793,7.426681492006537e-08,8.4953491352735e-08,-1.208977664646227e-07,0.0,2.4129087705659913e-07,9.819035540203913e-08,0.000385905848816,0.0003851428627967,,,,,,,,,,,,,,,,,,,,,,,,,,,,,,,,,,,,,,,,,,,,,,,,,,,,,,,,,,,,,,,,,,,,,,,,,,
56,2.3044445514678955,0.6139796376228333,1.57465922832489,0.3876506006717682,0.0,-3.141592675445488,-4.110084361741429e-08,0.5000688433647156,0.5000686645507812,0.6134936809539795,1.5737777948379517,0.3876078566908836,0.0,-3.141592735050133,-1.2927674042373384e-08,0.5000767111778259,0.5000765919685364,,,,,,,,,,,,,,,,,,,,,,,,,,,,,,,,,,,,,,,,,,,,,,,,,,,,,,,,,,,,,,,,,,,,,,,,,,,,,,,,,,,,,,,,,,,,,,,,,,,,,,,,,,,,,,,,,,,,,,,,,,,,,,,,,,,,,,7.87357947729106e-08,9.803924427842504e-08,-1.069612451942703e-07,0.0,3.385891389484641e-08,2.071578677487196e-07,-0.0003465223417151,-0.0003451993688941,7.426681492006537e-08,8.4953491352735e-08,-1.208977664646227e-07,0.0,2.4129087705659913e-07,9.819035540203913e-08,0.000385905848816,0.0003851428627967,,,,,,,,,,,,,,,,,,,,,,,,,,,,,,,,,,,,,,,,,,,,,,,,,,,,,,,,,,,,,,,,,,,,,,,,,,
57,2.325577735900879,0.6139796376228333,1.57465922832489,0.3876506006717682,0.0,-3.141592675445488,-4.110084361741429e-08,0.5000688433647156,0.5000686645507812,0.6134936809539795,1.5737777948379517,0.3876078566908836,0.0,-3.141592735050133,-9.809102863300724e-09,0.5000640749931335,0.500063955783844,,,,,,,,,,,,,,,,,,,,,,,,,,,,,,,,,,,,,,,,,,,,,,,,,,,,,,,,,,,,,,,,,,,,,,,,,,,,,,,,,,,,,,,,,,,,,,,,,,,,,,,,,,,,,,,,,,,,,,,,,,,,,,,,,,,,,,7.87357947729106e-08,9.803924427842504e-08,-1.069612451942703e-07,0.0,3.385891389484641e-08,2.071578677487196e-07,-0.0003465223417151,-0.0003451993688941,6.202616020800633e-08,7.096112852877924e-08,-1.0093636149122177e-07,0.0,1.9601742451413886e-07,7.703467019837262e-08,0.0003222675586584,0.0003216594632249,,,,,,,,,,,,,,,,,,,,,,,,,,,,,,,,,,,,,,,,,,,,,,,,,,,,,,,,,,,,,,,,,,,,,,,,,,
58,2.3467559814453125,0.6139796376228333,1.57465922832489,0.3876505932211876,0.0,-3.141592675445488,-3.431177120205575e-08,0.5000575184822083,0.5000573396682739,0.6134936809539795,1.5737777948379517,0.3876078566908836,0.0,-3.141592735050133,-9.809102863300724e-09,0.5000640749931335,0.500063955783844,,,,,,,,,,,,,,,,,,,,,,,,,,,,,,,,,,,,,,,,,,,,,,,,,,,,,,,,,,,,,,,,,,,,,,,,,,,,,,,,,,,,,,,,,,,,,,,,,,,,,,,,,,,,,,,,,,,,,,,,,,,,,,,,,,,,,,6.575623245907991e-08,8.188460753899562e-08,-8.930052786126907e-08,0.0,2.8375302107974676e-08,1.7293959331254882e-07,-0.0002893735363613,-0.0002883040579035,6.202616020800633e-08,7.096112852877924e-08,-1.0093636149122177e-07,0.0,1.9601742451413886e-07,7.703467019837262e-08,0.0003222675586584,0.0003216594632249,,,,,,,,,,,,,,,,,,,,,,,,,,,,,,,,,,,,,,,,,,,,,,,,,,,,,,,,,,,,,,,,,,,,,,,,,,
59,2.368717908859253,0.6139796376228333,1.57465922832489,0.3876505932211876,0.0,-3.141592675445488,-3.431177120205575e-08,0.5000575184822083,0.5000573396682739,0.6134936809539795,1.5737777948379517,0.387607849240303,0.0,-3.141592675445488,-7.248785127700331e-09,0.5000529885292053,0.5000528693199158,,,,,,,,,,,,,,,,,,,,,,,,,,,,,,,,,,,,,,,,,,,,,,,,,,,,,,,,,,,,,,,,,,,,,,,,,,,,,,,,,,,,,,,,,,,,,,,,,,,,,,,,,,,,,,,,,,,,,,,,,,,,,,,,,,,,,,6.575623245907991e-08,8.188460753899562e-08,-8.930052786126907e-08,0.0,2.8375302107974676e-08,1.7293959331254882e-07,-0.0002893735363613,-0.0002883040579035,5.128741875637388e-08,5.8683834680550724e-08,-8.343018720324835e-08,0.0,1.572771424207531e-07,5.935838132131722e-08,0.0002664426574483,0.0002659652673173,,,,,,,,,,,,,,,,,,,,,,,,,,,,,,,,,,,,,,,,,,,,,,,,,,,,,,,,,,,,,,,,,,,,,,,,,,
60,2.3901731967926025,0.6139796376228333,1.57465922832489,0.3876505932211876,0.0,-3.141592675445488,-2.8644119964837955e-08,0.500048041343689,0.5000478625297546,0.6134936809539795,1.5737777948379517,0.387607849240303,0.0,-3.141592675445488,-7.248785127700331e-09,0.5000529885292053,0.5000528693199158,,,,,,,,,,,,,,,,,,,,,,,,,,,,,,,,,,,,,,,,,,,,,,,,,,,,,,,,,,,,,,,,,,,,,,,,,,,,,,,,,,,,,,,,,,,,,,,,,,,,,,,,,,,,,,,,,,,,,,,,,,,,,,,,,,,,,,5.4916572622687454e-08,6.839151467374904e-08,-7.455604134065652e-08,0.0,2.378003394198913e-08,1.443735158090931e-07,-0.0002416497736703,-0.0002407861466053,5.128741875637388e-08,5.8683834680550724e-08,-8.343018720324835e-08,0.0,1.572771424207531e-07,5.935838132131722e-08,0.0002664426574483,0.0002659652673173,,,,,,,,,,,,,,,,,,,,,,,,,,,,,,,,,,,,,,,,,,,,,,,,,,,,,,,,,,,,,,,,,,,,,,,,,,
61,2.4114999771118164,0.6139796376228333,1.57465922832489,0.3876505932211876,0.0,-3.141592675445488,-2.4153703037654853e-08,0.5000405311584473,0.5000404119491577,0.6134936809539795,1.5737777948379517,0.387607849240303,0.0,-3.141592675445488,-5.2811359729787455e-09,0.5000438094139099,0.5000437498092651,,,,,,,,,,,,,,,,,,,,,,,,,,,,,,,,,,,,,,,,,,,,,,,,,,,,,,,,,,,,,,,,,,,,,,,,,,,,,,,,,,,,,,,,,,,,,,,,,,,,,,,,,,,,,,,,,,,,,,,,,,,,,,,,,,,,,,4.6324998947966385e-08,5.7696180277844185e-08,-6.28729566187758e-08,0.0,2.012506783444223e-08,1.217409675291492e-07,-0.0002038273523794,-0.0002031223702942,4.2407688027878976e-08,4.8530623075748736e-08,-6.896018334145992e-08,0.0,1.2607631560968002e-07,4.5494363831721785e-08,0.0002202880423283,0.0002199143054895,,,,,,,,,,,,,,,,,,,,,,,,,,,,,,,,,,,,,,,,,,,,,,,,,,,,,,,,,,,,,,,,,,,,,,,,,,
62,2.433135747909546,0.6139796376228333,1.57465922832489,0.3876505932211876,0.0,-3.141592675445488,-2.4153703037654853e-08,0.5000405311584473,0.5000404119491577,0.6134936809539795,1.5737777948379517,0.387607849240303,0.0,-3.141592675445488,-3.7776572980874334e-09,0.5000361800193787,0.5000361800193787,,,,,,,,,,,,,,,,,,,,,,,,,,,,,,,,,,,,,,,,,,,,,,,,,,,,,,,,,,,,,,,,,,,,,,,,,,,,,,,,,,,,,,,,,,,,,,,,,,,,,,,,,,,,,,,,,,,,,,,,,,,,,,,,,,,,,,4.6324998947966385e-08,5.7696180277844185e-08,-6.28729566187758e-08,0.0,2.012506783444223e-08,1.217409675291492e-07,-0.0002038273523794,-0.0002031223702942,3.506556112142789e-08,4.0134118250989565e-08,-5.699987681850872e-08,0.0,1.0096512426116533e-07,3.4652334335305575e-08,0.0001821285695768,0.0001818369200918,,,,,,,,,,,,,,,,,,,,,,,,,,,,,,,,,,,,,,,,,,,,,,,,,,,,,,,,,,,,,,,,,,,,,,,,,,
63,2.4543962478637695,0.6139796376228333,1.57465922832489,0.387650585770607,0.0,-3.141592675445488,-2.0163962943797745e-08,0.5000338554382324,0.5000337362289429,0.6134936809539795,1.5737777948379517,0.387607849240303,0.0,-3.141592675445488,-3.7776572980874334e-09,0.5000361800193787,0.5000361800193787,,,,,,,,,,,,,,,,,,,,,,,,,,,,,,,,,,,,,,,,,,,,,,,,,,,,,,,,,,,,,,,,,,,,,,,,,,,,,,,,,,,,,,,,,,,,,,,,,,,,,,,,,,,,,,,,,,,,,,,,,,,,,,,,,,,,,,3.86884408953847e-08,4.81893422943358e-08,-5.2491863300474506e-08,0.0,1.686617423501957e-08,1.0163171992871869e-07,-0.0001702119479887,-0.0001696439867373,3.506556112142789e-08,4.0134118250989565e-08,-5.699987681850872e-08,0.0,1.0096512426116533e-07,3.4652334335305575e-08,0.0001821285695768,0.0001818369200918,,,,,,,,,,,,,,,,,,,,,,,,,,,,,,,,,,,,,,,,,,,,,,,,,,,,,,,,,,,,,,,,,,,,,,,,,,
64,2.4764537811279297,0.6139796376228333,1.57465922832489,0.387650585770607,0.0,-3.141592675445488,-2.0163962943797745e-08,0.5000338554382324,0.5000337362289429,0.6134936809539795,1.5737777948379517,0.3876078417897224,0.0,-3.141592675445488,-2.688982592147226e-09,0.5000302195549011,0.5000302195549011,,,,,,,,,,,,,,,,,,,,,,,,,,,,,,,,,,,,,,,,,,,,,,,,,,,,,,,,,,,,,,,,,,,,,,,,,,,,,,,,,,,,,,,,,,,,,,,,,,,,,,,,,,,,,,,,,,,,,,,,,,,,,,,,,,,,,,3.86884408953847e-08,4.81893422943358e-08,-5.2491863300474506e-08,0.0,1.686617423501957e-08,1.0163171992871869e-07,-0.0001702119479887,-0.0001696439867373,2.928612907737715e-08,3.3523850362371383e-08,-4.758862814924215e-08,0.0,8.172779075721338e-08,2.6595126101369715e-08,0.0001520944206276,0.0001518645731266,,,,,,,,,,,,,,,,,,,,,,,,,,,,,,,,,,,,,,,,,,,,,,,,,,,,,,,,,,,,,,,,,,,,,,,,,,
65,2.497979640960694,0.6139796376228333,1.57465922832489,0.387650585770607,0.0,-3.141592675445488,-1.6665254065628687e-08,0.5000279545783997,0.5000278949737549,0.6134936809539795,1.5737777948379517,0.3876078417897224,0.0,-3.141592675445488,-2.688982592147226e-09,0.5000302195549011,0.5000302195549011,,,,,,,,,,,,,,,,,,,,,,,,,,,,,,,,,,,,,,,,,,,,,,,,,,,,,,,,,,,,,,,,,,,,,,,,,,,,,,,,,,,,,,,,,,,,,,,,,,,,,,,,,,,,,,,,,,,,,,,,,,,,,,,,,,,,,,3.1988854232167796e-08,3.984823493397016e-08,-4.3387661463611955e-08,0.0,1.3996525716208909e-08,8.399725004437641e-08,-0.0001407243253197,-0.0001402728667017,2.928612907737715e-08,3.3523850362371383e-08,-4.758862814924215e-08,0.0,8.172779075721338e-08,2.6595126101369715e-08,0.0001520944206276,0.0001518645731266,,,,,,,,,,,,,,,,,,,,,,,,,,,,,,,,,,,,,,,,,,,,,,,,,,,,,,,,,,,,,,,,,,,,,,,,,,
66,2.5203566551208496,0.6139796376228333,1.57465922832489,0.387650585770607,0.0,-3.141592675445488,-1.391245962878429e-08,0.500023365020752,0.5000233054161072,0.6134936809539795,1.5737777948379517,0.3876078417897224,0.0,-3.141592675445488,-1.856634290753334e-09,0.5000252723693848,0.50002521276474,,,,,,,,,,,,,,,,,,,,,,,,,,,,,,,,,,,,,,,,,,,,,,,,,,,,,,,,,,,,,,,,,,,,,,,,,,,,,,,,,,,,,,,,,,,,,,,,,,,,,,,,,,,,,,,,,,,,,,,,,,,,,,,,,,,,,,2.6715573753222088e-08,3.3281931877127136e-08,-3.622378130785364e-08,0.0,1.1729284210559854e-08,7.012248204318895e-08,-0.0001175159341073,-0.000117153271276,2.44591014109119e-08,2.800215526121974e-08,-3.9731226308958873e-08,0.0,6.608852487488548e-08,2.02527061787805e-08,0.000127013088786,0.0001268326013814,,,,,,,,,,,,,,,,,,,,,,,,,,,,,,,,,,,,,,,,,,,,,,,,,,,,,,,,,,,,,,,,,,,,,,,,,,
67,2.542515277862549,0.6139796376228333,1.57465922832489,0.387650585770607,0.0,-3.141592675445488,-1.391245962878429e-08,0.500023365020752,0.5000233054161072,0.6134936809539795,1.5737777948379517,0.3876078417897224,0.0,-3.141592675445488,-1.2256758941120436e-09,0.5000211000442505,0.5000210404396057,,,,,,,,,,,,,,,,,,,,,,,,,,,,,,,,,,,,,,,,,,,,,,,,,,,,,,,,,,,,,,,,,,,,,,,,,,,,,,,,,,,,,,,,,,,,,,,,,,,,,,,,,,,,,,,,,,,,,,,,,,,,,,,,,,,,,,2.6715573753222088e-08,3.3281931877127136e-08,-3.622378130785364e-08,0.0,1.1729284210559854e-08,7.012248204318895e-08,-0.0001175159341073,-0.000117153271276,2.0427826541435937e-08,2.33901786828028e-08,-3.317123642432307e-08,0.0,5.338540631782963e-08,1.5279084664143738e-08,0.0001060678405337,0.0001059266724041,,,,,,,,,,,,,,,,,,,,,,,,,,,,,,,,,,,,,,,,,,,,,,,,,,,,,,,,,,,,,,,,,,,,,,,,,,
68,2.563679456710815,0.6139796376228333,1.57465922832489,0.387650585770607,0.0,-3.141592675445488,-1.1498462626491346e-08,0.5000193119049072,0.5000192523002625,0.6134936809539795,1.5737777948379517,0.3876078417897224,0.0,-3.141592675445488,-1.2256758941120436e-09,0.5000211000442505,0.5000210404396057,,,,,,,,,,,,,,,,,,,,,,,,,,,,,,,,,,,,,,,,,,,,,,,,,,,,,,,,,,,,,,,,,,,,,,,,,,,,,,,,,,,,,,,,,,,,,,,,,,,,,,,,,,,,,,,,,,,,,,,,,,,,,,,,,,,,,,2.2089496454213986e-08,2.7520874468223155e-08,-2.9941070067707194e-08,0.0,9.733269301648306e-09,5.7955574561674446e-08,-9.715739724924788e-05,-9.687006968306378e-05,2.0427826541435937e-08,2.33901786828028e-08,-3.317123642432307e-08,0.0,5.338540631782963e-08,1.5279084664143738e-08,0.0001060678405337,0.0001059266724041,,,,,,,,,,,,,,,,,,,,,,,,,,,,,,,,,,,,,,,,,,,,,,,,,,,,,,,,,,,,,,,,,,,,,,,,,,
69,2.5873544216156006,0.6139796376228333,1.57465922832489,0.387650585770607,0.0,-3.141592675445488,-1.1498462626491346e-08,0.5000193119049072,0.5000192523002625,0.6134936809539795,1.5737777948379517,0.3876078417897224,0.0,-3.141592675445488,-7.523237033346675e-10,0.5000175833702087,0.5000175833702087,,,,,,,,,,,,,,,,,,,,,,,,,,,,,,,,,,,,,,,,,,,,,,,,,,,,,,,,,,,,,,,,,,,,,,,,,,,,,,,,,,,,,,,,,,,,,,,,,,,,,,,,,,,,,,,,,,,,,,,,,,,,,,,,,,,,,,2.2089496454213986e-08,2.7520874468223155e-08,-2.9941070067707194e-08,0.0,9.733269301648306e-09,5.7955574561674446e-08,-9.715739724924788e-05,-9.687006968306378e-05,1.7061019264019706e-08,1.9537704787353505e-08,-2.7694319726379035e-08,0.0,4.307482015519781e-08,1.1394856613833326e-08,8.857658394845203e-05,8.84666878846474e-05,,,,,,,,,,,,,,,,,,,,,,,,,,,,,,,,,,,,,,,,,,,,,,,,,,,,,,,,,,,,,,,,,,,,,,,,,,
70,2.6083686351776123,0.6139796376228333,1.57465922832489,0.387650585770607,0.0,-3.141592675445488,-9.695887648319967e-09,0.5000162720680237,0.5000162720680237,0.6134936809539795,1.5737777948379517,0.3876078417897224,0.0,-3.141592675445488,-7.523237033346675e-10,0.5000175833702087,0.5000175833702087,,,,,,,,,,,,,,,,,,,,,,,,,,,,,,,,,,,,,,,,,,,,,,,,,,,,,,,,,,,,,,,,,,,,,,,,,,,,,,,,,,,,,,,,,,,,,,,,,,,,,,,,,,,,,,,,,,,,,,,,,,,,,,,,,,,,,,1.8633539156098777e-08,2.321731606969024e-08,-2.524931019820542e-08,0.0,8.237576842873295e-09,4.88699214429289e-08,-8.195055852411315e-05,-8.171764056896791e-05,1.7061019264019706e-08,1.9537704787353505e-08,-2.7694319726379035e-08,0.0,4.307482015519781e-08,1.1394856613833326e-08,8.857658394845203e-05,8.84666878846474e-05,,,,,,,,,,,,,,,,,,,,,,,,,,,,,,,,,,,,,,,,,,,,,,,,,,,,,,,,,,,,,,,,,,,,,,,,,,
71,2.631460666656494,0.6139796376228333,1.57465922832489,0.387650585770607,0.0,-3.141592675445488,-8.013516961113964e-09,0.5000134706497192,0.5000134110450745,0.6134936809539795,1.5737777948379517,0.3876078417897224,0.0,-3.141592675445488,-4.0175576754286624e-10,0.5000147223472595,0.5000147223472595,,,,,,,,,,,,,,,,,,,,,,,,,,,,,,,,,,,,,,,,,,,,,,,,,,,,,,,,,,,,,,,,,,,,,,,,,,,,,,,,,,,,,,,,,,,,,,,,,,,,,,,,,,,,,,,,,,,,,,,,,,,,,,,,,,,,,,1.54067318902662e-08,1.9198642675632985e-08,-2.0870020378538356e-08,0.0,6.835254584558471e-09,4.0390624178598955e-08,-6.775339716114104e-05,-6.756954826414585e-05,1.4248935364946648e-08,1.6319612328175026e-08,-2.3121671688386417e-08,0.0,3.4711732155301434e-08,8.376394688980326e-09,7.396974979201332e-05,7.388464291580021e-05,,,,,,,,,,,,,,,,,,,,,,,,,,,,,,,,,,,,,,,,,,,,,,,,,,,,,,,,,,,,,,,,,,,,,,,,,,
72,2.6537604331970215,0.6139796376228333,1.57465922832489,0.387650585770607,0.0,-3.141592675445488,-8.013516961113964e-09,0.5000134706497192,0.5000134110450745,0.6134936809539795,1.5737777948379517,0.3876078417897224,0.0,-3.141592675445488,-1.4634909950572703e-10,0.5000122785568237,0.5000122785568237,,,,,,,,,,,,,,,,,,,,,,,,,,,,,,,,,,,,,,,,,,,,,,,,,,,,,,,,,,,,,,,,,,,,,,,,,,,,,,,,,,,,,,,,,,,,,,,,,,,,,,,,,,,,,,,,,,,,,,,,,,,,,,,,,,,,,,1.54067318902662e-08,1.9198642675632985e-08,-2.0870020378538356e-08,0.0,6.835254584558471e-09,4.0390624178598955e-08,-6.775339716114104e-05,-6.756954826414585e-05,1.190036957865459e-08,1.3631540340952597e-08,-1.9304065901337708e-08,0.0,2.7936152946494985e-08,6.043471945105239e-09,6.177167233545333e-05,6.170616688905284e-05,,,,,,,,,,,,,,,,,,,,,,,,,,,,,,,,,,,,,,,,,,,,,,,,,,,,,,,,,,,,,,,,,,,,,,,,,,
73,2.6769144535064697,0.6139796376228333,1.57465922832489,0.3876505783200264,0.0,-3.141592675445488,-6.623060766486333e-09,0.500011146068573,0.5000110864639282,0.6134936809539795,1.5737777948379517,0.3876078417897224,0.0,-3.141592675445488,-1.4634909950572703e-10,0.5000122785568237,0.5000122785568237,,,,,,,,,,,,,,,,,,,,,,,,,,,,,,,,,,,,,,,,,,,,,,,,,,,,,,,,,,,,,,,,,,,,,,,,,,,,,,,,,,,,,,,,,,,,,,,,,,,,,,,,,,,,,,,,,,,,,,,,,,,,,,,,,,,,,,1.2738921029153973e-08,1.587541120784408e-08,-1.7250270545332572e-08,0.0,5.672184943961156e-09,3.3382061559450455e-08,-5.6015753216343e-05,-5.587096529779956e-05,1.190036957865459e-08,1.3631540340952597e-08,-1.9304065901337708e-08,0.0,2.7936152946494985e-08,6.043471945105239e-09,6.177167233545333e-05,6.170616688905284e-05,,,,,,,,,,,,,,,,,,,,,,,,,,,,,,,,,,,,,,,,,,,,,,,,,,,,,,,,,,,,,,,,,,,,,,,,,,
74,2.6985278129577637,0.6139796376228333,1.57465922832489,0.3876505783200264,0.0,-3.141592675445488,-6.623060766486333e-09,0.500011146068573,0.5000110864639282,0.6134936809539795,1.5737777948379517,0.3876078343391418,0.0,-3.141592675445488,3.5747339116598553e-11,0.5000102519989014,0.5000102519989014,,,,,,,,,,,,,,,,,,,,,,,,,,,,,,,,,,,,,,,,,,,,,,,,,,,,,,,,,,,,,,,,,,,,,,,,,,,,,,,,,,,,,,,,,,,,,,,,,,,,,,,,,,,,,,,,,,,,,,,,,,,,,,,,,,,,,,1.2738921029153973e-08,1.587541120784408e-08,-1.7250270545332572e-08,0.0,5.672184943961156e-09,3.3382061559450455e-08,-5.6015753216343e-05,-5.587096529779956e-05,9.939160605654251e-09,1.1386558362858068e-08,-1.6116780798824948e-08,0.0,2.245159613778469e-08,4.252146634797782e-09,5.158513522474095e-05,5.153508027433418e-05,,,,,,,,,,,,,,,,,,,,,,,,,,,,,,,,,,,,,,,,,,,,,,,,,,,,,,,,,,,,,,,,,,,,,,,,,,
75,2.7197117805480957,0.6139796376228333,1.57465922832489,0.3876505783200264,0.0,-3.141592675445488,-5.529044777574654e-09,0.500009298324585,0.500009298324585,0.6134936809539795,1.5737777948379517,0.3876078343391418,0.0,-3.141592675445488,1.6176682215984783e-10,0.5000085830688477,0.5000085830688477,,,,,,,,,,,,,,,,,,,,,,,,,,,,,,,,,,,,,,,,,,,,,,,,,,,,,,,,,,,,,,,,,,,,,,,,,,,,,,,,,,,,,,,,,,,,,,,,,,,,,,,,,,,,,,,,,,,,,,,,,,,,,,,,,,,,,,1.0638934178075488e-08,1.3259282560795782e-08,-1.4402062653573466e-08,0.0,4.753142324176451e-09,2.7868047425272383e-08,-4.677758261095733e-05,-4.6662375098094344e-05,8.301081599881854e-09,9.51139167426618e-09,-1.3455757397196066e-08,0.0,1.8016033109802265e-08,2.8873252677641403e-09,4.307842027628794e-05,4.304050526116043e-05,,,,,,,,,,,,,,,,,,,,,,,,,,,,,,,,,,,,,,,,,,,,,,,,,,,,,,,,,,,,,,,,,,,,,,,,,,
76,2.741795778274536,0.6139796376228333,1.57465922832489,0.3876505783200264,0.0,-3.141592675445488,-4.615740678559632e-09,0.5000077486038208,0.5000077486038208,0.6134936809539795,1.5737777948379517,0.3876078343391418,0.0,-3.141592675445488,1.674108351945591e-10,0.5000084638595581,0.5000084638595581,,,,,,,,,,,,,,,,,,,,,,,,,,,,,,,,,,,,,,,,,,,,,,,,,,,,,,,,,,,,,,,,,,,,,,,,,,,,,,,,,,,,,,,,,,,,,,,,,,,,,,,,,,,,,,,,,,,,,,,,,,,,,,,,,,,,,,8.885280955439612e-09,1.10745856929384e-08,-1.2024103490659854e-08,0.0,3.982703056237824e-09,2.3264878024065183e-08,-3.906297934008762e-05,-3.8971535104792565e-05,8.218203895182796e-09,9.41657862796319e-09,-1.3321551861622538e-08,0.0,1.7796153883864463e-08,2.822007294511763e-09,4.2649284296203405e-05,4.261195863364264e-05,,,,,,,,,,,,,,,,,,,,,,,,,,,,,,,,,,,,,,,,,,,,,,,,,,,,,,,,,,,,,,,,,,,,,,,,,,
77,2.7633581161499023,0.6139796376228333,1.57465922832489,0.3876505783200264,0.0,-3.141592675445488,-4.615740678559632e-09,0.5000077486038208,0.5000077486038208,0.6134936809539795,1.5737777948379517,0.3876078343391418,0.0,-3.141592675445488,2.5238755529954915e-10,0.5000070333480835,0.5000070333480835,,,,,,,,,,,,,,,,,,,,,,,,,,,,,,,,,,,,,,,,,,,,,,,,,,,,,,,,,,,,,,,,,,,,,,,,,,,,,,,,,,,,,,,,,,,,,,,,,,,,,,,,,,,,,,,,,,,,,,,,,,,,,,,,,,,,,,8.885280955439612e-09,1.10745856929384e-08,-1.2024103490659854e-08,0.0,3.982703056237824e-09,2.3264878024065183e-08,-3.906297934008762e-05,-3.8971535104792565e-05,6.795397577974427e-09,7.787326339325773e-09,-1.1011011658013103e-08,0.0,1.4079792443055794e-08,1.7596841761502444e-09,3.526134605635889e-05,3.5233842936577275e-05,,,,,,,,,,,,,,,,,,,,,,,,,,,,,,,,,,,,,,,,,,,,,,,,,,,,,,,,,,,,,,,,,,,,,,,,,,
78,2.785296678543091,0.6139796376228333,1.57465922832489,0.3876505783200264,0.0,-3.141592675445488,-3.853298125022775e-09,0.5000064969062805,0.5000064969062805,0.6134936809539795,1.5737777948379517,0.3876078343391418,0.0,-3.141592675445488,2.5238755529954915e-10,0.5000070333480835,0.5000070333480835,,,,,,,,,,,,,,,,,,,,,,,,,,,,,,,,,,,,,,,,,,,,,,,,,,,,,,,,,,,,,,,,,,,,,,,,,,,,,,,,,,,,,,,,,,,,,,,,,,,,,,,,,,,,,,,,,,,,,,,,,,,,,,,,,,,,,,7.420453140838391e-09,9.249601085059568e-09,-1.0038831099734581e-08,0.0,3.338052056989227e-09,1.942164118418077e-08,-3.2620675483485684e-05,-3.254829061916098e-05,6.795397577974427e-09,7.787326339325773e-09,-1.1011011658013103e-08,0.0,1.4079792443055794e-08,1.7596841761502444e-09,3.526134605635889e-05,3.5233842936577275e-05,,,,,,,,,,,,,,,,,,,,,,,,,,,,,,,,,,,,,,,,,,,,,,,,,,,,,,,,,,,,,,,,,,,,,,,,,,
79,2.806384563446045,0.6139796376228333,1.57465922832489,0.3876505783200264,0.0,-3.141592675445488,-3.853298125022775e-09,0.5000064969062805,0.5000064969062805,0.6134936809539795,1.5737777948379517,0.3876078343391418,0.0,-3.141592675445488,3.0290106534103245e-10,0.5000057816505432,0.5000057816505432,,,,,,,,,,,,,,,,,,,,,,,,,,,,,,,,,,,,,,,,,,,,,,,,,,,,,,,,,,,,,,,,,,,,,,,,,,,,,,,,,,,,,,,,,,,,,,,,,,,,,,,,,,,,,,,,,,,,,,,,,,,,,,,,,,,,,,7.420453140838391e-09,9.249601085059568e-09,-1.0038831099734581e-08,0.0,3.338052056989227e-09,1.942164118418077e-08,-3.2620675483485684e-05,-3.254829061916098e-05,5.619005261081611e-09,6.439959676640683e-09,-9.101317033355372e-09,0.0,1.1116885190176616e-08,9.80891035062825e-10,2.9153190553188324e-05,2.91332235065056e-05,,,,,,,,,,,,,,,,,,,,,,,,,,,,,,,,,,,,,,,,,,,,,,,,,,,,,,,,,,,,,,,,,,,,,,,,,,
80,2.827277183532715,0.6139796376228333,1.57465922832489,0.3876505783200264,0.0,-3.141592675445488,-3.2167966068641363e-09,0.5000054240226746,0.5000054240226746,0.6134936809539795,1.5737777948379517,0.3876078343391418,0.0,-3.141592675445488,3.0290106534103245e-10,0.5000057816505432,0.5000057816505432,,,,,,,,,,,,,,,,,,,,,,,,,,,,,,,,,,,,,,,,,,,,,,,,,,,,,,,,,,,,,,,,,,,,,,,,,,,,,,,,,,,,,,,,,,,,,,,,,,,,,,,,,,,,,,,,,,,,,,,,,,,,,,,,,,,,,,6.1972094123063926e-09,7.725375894551691e-09,-8.381219274156138e-09,0.0,2.796374243274613e-09,1.6213782316754077e-08,-2.724084333749488e-05,-2.718371615628712e-05,5.619005261081611e-09,6.439959676640683e-09,-9.101317033355372e-09,0.0,1.1116885190176616e-08,9.80891035062825e-10,2.9153190553188324e-05,2.91332235065056e-05,,,,,,,,,,,,,,,,,,,,,,,,,,,,,,,,,,,,,,,,,,,,,,,,,,,,,,,,,,,,,,,,,,,,,,,,,,
81,2.8498034477233887,0.6139796376228333,1.57465922832489,0.3876505783200264,0.0,-3.141592675445488,-2.685434763449734e-09,0.5000045299530029,0.5000045299530029,0.6134936809539795,1.5737777948379517,0.3876078343391418,0.0,-3.141592675445488,3.2750352429999907e-10,0.5000048279762268,0.5000048279762268,,,,,,,,,,,,,,,,,,,,,,,,,,,,,,,,,,,,,,,,,,,,,,,,,,,,,,,,,,,,,,,,,,,,,,,,,,,,,,,,,,,,,,,,,,,,,,,,,,,,,,,,,,,,,,,,,,,,,,,,,,,,,,,,,,,,,,5.175637696197555e-09,6.452394174516485e-09,-6.997368018346606e-09,0.0,2.343625293832474e-09,1.3535416343302133e-08,-2.2748257833882235e-05,-2.2703325157635845e-05,4.692912725090537e-09,5.379141576611346e-09,-7.598595530566854e-09,0.0,8.869182721582547e-09,4.4398618115337735e-10,2.434564521536231e-05,2.4331166059710085e-05,,,,,,,,,,,,,,,,,,,,,,,,,,,,,,,,,,,,,,,,,,,,,,,,,,,,,,,,,,,,,,,,,,,,,,,,,,
82,2.8725903034210205,0.6139796376228333,1.57465922832489,0.3876505783200264,0.0,-3.141592675445488,-2.685434763449734e-09,0.5000045299530029,0.5000045299530029,0.6134936809539795,1.5737777948379517,0.3876078343391418,0.0,-3.141592675445488,3.3575470181901323e-10,0.5000040531158447,0.5000040531158447,,,,,,,,,,,,,,,,,,,,,,,,,,,,,,,,,,,,,,,,,,,,,,,,,,,,,,,,,,,,,,,,,,,,,,,,,,,,,,,,,,,,,,,,,,,,,,,,,,,,,,,,,,,,,,,,,,,,,,,,,,,,,,,,,,,,,,5.175637696197555e-09,6.452394174516485e-09,-6.997368018346606e-09,0.0,2.343625293832474e-09,1.3535416343302133e-08,-2.2748257833882235e-05,-2.2703325157635845e-05,3.9193093215317284e-09,4.493183602960471e-09,-6.3439529185416185e-09,0.0,7.0599637247426025e-09,5.7633835204295985e-11,2.0330895495135337e-05,2.032063639489934e-05,,,,,,,,,,,,,,,,,,,,,,,,,,,,,,,,,,,,,,,,,,,,,,,,,,,,,,,,,,,,,,,,,,,,,,,,,,
83,2.8940064907073975,0.6139796376228333,1.57465922832489,0.3876505783200264,0.0,-3.141592675445488,-2.2418442657823334e-09,0.5000037550926208,0.5000037550926208,0.6134936809539795,1.5737777948379517,0.3876078343391418,0.0,-3.141592675445488,3.3575470181901323e-10,0.5000040531158447,0.5000040531158447,,,,,,,,,,,,,,,,,,,,,,,,,,,,,,,,,,,,,,,,,,,,,,,,,,,,,,,,,,,,,,,,,,,,,,,,,,,,,,,,,,,,,,,,,,,,,,,,,,,,,,,,,,,,,,,,,,,,,,,,,,,,,,,,,,,,,,4.3225423240755845e-09,5.389355628437897e-09,-5.842007322343079e-09,0.0,1.9632628855958956e-09,1.1299777114004428e-08,-1.8996592189068903e-05,-1.896138746815268e-05,3.9193093215317284e-09,4.493183602960471e-09,-6.3439529185416185e-09,0.0,7.0599637247426025e-09,5.7633835204295985e-11,2.0330895495135337e-05,2.032063639489934e-05,,,,,,,,,,,,,,,,,,,,,,,,,,,,,,,,,,,,,,,,,,,,,,,,,,,,,,,,,,,,,,,,,,,,,,,,,,
84,2.915602684020996,0.6139796376228333,1.57465922832489,0.3876505783200264,0.0,-3.141592675445488,-2.2418442657823334e-09,0.5000037550926208,0.5000037550926208,0.6134936809539795,1.5737777948379517,0.3876078343391418,0.0,-3.141592675445488,3.3192731896392047e-10,0.5000033378601074,0.5000033378601074,,,,,,,,,,,,,,,,,,,,,,,,,,,,,,,,,,,,,,,,,,,,,,,,,,,,,,,,,,,,,,,,,,,,,,,,,,,,,,,,,,,,,,,,,,,,,,,,,,,,,,,,,,,,,,,,,,,,,,,,,,,,,,,,,,,,,,4.3225423240755845e-09,5.389355628437897e-09,-5.842007322343079e-09,0.0,1.9632628855958956e-09,1.1299777114004428e-08,-1.8996592189068903e-05,-1.896138746815268e-05,3.240852031183294e-09,3.7158054411179356e-09,-5.243701473034434e-09,0.0,5.5349613781174875e-09,-2.258553899459059e-10,1.680907007539645e-05,1.6802185200504027e-05,,,,,,,,,,,,,,,,,,,,,,,,,,,,,,,,,,,,,,,,,,,,,,,,,,,,,,,,,,,,,,,,,,,,,,,,,,
85,2.9379751682281494,0.6139796376228333,1.57465922832489,0.3876505783200264,0.0,-3.141592675445488,-1.8528484302393622e-09,0.5000030994415283,0.5000030994415283,0.6134936809539795,1.5737777948379517,0.3876078343391418,0.0,-3.141592675445488,3.3192731896392047e-10,0.5000033378601074,0.5000033378601074,,,,,,,,,,,,,,,,,,,,,,,,,,,,,,,,,,,,,,,,,,,,,,,,,,,,,,,,,,,,,,,,,,,,,,,,,,,,,,,,,,,,,,,,,,,,,,,,,,,,,,,,,,,,,,,,,,,,,,,,,,,,,,,,,,,,,,3.5739189385708414e-09,4.456435220845378e-09,-4.828804023304656e-09,0.0,1.629252288637417e-09,9.339191642254718e-09,-1.5705611076555215e-05,-1.5678526324336417e-05,3.240852031183294e-09,3.7158054411179356e-09,-5.243701473034434e-09,0.0,5.5349613781174875e-09,-2.258553899459059e-10,1.680907007539645e-05,1.6802185200504027e-05,,,,,,,,,,,,,,,,,,,,,,,,,,,,,,,,,,,,,,,,,,,,,,,,,,,,,,,,,,,,,,,,,,,,,,,,,,
86,2.9604897499084473,0.6139796376228333,1.57465922832489,0.3876505783200264,0.0,-3.141592675445488,-1.531349491656897e-09,0.5000025629997253,0.5000025629997253,0.6134936809539795,1.5737777948379517,0.3876078343391418,0.0,-3.141592675445488,3.201759690707462e-10,0.5000028014183044,0.5000028014183044,,,,,,,,,,,,,,,,,,,,,,,,,,,,,,,,,,,,,,,,,,,,,,,,,,,,,,,,,,,,,,,,,,,,,,,,,,,,,,,,,,,,,,,,,,,,,,,,,,,,,,,,,,,,,,,,,,,,,,,,,,,,,,,,,,,,,,2.955025113493548e-09,3.684941241033357e-09,-3.991286412485806e-09,0.0,1.3517520436323591e-09,7.718397476708105e-09,-1.298476036026841e-05,-1.2964039342477918e-05,2.7066682228849e-09,3.10385050994455e-09,-4.3778660696602856e-09,0.0,4.383826635034893e-09,-4.047188695288639e-10,1.4037148503120989e-05,1.4032664694241248e-05,,,,,,,,,,,,,,,,,,,,,,,,,,,,,,,,,,,,,,,,,,,,,,,,,,,,,,,,,,,,,,,,,,,,,,,,,,
87,2.981921911239624,0.6139796376228333,1.57465922832489,0.3876505783200264,0.0,-3.141592675445488,-1.531349491656897e-09,0.5000025629997253,0.5000025629997253,0.6134936809539795,1.5737777948379517,0.3876078343391418,0.0,-3.141592675445488,3.032745998776676e-10,0.5000023245811462,0.5000023245811462,,,,,,,,,,,,,,,,,,,,,,,,,,,,,,,,,,,,,,,,,,,,,,,,,,,,,,,,,,,,,,,,,,,,,,,,,,,,,,,,,,,,,,,,,,,,,,,,,,,,,,,,,,,,,,,,,,,,,,,,,,,,,,,,,,,,,,2.955025113493548e-09,3.684941241033357e-09,-3.991286412485806e-09,0.0,1.3517520436323591e-09,7.718397476708105e-09,-1.298476036026841e-05,-1.2964039342477918e-05,2.2604140781368187e-09,2.5925928071046656e-09,-3.6550553694780774e-09,0.0,3.4616198796300072e-09,-5.185312179634137e-10,1.1722335329977795e-05,1.1719645954144651e-05,,,,,,,,,,,,,,,,,,,,,,,,,,,,,,,,,,,,,,,,,,,,,,,,,,,,,,,,,,,,,,,,,,,,,,,,,,
88,3.0040783882141113,0.6139796376228333,1.57465922832489,0.3876505783200264,0.0,-3.141592675445488,-1.2656358183704695e-09,0.5000021457672119,0.5000021457672119,0.6134936809539795,1.5737777948379517,0.3876078343391418,0.0,-3.141592675445488,3.032745998776676e-10,0.5000023245811462,0.5000023245811462,,,,,,,,,,,,,,,,,,,,,,,,,,,,,,,,,,,,,,,,,,,,,,,,,,,,,,,,,,,,,,,,,,,,,,,,,,,,,,,,,,,,,,,,,,,,,,,,,,,,,,,,,,,,,,,,,,,,,,,,,,,,,,,,,,,,,,2.443267810292582e-09,3.047229135688667e-09,-3.299034601056405e-09,0.0,1.1217693440812582e-09,6.379176298310085e-09,-1.073527255357476e-05,-1.0719522833824158e-05,2.2604140781368187e-09,2.5925928071046656e-09,-3.6550553694780774e-09,0.0,3.4616198796300072e-09,-5.185312179634137e-10,1.1722335329977795e-05,1.1719645954144651e-05,,,,,,,,,,,,,,,,,,,,,,,,,,,,,,,,,,,,,,,,,,,,,,,,,,,,,,,,,,,,,,,,,,,,,,,,,,
89,3.0254104137420654,0.6139796376228333,1.57465922832489,0.3876505783200264,0.0,-3.141592675445488,-1.2656358183704695e-09,0.5000021457672119,0.5000021457672119,0.6134936809539795,1.5737777948379517,0.3876078343391418,0.0,-3.141592675445488,2.8324062539830663e-10,0.5000019669532776,0.5000019669532776,,,,,,,,,,,,,,,,,,,,,,,,,,,,,,,,,,,,,,,,,,,,,,,,,,,,,,,,,,,,,,,,,,,,,,,,,,,,,,,,,,,,,,,,,,,,,,,,,,,,,,,,,,,,,,,,,,,,,,,,,,,,,,,,,,,,,,2.443267810292582e-09,3.047229135688667e-09,-3.299034601056405e-09,0.0,1.1217693440812582e-09,6.379176298310085e-09,-1.073527255357476e-05,-1.0719522833824158e-05,1.887823231072616e-09,2.165490009531368e-09,-3.051586761060321e-09,0.0,2.7234325905567403e-09,-5.838751149234156e-10,9.789247997105122e-06,9.787884664547164e-06,,,,,,,,,,,,,,,,,,,,,,,,,,,,,,,,,,,,,,,,,,,,,,,,,,,,,,,,,,,,,,,,,,,,,,,,,,
90,3.046452760696411,0.6139796376228333,1.57465922832489,0.3876505783200264,0.0,-3.141592675445488,-1.067223087680702e-09,0.5000017881393433,0.5000017881393433,0.6134936809539795,1.5737777948379517,0.3876078343391418,0.0,-3.141592675445488,2.8324062539830663e-10,0.5000019669532776,0.5000019669532776,,,,,,,,,,,,,,,,,,,,,,,,,,,,,,,,,,,,,,,,,,,,,,,,,,,,,,,,,,,,,,,,,,,,,,,,,,,,,,,,,,,,,,,,,,,,,,,,,,,,,,,,,,,,,,,,,,,,,,,,,,,,,,,,,,,,,,2.061129045216603e-09,2.570499368914625e-09,-2.7820870052153172e-09,0.0,9.494072195082026e-10,5.379167777874727e-09,-9.055013833858538e-06,-9.042771125677971e-06,1.887823231072616e-09,2.165490009531368e-09,-3.051586761060321e-09,0.0,2.7234325905567403e-09,-5.838751149234156e-10,9.789247997105122e-06,9.787884664547164e-06,,,,,,,,,,,,,,,,,,,,,,,,,,,,,,,,,,,,,,,,,,,,,,,,,,,,,,,,,,,,,,,,,,,,,,,,,,
91,3.068700075149536,0.6139796376228333,1.57465922832489,0.3876505783200264,0.0,-3.141592675445488,-8.90933549158035e-10,0.5000014901161194,0.5000014901161194,0.6134936809539795,1.5737777948379517,0.3876078343391418,0.0,-3.141592675445488,2.6156710131175487e-10,0.5000016093254089,0.5000016093254089,,,,,,,,,,,,,,,,,,,,,,,,,,,,,,,,,,,,,,,,,,,,,,,,,,,,,,,,,,,,,,,,,,,,,,,,,,,,,,,,,,,,,,,,,,,,,,,,,,,,,,,,,,,,,,,,,,,,,,,,,,,,,,,,,,,,,,1.7212342662276112e-09,2.1470603073225902e-09,-2.3227462175867686e-09,0.0,7.949751967828432e-10,4.49060921781097e-09,-7.561653092125198e-06,-7.552350780315464e-06,1.5767942507238784e-09,1.8088863740217673e-09,-2.547767552485425e-09,0.0,2.135014387505407e-09,-6.133273333652767e-10,8.174939466698561e-06,8.174538379535079e-06,,,,,,,,,,,,,,,,,,,,,,,,,,,,,,,,,,,,,,,,,,,,,,,,,,,,,,,,,,,,,,,,,,,,,,,,,,
92,3.090285539627075,0.6139796376228333,1.57465922832489,0.3876505783200264,0.0,-3.141592675445488,-8.820416064203583e-10,0.5000014901161194,0.5000014901161194,0.6134936809539795,1.5737777948379517,0.3876078343391418,0.0,-3.141592675445488,2.393386044907686e-10,0.5000013709068298,0.5000013709068298,,,,,,,,,,,,,,,,,,,,,,,,,,,,,,,,,,,,,,,,,,,,,,,,,,,,,,,,,,,,,,,,,,,,,,,,,,,,,,,,,,,,,,,,,,,,,,,,,,,,,,,,,,,,,,,,,,,,,,,,,,,,,,,,,,,,,,1.704192342799615e-09,2.1258550475522493e-09,-2.299528567561992e-09,0.0,7.87592213669086e-10,4.4459795844886685e-09,-7.486317826987943e-06,-7.477159215341089e-06,1.3168355295078982e-09,1.5109025142123755e-09,-2.1271109318377053e-09,0.0,1.66733293838206e-09,-6.177667266626941e-10,6.826840944995638e-06,6.827120159869082e-06,,,,,,,,,,,,,,,,,,,,,,,,,,,,,,,,,,,,,,,,,,,,,,,,,,,,,,,,,,,,,,,,,,,,,,,,,,
93,3.11240553855896,0.6139796376228333,1.57465922832489,0.3876505783200264,0.0,-3.141592675445488,-7.289926995390771e-10,0.5000012516975403,0.5000012516975403,0.6134936809539795,1.5737777948379517,0.3876078343391418,0.0,-3.141592675445488,2.393386044907686e-10,0.5000013709068298,0.5000013709068298,,,,,,,,,,,,,,,,,,,,,,,,,,,,,,,,,,,,,,,,,,,,,,,,,,,,,,,,,,,,,,,,,,,,,,,,,,,,,,,,,,,,,,,,,,,,,,,,,,,,,,,,,,,,,,,,,,,,,,,,,,,,,,,,,,,,,,1.4090950628542487e-09,1.7579271371914727e-09,-1.900660073772542e-09,0.0,6.536438057480608e-10,3.674360593564074e-09,-6.189383839227958e-06,-6.1826076489523984e-06,1.3168355295078982e-09,1.5109025142123755e-09,-2.1271109318377053e-09,0.0,1.66733293838206e-09,-6.177667266626941e-10,6.826840944995638e-06,6.827120159869082e-06,,,,,,,,,,,,,,,,,,,,,,,,,,,,,,,,,,,,,,,,,,,,,,,,,,,,,,,,,,,,,,,,,,,,,,,,,,
94,3.1338980197906494,0.6139796376228333,1.57465922832489,0.3876505783200264,0.0,-3.141592675445488,-7.289926995390771e-10,0.5000012516975403,0.5000012516975403,0.6134936809539795,1.5737777948379517,0.3876078343391418,0.0,-3.141592675445488,2.1732832200527239e-10,0.5000011324882507,0.5000011324882507,,,,,,,,,,,,,,,,,,,,,,,,,,,,,,,,,,,,,,,,,,,,,,,,,,,,,,,,,,,,,,,,,,,,,,,,,,,,,,,,,,,,,,,,,,,,,,,,,,,,,,,,,,,,,,,,,,,,,,,,,,,,,,,,,,,,,,1.4090950628542487e-09,1.7579271371914727e-09,-1.900660073772542e-09,0.0,6.536438057480608e-10,3.674360593564074e-09,-6.189383839227958e-06,-6.1826076489523984e-06,1.0999534616473736e-09,1.261879489788953e-09,-1.7758849946147846e-09,0.0,1.29485311362032e-09,-6.033837873786752e-10,5.7010520322364755e-06,5.701799182133982e-06,,,,,,,,,,,,,,,,,,,,,,,,,,,,,,,,,,,,,,,,,,,,,,,,,,,,,,,,,,,,,,,,,,,,,,,,,,
95,3.1562788486480713,0.6139796376228333,1.57465922832489,0.3876505783200264,0.0,-3.141592675445488,-6.085731918403781e-10,0.5000010132789612,0.5000010132789612,0.6134936809539795,1.5737777948379517,0.3876078343391418,0.0,-3.141592675445488,2.1732832200527239e-10,0.5000011324882507,0.5000011324882507,,,,,,,,,,,,,,,,,,,,,,,,,,,,,,,,,,,,,,,,,,,,,,,,,,,,,,,,,,,,,,,,,,,,,,,,,,,,,,,,,,,,,,,,,,,,,,,,,,,,,,,,,,,,,,,,,,,,,,,,,,,,,,,,,,,,,,1.1767808949514347e-09,1.4680479054618443e-09,-1.5869596747819512e-09,0.0,5.476175068963585e-10,3.0673856787899467e-09,-5.168624284124235e-06,-5.163596142665483e-06,1.0999534616473736e-09,1.261879489788953e-09,-1.7758849946147846e-09,0.0,1.29485311362032e-09,-6.033837873786752e-10,5.7010520322364755e-06,5.701799182133982e-06,,,,,,,,,,,,,,,,,,,,,,,,,,,,,,,,,,,,,,,,,,,,,,,,,,,,,,,,,,,,,,,,,,,,,,,,,,
96,3.178518295288086,0.6139796376228333,1.57465922832489,0.3876505783200264,0.0,-3.141592675445488,-5.131676195091471e-10,0.5000008940696716,0.5000008940696716,0.6134936809539795,1.5737777948379517,0.3876078343391418,0.0,-3.141592675445488,1.9491748493027927e-10,0.5000009536743164,0.5000009536743164,,,,,,,,,,,,,,,,,,,,,,,,,,,,,,,,,,,,,,,,,,,,,,,,,,,,,,,,,,,,,,,,,,,,,,,,,,,,,,,,,,,,,,,,,,,,,,,,,,,,,,,,,,,,,,,,,,,,,,,,,,,,,,,,,,,,,,9.92816939771046e-10,1.2383427616668994e-09,-1.338228083902493e-09,0.0,4.6357362393223406e-10,2.5865245500966694e-09,-4.359643753559794e-06,-4.355904820840806e-06,9.094947017729281e-10,1.044053732357497e-09,-1.4678674942203431e-09,0.0,9.85433956657289e-10,-5.756608523199701e-10,4.713485395768657e-06,4.714550868811784e-06,,,,,,,,,,,,,,,,,,,,,,,,,,,,,,,,,,,,,,,,,,,,,,,,,,,,,,,,,,,,,,,,,,,,,,,,,,
97,3.1999194622039795,0.6139796376228333,1.57465922832489,0.3876505783200264,0.0,-3.141592675445488,-5.080461051854002e-10,0.5000008344650269,0.5000008344650269,0.6134936809539795,1.5737777948379517,0.3876078343391418,0.0,-3.141592675445488,1.7375044458756148e-10,0.5000007748603821,0.5000007748603821,,,,,,,,,,,,,,,,,,,,,,,,,,,,,,,,,,,,,,,,,,,,,,,,,,,,,,,,,,,,,,,,,,,,,,,,,,,,,,,,,,,,,,,,,,,,,,,,,,,,,,,,,,,,,,,,,,,,,,,,,,,,,,,,,,,,,,9.828249325494196e-10,1.2262413306984852e-09,-1.324829135285199e-09,0.0,4.584110868677271e-10,2.560748058044737e-09,-4.316209924581926e-06,-4.312537384976167e-06,7.519540545786184e-10,8.631984016460591e-10,-1.21332111024941e-09,0.0,7.4495964952348e-10,-5.392907787005186e-10,3.89699107472552e-06,3.8982420846878085e-06,,,,,,,,,,,,,,,,,,,,,,,,,,,,,,,,,,,,,,,,,,,,,,,,,,,,,,,,,,,,,,,,,,,,,,,,,,
98,3.221676826477051,0.6139796376228333,1.57465922832489,0.3876505783200264,0.0,-3.141592675445488,-4.241230699975062e-10,0.5000007152557373,0.5000007152557373,0.6134936809539795,1.5737777948379517,0.3876078343391418,0.0,-3.141592675445488,1.7375044458756148e-10,0.5000007748603821,0.5000007748603821,,,,,,,,,,,,,,,,,,,,,,,,,,,,,,,,,,,,,,,,,,,,,,,,,,,,,,,,,,,,,,,,,,,,,,,,,,,,,,,,,,,,,,,,,,,,,,,,,,,,,,,,,,,,,,,,,,,,,,,,,,,,,,,,,,,,,,8.20732370954147e-10,1.0242917625191692e-09,-1.1060804494533727e-09,0.0,3.8408165536907285e-10,2.1377419834323064e-09,-3.6043766158400103e-06,-3.601748858272913e-06,7.519540545786184e-10,8.631984016460591e-10,-1.21332111024941e-09,0.0,7.4495964952348e-10,-5.392907787005186e-10,3.89699107472552e-06,3.8982420846878085e-06,,,,,,,,,,,,,,,,,,,,,,,,,,,,,,,,,,,,,,,,,,,,,,,,,,,,,,,,,,,,,,,,,,,,,,,,,,
99,3.2443888187408447,0.6139796376228333,1.57465922832489,0.3876505783200264,0.0,-3.141592675445488,-4.241230699975062e-10,0.5000007152557373,0.5000007152557373,0.6134936809539795,1.5737777948379517,0.3876078343391418,0.0,-3.141592675445488,1.540672867061943e-10,0.5000006556510925,0.5000006556510925,,,,,,,,,,,,,,,,,,,,,,,,,,,,,,,,,,,,,,,,,,,,,,,,,,,,,,,,,,,,,,,,,,,,,,,,,,,,,,,,,,,,,,,,,,,,,,,,,,,,,,,,,,,,,,,,,,,,,,,,,,,,,,,,,,,,,,8.20732370954147e-10,1.0242917625191692e-09,-1.1060804494533727e-09,0.0,3.8408165536907285e-10,2.1377419834323064e-09,-3.6043766158400103e-06,-3.601748858272913e-06,6.217804049413188e-10,7.139844271364382e-10,-1.0028852193144644e-09,0.0,5.57665025269216e-10,-4.98200591891873e-10,3.2219338663708186e-06,3.223274006813881e-06,,,,,,,,,,,,,,,,,,,,,,,,,,,,,,,,,,,,,,,,,,,,,,,,,,,,,,,,,,,,,,,,,,,,,,,,,,
100,3.266550302505493,0.6139796376228333,1.57465922832489,0.3876505783200264,0.0,-3.141592675445488,-3.5406411136307265e-10,0.5000005960464478,0.5000005960464478,0.6134936809539795,1.5737777948379517,0.3876078343391418,0.0,-3.141592675445488,1.540672867061943e-10,0.5000006556510925,0.5000006556510925,,,,,,,,,,,,,,,,,,,,,,,,,,,,,,,,,,,,,,,,,,,,,,,,,,,,,,,,,,,,,,,,,,,,,,,,,,,,,,,,,,,,,,,,,,,,,,,,,,,,,,,,,,,,,,,,,,,,,,,,,,,,,,,,,,,,,,6.855627177060342e-10,8.555378627761455e-10,-9.234488174136855e-10,0.0,3.2213121059498917e-10,1.7846161215473442e-09,-3.0099395189608913e-06,-3.0081118893576786e-06,6.217804049413188e-10,7.139844271364382e-10,-1.0028852193144644e-09,0.0,5.57665025269216e-10,-4.98200591891873e-10,3.2219338663708186e-06,3.223274006813881e-06,,,,,,,,,,,,,,,,,,,,,,,,,,,,,,,,,,,,,,,,,,,,,,,,,,,,,,,,,,,,,,,,,,,,,,,,,,
101,3.288090229034424,0.6139796376228333,1.57465922832489,0.3876505783200264,0.0,-3.141592675445488,-2.9557711833660955e-10,0.5000004768371582,0.5000004768371582,0.6134936809539795,1.5737777948379517,0.3876078343391418,0.0,-3.141592675445488,1.3690053257686683e-10,0.500000536441803,0.500000536441803,,,,,,,,,,,,,,,,,,,,,,,,,,,,,,,,,,,,,,,,,,,,,,,,,,,,,,,,,,,,,,,,,,,,,,,,,,,,,,,,,,,,,,,,,,,,,,,,,,,,,,,,,,,,,,,,,,,,,,,,,,,,,,,,,,,,,,5.725420137991931e-10,7.143174940438256e-10,-7.710013183448439e-10,0.0,2.6978419498391304e-10,1.4898099420790343e-09,-2.513537310733227e-06,-2.5123176783381496e-06,5.192513086171856e-10,5.960787419212464e-10,-8.372677551271578e-10,0.0,4.20274925971853e-10,-4.5746256782663863e-10,2.6906161565420916e-06,2.691978806979023e-06,,,,,,,,,,,,,,,,,,,,,,,,,,,,,,,,,,,,,,,,,,,,,,,,,,,,,,,,,,,,,,,,,,,,,,,,,,
102,3.3110389709472656,0.6139796376228333,1.57465922832489,0.3876505783200264,0.0,-3.141592675445488,-2.9557711833660955e-10,0.5000004768371582,0.5000004768371582,0.6134936809539795,1.5737777948379517,0.3876078343391418,0.0,-3.141592675445488,1.2120529579995318e-10,0.5000004172325134,0.5000004768371582,,,,,,,,,,,,,,,,,,,,,,,,,,,,,,,,,,,,,,,,,,,,,,,,,,,,,,,,,,,,,,,,,,,,,,,,,,,,,,,,,,,,,,,,,,,,,,,,,,,,,,,,,,,,,,,,,,,,,,,,,,,,,,,,,,,,,,5.725420137991931e-10,7.143174940438256e-10,-7.710013183448439e-10,0.0,2.6978419498391304e-10,1.4898099420790343e-09,-2.513537310733227e-06,-2.5123176783381496e-06,4.3365311341858614e-10,4.980460488468451e-10,-6.989686607283828e-10,0.0,3.1258329258321277e-10,-4.1698139385815125e-10,2.2469166651717387e-06,2.2482565782411257e-06,,,,,,,,,,,,,,,,,,,,,,,,,,,,,,,,,,,,,,,,,,,,,,,,,,,,,,,,,,,,,,,,,,,,,,,,,,
103,3.3325157165527344,0.6139796376228333,1.57465922832489,0.3876505783200264,0.0,-3.141592675445488,-2.4675200771540057e-10,0.5000004172325134,0.5000004172325134,0.6134936809539795,1.5737777948379517,0.3876078343391418,0.0,-3.141592675445488,1.2120529579995318e-10,0.5000004172325134,0.5000004768371582,,,,,,,,,,,,,,,,,,,,,,,,,,,,,,,,,,,,,,,,,,,,,,,,,,,,,,,,,,,,,,,,,,,,,,,,,,,,,,,,,,,,,,,,,,,,,,,,,,,,,,,,,,,,,,,,,,,,,,,,,,,,,,,,,,,,,,4.781175455548237e-10,5.964118088286341e-10,-6.437350652532814e-10,0.0,2.260969189649131e-10,1.2438094998401539e-09,-2.099002358590951e-06,-2.098239519909839e-06,4.3365311341858614e-10,4.980460488468451e-10,-6.989686607283828e-10,0.0,3.1258329258321277e-10,-4.1698139385815125e-10,2.2469166651717387e-06,2.2482565782411257e-06,,,,,,,,,,,,,,,,,,,,,,,,,,,,,,,,,,,,,,,,,,,,,,,,,,,,,,,,,,,,,,,,,,,,,,,,,,
104,3.3540735244750977,0.6139796376228333,1.57465922832489,0.3876505783200264,0.0,-3.141592675445488,-2.4675200771540057e-10,0.5000004172325134,0.5000004172325134,0.6134936809539795,1.5737777948379517,0.3876078343391418,0.0,-3.141592675445488,1.0621446083769469e-10,0.5000003576278687,0.5000003576278687,,,,,,,,,,,,,,,,,,,,,,,,,,,,,,,,,,,,,,,,,,,,,,,,,,,,,,,,,,,,,,,,,,,,,,,,,,,,,,,,,,,,,,,,,,,,,,,,,,,,,,,,,,,,,,,,,,,,,,,,,,,,,,,,,,,,,,4.781175455548237e-10,5.964118088286341e-10,-6.437350652532814e-10,0.0,2.260969189649131e-10,1.2438094998401539e-09,-2.099002358590951e-06,-2.098239519909839e-06,3.5865754810515677e-10,4.118927421359331e-10,-5.77794756484451e-10,0.0,2.2504220709151923e-10,-3.748711896456314e-10,1.857693973761343e-06,1.8589781802802463e-06,,,,,,,,,,,,,,,,,,,,,,,,,,,,,,,,,,,,,,,,,,,,,,,,,,,,,,,,,,,,,,,,,,,,,,,,,,
105,3.376673460006714,0.6139796376228333,1.57465922832489,0.3876505783200264,0.0,-3.141592675445488,-2.0393597921497528e-10,0.5000003576278687,0.5000003576278687,0.6134936809539795,1.5737777948379517,0.3876078343391418,0.0,-3.141592675445488,1.0621446083769469e-10,0.5000003576278687,0.5000003576278687,,,,,,,,,,,,,,,,,,,,,,,,,,,,,,,,,,,,,,,,,,,,,,,,,,,,,,,,,,,,,,,,,,,,,,,,,,,,,,,,,,,,,,,,,,,,,,,,,,,,,,,,,,,,,,,,,,,,,,,,,,,,,,,,,,,,,,3.9518388561532447e-10,4.933831121434196e-10,-5.319980567186633e-10,0.0,1.8773871346411395e-10,1.02801445134304e-09,-1.7353698922306648e-06,-1.7349625522911083e-06,3.5865754810515677e-10,4.118927421359331e-10,-5.77794756484451e-10,0.0,2.2504220709151923e-10,-3.748711896456314e-10,1.857693973761343e-06,1.8589781802802463e-06,,,,,,,,,,,,,,,,,,,,,,,,,,,,,,,,,,,,,,,,,,,,,,,,,,,,,,,,,,,,,,,,,,,,,,,,,,
106,3.397965908050537,0.6139796376228333,1.57465922832489,0.3876505783200264,0.0,-3.141592675445488,-1.7024806564513995e-10,0.5000002980232239,0.5000002980232239,0.6134936809539795,1.5737777948379517,0.3876078343391418,0.0,-3.141592675445488,9.278050550065585e-11,0.5000002980232239,0.5000002980232239,,,,,,,,,,,,,,,,,,,,,,,,,,,,,,,,,,,,,,,,,,,,,,,,,,,,,,,,,,,,,,,,,,,,,,,,,,,,,,,,,,,,,,,,,,,,,,,,,,,,,,,,,,,,,,,,,,,,,,,,,,,,,,,,,,,,,,3.3012481637229025e-10,4.1222580904332057e-10,-4.442418655159486e-10,0.0,1.574296248918472e-10,8.581552135566993e-10,-1.4491710089714616e-06,-1.4490077546724931e-06,2.96485058726148e-10,3.4061642395499803e-10,-4.776248840876463e-10,0.0,1.5798473640415978e-10,-3.3475969218876855e-10,1.5358945120169665e-06,1.5371022072940832e-06,,,,,,,,,,,,,,,,,,,,,,,,,,,,,,,,,,,,,,,,,,,,,,,,,,,,,,,,,,,,,,,,,,,,,,,,,,
107,3.4196877479553223,0.6139796376228333,1.57465922832489,0.3876505783200264,0.0,-3.141592675445488,-1.6854845297231688e-10,0.5000002980232239,0.5000002980232239,0.6134936809539795,1.5737777948379517,0.3876078343391418,0.0,-3.141592675445488,8.200731066443366e-11,0.5000002384185791,0.5000002384185791,,,,,,,,,,,,,,,,,,,,,,,,,,,,,,,,,,,,,,,,,,,,,,,,,,,,,,,,,,,,,,,,,,,,,,,,,,,,,,,,,,,,,,,,,,,,,,,,,,,,,,,,,,,,,,,,,,,,,,,,,,,,,,,,,,,,,,3.2690516960087734e-10,4.076738946423575e-10,-4.3978709562964013e-10,0.0,1.5520917884259688e-10,8.498030612535955e-10,-1.4347330079544918e-06,-1.434581008652458e-06,2.502997809017415e-10,2.8743674107545303e-10,-4.02698707713256e-10,0.0,1.1296519275560968e-10,-3.0121119487525045e-10,1.295521428801294e-06,1.2966504527867071e-06,,,,,,,,,,,,,,,,,,,,,,,,,,,,,,,,,,,,,,,,,,,,,,,,,,,,,,,,,,,,,,,,,,,,,,,,,,
108,3.4406440258026123,0.6139796376228333,1.57465922832489,0.3876505783200264,0.0,-3.141592675445488,-1.3930186171240422e-10,0.5000002384185791,0.5000002384185791,0.6134936809539795,1.5737777948379517,0.3876078343391418,0.0,-3.141592675445488,8.140881718743387e-11,0.5000002384185791,0.5000002384185791,,,,,,,,,,,,,,,,,,,,,,,,,,,,,,,,,,,,,,,,,,,,,,,,,,,,,,,,,,,,,,,,,,,,,,,,,,,,,,,,,,,,,,,,,,,,,,,,,,,,,,,,,,,,,,,,,,,,,,,,,,,,,,,,,,,,,,2.7033930649622557e-10,3.3739677718358507e-10,-3.6352865162569964e-10,0.0,1.2928547121759948e-10,7.020598546958468e-10,-1.1861792472700472e-06,-1.186205849990074e-06,2.474687121889474e-10,2.847722058163526e-10,-3.9871578261241325e-10,0.0,1.1046719095020308e-10,-2.9924585032148343e-10,1.2826155852962984e-06,1.2837399481213652e-06,,,,,,,,,,,,,,,,,,,,,,,,,,,,,,,,,,,,,,,,,,,,,,,,,,,,,,,,,,,,,,,,,,,,,,,,,,
109,3.46117639541626,0.6139796376228333,1.57465922832489,0.3876505783200264,0.0,-3.141592675445488,-1.3930186171240422e-10,0.5000002384185791,0.5000002384185791,0.6134936809539795,1.5737777948379517,0.3876078343391418,0.0,-3.141592675445488,7.07347513895229e-11,0.5000002384185791,0.5000002384185791,,,,,,,,,,,,,,,,,,,,,,,,,,,,,,,,,,,,,,,,,,,,,,,,,,,,,,,,,,,,,,,,,,,,,,,,,,,,,,,,,,,,,,,,,,,,,,,,,,,,,,,,,,,,,,,,,,,,,,,,,,,,,,,,,,,,,,2.7033930649622557e-10,3.3739677718358507e-10,-3.6352865162569964e-10,0.0,1.2928547121759948e-10,7.020598546958468e-10,-1.1861792472700472e-06,-1.186205849990074e-06,2.047806368921101e-10,2.3525625891807067e-10,-3.2961827711730507e-10,0.0,7.283063041541027e-11,-2.647151109425039e-10,1.0604346698528389e-06,1.061464558915759e-06,,,,,,,,,,,,,,,,,,,,,,,,,,,,,,,,,,,,,,,,,,,,,,,,,,,,,,,,,,,,,,,,,,,,,,,,,,
110,3.482022523880005,0.6139796376228333,1.57465922832489,0.3876505783200264,0.0,-3.141592675445488,-1.1746358052899808e-10,0.5000001788139343,0.5000001788139343,0.6134936809539795,1.5737777948379517,0.3876078343391418,0.0,-3.141592675445488,7.07347513895229e-11,0.5000002384185791,0.5000002384185791,,,,,,,,,,,,,,,,,,,,,,,,,,,,,,,,,,,,,,,,,,,,,,,,,,,,,,,,,,,,,,,,,,,,,,,,,,,,,,,,,,,,,,,,,,,,,,,,,,,,,,,,,,,,,,,,,,,,,,,,,,,,,,,,,,,,,,2.278177646530821e-10,2.8466118351389014e-10,-3.0652563820510176e-10,0.0,1.0919043447188416e-10,5.91777127301185e-10,-1.000521365313034e-06,-1.0006591537603526e-06,2.047806368921101e-10,2.3525625891807067e-10,-3.2961827711730507e-10,0.0,7.283063041541027e-11,-2.647151109425039e-10,1.0604346698528389e-06,1.061464558915759e-06,,,,,,,,,,,,,,,,,,,,,,,,,,,,,,,,,,,,,,,,,,,,,,,,,,,,,,,,,,,,,,,,,,,,,,,,,,
111,3.502690076828003,0.6139796376228333,1.57465922832489,0.3876505783200264,0.0,-3.141592675445488,-1.1746358052899808e-10,0.5000001788139343,0.5000001788139343,0.6134936809539795,1.5737777948379517,0.3876078343391418,0.0,-3.141592675445488,6.178193373562735e-11,0.5000001788139343,0.5000001788139343,,,,,,,,,,,,,,,,,,,,,,,,,,,,,,,,,,,,,,,,,,,,,,,,,,,,,,,,,,,,,,,,,,,,,,,,,,,,,,,,,,,,,,,,,,,,,,,,,,,,,,,,,,,,,,,,,,,,,,,,,,,,,,,,,,,,,,2.278177646530821e-10,2.8466118351389014e-10,-3.0652563820510176e-10,0.0,1.0919043447188416e-10,5.91777127301185e-10,-1.000521365313034e-06,-1.0006591537603526e-06,1.7108536809473662e-10,1.9650947535865268e-10,-2.751618377594411e-10,0.0,4.529709940470639e-11,-2.346482452786347e-10,8.855621445036377e-07,8.865021641213389e-07,,,,,,,,,,,,,,,,,,,,,,,,,,,,,,,,,,,,,,,,,,,,,,,,,,,,,,,,,,,,,,,,,,,,,,,,,,
112,3.5234694480895996,0.6139796376228333,1.57465922832489,0.3876505783200264,0.0,-3.141592675445488,-9.708118337004024e-11,0.5000001788139343,0.5000001788139343,0.6134936809539795,1.5737777948379517,0.3876078343391418,0.0,-3.141592675445488,6.178193373562735e-11,0.5000001788139343,0.5000001788139343,,,,,,,,,,,,,,,,,,,,,,,,,,,,,,,,,,,,,,,,,,,,,,,,,,,,,,,,,,,,,,,,,,,,,,,,,,,,,,,,,,,,,,,,,,,,,,,,,,,,,,,,,,,,,,,,,,,,,,,,,,,,,,,,,,,,,,1.8868240303504535e-10,2.3514523661560816e-10,-2.5343616094630756e-10,0.0,9.070522111187528e-11,4.890958749115271e-10,-8.27190035579406e-07,-8.274105880445859e-07,1.7108536809473662e-10,1.9650947535865268e-10,-2.751618377594411e-10,0.0,4.529709940470639e-11,-2.346482452786347e-10,8.855621445036377e-07,8.865021641213389e-07,,,,,,,,,,,,,,,,,,,,,,,,,,,,,,,,,,,,,,,,,,,,,,,,,,,,,,,,,,,,,,,,,,,,,,,,,,
113,3.5457863807678223,0.6139796376228333,1.57465922832489,0.3876505783200264,0.0,-3.141592675445488,-8.10448097521288e-11,0.5000001192092896,0.5000001192092896,0.6134936809539795,1.5737777948379517,0.3876078343391418,0.0,-3.141592675445488,5.3858646709148417e-11,0.5000001192092896,0.5000001192092896,,,,,,,,,,,,,,,,,,,,,,,,,,,,,,,,,,,,,,,,,,,,,,,,,,,,,,,,,,,,,,,,,,,,,,,,,,,,,,,,,,,,,,,,,,,,,,,,,,,,,,,,,,,,,,,,,,,,,,,,,,,,,,,,,,,,,,1.5737411374061594e-10,1.9695356456850274e-10,-2.1154605844841967e-10,0.0,7.593925488436071e-11,4.0835274051076453e-10,-6.907692977620172e-07,-6.910374281687837e-07,1.4294121442048888e-10,1.6397994073713562e-10,-2.2975371605227224e-10,0.0,2.5701663020072377e-11,-2.0732109085042083e-10,7.395271950372262e-07,7.403786526083422e-07,,,,,,,,,,,,,,,,,,,,,,,,,,,,,,,,,,,,,,,,,,,,,,,,,,,,,,,,,,,,,,,,,,,,,,,,,,
114,3.5670242309570312,0.6139796376228333,1.57465922832489,0.3876505783200264,0.0,-3.141592675445488,-8.023529063372337e-11,0.5000001192092896,0.5000001192092896,0.6134936809539795,1.5737777948379517,0.3876078343391418,0.0,-3.141592675445488,4.723302651776784e-11,0.5000001192092896,0.5000001192092896,,,,,,,,,,,,,,,,,,,,,,,,,,,,,,,,,,,,,,,,,,,,,,,,,,,,,,,,,,,,,,,,,,,,,,,,,,,,,,,,,,,,,,,,,,,,,,,,,,,,,,,,,,,,,,,,,,,,,,,,,,,,,,,,,,,,,,1.559863349598345e-10,1.9440005161186488e-10,-2.094852069589592e-10,0.0,7.521760991835436e-11,4.047595314471408e-10,-6.838873787273769e-07,-6.841577828708978e-07,1.2068124277675452e-10,1.3855583347321954e-10,-1.937061622214742e-10,0.0,1.176836406102666e-11,-1.841769514676628e-10,6.237889351723425e-07,6.245600729926082e-07,,,,,,,,,,,,,,,,,,,,,,,,,,,,,,,,,,,,,,,,,,,,,,,,,,,,,,,,,,,,,,,,,,,,,,,,,,
115,3.588389158248902,0.6139796376228333,1.57465922832489,0.3876505783200264,0.0,-3.141592675445488,-6.631260818235063e-11,0.5000001192092896,0.5000001192092896,0.6134936809539795,1.5737777948379517,0.3876078343391418,0.0,-3.141592675445488,4.723302651776784e-11,0.5000001192092896,0.5000001192092896,,,,,,,,,,,,,,,,,,,,,,,,,,,,,,,,,,,,,,,,,,,,,,,,,,,,,,,,,,,,,,,,,,,,,,,,,,,,,,,,,,,,,,,,,,,,,,,,,,,,,,,,,,,,,,,,,,,,,,,,,,,,,,,,,,,,,,1.2889689315898067e-10,1.610933608731102e-10,-1.7314621958419707e-10,0.0,6.250555628639631e-11,3.343864629634652e-10,-5.654110850628058e-07,-5.657058181895991e-07,1.2068124277675452e-10,1.3855583347321954e-10,-1.937061622214742e-10,0.0,1.176836406102666e-11,-1.841769514676628e-10,6.237889351723425e-07,6.245600729926082e-07,,,,,,,,,,,,,,,,,,,,,,,,,,,,,,,,,,,,,,,,,,,,,,,,,,,,,,,,,,,,,,,,,,,,,,,,,,
116,3.611228466033935,0.6139796376228333,1.57465922832489,0.3876505783200264,0.0,-3.141592675445488,-6.631260818235063e-11,0.5000001192092896,0.5000001192092896,0.6134936809539795,1.5737777948379517,0.3876078343391418,0.0,-3.141592675445488,4.1039310838542065e-11,0.5000001192092896,0.5000001192092896,,,,,,,,,,,,,,,,,,,,,,,,,,,,,,,,,,,,,,,,,,,,,,,,,,,,,,,,,,,,,,,,,,,,,,,,,,,,,,,,,,,,,,,,,,,,,,,,,,,,,,,,,,,,,,,,,,,,,,,,,,,,,,,,,,,,,,1.2889689315898067e-10,1.610933608731102e-10,-1.7314621958419707e-10,0.0,6.250555628639631e-11,3.343864629634652e-10,-5.654110850628058e-07,-5.657058181895991e-07,1.0053069487980791e-10,1.1568523916594131e-10,-1.6169704464275014e-10,0.0,3.8857805861880484e-13,-1.6171576577850288e-10,5.209220717006247e-07,5.216127760832023e-07,,,,,,,,,,,,,,,,,,,,,,,,,,,,,,,,,,,,,,,,,,,,,,,,,,,,,,,,,,,,,,,,,,,,,,,,,,
117,3.633744716644287,0.6139796376228333,1.57465922832489,0.3876505783200264,0.0,-3.141592675445488,-5.4805323473905425e-11,0.5000001192092896,0.5000001192092896,0.6134936809539795,1.5737777948379517,0.3876078343391418,0.0,-3.141592675445488,4.1039310838542065e-11,0.5000001192092896,0.5000001192092896,,,,,,,,,,,,,,,,,,,,,,,,,,,,,,,,,,,,,,,,,,,,,,,,,,,,,,,,,,,,,,,,,,,,,,,,,,,,,,,,,,,,,,,,,,,,,,,,,,,,,,,,,,,,,,,,,,,,,,,,,,,,,,,,,,,,,,1.0669243266647753e-10,1.3300471835009375e-10,-1.4307305340466314e-10,0.0,5.190292640122607e-11,2.7626945175995843e-10,-4.6745813619963883e-07,-4.6776310114182706e-07,1.0053069487980791e-10,1.1568523916594131e-10,-1.6169704464275014e-10,0.0,3.8857805861880484e-13,-1.6171576577850288e-10,5.209220717006247e-07,5.216127760832023e-07,,,,,,,,,,,,,,,,,,,,,,,,,,,,,,,,,,,,,,,,,,,,,,,,,,,,,,,,,,,,,,,,,,,,,,,,,,
118,3.6558258533477783,0.6139796376228333,1.57465922832489,0.3876505783200264,0.0,-3.141592675445488,-5.4805323473905425e-11,0.5000001192092896,0.5000001192092896,0.6134936809539795,1.5737777948379517,0.3876078343391418,0.0,-3.141592675445488,3.5603506254311406e-11,0.5000000596046448,0.5000000596046448,,,,,,,,,,,,,,,,,,,,,,,,,,,,,,,,,,,,,,,,,,,,,,,,,,,,,,,,,,,,,,,,,,,,,,,,,,,,,,,,,,,,,,,,,,,,,,,,,,,,,,,,,,,,,,,,,,,,,,,,,,,,,,,,,,,,,,1.0669243266647753e-10,1.3300471835009375e-10,-1.4307305340466314e-10,0.0,5.190292640122607e-11,2.7626945175995843e-10,-4.6745813619963883e-07,-4.6776310114182706e-07,8.409939411535561e-11,9.681144774731364e-11,-1.3504475315784248e-10,0.0,-6.716849298982197e-12,-1.418791889529203e-10,4.350183644419303e-07,4.3563508711486065e-07,,,,,,,,,,,,,,,,,,,,,,,,,,,,,,,,,,,,,,,,,,,,,,,,,,,,,,,,,,,,,,,,,,,,,,,,,,
