MHC-RobotSimulators-Research/Data_Analysis_MotionReplication/mai_plotter/offset_fixed/0arm__p3.csv
Unnamed: 0,time,jpos0,jpos1,jpos2,jpos3,jpos4,jpos5,jpos6,jpos7,jpos8,jpos9,jpos10,jpos11,jpos12,jpos13,jpos14,jpos15,runlevel,sublevel,last_seq,type0,type1,pos0,pos1,pos2,pos3,pos4,pos5,ori0,ori1,ori2,ori3,ori4,ori5,ori6,ori7,ori8,ori9,ori10,ori11,ori12,ori13,ori14,ori15,ori16,ori17,ori_d0,ori_d1,ori_d2,ori_d3,ori_d4,ori_d5,ori_d6,ori_d7,ori_d8,ori_d9,ori_d10,ori_d11,ori_d12,ori_d13,ori_d14,ori_d15,ori_d16,ori_d17,pos_d0,pos_d1,pos_d2,pos_d3,pos_d4,pos_d5,encVals0,encVals1,encVals2,encVals3,encVals4,encVals5,encVals6,encVals7,encVals8,encVals9,encVals10,encVals11,encVals12,encVals13,encVals14,encVals15,dac_vals0,dac_vals1,dac_vals2,dac_vals3,dac_vals4,dac_vals5,dac_vals6,dac_vals7,dac_vals8,dac_vals9,dac_vals10,dac_vals11,dac_vals12,dac_vals13,dac_vals14,dac_vals15,Tau0,Tau1,Tau2,Tau3,Tau4,Tau5,Tau6,Tau7,Tau8,Tau9,Tau10,Tau11,Tau12,Tau13,Tau14,Tau15,mpos0,mpos1,mpos2,mpos3,mpos4,mpos5,mpos6,mpos7,mpos8,mpos9,mpos10,mpos11,mpos12,mpos13,mpos14,mpos15,mvel0,mvel1,mvel2,mvel3,mvel4,mvel5,mvel6,mvel7,mvel8,mvel9,mvel10,mvel11,mvel12,mvel13,mvel14,mvel15,jvel0,jvel1,jvel2,jvel3,jvel4,jvel5,jvel6,jvel7,jvel8,jvel9,jvel10,jvel11,jvel12,jvel13,jvel14,jvel15,mpos_d0,mpos_d1,mpos_d2,mpos_d3,mpos_d4,mpos_d5,mpos_d6,mpos_d7,mpos_d8,mpos_d9,mpos_d10,mpos_d11,mpos_d12,mpos_d13,mpos_d14,mpos_d15,jpos_d0,jpos_d1,jpos_d2,jpos_d3,jpos_d4,jpos_d5,jpos_d6,jpos_d7,jpos_d8,jpos_d9,jpos_d10,jpos_d11,jpos_d12,jpos_d13,jpos_d14,jpos_d15,grasp_d0,grasp_d1,encoffsets0,encoffsets1,encoffsets2,encoffsets3,encoffsets4,encoffsets5,encoffsets6,encoffsets7,encoffsets8,encoffsets9,encoffsets10,encoffsets11,encoffsets12,encoffsets13,encoffsets14,encoffsets15,jac_vel0,jac_vel1,jac_vel2,jac_vel3,jac_vel4,jac_vel5,jac_vel6,jac_vel7,jac_vel8,jac_vel9,jac_vel10,jac_vel11,jac_f0,jac_f1,jac_f2,jac_f3,jac_f4,jac_f5,jac_f6,jac_f7,jac_f8,jac_f9,jac_f10,jac_f11
0,0.0,0.52231,1.577901,0.39792,0.0,-3.142882,-0.002252,0.782316,0.78674,0.526439,1.575374,0.399649,0.0,-3.1409130000000003,-0.000897,0.784998,0.781437,3.0,1.0,111.0,0.0,1.0,-79823.0,-25892.0,14011.0,-78137.0,25649.0,13569.0,-0.938176,-0.213044,0.272833,-0.30582,0.140869,-0.94161,0.162171,-0.966834,-0.197313,-0.937617,0.213626,0.274295,0.308182,0.145499,0.940135,0.160928,0.96602,-0.202258,-0.937853,-0.21342,0.27365,-0.306769,0.141176,-0.941256,0.16225,-0.966706,-0.197873,-0.937454,0.21338,0.275043,0.308925,0.145764,0.93985,0.160454,0.966034,-0.202565,-79967.0,-25927.0,13998.0,-78136.0,25654.0,13549.0,18330.0,17337.0,-157756.0,0.0,-54165.0,-54278.0,-55394.0,-52824.0,-14997.0,-12618.0,155012.0,0.0,53515.0,53379.0,52163.0,55140.0,79.0,236.0,133.0,0.0,607.0,1072.0,253.0,444.0,-54.0,-200.0,45.0,0.0,515.0,488.0,-372.0,517.0,-0.021624,-0.064064,-0.036194,0.0,0.022246,0.039255,-0.009287,0.016256,-0.014713,-0.054199,0.012245,0.0,0.018852,0.017873,0.013646,0.018935,4075.830322,11515.410156,51294.0625,0.0,-17635.591797,-17635.861328,18037.169922,-17228.791016,4108.049805,11502.0,51509.253906,0.0,17708.400391,17708.220703,-17304.480469,18111.511719,0.0,0.0,0.0,0.0,0.0,0.0,0.0,0.0,0.0,0.0,0.0,0.0,0.0,0.0,0.0,0.0,0.0,0.0,0.0,0.0,0.0,0.0,0.0,0.0,0.0,0.0,0.0,0.0,0.0,0.0,0.0,0.0,4074.006104,11511.545898,51275.632812,0.0,-17635.576172,-17636.476562,18037.228516,-17228.878906,4107.789062,11500.0,51509.328125,0.0,17708.404297,17707.771484,-17305.546875,18110.806641,29.912762,90.37722,22.790968,0.0,-0.162121,-0.197437,44.864056,45.03302,30.160807,90.246132,22.898355,0.0,-0.051761,-0.101335,44.88361,44.669693,1.569,1.563,-63617.0,-145286.0,-412178.0,0.0,141786.0,141676.0,-145019.0,138607.0,-60642.0,-140418.0,-417313.0,0.0,-143245.0,-143379.0,140109.0,-146099.0,0.0,0.0,0.0,0.0,0.0,0.0,0.0,0.0,0.0,0.0,0.0,0.0,0.0,0.0,0.0,0.0,0.0,0.0,0.0,0.0,0.0,0.0,0.0,0.0
1,1.3408689498901367,0.52231,1.577901,0.39792,0.0,-3.0955220000000003,0.043633,0.453026,0.584101,0.526439,1.575374,0.399649,0.0,-3.1409130000000003,-0.000897,0.540259,0.552419,3.0,1.0,111.0,0.0,1.0,-79968.0,-25331.0,14152.0,-78137.0,25649.0,13569.0,-0.961648,-0.16507,0.219057,-0.250297,0.20147,-0.946975,0.112183,-0.965485,-0.23506,-0.935909,0.22099,0.274295,0.309316,0.143072,0.940135,0.168516,0.964725,-0.202258,-0.961648,-0.16507,0.219057,-0.250297,0.20147,-0.946975,0.112183,-0.965485,-0.23506,-0.935909,0.22099,0.274295,0.309316,0.143072,0.940135,0.168516,0.964725,-0.202258,-79968.0,-25331.0,14152.0,-78137.0,25649.0,13569.0,18330.0,17337.0,-157755.0,0.0,-54002.0,-54015.0,-53640.0,-54115.0,-14997.0,-12618.0,155012.0,0.0,53515.0,53379.0,53564.0,53829.0,79.0,236.0,132.0,0.0,765.0,1017.0,612.0,-572.0,-54.0,-200.0,45.0,0.0,531.0,499.0,817.0,-997.0,-0.021624,-0.064064,-0.035965,0.0,0.028017,0.037243,-0.022399,-0.020932,-0.014713,-0.054199,0.012245,0.0,0.019458,0.018276,-0.029925,-0.03649,4075.830322,11515.410156,51293.972656,0.0,-17620.921875,-17612.191406,17879.310547,-17344.980469,4108.049805,11502.0,51509.253906,0.0,17708.400391,17708.220703,-17430.570312,17993.519531,0.0,0.0,0.0,0.0,0.0,0.0,0.0,-90.92347,0.0,0.0,0.0,0.0,0.0,0.0,0.0,-90.92347,0.0,0.0,0.0,0.0,0.0,0.0,0.0,-0.176481,0.0,0.0,0.0,0.0,0.0,0.0,0.0,-0.176481,4074.006104,11511.545898,51275.632812,0.0,-17618.632812,-17617.289062,17874.066406,-17358.873047,4107.789062,11500.0,51509.328125,0.0,17708.683594,17708.408203,-17451.238281,17966.574219,29.912762,90.37722,22.790968,0.0,2.972646,1.93293,25.656937,31.638065,30.160807,90.246132,22.898355,0.0,0.000238,-0.030327,28.645523,28.665106,1.037,1.092,-63617.0,-145286.0,-412178.0,0.0,141786.0,141676.0,-145019.0,138607.0,-60642.0,-140418.0,-417313.0,0.0,-143245.0,-143379.0,140109.0,-146099.0,0.0,0.0,0.0,0.0,0.0,0.0,0.0,0.0,0.0,0.0,0.0,0.0,0.0,0.0,0.0,0.0,0.0,0.0,0.0,0.0,0.0,0.0,0.0,0.0
2,1.363874912261963,0.52231,1.577901,0.39792,0.0,-3.0946450000000003,0.043809,0.452938,0.582268,0.526439,1.575374,0.399649,0.0,-3.1409130000000003,-0.000897,0.536591,0.548577,3.0,1.0,111.0,0.0,1.0,-79968.0,-25329.0,14153.0,-78137.0,25649.0,13569.0,-0.961548,-0.166134,0.21869,-0.25026,0.202059,-0.946859,0.113117,-0.96518,-0.235866,-0.935928,0.220909,0.274295,0.309304,0.143098,0.940135,0.168433,0.964739,-0.202258,-0.961548,-0.166134,0.21869,-0.25026,0.202059,-0.946859,0.113117,-0.96518,-0.235866,-0.935928,0.220909,0.274295,0.309304,0.143098,0.940135,0.168433,0.964739,-0.202258,-79968.0,-25329.0,14153.0,-78137.0,25649.0,13569.0,18330.0,17337.0,-157755.0,0.0,-53999.0,-54014.0,-53640.0,-54126.0,-14997.0,-12618.0,155012.0,0.0,53515.0,53379.0,53585.0,53807.0,79.0,236.0,132.0,0.0,756.0,1013.0,621.0,-560.0,-54.0,-200.0,45.0,0.0,531.0,499.0,789.0,-969.0,-0.021624,-0.064064,-0.035965,0.0,0.027675,0.037086,-0.02273,-0.020515,-0.014713,-0.054199,0.012245,0.0,0.019464,0.018282,-0.028876,-0.035484,4075.830322,11515.410156,51293.972656,0.0,-17620.650391,-17612.099609,17879.310547,-17345.970703,4108.049805,11502.0,51509.253906,0.0,17708.400391,17708.220703,-17432.460938,17991.541016,0.0,0.0,0.0,0.0,0.0,0.0,0.0,0.0,0.0,0.0,0.0,0.0,0.0,0.0,-90.92347,-89.174942,0.0,0.0,0.0,0.0,0.0,0.0,0.0,0.0,0.0,0.0,0.0,0.0,0.0,0.0,-0.176481,-0.173088,4074.006104,11511.545898,51275.632812,0.0,-17618.605469,-17617.259766,17873.8125,-17359.076172,4107.789062,11500.0,51509.328125,0.0,17708.683594,17708.410156,-17451.466797,17966.347656,29.912762,90.37722,22.790968,0.0,2.977536,1.936253,25.62697,31.617168,30.160807,90.246132,22.898355,0.0,0.000319,-0.030216,28.620111,28.640059,1.035,1.085,-63617.0,-145286.0,-412178.0,0.0,141786.0,141676.0,-145019.0,138607.0,-60642.0,-140418.0,-417313.0,0.0,-143245.0,-143379.0,140109.0,-146099.0,0.0,0.0,0.0,0.0,0.0,0.0,0.0,0.0,0.0,0.0,0.0,-0.176481,0.0,0.0,0.0,0.0,0.0,0.0,0.0,0.0,0.0,0.0,0.0,-0.176481
3,1.3848938941955566,0.52231,1.577901,0.39792,0.0,-3.094062,0.043809,0.452765,0.581918,0.526439,1.575374,0.399649,0.0,-3.1409130000000003,-0.000897,0.532226,0.545607,3.0,1.0,111.0,0.0,1.0,-79968.0,-25329.0,14153.0,-78137.0,25649.0,13569.0,-0.961537,-0.166371,0.218557,-0.250248,0.202581,-0.946751,0.113236,-0.965029,-0.236423,-0.935774,0.221561,0.274295,0.309404,0.142883,0.940135,0.169106,0.964622,-0.202258,-0.961537,-0.166371,0.218557,-0.250248,0.202581,-0.946751,0.113236,-0.965029,-0.236423,-0.935774,0.221561,0.274295,0.309404,0.142883,0.940135,0.169106,0.964622,-0.202258,-79968.0,-25329.0,14153.0,-78137.0,25649.0,13569.0,18330.0,17337.0,-157755.0,0.0,-53997.0,-54014.0,-53639.0,-54128.0,-14997.0,-12618.0,155012.0,0.0,53515.0,53379.0,53610.0,53790.0,79.0,236.0,132.0,0.0,749.0,1010.0,621.0,-562.0,-54.0,-200.0,45.0,0.0,532.0,499.0,744.0,-945.0,-0.021624,-0.064064,-0.035965,0.0,0.027427,0.036992,-0.022752,-0.020596,-0.014713,-0.054199,0.012245,0.0,0.019469,0.018285,-0.02724,-0.034595,4075.830322,11515.410156,51293.972656,0.0,-17620.470703,-17612.099609,17879.220703,-17346.150391,4108.049805,11502.0,51509.253906,0.0,17708.400391,17708.220703,-17434.708984,17990.011719,0.0,0.0,0.0,0.0,0.0,0.0,0.0,0.0,0.0,0.0,0.0,0.0,0.0,0.0,-89.174942,-89.174942,0.0,0.0,0.0,0.0,0.0,0.0,0.0,0.0,0.0,0.0,0.0,0.0,0.0,0.0,-0.173088,-0.173088,4074.006104,11511.545898,51275.632812,0.0,-17618.605469,-17617.259766,17873.8125,-17359.076172,4107.789062,11500.0,51509.328125,0.0,17708.683594,17708.410156,-17451.466797,17966.347656,29.912762,90.37722,22.790968,0.0,2.977536,1.936253,25.62697,31.617168,30.160807,90.246132,22.898355,0.0,0.000319,-0.030216,28.620111,28.640059,1.034,1.077,-63617.0,-145286.0,-412178.0,0.0,141786.0,141676.0,-145019.0,138607.0,-60642.0,-140418.0,-417313.0,0.0,-143245.0,-143379.0,140109.0,-146099.0,0.0,0.0,0.0,0.0,0.0,0.0,0.0,0.0,0.0,0.0,0.0,-0.173088,0.0,0.0,0.0,0.0,0.0,0.0,0.0,0.0,0.0,0.0,0.0,-0.173088
4,1.4058408737182615,0.52231,1.577901,0.39792,0.0,-3.09348,0.043809,0.452765,0.581742,0.526439,1.575374,0.399649,0.0,-3.1409130000000003,-0.000897,0.531351,0.544731,3.0,1.0,111.0,0.0,1.0,-79968.0,-25329.0,14154.0,-78137.0,25649.0,13569.0,-0.961526,-0.166607,0.218424,-0.250235,0.203102,-0.946642,0.113355,-0.964879,-0.236979,-0.935774,0.221561,0.274295,0.309404,0.142883,0.940135,0.169106,0.964622,-0.202258,-0.961526,-0.166607,0.218424,-0.250235,0.203102,-0.946642,0.113355,-0.964879,-0.236979,-0.935774,0.221561,0.274295,0.309404,0.142883,0.940135,0.169106,0.964622,-0.202258,-79968.0,-25329.0,14154.0,-78137.0,25649.0,13569.0,18330.0,17337.0,-157755.0,0.0,-53995.0,-54014.0,-53639.0,-54129.0,-14997.0,-12618.0,155012.0,0.0,53515.0,53379.0,53615.0,53785.0,79.0,236.0,132.0,0.0,742.0,1008.0,624.0,-567.0,-54.0,-200.0,45.0,0.0,532.0,499.0,741.0,-946.0,-0.021624,-0.064064,-0.035965,0.0,0.027176,0.036897,-0.022851,-0.020752,-0.014713,-0.054199,0.012245,0.0,0.019474,0.018289,-0.027147,-0.03463,4075.830322,11515.410156,51293.972656,0.0,-17620.289062,-17612.099609,17879.220703,-17346.242188,4108.049805,11502.0,51509.253906,0.0,17708.400391,17708.220703,-17435.160156,17989.560547,0.0,0.0,0.0,0.0,0.0,0.0,0.0,0.0,0.0,0.0,0.0,0.0,0.0,0.0,0.0,0.0,0.0,0.0,0.0,0.0,0.0,0.0,0.0,0.0,0.0,0.0,0.0,0.0,0.0,0.0,0.0,0.0,4074.006104,11511.545898,51275.632812,0.0,-17618.605469,-17617.259766,17873.8125,-17359.076172,4107.789062,11500.0,51509.328125,0.0,17708.683594,17708.410156,-17451.466797,17966.347656,29.912762,90.37722,22.790968,0.0,2.977536,1.936253,25.62697,31.617168,30.160807,90.246132,22.898355,0.0,0.000319,-0.030216,28.620111,28.640059,1.034,1.076,-63617.0,-145286.0,-412178.0,0.0,141786.0,141676.0,-145019.0,138607.0,-60642.0,-140418.0,-417313.0,0.0,-143245.0,-143379.0,140109.0,-146099.0,0.0,0.0,0.0,0.0,0.0,0.0,0.0,0.0,0.0,0.0,0.0,0.0,0.0,0.0,0.0,0.0,0.0,0.0,0.0,0.0,0.0,0.0,0.0,0.0
5,1.4258768558502195,0.52231,1.577901,0.39792,0.0,-3.093191,0.043809,0.452765,0.581219,0.526439,1.575374,0.399649,0.0,-3.1409130000000003,-0.000897,0.531177,0.544032,3.0,1.0,111.0,0.0,1.0,-79968.0,-25329.0,14154.0,-78137.0,25649.0,13569.0,-0.961485,-0.166933,0.218359,-0.250274,0.203306,-0.946589,0.113623,-0.96478,-0.237254,-0.935832,0.221315,0.274295,0.309366,0.142964,0.940135,0.168852,0.964666,-0.202258,-0.961485,-0.166933,0.218359,-0.250274,0.203306,-0.946589,0.113623,-0.96478,-0.237254,-0.935832,0.221315,0.274295,0.309366,0.142964,0.940135,0.168852,0.964666,-0.202258,-79968.0,-25329.0,14154.0,-78137.0,25649.0,13569.0,18330.0,17337.0,-157755.0,0.0,-53994.0,-54014.0,-53639.0,-54132.0,-14997.0,-12618.0,155012.0,0.0,53515.0,53379.0,53616.0,53781.0,79.0,236.0,132.0,0.0,697.0,1005.0,627.0,-566.0,-54.0,-200.0,45.0,0.0,532.0,499.0,747.0,-948.0,-0.021624,-0.064064,-0.035965,0.0,0.025509,0.036807,-0.022946,-0.020739,-0.014713,-0.054199,0.012245,0.0,0.019479,0.018292,-0.027353,-0.034718,4075.830322,11515.410156,51293.972656,0.0,-17620.201172,-17612.099609,17879.220703,-17346.509766,4108.049805,11502.0,51509.253906,0.0,17708.400391,17708.220703,-17435.25,17989.199219,0.0,0.0,0.0,0.0,89.174942,0.0,0.0,0.0,0.0,0.0,0.0,0.0,0.0,0.0,0.0,0.0,0.0,0.0,0.0,0.0,0.288479,0.0,0.0,0.0,0.0,0.0,0.0,0.0,0.0,0.0,0.0,0.0,4074.006104,11511.545898,51275.632812,0.0,-17618.605469,-17617.259766,17873.8125,-17359.076172,4107.789062,11500.0,51509.328125,0.0,17708.683594,17708.410156,-17451.466797,17966.347656,29.912762,90.37722,22.790968,0.0,2.977536,1.936253,25.62697,31.617168,30.160807,90.246132,22.898355,0.0,0.000319,-0.030216,28.620111,28.640059,1.033,1.075,-63617.0,-145286.0,-412178.0,0.0,141786.0,141676.0,-145019.0,138607.0,-60642.0,-140418.0,-417313.0,0.0,-143245.0,-143379.0,140109.0,-146099.0,0.0,0.0,0.0,0.011361,-0.005527,-0.288202,0.0,0.0,0.0,0.0,0.0,0.0,0.0,0.0,0.0,0.011361,-0.005527,-0.288202,0.0,0.0,0.0,0.0,0.0,0.0
6,1.445878982543945,0.52231,1.577901,0.39792,0.0,-3.093191,0.043809,0.452589,0.58087,0.526439,1.575374,0.399649,0.0,-3.1409130000000003,-0.000897,0.530828,0.542987,3.0,1.0,111.0,0.0,1.0,-79968.0,-25329.0,14154.0,-78137.0,25649.0,13569.0,-0.96147,-0.167016,0.218359,-0.250291,0.203284,-0.946589,0.113707,-0.96477,-0.237254,-0.935909,0.22099,0.274295,0.309316,0.143072,0.940135,0.168516,0.964725,-0.202258,-0.96147,-0.167016,0.218359,-0.250291,0.203284,-0.946589,0.113707,-0.96477,-0.237254,-0.935909,0.22099,0.274295,0.309316,0.143072,0.940135,0.168516,0.964725,-0.202258,-79968.0,-25329.0,14154.0,-78137.0,25649.0,13569.0,18330.0,17337.0,-157755.0,0.0,-53994.0,-54014.0,-53638.0,-54134.0,-14997.0,-12618.0,155012.0,0.0,53515.0,53379.0,53618.0,53775.0,79.0,236.0,132.0,0.0,740.0,1003.0,627.0,-568.0,-54.0,-200.0,45.0,0.0,532.0,499.0,750.0,-946.0,-0.021624,-0.064064,-0.035965,0.0,0.027093,0.036717,-0.022959,-0.0208,-0.014713,-0.054199,0.012245,0.0,0.019484,0.018295,-0.027478,-0.034642,4075.830322,11515.410156,51293.972656,0.0,-17620.201172,-17612.099609,17879.128906,-17346.691406,4108.049805,11502.0,51509.253906,0.0,17708.400391,17708.220703,-17435.429688,17988.660156,0.0,0.0,0.0,0.0,0.0,0.0,0.0,0.0,0.0,0.0,0.0,0.0,0.0,0.0,0.0,-89.174942,0.0,0.0,0.0,0.0,0.0,0.0,0.0,0.0,0.0,0.0,0.0,0.0,0.0,0.0,0.0,-0.173088,4074.006104,11511.545898,51275.632812,0.0,-17618.605469,-17617.259766,17873.8125,-17359.076172,4107.789062,11500.0,51509.328125,0.0,17708.683594,17708.410156,-17451.466797,17966.347656,29.912762,90.37722,22.790968,0.0,2.977536,1.936253,25.62697,31.617168,30.160807,90.246132,22.898355,0.0,0.000319,-0.030216,28.620111,28.640059,1.033,1.073,-63617.0,-145286.0,-412178.0,0.0,141786.0,141676.0,-145019.0,138607.0,-60642.0,-140418.0,-417313.0,0.0,-143245.0,-143379.0,140109.0,-146099.0,0.0,0.0,0.0,0.0,0.0,0.0,0.0,0.0,0.0,0.0,0.0,0.0,0.0,0.0,0.0,0.0,0.0,0.0,0.0,0.0,0.0,0.0,0.0,0.0
7,1.4658699035644531,0.52231,1.577901,0.39792,0.0,-3.0928970000000002,0.043809,0.452589,0.58052,0.526439,1.575374,0.399649,0.0,-3.1409130000000003,-0.000897,0.530302,0.541938,3.0,1.0,111.0,0.0,1.0,-79968.0,-25329.0,14154.0,-78137.0,25649.0,13569.0,-0.961443,-0.167261,0.218291,-0.250312,0.203515,-0.946534,0.113892,-0.964679,-0.237535,-0.935967,0.220745,0.274295,0.309279,0.143153,0.940135,0.168264,0.964769,-0.202258,-0.961443,-0.167261,0.218291,-0.250312,0.203515,-0.946534,0.113892,-0.964679,-0.237535,-0.935967,0.220745,0.274295,0.309279,0.143153,0.940135,0.168264,0.964769,-0.202258,-79968.0,-25329.0,14154.0,-78137.0,25649.0,13569.0,18330.0,17337.0,-157755.0,0.0,-53993.0,-54014.0,-53638.0,-54136.0,-14997.0,-12618.0,155012.0,0.0,53515.0,53379.0,53621.0,53769.0,79.0,236.0,132.0,0.0,737.0,1000.0,629.0,-569.0,-54.0,-200.0,45.0,0.0,532.0,500.0,752.0,-944.0,-0.021624,-0.064064,-0.035965,0.0,0.026977,0.036627,-0.023052,-0.020856,-0.014713,-0.054199,0.012245,0.0,0.019489,0.018299,-0.027519,-0.034555,4075.830322,11515.410156,51293.972656,0.0,-17620.109375,-17612.099609,17879.128906,-17346.871094,4108.049805,11502.0,51509.253906,0.0,17708.400391,17708.220703,-17435.701172,17988.121094,0.0,0.0,0.0,0.0,0.0,0.0,0.0,0.0,0.0,0.0,0.0,0.0,0.0,0.0,0.0,0.0,0.0,0.0,0.0,0.0,0.0,0.0,0.0,0.0,0.0,0.0,0.0,0.0,0.0,0.0,0.0,0.0,4074.006104,11511.545898,51275.632812,0.0,-17618.605469,-17617.259766,17873.8125,-17359.076172,4107.789062,11500.0,51509.328125,0.0,17708.683594,17708.410156,-17451.466797,17966.347656,29.912762,90.37722,22.790968,0.0,2.977536,1.936253,25.62697,31.617168,30.160807,90.246132,22.898355,0.0,0.000319,-0.030216,28.620111,28.640059,1.033,1.072,-63617.0,-145286.0,-412178.0,0.0,141786.0,141676.0,-145019.0,138607.0,-60642.0,-140418.0,-417313.0,0.0,-143245.0,-143379.0,140109.0,-146099.0,0.0,0.0,0.0,0.0,0.0,0.0,0.0,0.0,0.0,0.0,0.0,0.0,0.0,0.0,0.0,0.0,0.0,0.0,0.0,0.0,0.0,0.0,0.0,0.0
8,1.4879169464111328,0.52231,1.577901,0.39792,0.0,-3.092609,0.043809,0.452589,0.579997,0.526439,1.575374,0.399649,0.0,-3.1409130000000003,-0.000897,0.529779,0.54054,3.0,1.0,111.0,0.0,1.0,-79968.0,-25329.0,14154.0,-78137.0,25649.0,13569.0,-0.961401,-0.167587,0.218226,-0.25035,0.203718,-0.94648,0.114161,-0.964579,-0.23781,-0.936063,0.220335,0.274295,0.309216,0.143288,0.940135,0.167842,0.964842,-0.202258,-0.961401,-0.167587,0.218226,-0.25035,0.203718,-0.94648,0.114161,-0.964579,-0.23781,-0.936063,0.220335,0.274295,0.309216,0.143288,0.940135,0.167842,0.964842,-0.202258,-79968.0,-25329.0,14154.0,-78137.0,25649.0,13569.0,18330.0,17337.0,-157755.0,0.0,-53992.0,-54014.0,-53638.0,-54139.0,-14997.0,-12618.0,155012.0,0.0,53515.0,53379.0,53624.0,53761.0,79.0,236.0,132.0,0.0,734.0,998.0,632.0,-569.0,-54.0,-200.0,45.0,0.0,532.0,500.0,753.0,-938.0,-0.021624,-0.064064,-0.035965,0.0,0.026865,0.036528,-0.023154,-0.020853,-0.014713,-0.054199,0.012245,0.0,0.019495,0.018302,-0.027584,-0.034337,4075.830322,11515.410156,51293.972656,0.0,-17620.021484,-17612.099609,17879.128906,-17347.140625,4108.049805,11502.0,51509.253906,0.0,17708.400391,17708.220703,-17435.970703,17987.400391,0.0,0.0,0.0,0.0,0.0,0.0,0.0,0.0,0.0,0.0,0.0,0.0,0.0,0.0,-89.174942,0.0,0.0,0.0,0.0,0.0,0.0,0.0,0.0,0.0,0.0,0.0,0.0,0.0,0.0,0.0,-0.173088,0.0,4074.006104,11511.545898,51275.632812,0.0,-17618.605469,-17617.259766,17873.8125,-17359.076172,4107.789062,11500.0,51509.328125,0.0,17708.683594,17708.410156,-17451.466797,17966.347656,29.912762,90.37722,22.790968,0.0,2.977536,1.936253,25.62697,31.617168,30.160807,90.246132,22.898355,0.0,0.000319,-0.030216,28.620111,28.640059,1.032,1.07,-63617.0,-145286.0,-412178.0,0.0,141786.0,141676.0,-145019.0,138607.0,-60642.0,-140418.0,-417313.0,0.0,-143245.0,-143379.0,140109.0,-146099.0,0.0,0.0,0.0,0.0,0.0,0.0,0.0,0.0,0.0,0.0,0.0,-0.173088,0.0,0.0,0.0,0.0,0.0,0.0,0.0,0.0,0.0,0.0,0.0,-0.173088
9,1.5088670253753662,0.52231,1.577901,0.39792,0.0,-3.092609,0.043809,0.452416,0.579471,0.526439,1.575374,0.399649,0.0,-3.1409130000000003,-0.000897,0.529606,0.539668,3.0,1.0,111.0,0.0,1.0,-79968.0,-25329.0,14154.0,-78137.0,25649.0,13569.0,-0.961372,-0.167757,0.218226,-0.250386,0.203674,-0.94648,0.114331,-0.964559,-0.23781,-0.93614,0.220008,0.274295,0.309166,0.143396,0.940135,0.167504,0.964901,-0.202258,-0.961372,-0.167757,0.218226,-0.250386,0.203674,-0.94648,0.114331,-0.964559,-0.23781,-0.93614,0.220008,0.274295,0.309166,0.143396,0.940135,0.167504,0.964901,-0.202258,-79968.0,-25329.0,14154.0,-78137.0,25649.0,13569.0,18330.0,17337.0,-157755.0,0.0,-53992.0,-54014.0,-53637.0,-54142.0,-14997.0,-12618.0,155012.0,0.0,53515.0,53379.0,53625.0,53756.0,79.0,236.0,132.0,0.0,734.0,995.0,633.0,-569.0,-54.0,-200.0,45.0,0.0,532.0,500.0,759.0,-938.0,-0.021624,-0.064064,-0.035965,0.0,0.026891,0.036433,-0.023174,-0.020833,-0.014713,-0.054199,0.012245,0.0,0.0195,0.018306,-0.027789,-0.034326,4075.830322,11515.410156,51293.972656,0.0,-17620.021484,-17612.099609,17879.041016,-17347.410156,4108.049805,11502.0,51509.253906,0.0,17708.400391,17708.220703,-17436.060547,17986.951172,0.0,0.0,0.0,0.0,0.0,0.0,0.0,0.0,0.0,0.0,0.0,0.0,0.0,0.0,0.0,0.0,0.0,0.0,0.0,0.0,0.0,0.0,0.0,0.0,0.0,0.0,0.0,0.0,0.0,0.0,0.0,0.0,4074.006104,11511.545898,51275.632812,0.0,-17618.605469,-17617.259766,17873.8125,-17359.076172,4107.789062,11500.0,51509.328125,0.0,17708.683594,17708.410156,-17451.466797,17966.347656,29.912762,90.37722,22.790968,0.0,2.977536,1.936253,25.62697,31.617168,30.160807,90.246132,22.898355,0.0,0.000319,-0.030216,28.620111,28.640059,1.031,1.069,-63617.0,-145286.0,-412178.0,0.0,141786.0,141676.0,-145019.0,138607.0,-60642.0,-140418.0,-417313.0,0.0,-143245.0,-143379.0,140109.0,-146099.0,0.0,0.0,0.0,0.0,0.0,0.0,0.0,0.0,0.0,0.0,0.0,0.0,0.0,0.0,0.0,0.0,0.0,0.0,0.0,0.0,0.0,0.0,0.0,0.0
10,1.5288729667663574,0.52231,1.577901,0.39792,0.0,-3.092315,0.043809,0.452416,0.578949,0.526439,1.575374,0.399649,0.0,-3.1409130000000003,-0.000897,0.52908,0.539142,3.0,1.0,111.0,0.0,1.0,-79968.0,-25329.0,14154.0,-78137.0,25649.0,13569.0,-0.96133,-0.168084,0.218159,-0.250424,0.203883,-0.946425,0.1146,-0.964458,-0.238091,-0.93614,0.220008,0.274295,0.309166,0.143396,0.940135,0.167504,0.964901,-0.202258,-0.96133,-0.168084,0.218159,-0.250424,0.203883,-0.946425,0.1146,-0.964458,-0.238091,-0.93614,0.220008,0.274295,0.309166,0.143396,0.940135,0.167504,0.964901,-0.202258,-79968.0,-25329.0,14154.0,-78137.0,25649.0,13569.0,18330.0,17337.0,-157755.0,0.0,-53991.0,-54014.0,-53637.0,-54145.0,-14997.0,-12618.0,155012.0,0.0,53515.0,53379.0,53628.0,53753.0,79.0,236.0,132.0,0.0,731.0,993.0,635.0,-568.0,-54.0,-200.0,45.0,0.0,533.0,500.0,760.0,-941.0,-0.021624,-0.064064,-0.035965,0.0,0.026771,0.036343,-0.023265,-0.020799,-0.014713,-0.054199,0.012245,0.0,0.019505,0.018309,-0.027819,-0.034447,4075.830322,11515.410156,51293.972656,0.0,-17619.929688,-17612.099609,17879.041016,-17347.679688,4108.049805,11502.0,51509.253906,0.0,17708.400391,17708.220703,-17436.330078,17986.679688,0.0,0.0,0.0,0.0,0.0,0.0,0.0,-89.174942,0.0,0.0,0.0,0.0,0.0,0.0,0.0,0.0,0.0,0.0,0.0,0.0,0.0,0.0,0.0,-0.173088,0.0,0.0,0.0,0.0,0.0,0.0,0.0,0.0,4074.006104,11511.545898,51275.632812,0.0,-17618.605469,-17617.259766,17873.8125,-17359.076172,4107.789062,11500.0,51509.328125,0.0,17708.683594,17708.410156,-17451.466797,17966.347656,29.912762,90.37722,22.790968,0.0,2.977536,1.936253,25.62697,31.617168,30.160807,90.246132,22.898355,0.0,0.000319,-0.030216,28.620111,28.640059,1.031,1.068,-63617.0,-145286.0,-412178.0,0.0,141786.0,141676.0,-145019.0,138607.0,-60642.0,-140418.0,-417313.0,0.0,-143245.0,-143379.0,140109.0,-146099.0,0.0,0.0,0.0,0.0,0.0,0.0,0.0,0.0,0.0,0.0,0.0,0.0,0.0,0.0,0.0,0.0,0.0,0.0,0.0,0.0,0.0,0.0,0.0,0.0
11,1.5498738288879397,0.52231,1.577901,0.39792,0.0,-3.092315,0.043809,0.452239,0.578772,0.526439,1.575374,0.399649,0.0,-3.1409130000000003,-0.000897,0.52873,0.538093,3.0,1.0,111.0,0.0,1.0,-79968.0,-25329.0,14154.0,-78137.0,25649.0,13569.0,-0.96133,-0.168084,0.218159,-0.250424,0.203883,-0.946425,0.1146,-0.964458,-0.238091,-0.936217,0.219681,0.274295,0.309116,0.143504,0.940135,0.167167,0.96496,-0.202258,-0.96133,-0.168084,0.218159,-0.250424,0.203883,-0.946425,0.1146,-0.964458,-0.238091,-0.936217,0.219681,0.274295,0.309116,0.143504,0.940135,0.167167,0.96496,-0.202258,-79968.0,-25329.0,14154.0,-78137.0,25649.0,13569.0,18330.0,17337.0,-157755.0,0.0,-53991.0,-54014.0,-53636.0,-54146.0,-14997.0,-12618.0,155012.0,0.0,53515.0,53379.0,53630.0,53747.0,79.0,236.0,132.0,0.0,732.0,990.0,636.0,-571.0,-54.0,-200.0,45.0,0.0,533.0,500.0,763.0,-938.0,-0.021624,-0.064064,-0.035965,0.0,0.026795,0.036249,-0.023281,-0.020928,-0.014713,-0.054199,0.012245,0.0,0.01951,0.018313,-0.027937,-0.034343,4075.830322,11515.410156,51293.972656,0.0,-17619.929688,-17612.099609,17878.949219,-17347.771484,4108.049805,11502.0,51509.253906,0.0,17708.400391,17708.220703,-17436.511719,17986.140625,0.0,0.0,0.0,0.0,0.0,0.0,-90.92347,0.0,0.0,0.0,0.0,0.0,0.0,0.0,0.0,-90.92347,0.0,0.0,0.0,0.0,0.0,0.0,-0.176481,0.0,0.0,0.0,0.0,0.0,0.0,0.0,0.0,-0.176481,4074.006104,11511.545898,51275.632812,0.0,-17618.605469,-17617.259766,17873.8125,-17359.076172,4107.789062,11500.0,51509.328125,0.0,17708.683594,17708.410156,-17451.466797,17966.347656,29.912762,90.37722,22.790968,0.0,2.977536,1.936253,25.62697,31.617168,30.160807,90.246132,22.898355,0.0,0.000319,-0.030216,28.620111,28.640059,1.031,1.066,-63617.0,-145286.0,-412178.0,0.0,141786.0,141676.0,-145019.0,138607.0,-60642.0,-140418.0,-417313.0,0.0,-143245.0,-143379.0,140109.0,-146099.0,0.0,0.0,0.0,0.0,0.0,-0.176481,0.0,0.0,0.0,0.0,0.0,0.0,0.0,0.0,0.0,0.0,0.0,-0.176481,0.0,0.0,0.0,0.0,0.0,0.0
12,1.5698750019073486,0.52231,1.577901,0.39792,0.0,-3.092315,0.043809,0.452066,0.578423,0.526439,1.575374,0.399649,0.0,-3.1409130000000003,-0.000897,0.528208,0.536871,3.0,1.0,111.0,0.0,1.0,-79968.0,-25329.0,14154.0,-78137.0,25649.0,13569.0,-0.961315,-0.168169,0.218159,-0.250442,0.203861,-0.946425,0.114685,-0.964448,-0.238091,-0.936294,0.219353,0.274295,0.309066,0.143612,0.940135,0.16683,0.965018,-0.202258,-0.961315,-0.168169,0.218159,-0.250442,0.203861,-0.946425,0.114685,-0.964448,-0.238091,-0.936294,0.219353,0.274295,0.309066,0.143612,0.940135,0.16683,0.965018,-0.202258,-79968.0,-25329.0,14154.0,-78137.0,25649.0,13569.0,18330.0,17337.0,-157755.0,0.0,-53991.0,-54014.0,-53635.0,-54148.0,-14997.0,-12618.0,155012.0,0.0,53515.0,53379.0,53633.0,53740.0,79.0,236.0,132.0,0.0,732.0,988.0,636.0,-572.0,-54.0,-200.0,45.0,0.0,533.0,500.0,764.0,-932.0,-0.021624,-0.064064,-0.035965,0.0,0.026818,0.036159,-0.023293,-0.020966,-0.014713,-0.054199,0.012245,0.0,0.019515,0.018316,-0.027961,-0.034133,4075.830322,11515.410156,51293.972656,0.0,-17619.929688,-17612.099609,17878.861328,-17347.951172,4108.049805,11502.0,51509.253906,0.0,17708.400391,17708.220703,-17436.779297,17985.509766,0.0,0.0,0.0,0.0,0.0,0.0,0.0,0.0,0.0,0.0,0.0,0.0,0.0,0.0,0.0,0.0,0.0,0.0,0.0,0.0,0.0,0.0,0.0,0.0,0.0,0.0,0.0,0.0,0.0,0.0,0.0,0.0,4074.006104,11511.545898,51275.632812,0.0,-17618.605469,-17617.259766,17873.8125,-17359.076172,4107.789062,11500.0,51509.328125,0.0,17708.683594,17708.410156,-17451.466797,17966.347656,29.912762,90.37722,22.790968,0.0,2.977536,1.936253,25.62697,31.617168,30.160807,90.246132,22.898355,0.0,0.000319,-0.030216,28.620111,28.640059,1.03,1.065,-63617.0,-145286.0,-412178.0,0.0,141786.0,141676.0,-145019.0,138607.0,-60642.0,-140418.0,-417313.0,0.0,-143245.0,-143379.0,140109.0,-146099.0,0.0,0.0,0.0,0.0,0.0,0.0,0.0,0.0,0.0,0.0,0.0,0.0,0.0,0.0,0.0,0.0,0.0,0.0,0.0,0.0,0.0,0.0,0.0,0.0
13,1.5898699760437012,0.52231,1.577901,0.39792,0.0,-3.092315,0.043809,0.451543,0.57825,0.526439,1.575374,0.399649,0.0,-3.1409130000000003,-0.000897,0.527682,0.535999,3.0,1.0,111.0,0.0,1.0,-79968.0,-25329.0,14154.0,-78137.0,25649.0,13569.0,-0.961344,-0.168001,0.218159,-0.250406,0.203905,-0.946425,0.114517,-0.964468,-0.238091,-0.936332,0.219191,0.274295,0.309041,0.143666,0.940135,0.166663,0.965047,-0.202258,-0.961344,-0.168001,0.218159,-0.250406,0.203905,-0.946425,0.114517,-0.964468,-0.238091,-0.936332,0.219191,0.274295,0.309041,0.143666,0.940135,0.166663,0.965047,-0.202258,-79968.0,-25329.0,14154.0,-78137.0,25649.0,13569.0,18330.0,17337.0,-157755.0,0.0,-53991.0,-54014.0,-53632.0,-54149.0,-14997.0,-12618.0,155012.0,0.0,53515.0,53379.0,53636.0,53735.0,79.0,236.0,132.0,0.0,733.0,985.0,632.0,-576.0,-54.0,-200.0,45.0,0.0,533.0,500.0,764.0,-931.0,-0.021624,-0.064064,-0.035965,0.0,0.026841,0.036069,-0.023143,-0.021082,-0.014713,-0.054199,0.012245,0.0,0.01952,0.018319,-0.027978,-0.034071,4075.830322,11515.410156,51293.972656,0.0,-17619.929688,-17612.099609,17878.591797,-17348.041016,4108.049805,11502.0,51509.253906,0.0,17708.400391,17708.220703,-17437.050781,17985.060547,0.0,0.0,0.0,0.0,0.0,0.0,0.0,0.0,0.0,0.0,0.0,0.0,0.0,0.0,0.0,0.0,0.0,0.0,0.0,0.0,0.0,0.0,0.0,0.0,0.0,0.0,0.0,0.0,0.0,0.0,0.0,0.0,4074.006104,11511.545898,51275.632812,0.0,-17618.605469,-17617.259766,17873.8125,-17359.076172,4107.789062,11500.0,51509.328125,0.0,17708.683594,17708.410156,-17451.466797,17966.347656,29.912762,90.37722,22.790968,0.0,2.977536,1.936253,25.62697,31.617168,30.160807,90.246132,22.898355,0.0,0.000319,-0.030216,28.620111,28.640059,1.029,1.063,-63617.0,-145286.0,-412178.0,0.0,141786.0,141676.0,-145019.0,138607.0,-60642.0,-140418.0,-417313.0,0.0,-143245.0,-143379.0,140109.0,-146099.0,0.0,0.0,0.0,0.0,0.0,0.0,0.0,0.0,0.0,0.0,0.0,0.0,0.0,0.0,0.0,0.0,0.0,0.0,0.0,0.0,0.0,0.0,0.0,0.0
14,1.6108829975128174,0.52231,1.577901,0.39792,0.0,-3.092026,0.043809,0.451194,0.577727,0.526439,1.575374,0.399649,0.0,-3.1409130000000003,-0.000897,0.526983,0.535123,3.0,1.0,111.0,0.0,1.0,-79968.0,-25329.0,14155.0,-78137.0,25649.0,13569.0,-0.961331,-0.168159,0.218093,-0.250409,0.204152,-0.94637,0.114617,-0.964388,-0.238366,-0.936351,0.219109,0.274295,0.309028,0.143693,0.940135,0.166578,0.965061,-0.202258,-0.961331,-0.168159,0.218093,-0.250409,0.204152,-0.94637,0.114617,-0.964388,-0.238366,-0.93637,0.219026,0.274295,0.309015,0.14372,0.940135,0.166492,0.965076,-0.202258,-79968.0,-25329.0,14155.0,-78137.0,25649.0,13569.0,18330.0,17337.0,-157755.0,0.0,-53990.0,-54014.0,-53630.0,-54152.0,-14997.0,-12618.0,155012.0,0.0,53515.0,53379.0,53640.0,53730.0,79.0,236.0,132.0,0.0,730.0,983.0,630.0,-575.0,-54.0,-200.0,45.0,0.0,533.0,500.0,763.0,-929.0,-0.021624,-0.064064,-0.035965,0.0,0.026724,0.035974,-0.023072,-0.021047,-0.014713,-0.054199,0.012245,0.0,0.019525,0.018323,-0.027926,-0.034016,4075.830322,11515.410156,51293.972656,0.0,-17619.839844,-17612.099609,17878.412109,-17348.310547,4108.049805,11502.0,51509.253906,0.0,17708.400391,17708.220703,-17437.412109,17984.609375,0.0,0.0,0.0,0.0,0.0,0.0,0.0,0.0,0.0,0.0,0.0,0.0,0.0,0.0,-90.92347,0.0,0.0,0.0,0.0,0.0,0.0,0.0,0.0,0.0,0.0,0.0,0.0,0.0,0.0,0.0,-0.176481,0.0,4074.006104,11511.545898,51275.632812,0.0,-17618.605469,-17617.259766,17873.8125,-17359.076172,4107.789062,11500.0,51509.328125,0.0,17708.683594,17708.410156,-17451.466797,17966.347656,29.912762,90.37722,22.790968,0.0,2.977536,1.936253,25.62697,31.617168,30.160807,90.246132,22.898355,0.0,0.000319,-0.030216,28.620111,28.640059,1.028,1.062,-63617.0,-145286.0,-412178.0,0.0,141786.0,141676.0,-145019.0,138607.0,-60642.0,-140418.0,-417313.0,0.0,-143245.0,-143379.0,140109.0,-146099.0,0.0,0.0,0.0,0.0,0.0,0.0,0.0,0.0,0.0,0.0,0.0,-0.176481,0.0,0.0,0.0,0.0,0.0,0.0,0.0,0.0,0.0,0.0,0.0,-0.176481
15,1.6319169998168943,0.52231,1.577901,0.39792,0.0,-3.092026,0.043809,0.451194,0.577377,0.526439,1.575374,0.399649,0.0,-3.1409130000000003,-0.000897,0.526287,0.534078,3.0,1.0,111.0,0.0,1.0,-79968.0,-25329.0,14155.0,-78137.0,25649.0,13569.0,-0.961302,-0.168327,0.218093,-0.250445,0.204108,-0.94637,0.114785,-0.964368,-0.238366,-0.936389,0.218945,0.274295,0.309003,0.143747,0.940135,0.166409,0.965091,-0.202258,-0.961302,-0.168327,0.218093,-0.250445,0.204108,-0.94637,0.114785,-0.964368,-0.238366,-0.936389,0.218945,0.274295,0.309003,0.143747,0.940135,0.166409,0.965091,-0.202258,-79968.0,-25329.0,14155.0,-78137.0,25649.0,13569.0,18330.0,17337.0,-157755.0,0.0,-53990.0,-54014.0,-53630.0,-54154.0,-14997.0,-12618.0,155012.0,0.0,53515.0,53379.0,53644.0,53724.0,79.0,236.0,132.0,0.0,730.0,980.0,632.0,-576.0,-54.0,-200.0,45.0,0.0,533.0,500.0,761.0,-925.0,-0.021624,-0.064064,-0.035965,0.0,0.026747,0.03588,-0.023156,-0.021085,-0.014713,-0.054199,0.012245,0.0,0.01953,0.018326,-0.027867,-0.033876,4075.830322,11515.410156,51293.972656,0.0,-17619.839844,-17612.099609,17878.412109,-17348.490234,4108.049805,11502.0,51509.253906,0.0,17708.400391,17708.220703,-17437.769531,17984.070312,0.0,0.0,0.0,0.0,0.0,0.0,0.0,0.0,0.0,0.0,0.0,0.0,0.0,0.0,0.0,-89.174942,0.0,0.0,0.0,0.0,0.0,0.0,0.0,0.0,0.0,0.0,0.0,0.0,0.0,0.0,0.0,-0.173088,4074.006104,11511.545898,51275.632812,0.0,-17618.605469,-17617.259766,17873.8125,-17359.076172,4107.789062,11500.0,51509.328125,0.0,17708.683594,17708.410156,-17451.466797,17966.347656,29.912762,90.37722,22.790968,0.0,2.977536,1.936253,25.62697,31.617168,30.160807,90.246132,22.898355,0.0,0.000319,-0.030216,28.620111,28.640059,1.028,1.06,-63617.0,-145286.0,-412178.0,0.0,141786.0,141676.0,-145019.0,138607.0,-60642.0,-140418.0,-417313.0,0.0,-143245.0,-143379.0,140109.0,-146099.0,0.0,0.0,0.0,0.0,0.0,0.0,0.0,0.0,0.0,0.0,0.0,0.0,0.0,0.0,0.0,0.0,0.0,0.0,0.0,0.0,0.0,0.0,0.0,0.0
16,1.6528990268707275,0.52231,1.577901,0.39792,0.0,-3.0917380000000003,0.043809,0.451194,0.577028,0.526439,1.575374,0.399649,0.0,-3.1409130000000003,-0.000897,0.525937,0.533379,3.0,1.0,111.0,0.0,1.0,-79968.0,-25329.0,14155.0,-78137.0,25649.0,13569.0,-0.961274,-0.16857,0.218027,-0.250466,0.204334,-0.946316,0.11497,-0.964278,-0.238642,-0.936428,0.218781,0.274295,0.308978,0.143801,0.940135,0.16624,0.96512,-0.202258,-0.961274,-0.16857,0.218027,-0.250466,0.204334,-0.946316,0.11497,-0.964278,-0.238642,-0.936428,0.218781,0.274295,0.308978,0.143801,0.940135,0.16624,0.96512,-0.202258,-79968.0,-25329.0,14155.0,-78137.0,25649.0,13569.0,18330.0,17337.0,-157755.0,0.0,-53989.0,-54014.0,-53630.0,-54156.0,-14997.0,-12618.0,155012.0,0.0,53515.0,53379.0,53646.0,53720.0,79.0,236.0,132.0,0.0,727.0,977.0,635.0,-577.0,-54.0,-200.0,45.0,0.0,533.0,500.0,764.0,-925.0,-0.021624,-0.064064,-0.035965,0.0,0.026629,0.035785,-0.02324,-0.021121,-0.014713,-0.054199,0.012245,0.0,0.019536,0.01833,-0.02796,-0.033883,4075.830322,11515.410156,51293.972656,0.0,-17619.751953,-17612.099609,17878.412109,-17348.669922,4108.049805,11502.0,51509.253906,0.0,17708.400391,17708.220703,-17437.949219,17983.710938,0.0,0.0,0.0,0.0,0.0,0.0,0.0,-89.174942,0.0,0.0,0.0,0.0,0.0,0.0,0.0,0.0,0.0,0.0,0.0,0.0,0.0,0.0,0.0,-0.173088,0.0,0.0,0.0,0.0,0.0,0.0,0.0,0.0,4074.006104,11511.545898,51275.632812,0.0,-17618.605469,-17617.259766,17873.8125,-17359.076172,4107.789062,11500.0,51509.328125,0.0,17708.683594,17708.410156,-17451.466797,17966.347656,29.912762,90.37722,22.790968,0.0,2.977536,1.936253,25.62697,31.617168,30.160807,90.246132,22.898355,0.0,0.000319,-0.030216,28.620111,28.640059,1.028,1.059,-63617.0,-145286.0,-412178.0,0.0,141786.0,141676.0,-145019.0,138607.0,-60642.0,-140418.0,-417313.0,0.0,-143245.0,-143379.0,140109.0,-146099.0,0.0,0.0,0.0,0.0,0.0,0.0,0.0,0.0,0.0,0.0,0.0,0.0,0.0,0.0,0.0,0.0,0.0,0.0,0.0,0.0,0.0,0.0,0.0,0.0
17,1.6728730201721191,0.52231,1.577901,0.39792,0.0,-3.0917380000000003,0.043809,0.451194,0.576678,0.526439,1.575374,0.399649,0.0,-3.1409130000000003,-0.000897,0.525411,0.532853,3.0,1.0,111.0,0.0,1.0,-79968.0,-25329.0,14155.0,-78137.0,25649.0,13569.0,-0.961245,-0.168738,0.218027,-0.250502,0.20429,-0.946316,0.115139,-0.964258,-0.238642,-0.936428,0.218781,0.274295,0.308978,0.143801,0.940135,0.16624,0.96512,-0.202258,-0.961245,-0.168738,0.218027,-0.250502,0.20429,-0.946316,0.115139,-0.964258,-0.238642,-0.936428,0.218781,0.274295,0.308978,0.143801,0.940135,0.16624,0.96512,-0.202258,-79968.0,-25329.0,14155.0,-78137.0,25649.0,13569.0,18330.0,17337.0,-157755.0,0.0,-53989.0,-54014.0,-53630.0,-54158.0,-14997.0,-12618.0,155012.0,0.0,53515.0,53379.0,53649.0,53717.0,79.0,236.0,132.0,0.0,728.0,975.0,637.0,-577.0,-54.0,-200.0,45.0,0.0,534.0,501.0,764.0,-927.0,-0.021624,-0.064064,-0.035965,0.0,0.026649,0.035695,-0.023321,-0.021144,-0.014713,-0.054199,0.012245,0.0,0.01954,0.018333,-0.027957,-0.033947,4075.830322,11515.410156,51293.972656,0.0,-17619.751953,-17612.099609,17878.412109,-17348.849609,4108.049805,11502.0,51509.253906,0.0,17708.400391,17708.220703,-17438.220703,17983.439453,0.0,0.0,0.0,0.0,0.0,0.0,0.0,0.0,0.0,0.0,0.0,0.0,0.0,0.0,0.0,0.0,0.0,0.0,0.0,0.0,0.0,0.0,0.0,0.0,0.0,0.0,0.0,0.0,0.0,0.0,0.0,0.0,4074.006104,11511.545898,51275.632812,0.0,-17618.605469,-17617.259766,17873.8125,-17359.076172,4107.789062,11500.0,51509.328125,0.0,17708.683594,17708.410156,-17451.466797,17966.347656,29.912762,90.37722,22.790968,0.0,2.977536,1.936253,25.62697,31.617168,30.160807,90.246132,22.898355,0.0,0.000319,-0.030216,28.620111,28.640059,1.027,1.058,-63617.0,-145286.0,-412178.0,0.0,141786.0,141676.0,-145019.0,138607.0,-60642.0,-140418.0,-417313.0,0.0,-143245.0,-143379.0,140109.0,-146099.0,0.0,0.0,0.0,0.0,0.0,0.0,0.0,0.0,0.0,0.0,0.0,0.0,0.0,0.0,0.0,0.0,0.0,0.0,0.0,0.0,0.0,0.0,0.0,0.0
18,1.693917989730835,0.52231,1.577901,0.39792,0.0,-3.0917380000000003,0.043809,0.451017,0.576329,0.526439,1.575374,0.399649,0.0,-3.1409130000000003,-0.000897,0.525062,0.532503,3.0,1.0,111.0,0.0,1.0,-79968.0,-25329.0,14155.0,-78137.0,25649.0,13569.0,-0.96123,-0.168821,0.218027,-0.25052,0.204268,-0.946316,0.115222,-0.964248,-0.238642,-0.936428,0.218781,0.274295,0.308978,0.143801,0.940135,0.16624,0.96512,-0.202258,-0.96123,-0.168821,0.218027,-0.25052,0.204268,-0.946316,0.115222,-0.964248,-0.238642,-0.936428,0.218781,0.274295,0.308978,0.143801,0.940135,0.16624,0.96512,-0.202258,-79968.0,-25329.0,14155.0,-78137.0,25649.0,13569.0,18330.0,17337.0,-157755.0,0.0,-53989.0,-54014.0,-53629.0,-54160.0,-14997.0,-12618.0,155012.0,0.0,53515.0,53379.0,53651.0,53715.0,79.0,236.0,132.0,0.0,728.0,972.0,637.0,-578.0,-54.0,-200.0,45.0,0.0,534.0,501.0,766.0,-931.0,-0.021624,-0.064064,-0.035965,0.0,0.02667,0.0356,-0.023325,-0.021173,-0.014713,-0.054199,0.012245,0.0,0.019546,0.018337,-0.028041,-0.034101,4075.830322,11515.410156,51293.972656,0.0,-17619.751953,-17612.099609,17878.320312,-17349.029297,4108.049805,11502.0,51509.253906,0.0,17708.400391,17708.220703,-17438.400391,17983.259766,0.0,0.0,0.0,0.0,0.0,0.0,0.0,-89.174942,0.0,0.0,0.0,0.0,0.0,0.0,0.0,0.0,0.0,0.0,0.0,0.0,0.0,0.0,0.0,-0.173088,0.0,0.0,0.0,0.0,0.0,0.0,0.0,0.0,4074.006104,11511.545898,51275.632812,0.0,-17618.605469,-17617.259766,17873.8125,-17359.076172,4107.789062,11500.0,51509.328125,0.0,17708.683594,17708.410156,-17451.466797,17966.347656,29.912762,90.37722,22.790968,0.0,2.977536,1.936253,25.62697,31.617168,30.160807,90.246132,22.898355,0.0,0.000319,-0.030216,28.620111,28.640059,1.027,1.057,-63617.0,-145286.0,-412178.0,0.0,141786.0,141676.0,-145019.0,138607.0,-60642.0,-140418.0,-417313.0,0.0,-143245.0,-143379.0,140109.0,-146099.0,0.0,0.0,0.0,0.0,0.0,0.0,0.0,0.0,0.0,0.0,0.0,0.0,0.0,0.0,0.0,0.0,0.0,0.0,0.0,0.0,0.0,0.0,0.0,0.0
19,1.7138779163360596,0.52231,1.577901,0.39792,0.0,-3.0917380000000003,0.043809,0.451017,0.576152,0.526439,1.575374,0.399649,0.0,-3.1409130000000003,-0.000897,0.524712,0.531981,3.0,1.0,111.0,0.0,1.0,-79968.0,-25329.0,14155.0,-78137.0,25649.0,13569.0,-0.961215,-0.168906,0.218027,-0.250538,0.204246,-0.946316,0.115307,-0.964238,-0.238642,-0.936447,0.2187,0.274295,0.308965,0.143828,0.940135,0.166157,0.965134,-0.202258,-0.961215,-0.168906,0.218027,-0.250538,0.204246,-0.946316,0.115307,-0.964238,-0.238642,-0.936447,0.2187,0.274295,0.308965,0.143828,0.940135,0.166157,0.965134,-0.202258,-79968.0,-25329.0,14155.0,-78137.0,25649.0,13569.0,18330.0,17337.0,-157755.0,0.0,-53989.0,-54014.0,-53629.0,-54161.0,-14997.0,-12618.0,155012.0,0.0,53515.0,53379.0,53653.0,53712.0,79.0,236.0,132.0,0.0,729.0,970.0,639.0,-581.0,-54.0,-200.0,45.0,0.0,534.0,501.0,768.0,-933.0,-0.021624,-0.064064,-0.035965,0.0,0.02669,0.03551,-0.023404,-0.021269,-0.014713,-0.054199,0.012245,0.0,0.019551,0.01834,-0.02811,-0.034159,4075.830322,11515.410156,51293.972656,0.0,-17619.751953,-17612.099609,17878.320312,-17349.121094,4108.049805,11502.0,51509.253906,0.0,17708.400391,17708.220703,-17438.582031,17982.990234,0.0,0.0,0.0,0.0,0.0,0.0,0.0,0.0,0.0,0.0,0.0,0.0,0.0,0.0,0.0,0.0,0.0,0.0,0.0,0.0,0.0,0.0,0.0,0.0,0.0,0.0,0.0,0.0,0.0,0.0,0.0,0.0,4074.006104,11511.545898,51275.632812,0.0,-17618.605469,-17617.259766,17873.8125,-17359.076172,4107.789062,11500.0,51509.328125,0.0,17708.683594,17708.410156,-17451.466797,17966.347656,29.912762,90.37722,22.790968,0.0,2.977536,1.936253,25.62697,31.617168,30.160807,90.246132,22.898355,0.0,0.000319,-0.030216,28.620111,28.640059,1.027,1.056,-63617.0,-145286.0,-412178.0,0.0,141786.0,141676.0,-145019.0,138607.0,-60642.0,-140418.0,-417313.0,0.0,-143245.0,-143379.0,140109.0,-146099.0,0.0,0.0,0.0,0.0,0.0,0.0,0.0,0.0,0.0,0.0,0.0,0.0,0.0,0.0,0.0,0.0,0.0,0.0,0.0,0.0,0.0,0.0,0.0,0.0
20,1.7338688373565674,0.52231,1.577901,0.39792,0.0,-3.091443,0.043809,0.450844,0.575803,0.526439,1.575374,0.399649,0.0,-3.1409130000000003,-0.000897,0.524189,0.531281,3.0,1.0,111.0,0.0,1.0,-79968.0,-25329.0,14155.0,-78137.0,25649.0,13569.0,-0.961202,-0.169067,0.21796,-0.250541,0.204498,-0.946261,0.115409,-0.964156,-0.238922,-0.936466,0.218618,0.274295,0.308953,0.143855,0.940135,0.166072,0.965149,-0.202258,-0.961202,-0.169067,0.21796,-0.250541,0.204498,-0.946261,0.115409,-0.964156,-0.238922,-0.936466,0.218618,0.274295,0.308953,0.143855,0.940135,0.166072,0.965149,-0.202258,-79968.0,-25329.0,14155.0,-78137.0,25649.0,13569.0,18330.0,17337.0,-157755.0,0.0,-53988.0,-54014.0,-53628.0,-54163.0,-14997.0,-12618.0,155012.0,0.0,53515.0,53379.0,53656.0,53708.0,79.0,236.0,132.0,0.0,725.0,967.0,639.0,-581.0,-54.0,-200.0,45.0,0.0,534.0,501.0,767.0,-932.0,-0.021624,-0.064064,-0.035965,0.0,0.026566,0.03542,-0.023404,-0.021283,-0.014713,-0.054199,0.012245,0.0,0.019556,0.018343,-0.028097,-0.034131,4075.830322,11515.410156,51293.972656,0.0,-17619.660156,-17612.099609,17878.230469,-17349.300781,4108.049805,11502.0,51509.253906,0.0,17708.400391,17708.220703,-17438.849609,17982.630859,0.0,0.0,0.0,0.0,0.0,0.0,0.0,0.0,0.0,0.0,0.0,0.0,0.0,0.0,0.0,0.0,0.0,0.0,0.0,0.0,0.0,0.0,0.0,0.0,0.0,0.0,0.0,0.0,0.0,0.0,0.0,0.0,4074.006104,11511.545898,51275.632812,0.0,-17618.605469,-17617.259766,17873.8125,-17359.076172,4107.789062,11500.0,51509.328125,0.0,17708.683594,17708.410156,-17451.466797,17966.347656,29.912762,90.37722,22.790968,0.0,2.977536,1.936253,25.62697,31.617168,30.160807,90.246132,22.898355,0.0,0.000319,-0.030216,28.620111,28.640059,1.026,1.055,-63617.0,-145286.0,-412178.0,0.0,141786.0,141676.0,-145019.0,138607.0,-60642.0,-140418.0,-417313.0,0.0,-143245.0,-143379.0,140109.0,-146099.0,0.0,0.0,0.0,0.0,0.0,0.0,0.0,0.0,0.0,0.0,0.0,0.0,0.0,0.0,0.0,0.0,0.0,0.0,0.0,0.0,0.0,0.0,0.0,0.0
21,1.754922866821289,0.52231,1.577901,0.39792,0.0,-3.091155,0.043809,0.450495,0.57528,0.526439,1.575374,0.399649,0.0,-3.1409130000000003,-0.000897,0.52384,0.530759,3.0,1.0,111.0,0.0,1.0,-79967.0,-25329.0,14155.0,-78137.0,25649.0,13569.0,-0.96119,-0.169225,0.217894,-0.250544,0.204746,-0.946207,0.115509,-0.964076,-0.239198,-0.936485,0.218537,0.274295,0.30894,0.143882,0.940135,0.165988,0.965163,-0.202258,-0.961175,-0.169308,0.217894,-0.250562,0.204724,-0.946207,0.115593,-0.964066,-0.239198,-0.936485,0.218537,0.274295,0.30894,0.143882,0.940135,0.165988,0.965163,-0.202258,-79967.0,-25329.0,14155.0,-78137.0,25649.0,13569.0,18330.0,17337.0,-157755.0,0.0,-53987.0,-54014.0,-53626.0,-54166.0,-14997.0,-12618.0,155012.0,0.0,53515.0,53379.0,53658.0,53705.0,79.0,236.0,132.0,0.0,722.0,965.0,637.0,-580.0,-54.0,-200.0,45.0,0.0,534.0,501.0,769.0,-934.0,-0.021624,-0.064064,-0.035965,0.0,0.026444,0.035326,-0.023327,-0.021225,-0.014713,-0.054199,0.012245,0.0,0.019561,0.018347,-0.028169,-0.034192,4075.830322,11515.410156,51293.972656,0.0,-17619.570312,-17612.099609,17878.050781,-17349.570312,4108.049805,11502.0,51509.253906,0.0,17708.400391,17708.220703,-17439.03125,17982.361328,0.0,0.0,0.0,0.0,0.0,0.0,-89.174942,0.0,0.0,0.0,0.0,0.0,0.0,0.0,0.0,0.0,0.0,0.0,0.0,0.0,0.0,0.0,-0.173088,0.0,0.0,0.0,0.0,0.0,0.0,0.0,0.0,0.0,4074.006104,11511.545898,51275.632812,0.0,-17618.605469,-17617.259766,17873.8125,-17359.076172,4107.789062,11500.0,51509.328125,0.0,17708.683594,17708.410156,-17451.466797,17966.347656,29.912762,90.37722,22.790968,0.0,2.977536,1.936253,25.62697,31.617168,30.160807,90.246132,22.898355,0.0,0.000319,-0.030216,28.620111,28.640059,1.025,1.054,-63617.0,-145286.0,-412178.0,0.0,141786.0,141676.0,-145019.0,138607.0,-60642.0,-140418.0,-417313.0,0.0,-143245.0,-143379.0,140109.0,-146099.0,0.0,0.0,0.0,0.0,0.0,-0.173088,0.0,0.0,0.0,0.0,0.0,0.0,0.0,0.0,0.0,0.0,0.0,-0.173088,0.0,0.0,0.0,0.0,0.0,0.0
22,1.775928974151611,0.52231,1.577901,0.39792,0.0,-3.091155,0.043809,0.449269,0.57493,0.526439,1.575374,0.399649,0.0,-3.1409130000000003,-0.000897,0.52349,0.530233,3.0,1.0,111.0,0.0,1.0,-79967.0,-25329.0,14155.0,-78137.0,25649.0,13569.0,-0.961263,-0.168804,0.217894,-0.250455,0.204855,-0.946207,0.115087,-0.964126,-0.239198,-0.936504,0.218454,0.274295,0.308928,0.143909,0.940135,0.165903,0.965178,-0.202258,-0.961263,-0.168804,0.217894,-0.250455,0.204855,-0.946207,0.115087,-0.964126,-0.239198,-0.936504,0.218454,0.274295,0.308928,0.143909,0.940135,0.165903,0.965178,-0.202258,-79967.0,-25329.0,14155.0,-78137.0,25649.0,13569.0,18330.0,17337.0,-157755.0,0.0,-53987.0,-54014.0,-53619.0,-54168.0,-14997.0,-12618.0,155012.0,0.0,53515.0,53379.0,53660.0,53702.0,79.0,236.0,132.0,0.0,723.0,962.0,624.0,-580.0,-54.0,-200.0,45.0,0.0,534.0,501.0,771.0,-935.0,-0.021624,-0.064064,-0.035965,0.0,0.026461,0.035231,-0.022849,-0.021241,-0.014713,-0.054199,0.012245,0.0,0.019566,0.01835,-0.028238,-0.034246,4075.830322,11515.410156,51293.972656,0.0,-17619.570312,-17612.099609,17877.419922,-17349.75,4108.049805,11502.0,51509.253906,0.0,17708.400391,17708.220703,-17439.210938,17982.089844,0.0,0.0,0.0,0.0,0.0,0.0,0.0,0.0,0.0,0.0,0.0,0.0,0.0,0.0,0.0,0.0,0.0,0.0,0.0,0.0,0.0,0.0,0.0,0.0,0.0,0.0,0.0,0.0,0.0,0.0,0.0,0.0,4074.006104,11511.545898,51275.632812,0.0,-17618.605469,-17617.259766,17873.8125,-17359.076172,4107.789062,11500.0,51509.328125,0.0,17708.683594,17708.410156,-17451.466797,17966.347656,29.912762,90.37722,22.790968,0.0,2.977536,1.936253,25.62697,31.617168,30.160807,90.246132,22.898355,0.0,0.000319,-0.030216,28.620111,28.640059,1.024,1.053,-63617.0,-145286.0,-412178.0,0.0,141786.0,141676.0,-145019.0,138607.0,-60642.0,-140418.0,-417313.0,0.0,-143245.0,-143379.0,140109.0,-146099.0,0.0,0.0,0.0,0.0,0.0,0.0,0.0,0.0,0.0,0.0,0.0,0.0,0.0,0.0,0.0,0.0,0.0,0.0,0.0,0.0,0.0,0.0,0.0,0.0
23,1.7968759536743164,0.52231,1.577901,0.39792,0.0,-3.0908610000000003,0.043809,0.447525,0.574581,0.526439,1.575374,0.399649,0.0,-3.1409130000000003,-0.000897,0.523141,0.52971,3.0,1.0,111.0,0.0,1.0,-79967.0,-25329.0,14155.0,-78137.0,25649.0,13569.0,-0.961383,-0.16821,0.217826,-0.250297,0.205304,-0.946151,0.114432,-0.964135,-0.239478,-0.936523,0.218373,0.274295,0.308915,0.143936,0.940135,0.165819,0.965192,-0.202258,-0.961383,-0.16821,0.217826,-0.250297,0.205304,-0.946151,0.114432,-0.964135,-0.239478,-0.936523,0.218373,0.274295,0.308915,0.143936,0.940135,0.165819,0.965192,-0.202258,-79967.0,-25329.0,14155.0,-78137.0,25649.0,13569.0,18330.0,17337.0,-157755.0,0.0,-53986.0,-54014.0,-53609.0,-54170.0,-14997.0,-12618.0,155012.0,0.0,53515.0,53379.0,53662.0,53699.0,79.0,236.0,132.0,0.0,719.0,960.0,604.0,-580.0,-54.0,-200.0,45.0,0.0,534.0,501.0,773.0,-937.0,-0.021624,-0.064064,-0.035965,0.0,0.026335,0.035137,-0.022122,-0.021253,-0.014713,-0.054199,0.012245,0.0,0.019571,0.018354,-0.028303,-0.034297,4075.830322,11515.410156,51293.972656,0.0,-17619.480469,-17612.099609,17876.521484,-17349.931641,4108.049805,11502.0,51509.253906,0.0,17708.400391,17708.220703,-17439.390625,17981.820312,0.0,0.0,0.0,0.0,0.0,0.0,0.0,-90.92347,0.0,0.0,0.0,0.0,0.0,0.0,0.0,-89.174942,0.0,0.0,0.0,0.0,0.0,0.0,0.0,-0.176481,0.0,0.0,0.0,0.0,0.0,0.0,0.0,-0.173088,4074.006104,11511.545898,51275.632812,0.0,-17618.605469,-17617.259766,17873.8125,-17359.076172,4107.789062,11500.0,51509.328125,0.0,17708.683594,17708.410156,-17451.466797,17966.347656,29.912762,90.37722,22.790968,0.0,2.977536,1.936253,25.62697,31.617168,30.160807,90.246132,22.898355,0.0,0.000319,-0.030216,28.620111,28.640059,1.022,1.052,-63617.0,-145286.0,-412178.0,0.0,141786.0,141676.0,-145019.0,138607.0,-60642.0,-140418.0,-417313.0,0.0,-143245.0,-143379.0,140109.0,-146099.0,0.0,0.0,0.0,0.0,0.0,0.0,0.0,0.0,0.0,0.0,0.0,0.0,0.0,0.0,0.0,0.0,0.0,0.0,0.0,0.0,0.0,0.0,0.0,0.0
24,1.8178720474243164,0.52231,1.577901,0.39792,0.0,-3.0908610000000003,0.043809,0.446999,0.574231,0.526439,1.575374,0.399649,0.0,-3.1409130000000003,-0.000897,0.522618,0.529184,3.0,1.0,111.0,0.0,1.0,-79967.0,-25329.0,14155.0,-78137.0,25649.0,13569.0,-0.961398,-0.168125,0.217826,-0.250278,0.205326,-0.946151,0.114346,-0.964145,-0.239478,-0.936523,0.218371,0.274295,0.308915,0.143936,0.940135,0.165818,0.965192,-0.202258,-0.961398,-0.168125,0.217826,-0.250278,0.205326,-0.946151,0.114346,-0.964145,-0.239478,-0.936523,0.218371,0.274295,0.308915,0.143936,0.940135,0.165818,0.965192,-0.202258,-79967.0,-25329.0,14155.0,-78137.0,25649.0,13569.0,18330.0,17337.0,-157755.0,0.0,-53986.0,-54014.0,-53606.0,-54172.0,-14997.0,-12618.0,155012.0,0.0,53515.0,53379.0,53665.0,53696.0,79.0,236.0,132.0,0.0,720.0,957.0,599.0,-581.0,-54.0,-200.0,45.0,0.0,534.0,501.0,773.0,-938.0,-0.021624,-0.064064,-0.035965,0.0,0.026351,0.035042,-0.021932,-0.021262,-0.014713,-0.054199,0.012245,0.0,0.019576,0.018357,-0.028287,-0.034342,4075.830322,11515.410156,51293.972656,0.0,-17619.480469,-17612.099609,17876.25,-17350.111328,4108.049805,11502.0,51509.253906,0.0,17708.400391,17708.220703,-17439.660156,17981.550781,0.0,0.0,0.0,0.0,0.0,0.0,0.0,0.0,0.0,0.0,0.0,0.0,0.0,0.0,0.0,0.0,0.0,0.0,0.0,0.0,0.0,0.0,0.0,0.0,0.0,0.0,0.0,0.0,0.0,0.0,0.0,0.0,4074.006104,11511.545898,51275.632812,0.0,-17618.605469,-17617.259766,17873.8125,-17359.076172,4107.789062,11500.0,51509.328125,0.0,17708.683594,17708.410156,-17451.466797,17966.347656,29.912762,90.37722,22.790968,0.0,2.977536,1.936253,25.62697,31.617168,30.160807,90.246132,22.898355,0.0,0.000319,-0.030216,28.620111,28.640059,1.021,1.051,-63617.0,-145286.0,-412178.0,0.0,141786.0,141676.0,-145019.0,138607.0,-60642.0,-140418.0,-417313.0,0.0,-143245.0,-143379.0,140109.0,-146099.0,0.0,0.0,0.0,0.0,0.0,0.0,0.0,0.0,0.0,0.0,0.0,0.0,0.0,0.0,0.0,0.0,0.0,0.0,0.0,0.0,0.0,0.0,0.0,0.0
25,1.8378758430480957,0.52231,1.577901,0.39792,0.0,-3.0908610000000003,0.043809,0.446649,0.573882,0.526439,1.575374,0.399649,0.0,-3.1409130000000003,-0.000897,0.522269,0.528661,3.0,1.0,111.0,0.0,1.0,-79967.0,-25329.0,14155.0,-78137.0,25649.0,13569.0,-0.961398,-0.168125,0.217826,-0.250278,0.205326,-0.946151,0.114346,-0.964145,-0.239478,-0.936542,0.21829,0.274295,0.308902,0.143963,0.940135,0.165734,0.965207,-0.202258,-0.961398,-0.168125,0.217826,-0.250278,0.205326,-0.946151,0.114346,-0.964145,-0.239478,-0.936542,0.21829,0.274295,0.308902,0.143963,0.940135,0.165734,0.965207,-0.202258,-79967.0,-25329.0,14155.0,-78137.0,25649.0,13569.0,18330.0,17337.0,-157755.0,0.0,-53986.0,-54014.0,-53604.0,-54174.0,-14997.0,-12618.0,155012.0,0.0,53515.0,53379.0,53667.0,53693.0,79.0,236.0,132.0,0.0,720.0,955.0,596.0,-581.0,-54.0,-200.0,45.0,0.0,535.0,501.0,774.0,-939.0,-0.021624,-0.064064,-0.035965,0.0,0.026366,0.034952,-0.021815,-0.02126,-0.014713,-0.054199,0.012245,0.0,0.019581,0.018361,-0.028335,-0.03437,4075.830322,11515.410156,51293.972656,0.0,-17619.480469,-17612.099609,17876.070312,-17350.291016,4108.049805,11502.0,51509.253906,0.0,17708.400391,17708.220703,-17439.839844,17981.28125,0.0,0.0,0.0,0.0,0.0,0.0,0.0,0.0,0.0,0.0,0.0,0.0,0.0,0.0,0.0,0.0,0.0,0.0,0.0,0.0,0.0,0.0,0.0,0.0,0.0,0.0,0.0,0.0,0.0,0.0,0.0,0.0,4074.006104,11511.545898,51275.632812,0.0,-17618.605469,-17617.259766,17873.8125,-17359.076172,4107.789062,11500.0,51509.328125,0.0,17708.683594,17708.410156,-17451.466797,17966.347656,29.912762,90.37722,22.790968,0.0,2.977536,1.936253,25.62697,31.617168,30.160807,90.246132,22.898355,0.0,0.000319,-0.030216,28.620111,28.640059,1.02,1.05,-63617.0,-145286.0,-412178.0,0.0,141786.0,141676.0,-145019.0,138607.0,-60642.0,-140418.0,-417313.0,0.0,-143245.0,-143379.0,140109.0,-146099.0,0.0,0.0,0.0,0.0,0.0,0.0,0.0,0.0,0.0,0.0,0.0,0.0,0.0,0.0,0.0,0.0,0.0,0.0,0.0,0.0,0.0,0.0,0.0,0.0
26,1.8578770160675049,0.52231,1.577901,0.39792,0.0,-3.0908610000000003,0.043809,0.446476,0.573532,0.526439,1.575374,0.399649,0.0,-3.1409130000000003,-0.000897,0.521742,0.527962,3.0,1.0,111.0,0.0,1.0,-79967.0,-25329.0,14155.0,-78137.0,25649.0,13569.0,-0.961383,-0.16821,0.217826,-0.250297,0.205304,-0.946151,0.114432,-0.964135,-0.239478,-0.936561,0.218209,0.274295,0.30889,0.14399,0.940135,0.165651,0.965221,-0.202258,-0.961383,-0.16821,0.217826,-0.250297,0.205304,-0.946151,0.114432,-0.964135,-0.239478,-0.936561,0.218209,0.274295,0.30889,0.14399,0.940135,0.165651,0.965221,-0.202258,-79967.0,-25329.0,14155.0,-78137.0,25649.0,13569.0,18330.0,17337.0,-157755.0,0.0,-53986.0,-54014.0,-53603.0,-54176.0,-14997.0,-12618.0,155012.0,0.0,53515.0,53379.0,53670.0,53689.0,79.0,236.0,132.0,0.0,720.0,952.0,595.0,-580.0,-54.0,-200.0,45.0,0.0,535.0,501.0,773.0,-937.0,-0.021624,-0.064064,-0.035965,0.0,0.026381,0.034862,-0.021776,-0.021256,-0.014713,-0.054199,0.012245,0.0,0.019586,0.018364,-0.028299,-0.034313,4075.830322,11515.410156,51293.972656,0.0,-17619.480469,-17612.099609,17875.980469,-17350.470703,4108.049805,11502.0,51509.253906,0.0,17708.400391,17708.220703,-17440.111328,17980.919922,0.0,0.0,0.0,0.0,0.0,0.0,0.0,-90.92347,0.0,0.0,0.0,0.0,0.0,0.0,0.0,0.0,0.0,0.0,0.0,0.0,0.0,0.0,0.0,-0.176481,0.0,0.0,0.0,0.0,0.0,0.0,0.0,0.0,4074.006104,11511.545898,51275.632812,0.0,-17618.605469,-17617.259766,17873.8125,-17359.076172,4107.789062,11500.0,51509.328125,0.0,17708.683594,17708.410156,-17451.466797,17966.347656,29.912762,90.37722,22.790968,0.0,2.977536,1.936253,25.62697,31.617168,30.160807,90.246132,22.898355,0.0,0.000319,-0.030216,28.620111,28.640059,1.02,1.049,-63617.0,-145286.0,-412178.0,0.0,141786.0,141676.0,-145019.0,138607.0,-60642.0,-140418.0,-417313.0,0.0,-143245.0,-143379.0,140109.0,-146099.0,0.0,0.0,0.0,0.0,0.0,0.0,0.0,0.0,0.0,0.0,0.0,0.0,0.0,0.0,0.0,0.0,0.0,0.0,0.0,0.0,0.0,0.0,0.0,0.0
27,1.8778698444366455,0.52231,1.577901,0.39792,0.0,-3.0908610000000003,0.043809,0.4463,0.573359,0.526439,1.575374,0.399649,0.0,-3.1409130000000003,-0.000897,0.521393,0.52709,3.0,1.0,111.0,0.0,1.0,-79967.0,-25329.0,14155.0,-78137.0,25649.0,13569.0,-0.961383,-0.168208,0.217826,-0.250296,0.205305,-0.946151,0.11443,-0.964135,-0.239478,-0.936618,0.217965,0.274295,0.308852,0.14407,0.940135,0.165398,0.965264,-0.202258,-0.961383,-0.168208,0.217826,-0.250296,0.205305,-0.946151,0.11443,-0.964135,-0.239478,-0.936618,0.217965,0.274295,0.308852,0.14407,0.940135,0.165398,0.965264,-0.202258,-79967.0,-25329.0,14155.0,-78137.0,25649.0,13569.0,18330.0,17337.0,-157755.0,0.0,-53986.0,-54014.0,-53602.0,-54177.0,-14997.0,-12618.0,155012.0,0.0,53515.0,53379.0,53672.0,53684.0,79.0,236.0,132.0,0.0,721.0,950.0,593.0,-582.0,-54.0,-200.0,45.0,0.0,535.0,501.0,774.0,-933.0,-0.021624,-0.064064,-0.035965,0.0,0.026397,0.034772,-0.021734,-0.021327,-0.014713,-0.054199,0.012245,0.0,0.019591,0.018367,-0.028339,-0.03417,4075.830322,11515.410156,51293.972656,0.0,-17619.480469,-17612.099609,17875.890625,-17350.560547,4108.049805,11502.0,51509.253906,0.0,17708.400391,17708.220703,-17440.291016,17980.470703,0.0,0.0,0.0,0.0,0.0,0.0,0.0,0.0,0.0,0.0,0.0,0.0,0.0,0.0,0.0,0.0,0.0,0.0,0.0,0.0,0.0,0.0,0.0,0.0,0.0,0.0,0.0,0.0,0.0,0.0,0.0,0.0,4074.006104,11511.545898,51275.632812,0.0,-17618.605469,-17617.259766,17873.8125,-17359.076172,4107.789062,11500.0,51509.328125,0.0,17708.683594,17708.410156,-17451.466797,17966.347656,29.912762,90.37722,22.790968,0.0,2.977536,1.936253,25.62697,31.617168,30.160807,90.246132,22.898355,0.0,0.000319,-0.030216,28.620111,28.640059,1.019,1.048,-63617.0,-145286.0,-412178.0,0.0,141786.0,141676.0,-145019.0,138607.0,-60642.0,-140418.0,-417313.0,0.0,-143245.0,-143379.0,140109.0,-146099.0,0.0,0.0,0.0,0.0,0.0,0.0,0.0,0.0,0.0,0.0,0.0,0.0,0.0,0.0,0.0,0.0,0.0,0.0,0.0,0.0,0.0,0.0,0.0,0.0
28,1.8999149799346924,0.52231,1.577901,0.39792,0.0,-3.0908610000000003,0.043809,0.4463,0.573009,0.526439,1.575374,0.399649,0.0,-3.1409130000000003,-0.000897,0.52087,0.526041,3.0,1.0,111.0,0.0,1.0,-79967.0,-25329.0,14155.0,-78137.0,25649.0,13569.0,-0.961354,-0.168376,0.217826,-0.250332,0.205261,-0.946151,0.114598,-0.964115,-0.239478,-0.936675,0.217718,0.274295,0.308814,0.144152,0.940135,0.165144,0.965308,-0.202258,-0.961354,-0.168376,0.217826,-0.250332,0.205261,-0.946151,0.114598,-0.964115,-0.239478,-0.936675,0.217718,0.274295,0.308814,0.144152,0.940135,0.165144,0.965308,-0.202258,-79967.0,-25329.0,14155.0,-78137.0,25649.0,13569.0,18330.0,17337.0,-157755.0,0.0,-53986.0,-54014.0,-53602.0,-54179.0,-14997.0,-12618.0,155012.0,0.0,53515.0,53379.0,53675.0,53678.0,79.0,236.0,132.0,0.0,721.0,947.0,595.0,-582.0,-54.0,-200.0,45.0,0.0,535.0,502.0,773.0,-928.0,-0.021624,-0.064064,-0.035965,0.0,0.026413,0.034673,-0.021774,-0.021331,-0.014713,-0.054199,0.012245,0.0,0.019597,0.018371,-0.028316,-0.033965,4075.830322,11515.410156,51293.972656,0.0,-17619.480469,-17612.099609,17875.890625,-17350.740234,4108.049805,11502.0,51509.253906,0.0,17708.400391,17708.220703,-17440.560547,17979.931641,0.0,0.0,0.0,0.0,0.0,0.0,0.0,0.0,0.0,0.0,0.0,0.0,0.0,0.0,0.0,0.0,0.0,0.0,0.0,0.0,0.0,0.0,0.0,0.0,0.0,0.0,0.0,0.0,0.0,0.0,0.0,0.0,4074.006104,11511.545898,51275.632812,0.0,-17618.605469,-17617.259766,17873.8125,-17359.076172,4107.789062,11500.0,51509.328125,0.0,17708.683594,17708.410156,-17451.466797,17966.347656,29.912762,90.37722,22.790968,0.0,2.977536,1.936253,25.62697,31.617168,30.160807,90.246132,22.898355,0.0,0.000319,-0.030216,28.620111,28.640059,1.019,1.046,-63617.0,-145286.0,-412178.0,0.0,141786.0,141676.0,-145019.0,138607.0,-60642.0,-140418.0,-417313.0,0.0,-143245.0,-143379.0,140109.0,-146099.0,0.0,0.0,0.0,0.0,0.0,0.0,0.0,0.0,0.0,0.0,0.0,0.0,0.0,0.0,0.0,0.0,0.0,0.0,0.0,0.0,0.0,0.0,0.0,0.0
29,1.920867919921875,0.52231,1.577901,0.39792,0.0,-3.0905720000000003,0.043809,0.4463,0.57266,0.526439,1.575374,0.399649,0.0,-3.1409130000000003,-0.000897,0.520348,0.525515,3.0,1.0,111.0,0.0,1.0,-79967.0,-25329.0,14155.0,-78137.0,25649.0,13569.0,-0.961326,-0.168619,0.21776,-0.250353,0.205486,-0.946097,0.114783,-0.964024,-0.239753,-0.936676,0.217717,0.274295,0.308814,0.144152,0.940135,0.165143,0.965308,-0.202258,-0.961326,-0.168619,0.21776,-0.250353,0.205486,-0.946097,0.114783,-0.964024,-0.239753,-0.936676,0.217717,0.274295,0.308814,0.144152,0.940135,0.165143,0.965308,-0.202258,-79967.0,-25329.0,14155.0,-78137.0,25649.0,13569.0,18330.0,17337.0,-157755.0,0.0,-53985.0,-54014.0,-53602.0,-54181.0,-14997.0,-12618.0,155012.0,0.0,53515.0,53379.0,53678.0,53675.0,79.0,236.0,132.0,0.0,718.0,944.0,596.0,-582.0,-54.0,-200.0,45.0,0.0,535.0,502.0,772.0,-928.0,-0.021624,-0.064064,-0.035965,0.0,0.026288,0.034578,-0.021812,-0.021325,-0.014713,-0.054199,0.012245,0.0,0.019602,0.018375,-0.028278,-0.033974,4075.830322,11515.410156,51293.972656,0.0,-17619.390625,-17612.099609,17875.890625,-17350.919922,4108.049805,11502.0,51509.253906,0.0,17708.400391,17708.220703,-17440.830078,17979.660156,0.0,0.0,0.0,0.0,0.0,0.0,0.0,0.0,0.0,0.0,0.0,0.0,0.0,0.0,0.0,0.0,0.0,0.0,0.0,0.0,0.0,0.0,0.0,0.0,0.0,0.0,0.0,0.0,0.0,0.0,0.0,0.0,4074.006104,11511.545898,51275.632812,0.0,-17618.605469,-17617.259766,17873.8125,-17359.076172,4107.789062,11500.0,51509.328125,0.0,17708.683594,17708.410156,-17451.466797,17966.347656,29.912762,90.37722,22.790968,0.0,2.977536,1.936253,25.62697,31.617168,30.160807,90.246132,22.898355,0.0,0.000319,-0.030216,28.620111,28.640059,1.018,1.045,-63617.0,-145286.0,-412178.0,0.0,141786.0,141676.0,-145019.0,138607.0,-60642.0,-140418.0,-417313.0,0.0,-143245.0,-143379.0,140109.0,-146099.0,0.0,0.0,0.0,0.0,0.0,0.0,0.0,0.0,0.0,0.0,0.0,0.0,0.0,0.0,0.0,0.0,0.0,0.0,0.0,0.0,0.0,0.0,0.0,0.0
30,1.9408750534057615,0.52231,1.577901,0.39792,0.0,-3.0905720000000003,0.043809,0.446127,0.57231,0.526439,1.575374,0.399649,0.0,-3.1409130000000003,-0.000897,0.519822,0.525169,3.0,1.0,111.0,0.0,1.0,-79967.0,-25329.0,14155.0,-78137.0,25649.0,13569.0,-0.961311,-0.168704,0.21776,-0.250372,0.205464,-0.946097,0.114869,-0.964014,-0.239753,-0.936656,0.217801,0.274295,0.308827,0.144124,0.940135,0.16523,0.965293,-0.202258,-0.961311,-0.168704,0.21776,-0.250372,0.205464,-0.946097,0.114869,-0.964014,-0.239753,-0.936656,0.217801,0.274295,0.308827,0.144124,0.940135,0.16523,0.965293,-0.202258,-79967.0,-25329.0,14155.0,-78137.0,25649.0,13569.0,18330.0,17337.0,-157755.0,0.0,-53985.0,-54014.0,-53601.0,-54183.0,-14997.0,-12618.0,155012.0,0.0,53515.0,53379.0,53681.0,53673.0,79.0,236.0,132.0,0.0,718.0,942.0,594.0,-582.0,-54.0,-200.0,45.0,0.0,535.0,502.0,771.0,-930.0,-0.021624,-0.064064,-0.035965,0.0,0.026302,0.034488,-0.021769,-0.021309,-0.014713,-0.054199,0.012245,0.0,0.019607,0.018378,-0.028224,-0.03405,4075.830322,11515.410156,51293.972656,0.0,-17619.390625,-17612.099609,17875.800781,-17351.099609,4108.049805,11502.0,51509.253906,0.0,17708.400391,17708.220703,-17441.101562,17979.480469,0.0,0.0,0.0,0.0,0.0,0.0,0.0,0.0,0.0,0.0,0.0,0.0,0.0,0.0,0.0,-89.174942,0.0,0.0,0.0,0.0,0.0,0.0,0.0,0.0,0.0,0.0,0.0,0.0,0.0,0.0,0.0,-0.173088,4074.006104,11511.545898,51275.632812,0.0,-17618.605469,-17617.259766,17873.8125,-17359.076172,4107.789062,11500.0,51509.328125,0.0,17708.683594,17708.410156,-17451.466797,17966.347656,29.912762,90.37722,22.790968,0.0,2.977536,1.936253,25.62697,31.617168,30.160807,90.246132,22.898355,0.0,0.000319,-0.030216,28.620111,28.640059,1.018,1.044,-63617.0,-145286.0,-412178.0,0.0,141786.0,141676.0,-145019.0,138607.0,-60642.0,-140418.0,-417313.0,0.0,-143245.0,-143379.0,140109.0,-146099.0,0.0,0.0,0.0,0.0,0.0,0.0,0.0,0.0,0.0,0.0,0.0,0.0,0.0,0.0,0.0,0.0,0.0,0.0,0.0,0.0,0.0,0.0,0.0,0.0
31,1.9618730545043943,0.52231,1.577901,0.39792,0.0,-3.0905720000000003,0.043809,0.446127,0.571961,0.526439,1.575374,0.399649,0.0,-3.1409130000000003,-0.000897,0.519299,0.52482,3.0,1.0,111.0,0.0,1.0,-79967.0,-25329.0,14155.0,-78137.0,25649.0,13569.0,-0.961282,-0.168872,0.21776,-0.250407,0.20542,-0.946097,0.115037,-0.963994,-0.239753,-0.936637,0.217882,0.274295,0.30884,0.144098,0.940135,0.165313,0.965279,-0.202258,-0.961282,-0.168872,0.21776,-0.250407,0.20542,-0.946097,0.115037,-0.963994,-0.239753,-0.936637,0.217882,0.274295,0.30884,0.144098,0.940135,0.165313,0.965279,-0.202258,-79967.0,-25329.0,14155.0,-78137.0,25649.0,13569.0,18330.0,17337.0,-157755.0,0.0,-53985.0,-54014.0,-53601.0,-54185.0,-14997.0,-12618.0,155012.0,0.0,53515.0,53379.0,53684.0,53671.0,79.0,236.0,132.0,0.0,719.0,939.0,595.0,-581.0,-54.0,-200.0,45.0,0.0,535.0,502.0,770.0,-932.0,-0.021624,-0.064064,-0.035965,0.0,0.026316,0.034394,-0.021805,-0.021296,-0.014713,-0.054199,0.012245,0.0,0.019612,0.018381,-0.028176,-0.034132,4075.830322,11515.410156,51293.972656,0.0,-17619.390625,-17612.099609,17875.800781,-17351.28125,4108.049805,11502.0,51509.253906,0.0,17708.400391,17708.220703,-17441.369141,17979.300781,0.0,0.0,0.0,0.0,0.0,0.0,0.0,0.0,0.0,0.0,0.0,0.0,0.0,0.0,0.0,0.0,0.0,0.0,0.0,0.0,0.0,0.0,0.0,0.0,0.0,0.0,0.0,0.0,0.0,0.0,0.0,0.0,4074.006104,11511.545898,51275.632812,0.0,-17618.605469,-17617.259766,17873.8125,-17359.076172,4107.789062,11500.0,51509.328125,0.0,17708.683594,17708.410156,-17451.466797,17966.347656,29.912762,90.37722,22.790968,0.0,2.977536,1.936253,25.62697,31.617168,30.160807,90.246132,22.898355,0.0,0.000319,-0.030216,28.620111,28.640059,1.018,1.044,-63617.0,-145286.0,-412178.0,0.0,141786.0,141676.0,-145019.0,138607.0,-60642.0,-140418.0,-417313.0,0.0,-143245.0,-143379.0,140109.0,-146099.0,0.0,0.0,0.0,0.0,0.0,0.0,0.0,0.0,0.0,0.0,0.0,0.0,0.0,0.0,0.0,0.0,0.0,0.0,0.0,0.0,0.0,0.0,0.0,0.0
32,1.981874942779541,0.52231,1.577901,0.39792,0.0,-3.0905720000000003,0.043809,0.44595,0.571788,0.526439,1.575374,0.399649,0.0,-3.1409130000000003,-0.000897,0.519299,0.524643,3.0,1.0,111.0,0.0,1.0,-79967.0,-25329.0,14155.0,-78137.0,25649.0,13569.0,-0.961282,-0.168871,0.21776,-0.250407,0.205421,-0.946097,0.115035,-0.963994,-0.239753,-0.936657,0.217799,0.274295,0.308827,0.144125,0.940135,0.165228,0.965293,-0.202258,-0.961282,-0.168871,0.21776,-0.250407,0.205421,-0.946097,0.115035,-0.963994,-0.239753,-0.936657,0.217799,0.274295,0.308827,0.144125,0.940135,0.165228,0.965293,-0.202258,-79967.0,-25329.0,14155.0,-78137.0,25649.0,13569.0,18330.0,17337.0,-157755.0,0.0,-53985.0,-54014.0,-53600.0,-54186.0,-14997.0,-12618.0,155012.0,0.0,53515.0,53379.0,53684.0,53670.0,79.0,236.0,132.0,0.0,719.0,937.0,594.0,-583.0,-54.0,-200.0,45.0,0.0,536.0,502.0,774.0,-936.0,-0.021624,-0.064064,-0.035965,0.0,0.02633,0.034303,-0.02176,-0.021354,-0.014713,-0.054199,0.012245,0.0,0.019617,0.018385,-0.028352,-0.034278,4075.830322,11515.410156,51293.972656,0.0,-17619.390625,-17612.099609,17875.708984,-17351.369141,4108.049805,11502.0,51509.253906,0.0,17708.400391,17708.220703,-17441.369141,17979.210938,0.0,0.0,0.0,0.0,0.0,0.0,0.0,0.0,0.0,0.0,0.0,0.0,0.0,0.0,0.0,0.0,0.0,0.0,0.0,0.0,0.0,0.0,0.0,0.0,0.0,0.0,0.0,0.0,0.0,0.0,0.0,0.0,4074.006104,11511.545898,51275.632812,0.0,-17618.605469,-17617.259766,17873.8125,-17359.076172,4107.789062,11500.0,51509.328125,0.0,17708.683594,17708.410156,-17451.466797,17966.347656,29.912762,90.37722,22.790968,0.0,2.977536,1.936253,25.62697,31.617168,30.160807,90.246132,22.898355,0.0,0.000319,-0.030216,28.620111,28.640059,1.017,1.043,-63617.0,-145286.0,-412178.0,0.0,141786.0,141676.0,-145019.0,138607.0,-60642.0,-140418.0,-417313.0,0.0,-143245.0,-143379.0,140109.0,-146099.0,0.0,0.0,0.0,0.0,0.0,0.0,0.0,0.0,0.0,0.0,0.0,0.0,0.0,0.0,0.0,0.0,0.0,0.0,0.0,0.0,0.0,0.0,0.0,0.0
33,2.001911878585815,0.52231,1.577901,0.39792,0.0,-3.0905720000000003,0.043809,0.44595,0.571611,0.526439,1.575374,0.399649,0.0,-3.1409130000000003,-0.000897,0.519299,0.524293,3.0,1.0,111.0,0.0,1.0,-79967.0,-25329.0,14155.0,-78137.0,25649.0,13569.0,-0.961267,-0.168955,0.21776,-0.250425,0.205398,-0.946097,0.11512,-0.963984,-0.239753,-0.936695,0.217636,0.274295,0.308802,0.144179,0.940135,0.165059,0.965322,-0.202258,-0.961267,-0.168955,0.21776,-0.250425,0.205398,-0.946097,0.11512,-0.963984,-0.239753,-0.936675,0.217718,0.274295,0.308814,0.144152,0.940135,0.165144,0.965308,-0.202258,-79967.0,-25329.0,14155.0,-78137.0,25649.0,13569.0,18330.0,17337.0,-157755.0,0.0,-53985.0,-54014.0,-53600.0,-54187.0,-14997.0,-12618.0,155012.0,0.0,53515.0,53379.0,53684.0,53668.0,79.0,236.0,132.0,0.0,719.0,934.0,595.0,-585.0,-54.0,-200.0,45.0,0.0,536.0,502.0,779.0,-938.0,-0.021624,-0.064064,-0.035965,0.0,0.026344,0.034213,-0.021793,-0.021408,-0.014713,-0.054199,0.012245,0.0,0.019622,0.018388,-0.028529,-0.034345,4075.830322,11515.410156,51293.972656,0.0,-17619.390625,-17612.099609,17875.708984,-17351.460938,4108.049805,11502.0,51509.253906,0.0,17708.400391,17708.220703,-17441.369141,17979.029297,0.0,0.0,0.0,0.0,0.0,0.0,0.0,0.0,0.0,0.0,0.0,0.0,0.0,0.0,0.0,-90.92347,0.0,0.0,0.0,0.0,0.0,0.0,0.0,0.0,0.0,0.0,0.0,0.0,0.0,0.0,0.0,-0.176481,4074.006104,11511.545898,51275.632812,0.0,-17618.605469,-17617.259766,17873.8125,-17359.076172,4107.789062,11500.0,51509.328125,0.0,17708.683594,17708.410156,-17451.466797,17966.347656,29.912762,90.37722,22.790968,0.0,2.977536,1.936253,25.62697,31.617168,30.160807,90.246132,22.898355,0.0,0.000319,-0.030216,28.620111,28.640059,1.017,1.043,-63617.0,-145286.0,-412178.0,0.0,141786.0,141676.0,-145019.0,138607.0,-60642.0,-140418.0,-417313.0,0.0,-143245.0,-143379.0,140109.0,-146099.0,0.0,0.0,0.0,0.0,0.0,0.0,0.0,0.0,0.0,0.0,0.0,0.0,0.0,0.0,0.0,0.0,0.0,0.0,0.0,0.0,0.0,0.0,0.0,0.0
34,2.0219109058380127,0.52231,1.577901,0.39792,0.0,-3.0905720000000003,0.043809,0.44595,0.571262,0.526439,1.575374,0.399649,0.0,-3.1409130000000003,-0.000897,0.519122,0.52412,3.0,1.0,111.0,0.0,1.0,-79967.0,-25329.0,14155.0,-78137.0,25649.0,13569.0,-0.961238,-0.169123,0.21776,-0.250461,0.205355,-0.946097,0.115289,-0.963964,-0.239753,-0.936694,0.217637,0.274295,0.308802,0.144178,0.940135,0.165061,0.965322,-0.202258,-0.961238,-0.169123,0.21776,-0.250461,0.205355,-0.946097,0.115289,-0.963964,-0.239753,-0.936694,0.217637,0.274295,0.308802,0.144178,0.940135,0.165061,0.965322,-0.202258,-79967.0,-25329.0,14155.0,-78137.0,25649.0,13569.0,18330.0,17337.0,-157755.0,0.0,-53985.0,-54014.0,-53600.0,-54189.0,-14997.0,-12618.0,155012.0,0.0,53515.0,53379.0,53685.0,53667.0,79.0,236.0,132.0,0.0,720.0,932.0,596.0,-584.0,-54.0,-200.0,45.0,0.0,536.0,502.0,782.0,-942.0,-0.021624,-0.064064,-0.035965,0.0,0.026358,0.034123,-0.021826,-0.021382,-0.014713,-0.054199,0.012245,0.0,0.019627,0.018391,-0.028624,-0.034488,4075.830322,11515.410156,51293.972656,0.0,-17619.390625,-17612.099609,17875.708984,-17351.640625,4108.049805,11502.0,51509.253906,0.0,17708.400391,17708.220703,-17441.460938,17978.941406,0.0,0.0,0.0,0.0,0.0,0.0,0.0,0.0,0.0,0.0,0.0,0.0,0.0,0.0,0.0,0.0,0.0,0.0,0.0,0.0,0.0,0.0,0.0,0.0,0.0,0.0,0.0,0.0,0.0,0.0,0.0,0.0,4074.006104,11511.545898,51275.632812,0.0,-17618.605469,-17617.259766,17873.8125,-17359.076172,4107.789062,11500.0,51509.328125,0.0,17708.683594,17708.410156,-17451.466797,17966.347656,29.912762,90.37722,22.790968,0.0,2.977536,1.936253,25.62697,31.617168,30.160807,90.246132,22.898355,0.0,0.000319,-0.030216,28.620111,28.640059,1.017,1.043,-63617.0,-145286.0,-412178.0,0.0,141786.0,141676.0,-145019.0,138607.0,-60642.0,-140418.0,-417313.0,0.0,-143245.0,-143379.0,140109.0,-146099.0,0.0,0.0,0.0,0.0,0.0,0.0,0.0,0.0,0.0,0.0,0.0,0.0,0.0,0.0,0.0,0.0,0.0,0.0,0.0,0.0,0.0,0.0,0.0,0.0
35,2.0438759326934814,0.52231,1.577901,0.39792,0.0,-3.0905720000000003,0.043809,0.445777,0.571088,0.526439,1.575374,0.399649,0.0,-3.1409130000000003,-0.000897,0.518949,0.523771,3.0,1.0,111.0,0.0,1.0,-79967.0,-25329.0,14155.0,-78137.0,25649.0,13569.0,-0.961238,-0.169123,0.21776,-0.250461,0.205355,-0.946097,0.115289,-0.963964,-0.239753,-0.936714,0.217555,0.274295,0.308789,0.144206,0.940135,0.164976,0.965337,-0.202258,-0.961238,-0.169123,0.21776,-0.250461,0.205355,-0.946097,0.115289,-0.963964,-0.239753,-0.936714,0.217555,0.274295,0.308789,0.144206,0.940135,0.164976,0.965337,-0.202258,-79967.0,-25329.0,14155.0,-78137.0,25649.0,13569.0,18330.0,17337.0,-157755.0,0.0,-53985.0,-54014.0,-53599.0,-54190.0,-14997.0,-12618.0,155012.0,0.0,53515.0,53379.0,53686.0,53665.0,79.0,236.0,132.0,0.0,720.0,929.0,595.0,-586.0,-54.0,-200.0,45.0,0.0,536.0,502.0,785.0,-944.0,-0.021624,-0.064064,-0.035965,0.0,0.026373,0.034024,-0.021783,-0.021446,-0.014713,-0.054199,0.012245,0.0,0.019632,0.018395,-0.028738,-0.03457,4075.830322,11515.410156,51293.972656,0.0,-17619.390625,-17612.099609,17875.621094,-17351.730469,4108.049805,11502.0,51509.253906,0.0,17708.400391,17708.220703,-17441.550781,17978.761719,0.0,0.0,0.0,0.0,0.0,0.0,0.0,0.0,0.0,0.0,0.0,0.0,0.0,0.0,0.0,0.0,0.0,0.0,0.0,0.0,0.0,0.0,0.0,0.0,0.0,0.0,0.0,0.0,0.0,0.0,0.0,0.0,4074.006104,11511.545898,51275.632812,0.0,-17618.605469,-17617.259766,17873.8125,-17359.076172,4107.789062,11500.0,51509.328125,0.0,17708.683594,17708.410156,-17451.466797,17966.347656,29.912762,90.37722,22.790968,0.0,2.977536,1.936253,25.62697,31.617168,30.160807,90.246132,22.898355,0.0,0.000319,-0.030216,28.620111,28.640059,1.016,1.042,-63617.0,-145286.0,-412178.0,0.0,141786.0,141676.0,-145019.0,138607.0,-60642.0,-140418.0,-417313.0,0.0,-143245.0,-143379.0,140109.0,-146099.0,0.0,0.0,0.0,0.0,0.0,0.0,0.0,0.0,0.0,0.0,0.0,0.0,0.0,0.0,0.0,0.0,0.0,0.0,0.0,0.0,0.0,0.0,0.0,0.0
36,2.063880920410156,0.52231,1.577901,0.39792,0.0,-3.0905720000000003,0.043809,0.445777,0.570739,0.526439,1.575374,0.399649,0.0,-3.1409130000000003,-0.000897,0.518773,0.523594,3.0,1.0,111.0,0.0,1.0,-79967.0,-25329.0,14155.0,-78137.0,25649.0,13569.0,-0.961208,-0.169291,0.21776,-0.250497,0.205311,-0.946097,0.115457,-0.963944,-0.239753,-0.936714,0.217555,0.274295,0.308789,0.144206,0.940135,0.164976,0.965337,-0.202258,-0.961208,-0.169291,0.21776,-0.250497,0.205311,-0.946097,0.115457,-0.963944,-0.239753,-0.936714,0.217555,0.274295,0.308789,0.144206,0.940135,0.164976,0.965337,-0.202258,-79967.0,-25329.0,14155.0,-78137.0,25649.0,13569.0,18330.0,17337.0,-157755.0,0.0,-53985.0,-54014.0,-53599.0,-54192.0,-14997.0,-12618.0,155012.0,0.0,53515.0,53379.0,53687.0,53664.0,79.0,236.0,132.0,0.0,721.0,927.0,596.0,-585.0,-54.0,-200.0,45.0,0.0,536.0,502.0,787.0,-948.0,-0.021624,-0.064064,-0.035965,0.0,0.026386,0.033934,-0.021815,-0.021415,-0.014713,-0.054199,0.012245,0.0,0.019637,0.018398,-0.02883,-0.034706,4075.830322,11515.410156,51293.972656,0.0,-17619.390625,-17612.099609,17875.621094,-17351.910156,4108.049805,11502.0,51509.253906,0.0,17708.400391,17708.220703,-17441.640625,17978.669922,0.0,0.0,0.0,0.0,0.0,0.0,0.0,0.0,0.0,0.0,0.0,0.0,0.0,0.0,0.0,0.0,0.0,0.0,0.0,0.0,0.0,0.0,0.0,0.0,0.0,0.0,0.0,0.0,0.0,0.0,0.0,0.0,4074.006104,11511.545898,51275.632812,0.0,-17618.605469,-17617.259766,17873.8125,-17359.076172,4107.789062,11500.0,51509.328125,0.0,17708.683594,17708.410156,-17451.466797,17966.347656,29.912762,90.37722,22.790968,0.0,2.977536,1.936253,25.62697,31.617168,30.160807,90.246132,22.898355,0.0,0.000319,-0.030216,28.620111,28.640059,1.016,1.042,-63617.0,-145286.0,-412178.0,0.0,141786.0,141676.0,-145019.0,138607.0,-60642.0,-140418.0,-417313.0,0.0,-143245.0,-143379.0,140109.0,-146099.0,0.0,0.0,0.0,0.0,0.0,0.0,0.0,0.0,0.0,0.0,0.0,0.0,0.0,0.0,0.0,0.0,0.0,0.0,0.0,0.0,0.0,0.0,0.0,0.0
37,2.083909034729004,0.52231,1.577901,0.39792,0.0,-3.0905720000000003,0.043809,0.445604,0.570562,0.526439,1.575374,0.399649,0.0,-3.1409130000000003,-0.000897,0.5186,0.523245,3.0,1.0,111.0,0.0,1.0,-79967.0,-25329.0,14155.0,-78137.0,25649.0,13569.0,-0.961208,-0.169293,0.21776,-0.250497,0.205311,-0.946097,0.115459,-0.963944,-0.239753,-0.936733,0.217472,0.274295,0.308776,0.144233,0.940135,0.164891,0.965351,-0.202258,-0.961208,-0.169293,0.21776,-0.250497,0.205311,-0.946097,0.115459,-0.963944,-0.239753,-0.936733,0.217472,0.274295,0.308776,0.144233,0.940135,0.164891,0.965351,-0.202258,-79967.0,-25329.0,14155.0,-78137.0,25649.0,13569.0,18330.0,17337.0,-157755.0,0.0,-53985.0,-54014.0,-53598.0,-54193.0,-14997.0,-12618.0,155012.0,0.0,53515.0,53379.0,53688.0,53662.0,79.0,236.0,132.0,0.0,721.0,924.0,594.0,-586.0,-54.0,-200.0,45.0,0.0,536.0,502.0,790.0,-950.0,-0.021624,-0.064064,-0.035965,0.0,0.0264,0.033844,-0.021768,-0.02146,-0.014713,-0.054199,0.012245,0.0,0.019642,0.018402,-0.028923,-0.034763,4075.830322,11515.410156,51293.972656,0.0,-17619.390625,-17612.099609,17875.53125,-17352.0,4108.049805,11502.0,51509.253906,0.0,17708.400391,17708.220703,-17441.730469,17978.490234,0.0,0.0,0.0,0.0,0.0,0.0,0.0,0.0,0.0,0.0,0.0,0.0,0.0,0.0,0.0,0.0,0.0,0.0,0.0,0.0,0.0,0.0,0.0,0.0,0.0,0.0,0.0,0.0,0.0,0.0,0.0,0.0,4074.006104,11511.545898,51275.632812,0.0,-17618.605469,-17617.259766,17873.8125,-17359.076172,4107.789062,11500.0,51509.328125,0.0,17708.683594,17708.410156,-17451.466797,17966.347656,29.912762,90.37722,22.790968,0.0,2.977536,1.936253,25.62697,31.617168,30.160807,90.246132,22.898355,0.0,0.000319,-0.030216,28.620111,28.640059,1.016,1.041,-63617.0,-145286.0,-412178.0,0.0,141786.0,141676.0,-145019.0,138607.0,-60642.0,-140418.0,-417313.0,0.0,-143245.0,-143379.0,140109.0,-146099.0,0.0,0.0,0.0,0.0,0.0,0.0,0.0,0.0,0.0,0.0,0.0,0.0,0.0,0.0,0.0,0.0,0.0,0.0,0.0,0.0,0.0,0.0,0.0,0.0
38,2.105886936187744,0.52231,1.577901,0.39792,0.0,-3.0905720000000003,0.043809,0.445604,0.570213,0.526439,1.575374,0.399649,0.0,-3.1409130000000003,-0.000897,0.51825,0.523072,3.0,1.0,111.0,0.0,1.0,-79967.0,-25329.0,14155.0,-78137.0,25649.0,13569.0,-0.961178,-0.169461,0.21776,-0.250533,0.205267,-0.946097,0.115628,-0.963924,-0.239753,-0.936714,0.217555,0.274295,0.308789,0.144206,0.940135,0.164976,0.965337,-0.202258,-0.961178,-0.169461,0.21776,-0.250533,0.205267,-0.946097,0.115628,-0.963924,-0.239753,-0.936714,0.217555,0.274295,0.308789,0.144206,0.940135,0.164976,0.965337,-0.202258,-79967.0,-25329.0,14155.0,-78137.0,25649.0,13569.0,18330.0,17337.0,-157755.0,0.0,-53985.0,-54014.0,-53598.0,-54195.0,-14997.0,-12618.0,155012.0,0.0,53515.0,53379.0,53690.0,53661.0,79.0,236.0,132.0,0.0,721.0,922.0,595.0,-585.0,-54.0,-200.0,45.0,0.0,536.0,502.0,791.0,-954.0,-0.021624,-0.064064,-0.035965,0.0,0.026415,0.033745,-0.021801,-0.021437,-0.014713,-0.054199,0.012245,0.0,0.019648,0.018405,-0.028951,-0.034917,4075.830322,11515.410156,51293.972656,0.0,-17619.390625,-17612.099609,17875.53125,-17352.181641,4108.049805,11502.0,51509.253906,0.0,17708.400391,17708.220703,-17441.910156,17978.400391,0.0,0.0,0.0,0.0,0.0,0.0,0.0,0.0,0.0,0.0,0.0,0.0,0.0,0.0,0.0,0.0,0.0,0.0,0.0,0.0,0.0,0.0,0.0,0.0,0.0,0.0,0.0,0.0,0.0,0.0,0.0,0.0,4074.006104,11511.545898,51275.632812,0.0,-17618.605469,-17617.259766,17873.8125,-17359.076172,4107.789062,11500.0,51509.328125,0.0,17708.683594,17708.410156,-17451.466797,17966.347656,29.912762,90.37722,22.790968,0.0,2.977536,1.936253,25.62697,31.617168,30.160807,90.246132,22.898355,0.0,0.000319,-0.030216,28.620111,28.640059,1.015,1.041,-63617.0,-145286.0,-412178.0,0.0,141786.0,141676.0,-145019.0,138607.0,-60642.0,-140418.0,-417313.0,0.0,-143245.0,-143379.0,140109.0,-146099.0,0.0,0.0,0.0,0.0,0.0,0.0,0.0,0.0,0.0,0.0,0.0,0.0,0.0,0.0,0.0,0.0,0.0,0.0,0.0,0.0,0.0,0.0,0.0,0.0
39,2.1258440017700195,0.52231,1.577901,0.39792,0.0,-3.0905720000000003,0.043809,0.445604,0.569863,0.526439,1.575374,0.399649,0.0,-3.1409130000000003,-0.000897,0.518074,0.522546,3.0,1.0,111.0,0.0,1.0,-79967.0,-25329.0,14155.0,-78137.0,25649.0,13569.0,-0.961149,-0.169629,0.21776,-0.250569,0.205223,-0.946097,0.115796,-0.963903,-0.239753,-0.936752,0.217391,0.274295,0.308764,0.14426,0.940135,0.164807,0.965365,-0.202258,-0.961149,-0.169629,0.21776,-0.250569,0.205223,-0.946097,0.115796,-0.963903,-0.239753,-0.936752,0.217391,0.274295,0.308764,0.14426,0.940135,0.164807,0.965365,-0.202258,-79967.0,-25329.0,14155.0,-78137.0,25649.0,13569.0,18330.0,17337.0,-157755.0,0.0,-53985.0,-54014.0,-53598.0,-54197.0,-14997.0,-12618.0,155012.0,0.0,53515.0,53379.0,53691.0,53658.0,79.0,236.0,132.0,0.0,722.0,919.0,596.0,-584.0,-54.0,-200.0,45.0,0.0,537.0,503.0,793.0,-953.0,-0.021624,-0.064064,-0.035965,0.0,0.026429,0.033655,-0.021831,-0.021399,-0.014713,-0.054199,0.012245,0.0,0.019653,0.018409,-0.029038,-0.034889,4075.830322,11515.410156,51293.972656,0.0,-17619.390625,-17612.099609,17875.53125,-17352.361328,4108.049805,11502.0,51509.253906,0.0,17708.400391,17708.220703,-17442.001953,17978.128906,0.0,0.0,0.0,0.0,0.0,0.0,0.0,-90.92347,0.0,0.0,0.0,0.0,0.0,0.0,0.0,0.0,0.0,0.0,0.0,0.0,0.0,0.0,0.0,-0.176481,0.0,0.0,0.0,0.0,0.0,0.0,0.0,0.0,4074.006104,11511.545898,51275.632812,0.0,-17618.605469,-17617.259766,17873.8125,-17359.076172,4107.789062,11500.0,51509.328125,0.0,17708.683594,17708.410156,-17451.466797,17966.347656,29.912762,90.37722,22.790968,0.0,2.977536,1.936253,25.62697,31.617168,30.160807,90.246132,22.898355,0.0,0.000319,-0.030216,28.620111,28.640059,1.015,1.04,-63617.0,-145286.0,-412178.0,0.0,141786.0,141676.0,-145019.0,138607.0,-60642.0,-140418.0,-417313.0,0.0,-143245.0,-143379.0,140109.0,-146099.0,0.0,0.0,0.0,0.0,0.0,0.0,0.0,0.0,0.0,0.0,0.0,0.0,0.0,0.0,0.0,0.0,0.0,0.0,0.0,0.0,0.0,0.0,0.0,0.0
40,2.1468770503997803,0.52231,1.577901,0.39792,0.0,-3.090278,0.043809,0.445428,0.56969,0.526439,1.575374,0.399649,0.0,-3.1409130000000003,-0.000897,0.517901,0.522196,3.0,1.0,111.0,0.0,1.0,-79967.0,-25329.0,14156.0,-78137.0,25649.0,13569.0,-0.961151,-0.169704,0.217693,-0.250554,0.205498,-0.946041,0.115811,-0.963832,-0.240034,-0.936771,0.217308,0.274295,0.308751,0.144287,0.940135,0.164722,0.96538,-0.202258,-0.961151,-0.169704,0.217693,-0.250554,0.205498,-0.946041,0.115811,-0.963832,-0.240034,-0.936771,0.217308,0.274295,0.308751,0.144287,0.940135,0.164722,0.96538,-0.202258,-79967.0,-25329.0,14156.0,-78137.0,25649.0,13569.0,18330.0,17337.0,-157755.0,0.0,-53984.0,-54014.0,-53597.0,-54198.0,-14997.0,-12618.0,155012.0,0.0,53515.0,53379.0,53692.0,53656.0,79.0,236.0,132.0,0.0,718.0,917.0,595.0,-586.0,-54.0,-200.0,45.0,0.0,537.0,503.0,796.0,-955.0,-0.021624,-0.064064,-0.035965,0.0,0.0263,0.03356,-0.021782,-0.021443,-0.014713,-0.054199,0.012245,0.0,0.019658,0.018412,-0.029133,-0.034946,4075.830322,11515.410156,51293.972656,0.0,-17619.300781,-17612.099609,17875.439453,-17352.451172,4108.049805,11502.0,51509.253906,0.0,17708.400391,17708.220703,-17442.089844,17977.949219,0.0,0.0,0.0,0.0,0.0,0.0,0.0,0.0,0.0,0.0,0.0,0.0,0.0,0.0,0.0,0.0,0.0,0.0,0.0,0.0,0.0,0.0,0.0,0.0,0.0,0.0,0.0,0.0,0.0,0.0,0.0,0.0,4074.006104,11511.545898,51275.632812,0.0,-17618.605469,-17617.259766,17873.8125,-17359.076172,4107.789062,11500.0,51509.328125,0.0,17708.683594,17708.410156,-17451.466797,17966.347656,29.912762,90.37722,22.790968,0.0,2.977536,1.936253,25.62697,31.617168,30.160807,90.246132,22.898355,0.0,0.000319,-0.030216,28.620111,28.640059,1.015,1.04,-63617.0,-145286.0,-412178.0,0.0,141786.0,141676.0,-145019.0,138607.0,-60642.0,-140418.0,-417313.0,0.0,-143245.0,-143379.0,140109.0,-146099.0,0.0,0.0,0.0,0.0,0.0,0.0,0.0,0.0,0.0,0.0,0.0,0.0,0.0,0.0,0.0,0.0,0.0,0.0,0.0,0.0,0.0,0.0,0.0,0.0
41,2.1678929328918457,0.52231,1.577901,0.39792,0.0,-3.090278,0.043809,0.445428,0.569341,0.526439,1.575374,0.399649,0.0,-3.1409130000000003,-0.000897,0.517378,0.52185,3.0,1.0,111.0,0.0,1.0,-79967.0,-25329.0,14156.0,-78137.0,25649.0,13569.0,-0.961121,-0.169872,0.217693,-0.25059,0.205454,-0.946041,0.11598,-0.963811,-0.240034,-0.936752,0.217391,0.274295,0.308764,0.14426,0.940135,0.164807,0.965365,-0.202258,-0.961121,-0.169872,0.217693,-0.25059,0.205454,-0.946041,0.11598,-0.963811,-0.240034,-0.936752,0.217391,0.274295,0.308764,0.14426,0.940135,0.164807,0.965365,-0.202258,-79967.0,-25329.0,14156.0,-78137.0,25649.0,13569.0,18330.0,17337.0,-157755.0,0.0,-53984.0,-54014.0,-53597.0,-54200.0,-14997.0,-12618.0,155012.0,0.0,53515.0,53379.0,53695.0,53654.0,79.0,236.0,132.0,0.0,719.0,914.0,596.0,-584.0,-54.0,-200.0,45.0,0.0,537.0,503.0,794.0,-956.0,-0.021624,-0.064064,-0.035965,0.0,0.026313,0.033466,-0.021812,-0.021405,-0.014713,-0.054199,0.012245,0.0,0.019663,0.018416,-0.029068,-0.035001,4075.830322,11515.410156,51293.972656,0.0,-17619.300781,-17612.099609,17875.439453,-17352.630859,4108.049805,11502.0,51509.253906,0.0,17708.400391,17708.220703,-17442.359375,17977.771484,0.0,0.0,0.0,0.0,0.0,0.0,0.0,0.0,0.0,0.0,0.0,0.0,0.0,0.0,-89.174942,0.0,0.0,0.0,0.0,0.0,0.0,0.0,0.0,0.0,0.0,0.0,0.0,0.0,0.0,0.0,-0.173088,0.0,4074.006104,11511.545898,51275.632812,0.0,-17618.605469,-17617.259766,17873.8125,-17359.076172,4107.789062,11500.0,51509.328125,0.0,17708.683594,17708.410156,-17451.466797,17966.347656,29.912762,90.37722,22.790968,0.0,2.977536,1.936253,25.62697,31.617168,30.160807,90.246132,22.898355,0.0,0.000319,-0.030216,28.620111,28.640059,1.014,1.039,-63617.0,-145286.0,-412178.0,0.0,141786.0,141676.0,-145019.0,138607.0,-60642.0,-140418.0,-417313.0,0.0,-143245.0,-143379.0,140109.0,-146099.0,0.0,0.0,0.0,0.0,0.0,0.0,0.0,0.0,0.0,0.0,0.0,-0.173088,0.0,0.0,0.0,0.0,0.0,0.0,0.0,0.0,0.0,0.0,0.0,-0.173088
42,2.187885046005249,0.52231,1.577901,0.39792,0.0,-3.090278,0.043809,0.445428,0.569164,0.526439,1.575374,0.399649,0.0,-3.1409130000000003,-0.000897,0.517201,0.521673,3.0,1.0,111.0,0.0,1.0,-79967.0,-25329.0,14156.0,-78137.0,25649.0,13569.0,-0.961106,-0.169956,0.217693,-0.250608,0.205432,-0.946041,0.116065,-0.963801,-0.240034,-0.936752,0.217391,0.274295,0.308764,0.14426,0.940135,0.164807,0.965365,-0.202258,-0.961106,-0.169956,0.217693,-0.250608,0.205432,-0.946041,0.116065,-0.963801,-0.240034,-0.936752,0.217391,0.274295,0.308764,0.14426,0.940135,0.164807,0.965365,-0.202258,-79967.0,-25329.0,14156.0,-78137.0,25649.0,13569.0,18330.0,17337.0,-157755.0,0.0,-53984.0,-54014.0,-53597.0,-54201.0,-14997.0,-12618.0,155012.0,0.0,53515.0,53379.0,53696.0,53653.0,79.0,236.0,132.0,0.0,719.0,912.0,596.0,-585.0,-54.0,-200.0,45.0,0.0,537.0,503.0,796.0,-959.0,-0.021624,-0.064064,-0.035965,0.0,0.026325,0.033376,-0.021841,-0.021438,-0.014713,-0.054199,0.012245,0.0,0.019668,0.018419,-0.029147,-0.03512,4075.830322,11515.410156,51293.972656,0.0,-17619.300781,-17612.099609,17875.439453,-17352.720703,4108.049805,11502.0,51509.253906,0.0,17708.400391,17708.220703,-17442.451172,17977.679688,0.0,0.0,0.0,0.0,0.0,0.0,0.0,0.0,0.0,0.0,0.0,0.0,0.0,0.0,0.0,0.0,0.0,0.0,0.0,0.0,0.0,0.0,0.0,0.0,0.0,0.0,0.0,0.0,0.0,0.0,0.0,0.0,4074.006104,11511.545898,51275.632812,0.0,-17618.605469,-17617.259766,17873.8125,-17359.076172,4107.789062,11500.0,51509.328125,0.0,17708.683594,17708.410156,-17451.466797,17966.347656,29.912762,90.37722,22.790968,0.0,2.977536,1.936253,25.62697,31.617168,30.160807,90.246132,22.898355,0.0,0.000319,-0.030216,28.620111,28.640059,1.014,1.038,-63617.0,-145286.0,-412178.0,0.0,141786.0,141676.0,-145019.0,138607.0,-60642.0,-140418.0,-417313.0,0.0,-143245.0,-143379.0,140109.0,-146099.0,0.0,0.0,0.0,0.0,0.0,0.0,0.0,0.0,0.0,0.0,0.0,0.0,0.0,0.0,0.0,0.0,0.0,0.0,0.0,0.0,0.0,0.0,0.0,0.0
43,2.2078700065612793,0.52231,1.577901,0.39792,0.0,-3.090278,0.043809,0.445255,0.568641,0.526439,1.575374,0.399649,0.0,-3.1409130000000003,-0.000897,0.516852,0.5215,3.0,1.0,111.0,0.0,1.0,-79967.0,-25329.0,14156.0,-78137.0,25649.0,13569.0,-0.961076,-0.170124,0.217693,-0.250644,0.205388,-0.946041,0.116233,-0.963781,-0.240034,-0.936732,0.217473,0.274295,0.308777,0.144232,0.940135,0.164892,0.965351,-0.202258,-0.961091,-0.17004,0.217693,-0.250626,0.20541,-0.946041,0.116148,-0.963791,-0.240034,-0.936732,0.217473,0.274295,0.308777,0.144232,0.940135,0.164892,0.965351,-0.202258,-79967.0,-25329.0,14156.0,-78137.0,25649.0,13569.0,18330.0,17337.0,-157755.0,0.0,-53984.0,-54014.0,-53596.0,-54204.0,-14997.0,-12618.0,155012.0,0.0,53515.0,53379.0,53698.0,53652.0,79.0,236.0,132.0,0.0,719.0,909.0,595.0,-582.0,-54.0,-200.0,45.0,0.0,537.0,503.0,796.0,-963.0,-0.021624,-0.064064,-0.035965,0.0,0.026337,0.033286,-0.021791,-0.021311,-0.014713,-0.054199,0.012245,0.0,0.019673,0.018422,-0.029145,-0.035239,4075.830322,11515.410156,51293.972656,0.0,-17619.300781,-17612.099609,17875.351562,-17352.990234,4108.049805,11502.0,51509.253906,0.0,17708.400391,17708.220703,-17442.630859,17977.591797,0.0,0.0,0.0,0.0,0.0,0.0,0.0,-90.92347,0.0,0.0,0.0,0.0,0.0,0.0,0.0,0.0,0.0,0.0,0.0,0.0,0.0,0.0,0.0,-0.176481,0.0,0.0,0.0,0.0,0.0,0.0,0.0,0.0,4074.006104,11511.545898,51275.632812,0.0,-17618.605469,-17617.259766,17873.8125,-17359.076172,4107.789062,11500.0,51509.328125,0.0,17708.683594,17708.410156,-17451.466797,17966.347656,29.912762,90.37722,22.790968,0.0,2.977536,1.936253,25.62697,31.617168,30.160807,90.246132,22.898355,0.0,0.000319,-0.030216,28.620111,28.640059,1.014,1.038,-63617.0,-145286.0,-412178.0,0.0,141786.0,141676.0,-145019.0,138607.0,-60642.0,-140418.0,-417313.0,0.0,-143245.0,-143379.0,140109.0,-146099.0,0.0,0.0,0.0,0.0,0.0,0.0,0.0,0.0,0.0,0.0,0.0,0.0,0.0,0.0,0.0,0.0,0.0,0.0,0.0,0.0,0.0,0.0,0.0,0.0
44,2.2279269695281982,0.52231,1.577901,0.39792,0.0,-3.090278,0.043809,0.445255,0.568468,0.526439,1.575374,0.399649,0.0,-3.1409130000000003,-0.000897,0.516679,0.521324,3.0,1.0,111.0,0.0,1.0,-79967.0,-25329.0,14156.0,-78137.0,25649.0,13569.0,-0.961061,-0.170208,0.217693,-0.250662,0.205366,-0.946041,0.116317,-0.963771,-0.240034,-0.936733,0.217472,0.274295,0.308776,0.144233,0.940135,0.164891,0.965351,-0.202258,-0.961061,-0.170208,0.217693,-0.250662,0.205366,-0.946041,0.116317,-0.963771,-0.240034,-0.936733,0.217472,0.274295,0.308776,0.144233,0.940135,0.164891,0.965351,-0.202258,-79967.0,-25329.0,14156.0,-78137.0,25649.0,13569.0,18330.0,17337.0,-157755.0,0.0,-53984.0,-54014.0,-53596.0,-54205.0,-14997.0,-12618.0,155012.0,0.0,53515.0,53379.0,53699.0,53651.0,79.0,236.0,132.0,0.0,720.0,907.0,596.0,-583.0,-54.0,-200.0,45.0,0.0,537.0,503.0,798.0,-966.0,-0.021624,-0.064064,-0.035965,0.0,0.026349,0.033196,-0.021818,-0.021339,-0.014713,-0.054199,0.012245,0.0,0.019678,0.018426,-0.029221,-0.035355,4075.830322,11515.410156,51293.972656,0.0,-17619.300781,-17612.099609,17875.351562,-17353.080078,4108.049805,11502.0,51509.253906,0.0,17708.400391,17708.220703,-17442.720703,17977.5,0.0,0.0,0.0,0.0,0.0,0.0,0.0,0.0,0.0,0.0,0.0,0.0,0.0,0.0,0.0,0.0,0.0,0.0,0.0,0.0,0.0,0.0,0.0,0.0,0.0,0.0,0.0,0.0,0.0,0.0,0.0,0.0,4074.006104,11511.545898,51275.632812,0.0,-17618.605469,-17617.259766,17873.8125,-17359.076172,4107.789062,11500.0,51509.328125,0.0,17708.683594,17708.410156,-17451.466797,17966.347656,29.912762,90.37722,22.790968,0.0,2.977536,1.936253,25.62697,31.617168,30.160807,90.246132,22.898355,0.0,0.000319,-0.030216,28.620111,28.640059,1.013,1.038,-63617.0,-145286.0,-412178.0,0.0,141786.0,141676.0,-145019.0,138607.0,-60642.0,-140418.0,-417313.0,0.0,-143245.0,-143379.0,140109.0,-146099.0,0.0,0.0,0.0,0.0,0.0,0.0,0.0,0.0,0.0,0.0,0.0,0.0,0.0,0.0,0.0,0.0,0.0,0.0,0.0,0.0,0.0,0.0,0.0,0.0
45,2.2498810291290283,0.52231,1.577901,0.39792,0.0,-3.090278,0.043809,0.445255,0.568119,0.526439,1.575374,0.399649,0.0,-3.1409130000000003,-0.000897,0.516329,0.520974,3.0,1.0,111.0,0.0,1.0,-79967.0,-25329.0,14156.0,-78137.0,25649.0,13569.0,-0.961032,-0.170376,0.217693,-0.250698,0.205322,-0.946041,0.116485,-0.96375,-0.240034,-0.936733,0.217472,0.274295,0.308776,0.144233,0.940135,0.164891,0.965351,-0.202258,-0.961032,-0.170376,0.217693,-0.250698,0.205322,-0.946041,0.116485,-0.96375,-0.240034,-0.936733,0.217472,0.274295,0.308776,0.144233,0.940135,0.164891,0.965351,-0.202258,-79967.0,-25329.0,14156.0,-78137.0,25649.0,13569.0,18330.0,17337.0,-157755.0,0.0,-53984.0,-54014.0,-53596.0,-54207.0,-14997.0,-12618.0,155012.0,0.0,53515.0,53379.0,53701.0,53649.0,79.0,236.0,132.0,0.0,720.0,904.0,597.0,-581.0,-54.0,-200.0,45.0,0.0,537.0,503.0,798.0,-967.0,-0.021624,-0.064064,-0.035965,0.0,0.026362,0.033097,-0.021847,-0.021294,-0.014713,-0.054199,0.012245,0.0,0.019683,0.018429,-0.02923,-0.03541,4075.830322,11515.410156,51293.972656,0.0,-17619.300781,-17612.099609,17875.351562,-17353.259766,4108.049805,11502.0,51509.253906,0.0,17708.400391,17708.220703,-17442.900391,17977.320312,0.0,0.0,0.0,0.0,0.0,0.0,0.0,0.0,0.0,0.0,0.0,0.0,0.0,0.0,0.0,0.0,0.0,0.0,0.0,0.0,0.0,0.0,0.0,0.0,0.0,0.0,0.0,0.0,0.0,0.0,0.0,0.0,4074.006104,11511.545898,51275.632812,0.0,-17618.605469,-17617.259766,17873.8125,-17359.076172,4107.789062,11500.0,51509.328125,0.0,17708.683594,17708.410156,-17451.466797,17966.347656,29.912762,90.37722,22.790968,0.0,2.977536,1.936253,25.62697,31.617168,30.160807,90.246132,22.898355,0.0,0.000319,-0.030216,28.620111,28.640059,1.013,1.037,-63617.0,-145286.0,-412178.0,0.0,141786.0,141676.0,-145019.0,138607.0,-60642.0,-140418.0,-417313.0,0.0,-143245.0,-143379.0,140109.0,-146099.0,0.0,0.0,0.0,0.0,0.0,0.0,0.0,0.0,0.0,0.0,0.0,0.0,0.0,0.0,0.0,0.0,0.0,0.0,0.0,0.0,0.0,0.0,0.0,0.0
46,2.2708969116210938,0.52231,1.577901,0.39792,0.0,-3.090278,0.043809,0.445255,0.567942,0.526439,1.575374,0.399649,0.0,-3.1409130000000003,-0.000897,0.516153,0.520801,3.0,1.0,111.0,0.0,1.0,-79967.0,-25329.0,14156.0,-78137.0,25649.0,13569.0,-0.961017,-0.17046,0.217693,-0.250716,0.2053,-0.946041,0.11657,-0.96374,-0.240034,-0.936732,0.217473,0.274295,0.308777,0.144232,0.940135,0.164892,0.965351,-0.202258,-0.961017,-0.17046,0.217693,-0.250716,0.2053,-0.946041,0.11657,-0.96374,-0.240034,-0.936732,0.217473,0.274295,0.308777,0.144232,0.940135,0.164892,0.965351,-0.202258,-79967.0,-25329.0,14156.0,-78137.0,25649.0,13569.0,18330.0,17337.0,-157755.0,0.0,-53984.0,-54014.0,-53596.0,-54208.0,-14997.0,-12618.0,155012.0,0.0,53515.0,53379.0,53702.0,53648.0,79.0,236.0,132.0,0.0,720.0,901.0,597.0,-582.0,-54.0,-200.0,45.0,0.0,538.0,503.0,800.0,-971.0,-0.021624,-0.064064,-0.035965,0.0,0.026375,0.033002,-0.021876,-0.02132,-0.014713,-0.054199,0.012245,0.0,0.019688,0.018433,-0.029307,-0.035533,4075.830322,11515.410156,51293.972656,0.0,-17619.300781,-17612.099609,17875.351562,-17353.351562,4108.049805,11502.0,51509.253906,0.0,17708.400391,17708.220703,-17442.990234,17977.230469,0.0,0.0,0.0,0.0,0.0,0.0,0.0,0.0,0.0,0.0,0.0,0.0,0.0,0.0,0.0,0.0,0.0,0.0,0.0,0.0,0.0,0.0,0.0,0.0,0.0,0.0,0.0,0.0,0.0,0.0,0.0,0.0,4074.006104,11511.545898,51275.632812,0.0,-17618.605469,-17617.259766,17873.8125,-17359.076172,4107.789062,11500.0,51509.328125,0.0,17708.683594,17708.410156,-17451.466797,17966.347656,29.912762,90.37722,22.790968,0.0,2.977536,1.936253,25.62697,31.617168,30.160807,90.246132,22.898355,0.0,0.000319,-0.030216,28.620111,28.640059,1.013,1.036,-63617.0,-145286.0,-412178.0,0.0,141786.0,141676.0,-145019.0,138607.0,-60642.0,-140418.0,-417313.0,0.0,-143245.0,-143379.0,140109.0,-146099.0,0.0,0.0,0.0,0.0,0.0,0.0,0.0,0.0,0.0,0.0,0.0,0.0,0.0,0.0,0.0,0.0,0.0,0.0,0.0,0.0,0.0,0.0,0.0,0.0
47,2.2908759117126465,0.52231,1.577901,0.39792,0.0,-3.090278,0.043809,0.445255,0.567769,0.526439,1.575374,0.399649,0.0,-3.1409130000000003,-0.000897,0.515803,0.520625,3.0,1.0,111.0,0.0,1.0,-79967.0,-25329.0,14156.0,-78137.0,25649.0,13569.0,-0.961002,-0.170544,0.217693,-0.250734,0.205279,-0.946041,0.116653,-0.96373,-0.240034,-0.936714,0.217555,0.274295,0.308789,0.144206,0.940135,0.164976,0.965337,-0.202258,-0.961002,-0.170544,0.217693,-0.250734,0.205279,-0.946041,0.116653,-0.96373,-0.240034,-0.936714,0.217555,0.274295,0.308789,0.144206,0.940135,0.164976,0.965337,-0.202258,-79967.0,-25329.0,14156.0,-78137.0,25649.0,13569.0,18330.0,17337.0,-157755.0,0.0,-53984.0,-54014.0,-53596.0,-54209.0,-14997.0,-12618.0,155012.0,0.0,53515.0,53379.0,53704.0,53647.0,79.0,236.0,132.0,0.0,721.0,899.0,598.0,-583.0,-54.0,-200.0,45.0,0.0,538.0,503.0,800.0,-974.0,-0.021624,-0.064064,-0.035965,0.0,0.026387,0.032912,-0.021903,-0.021341,-0.014713,-0.054199,0.012245,0.0,0.019693,0.018436,-0.029296,-0.035642,4075.830322,11515.410156,51293.972656,0.0,-17619.300781,-17612.099609,17875.351562,-17353.439453,4108.049805,11502.0,51509.253906,0.0,17708.400391,17708.220703,-17443.171875,17977.140625,0.0,0.0,0.0,0.0,0.0,0.0,0.0,0.0,0.0,0.0,0.0,0.0,0.0,0.0,0.0,0.0,0.0,0.0,0.0,0.0,0.0,0.0,0.0,0.0,0.0,0.0,0.0,0.0,0.0,0.0,0.0,0.0,4074.006104,11511.545898,51275.632812,0.0,-17618.605469,-17617.259766,17873.8125,-17359.076172,4107.789062,11500.0,51509.328125,0.0,17708.683594,17708.410156,-17451.466797,17966.347656,29.912762,90.37722,22.790968,0.0,2.977536,1.936253,25.62697,31.617168,30.160807,90.246132,22.898355,0.0,0.000319,-0.030216,28.620111,28.640059,1.013,1.036,-63617.0,-145286.0,-412178.0,0.0,141786.0,141676.0,-145019.0,138607.0,-60642.0,-140418.0,-417313.0,0.0,-143245.0,-143379.0,140109.0,-146099.0,0.0,0.0,0.0,0.0,0.0,0.0,0.0,0.0,0.0,0.0,0.0,0.0,0.0,0.0,0.0,0.0,0.0,0.0,0.0,0.0,0.0,0.0,0.0,0.0
48,2.3118789196014404,0.52231,1.577901,0.39792,0.0,-3.090278,0.043809,0.445078,0.56742,0.526439,1.575374,0.399649,0.0,-3.1409130000000003,-0.000897,0.51563,0.520452,3.0,1.0,111.0,0.0,1.0,-79967.0,-25329.0,14156.0,-78137.0,25649.0,13569.0,-0.960987,-0.170627,0.217693,-0.250751,0.205257,-0.946041,0.116737,-0.96372,-0.240034,-0.936714,0.217555,0.274295,0.308789,0.144206,0.940135,0.164976,0.965337,-0.202258,-0.960987,-0.170627,0.217693,-0.250751,0.205257,-0.946041,0.116737,-0.96372,-0.240034,-0.936714,0.217555,0.274295,0.308789,0.144206,0.940135,0.164976,0.965337,-0.202258,-79967.0,-25329.0,14156.0,-78137.0,25649.0,13569.0,18330.0,17337.0,-157755.0,0.0,-53984.0,-54014.0,-53595.0,-54211.0,-14997.0,-12618.0,155012.0,0.0,53515.0,53379.0,53705.0,53646.0,79.0,236.0,132.0,0.0,721.0,896.0,597.0,-581.0,-54.0,-200.0,45.0,0.0,538.0,503.0,802.0,-977.0,-0.021624,-0.064064,-0.035965,0.0,0.0264,0.032817,-0.021851,-0.021285,-0.014713,-0.054199,0.012245,0.0,0.019699,0.01844,-0.029369,-0.035761,4075.830322,11515.410156,51293.972656,0.0,-17619.300781,-17612.099609,17875.259766,-17353.619141,4108.049805,11502.0,51509.253906,0.0,17708.400391,17708.220703,-17443.259766,17977.050781,0.0,0.0,0.0,0.0,0.0,0.0,0.0,0.0,0.0,0.0,0.0,0.0,0.0,0.0,0.0,0.0,0.0,0.0,0.0,0.0,0.0,0.0,0.0,0.0,0.0,0.0,0.0,0.0,0.0,0.0,0.0,0.0,4074.006104,11511.545898,51275.632812,0.0,-17618.605469,-17617.259766,17873.8125,-17359.076172,4107.789062,11500.0,51509.328125,0.0,17708.683594,17708.410156,-17451.466797,17966.347656,29.912762,90.37722,22.790968,0.0,2.977536,1.936253,25.62697,31.617168,30.160807,90.246132,22.898355,0.0,0.000319,-0.030216,28.620111,28.640059,1.012,1.036,-63617.0,-145286.0,-412178.0,0.0,141786.0,141676.0,-145019.0,138607.0,-60642.0,-140418.0,-417313.0,0.0,-143245.0,-143379.0,140109.0,-146099.0,0.0,0.0,0.0,0.0,0.0,0.0,0.0,0.0,0.0,0.0,0.0,0.0,0.0,0.0,0.0,0.0,0.0,0.0,0.0,0.0,0.0,0.0,0.0,0.0
49,2.3318588733673096,0.52231,1.577901,0.39792,0.0,-3.090278,0.043809,0.445078,0.567243,0.526439,1.575374,0.399649,0.0,-3.1409130000000003,-0.000897,0.515454,0.520102,3.0,1.0,111.0,0.0,1.0,-79967.0,-25329.0,14156.0,-78137.0,25649.0,13569.0,-0.960972,-0.170711,0.217693,-0.250769,0.205235,-0.946041,0.116822,-0.96371,-0.240034,-0.936732,0.217473,0.274295,0.308777,0.144232,0.940135,0.164892,0.965351,-0.202258,-0.960972,-0.170711,0.217693,-0.250769,0.205235,-0.946041,0.116822,-0.96371,-0.240034,-0.936732,0.217473,0.274295,0.308777,0.144232,0.940135,0.164892,0.965351,-0.202258,-79967.0,-25329.0,14156.0,-78137.0,25649.0,13569.0,18330.0,17337.0,-157755.0,0.0,-53984.0,-54014.0,-53595.0,-54212.0,-14997.0,-12618.0,155012.0,0.0,53515.0,53379.0,53706.0,53644.0,79.0,236.0,132.0,0.0,721.0,894.0,597.0,-582.0,-54.0,-200.0,45.0,0.0,538.0,504.0,804.0,-978.0,-0.021624,-0.064064,-0.035965,0.0,0.026412,0.032727,-0.021876,-0.021301,-0.014713,-0.054199,0.012245,0.0,0.019703,0.018443,-0.029432,-0.035789,4075.830322,11515.410156,51293.972656,0.0,-17619.300781,-17612.099609,17875.259766,-17353.710938,4108.049805,11502.0,51509.253906,0.0,17708.400391,17708.220703,-17443.351562,17976.871094,0.0,0.0,0.0,0.0,0.0,0.0,0.0,0.0,0.0,0.0,0.0,0.0,0.0,0.0,0.0,0.0,0.0,0.0,0.0,0.0,0.0,0.0,0.0,0.0,0.0,0.0,0.0,0.0,0.0,0.0,0.0,0.0,4074.006104,11511.545898,51275.632812,0.0,-17618.605469,-17617.259766,17873.8125,-17359.076172,4107.789062,11500.0,51509.328125,0.0,17708.683594,17708.410156,-17451.466797,17966.347656,29.912762,90.37722,22.790968,0.0,2.977536,1.936253,25.62697,31.617168,30.160807,90.246132,22.898355,0.0,0.000319,-0.030216,28.620111,28.640059,1.012,1.035,-63617.0,-145286.0,-412178.0,0.0,141786.0,141676.0,-145019.0,138607.0,-60642.0,-140418.0,-417313.0,0.0,-143245.0,-143379.0,140109.0,-146099.0,0.0,0.0,0.0,0.0,0.0,0.0,0.0,0.0,0.0,0.0,0.0,0.0,0.0,0.0,0.0,0.0,0.0,0.0,0.0,0.0,0.0,0.0,0.0,0.0
50,2.3518669605255127,0.52231,1.577901,0.39792,0.0,-3.0899900000000002,0.043809,0.445078,0.56707,0.526439,1.575374,0.399649,0.0,-3.1409130000000003,-0.000897,0.515104,0.519753,3.0,1.0,111.0,0.0,1.0,-79967.0,-25329.0,14156.0,-78137.0,25649.0,13569.0,-0.960959,-0.170869,0.217627,-0.250773,0.205482,-0.945986,0.116922,-0.963629,-0.240309,-0.936732,0.217473,0.274295,0.308777,0.144232,0.940135,0.164892,0.965351,-0.202258,-0.960959,-0.170869,0.217627,-0.250773,0.205482,-0.945986,0.116922,-0.963629,-0.240309,-0.936714,0.217555,0.274295,0.308789,0.144206,0.940135,0.164976,0.965337,-0.202258,-79967.0,-25329.0,14156.0,-78137.0,25649.0,13569.0,18330.0,17337.0,-157755.0,0.0,-53983.0,-54014.0,-53595.0,-54213.0,-14997.0,-12618.0,155012.0,0.0,53515.0,53379.0,53708.0,53642.0,79.0,236.0,132.0,0.0,718.0,891.0,598.0,-582.0,-54.0,-200.0,45.0,0.0,538.0,504.0,803.0,-978.0,-0.021624,-0.064064,-0.035965,0.0,0.026284,0.032637,-0.021902,-0.021316,-0.014713,-0.054199,0.012245,0.0,0.019708,0.018446,-0.029414,-0.035814,4075.830322,11515.410156,51293.972656,0.0,-17619.210938,-17612.099609,17875.259766,-17353.800781,4108.049805,11502.0,51509.253906,0.0,17708.400391,17708.220703,-17443.53125,17976.691406,0.0,0.0,0.0,0.0,0.0,0.0,0.0,0.0,0.0,0.0,0.0,0.0,0.0,0.0,0.0,-89.174942,0.0,0.0,0.0,0.0,0.0,0.0,0.0,0.0,0.0,0.0,0.0,0.0,0.0,0.0,0.0,-0.173088,4074.006104,11511.545898,51275.632812,0.0,-17618.605469,-17617.259766,17873.8125,-17359.076172,4107.789062,11500.0,51509.328125,0.0,17708.683594,17708.410156,-17451.466797,17966.347656,29.912762,90.37722,22.790968,0.0,2.977536,1.936253,25.62697,31.617168,30.160807,90.246132,22.898355,0.0,0.000319,-0.030216,28.620111,28.640059,1.012,1.035,-63617.0,-145286.0,-412178.0,0.0,141786.0,141676.0,-145019.0,138607.0,-60642.0,-140418.0,-417313.0,0.0,-143245.0,-143379.0,140109.0,-146099.0,0.0,0.0,0.0,0.0,0.0,0.0,0.0,0.0,0.0,0.0,0.0,0.0,0.0,0.0,0.0,0.0,0.0,0.0,0.0,0.0,0.0,0.0,0.0,0.0
