MHC-RobotSimulators-Research/Data_Analysis_MotionReplication/mai_plotter/offset_fixed/1arm__a2.csv
Unnamed: 0,time,jpos0,jpos1,jpos2,jpos3,jpos4,jpos5,jpos6,jpos7,jpos8,jpos9,jpos10,jpos11,jpos12,jpos13,jpos14,jpos15,runlevel,sublevel,last_seq,type0,type1,pos0,pos1,pos2,pos3,pos4,pos5,ori0,ori1,ori2,ori3,ori4,ori5,ori6,ori7,ori8,ori9,ori10,ori11,ori12,ori13,ori14,ori15,ori16,ori17,ori_d0,ori_d1,ori_d2,ori_d3,ori_d4,ori_d5,ori_d6,ori_d7,ori_d8,ori_d9,ori_d10,ori_d11,ori_d12,ori_d13,ori_d14,ori_d15,ori_d16,ori_d17,pos_d0,pos_d1,pos_d2,pos_d3,pos_d4,pos_d5,encVals0,encVals1,encVals2,encVals3,encVals4,encVals5,encVals6,encVals7,encVals8,encVals9,encVals10,encVals11,encVals12,encVals13,encVals14,encVals15,dac_vals0,dac_vals1,dac_vals2,dac_vals3,dac_vals4,dac_vals5,dac_vals6,dac_vals7,dac_vals8,dac_vals9,dac_vals10,dac_vals11,dac_vals12,dac_vals13,dac_vals14,dac_vals15,Tau0,Tau1,Tau2,Tau3,Tau4,Tau5,Tau6,Tau7,Tau8,Tau9,Tau10,Tau11,Tau12,Tau13,Tau14,Tau15,mpos0,mpos1,mpos2,mpos3,mpos4,mpos5,mpos6,mpos7,mpos8,mpos9,mpos10,mpos11,mpos12,mpos13,mpos14,mpos15,mvel0,mvel1,mvel2,mvel3,mvel4,mvel5,mvel6,mvel7,mvel8,mvel9,mvel10,mvel11,mvel12,mvel13,mvel14,mvel15,jvel0,jvel1,jvel2,jvel3,jvel4,jvel5,jvel6,jvel7,jvel8,jvel9,jvel10,jvel11,jvel12,jvel13,jvel14,jvel15,mpos_d0,mpos_d1,mpos_d2,mpos_d3,mpos_d4,mpos_d5,mpos_d6,mpos_d7,mpos_d8,mpos_d9,mpos_d10,mpos_d11,mpos_d12,mpos_d13,mpos_d14,mpos_d15,jpos_d0,jpos_d1,jpos_d2,jpos_d3,jpos_d4,jpos_d5,jpos_d6,jpos_d7,jpos_d8,jpos_d9,jpos_d10,jpos_d11,jpos_d12,jpos_d13,jpos_d14,jpos_d15,grasp_d0,grasp_d1,encoffsets0,encoffsets1,encoffsets2,encoffsets3,encoffsets4,encoffsets5,encoffsets6,encoffsets7,encoffsets8,encoffsets9,encoffsets10,encoffsets11,encoffsets12,encoffsets13,encoffsets14,encoffsets15,jac_vel0,jac_vel1,jac_vel2,jac_vel3,jac_vel4,jac_vel5,jac_vel6,jac_vel7,jac_vel8,jac_vel9,jac_vel10,jac_vel11,jac_f0,jac_f1,jac_f2,jac_f3,jac_f4,jac_f5,jac_f6,jac_f7,jac_f8,jac_f9,jac_f10,jac_f11
0,0.0,0.6108168959617615,1.5708260536193848,0.3899600124359131,0.0,-3.1418027222136766,-0.0002632554096635,0.7853028178215027,0.7853028178215027,0.6108652353286743,1.5707963705062866,0.389999977350235,0.0,-3.141592675445488,-1.0759699439744346e-14,0.7853028178215027,0.7853028178215027,,,,,,,,,,,,,,,,,,,,,,,,,,,,,,,,,,,,,,,,,,,,,,,,,,,,,,,,,,,,,,,,,,,,,,,,,,,,,,,,,,,,,,,,,,,,,,,,,,,,,,,,,,,,,,,,,,,,,,,,,,,,,,,,,,,,,,0.0,0.0,0.0,0.0,0.0,0.0,0.0,0.0,0.0,0.0,0.0,0.0,0.0,0.0,0.0,0.0,,,,,,,,,,,,,,,,,,,,,,,,,,,,,,,,,,,,,,,,,,,,,,,,,,,,,,,,,,,,,,,,,,,,,,,,,,
1,1.1163480281829834,0.6077635884284973,1.5726865530014038,0.3874481311440468,0.0,-3.1432003915290148,-0.0019953115843236,0.5338220596313477,0.5334690809249878,0.6108640432357788,1.5707966089248655,0.3899990385770798,0.0,-3.141668313739708,-6.364204455167055e-05,0.5286300778388977,0.5283234715461731,,,,,,,,,,,,,,,,,,,,,,,,,,,,,,,,,,,,,,,,,,,,,,,,,,,,,,,,,,,,,,,,,,,,,,,,,,,,,,,,,,,,,,,,,,,,,,,,,,,,,,,,,,,,,,,,,,,,,,,,,,,,,,,,,,,,,,-3.508508234517649e-05,3.446654591243714e-05,-5.500414044945501e-05,0.0,0.0268805585801601,0.0153211504220962,-0.2130008339881897,-0.1823293566703796,3.7192680792941246e-06,2.6942208933178335e-05,1.8713254803515156e-06,0.0,-0.0191364903002977,-0.013359255157411,0.3519869744777679,0.3923357725143432,,,,,,,,,,,,,,,,,,,,,,,,,,,,,,,,,,,,,,,,,,,,,,,,,,,,,,,,,,,,,,,,,,,,,,,,,,
2,1.1376621723175049,0.6077624559402466,1.5726872682571411,0.3874464026093483,0.0,-3.142769151924065,-0.0014527902239933,0.5247772336006165,0.5244536995887756,0.6108640432357788,1.5707966089248655,0.3899990385770798,0.0,-3.141668313739708,-6.364204455167055e-05,0.5286300778388977,0.5283234715461731,,,,,,,,,,,,,,,,,,,,,,,,,,,,,,,,,,,,,,,,,,,,,,,,,,,,,,,,,,,,,,,,,,,,,,,,,,,,,,,,,,,,,,,,,,,,,,,,,,,,,,,,,,,,,,,,,,,,,,,,,,,,,,,,,,,,,,-2.577615305199288e-05,1.390656689181924e-05,-4.215570515953005e-05,0.0,0.0084292814135551,0.0150684183463454,-0.2069902867078781,-0.1966178566217422,3.7192680792941246e-06,2.6942208933178335e-05,1.8713254803515156e-06,0.0,-0.0191364903002977,-0.013359255157411,0.3519869744777679,0.3923357725143432,,,,,,,,,,,,,,,,,,,,,,,,,,,,,,,,,,,,,,,,,,,,,,,,,,,,,,,,,,,,,,,,,,,,,,,,,,
3,1.1583647727966309,0.6077624559402466,1.5726872682571411,0.3874464026093483,0.0,-3.142769151924065,-0.0014527902239933,0.5247772336006165,0.5244536995887756,0.6108640432357788,1.5707966089248655,0.3899990311264992,0.0,-3.1416135370711595,-1.8478023775969632e-05,0.522572934627533,0.5224595665931702,,,,,,,,,,,,,,,,,,,,,,,,,,,,,,,,,,,,,,,,,,,,,,,,,,,,,,,,,,,,,,,,,,,,,,,,,,,,,,,,,,,,,,,,,,,,,,,,,,,,,,,,,,,,,,,,,,,,,,,,,,,,,,,,,,,,,,-2.577615305199288e-05,1.390656689181924e-05,-4.215570515953005e-05,0.0,0.0084292814135551,0.0150684183463454,-0.2069902867078781,-0.1966178566217422,1.2424322903825669e-07,2.741697926467168e-07,-6.063801549771597e-08,0.0,0.0003437603882048,0.0003099533496424,0.1138514652848243,0.1121641844511032,,,,,,,,,,,,,,,,,,,,,,,,,,,,,,,,,,,,,,,,,,,,,,,,,,,,,,,,,,,,,,,,,,,,,,,,,,
4,1.1803867816925049,0.6077615022659302,1.5726878643035889,0.3874450391530991,0.0,-3.1425675094107897,-0.0012049317592754,0.5205135345458984,0.520388662815094,0.6108640432357788,1.5707966089248655,0.3899990311264992,0.0,-3.1416135370711595,-1.8478023775969632e-05,0.522572934627533,0.5224595665931702,,,,,,,,,,,,,,,,,,,,,,,,,,,,,,,,,,,,,,,,,,,,,,,,,,,,,,,,,,,,,,,,,,,,,,,,,,,,,,,,,,,,,,,,,,,,,,,,,,,,,,,,,,,,,,,,,,,,,,,,,,,,,,,,,,,,,,-2.3174343368737027e-05,1.4093936442804988e-05,-3.4714219509623945e-05,0.0,0.0048376163467764,0.0060494146309792,-0.1031926423311233,-0.1025800034403801,1.2424322903825669e-07,2.741697926467168e-07,-6.063801549771597e-08,0.0,0.0003437603882048,0.0003099533496424,0.1138514652848243,0.1121641844511032,,,,,,,,,,,,,,,,,,,,,,,,,,,,,,,,,,,,,,,,,,,,,,,,,,,,,,,,,,,,,,,,,,,,,,,,,,
5,1.2017698287963867,0.6077615022659302,1.5726878643035889,0.3874450391530991,0.0,-3.1425675094107897,-0.0012049317592754,0.5205135345458984,0.520388662815094,0.6108640432357788,1.5707966089248655,0.3899990311264992,0.0,-3.141609722373894,-1.539681397844106e-05,0.5186625123023987,0.5185710787773132,,,,,,,,,,,,,,,,,,,,,,,,,,,,,,,,,,,,,,,,,,,,,,,,,,,,,,,,,,,,,,,,,,,,,,,,,,,,,,,,,,,,,,,,,,,,,,,,,,,,,,,,,,,,,,,,,,,,,,,,,,,,,,,,,,,,,,-2.3174343368737027e-05,1.4093936442804988e-05,-3.4714219509623945e-05,0.0,0.0048376163467764,0.0060494146309792,-0.1031926423311233,-0.1025800034403801,-3.802458348189931e-09,-9.133027845109609e-08,-8.776396498433314e-09,0.0,7.999733497854322e-05,8.089761104201898e-05,0.0938889533281326,0.0933868065476417,,,,,,,,,,,,,,,,,,,,,,,,,,,,,,,,,,,,,,,,,,,,,,,,,,,,,,,,,,,,,,,,,,,,,,,,,,
6,1.2240495681762695,0.6077607274055481,1.572688341140747,0.3874438470602035,0.0,-3.142398947475365,-0.000996321788989,0.5169599056243896,0.5168582797050476,0.6108640432357788,1.5707966089248655,0.3899990311264992,0.0,-3.1416066825370104,-1.2640412933251357e-05,0.5155849456787109,0.5155100226402283,,,,,,,,,,,,,,,,,,,,,,,,,,,,,,,,,,,,,,,,,,,,,,,,,,,,,,,,,,,,,,,,,,,,,,,,,,,,,,,,,,,,,,,,,,,,,,,,,,,,,,,,,,,,,,,,,,,,,,,,,,,,,,,,,,,,,,-1.9156464986735955e-05,1.1614965842454694e-05,-2.8703119824058376e-05,0.0,0.0040560187771916,0.0050117704086005,-0.0853337943553924,-0.0847641378641128,-1.1057821325266559e-10,-7.108747013262473e-08,-7.323204709308584e-09,0.0,7.853388524381444e-05,7.020848715910688e-05,0.0784080326557159,0.077991671860218,,,,,,,,,,,,,,,,,,,,,,,,,,,,,,,,,,,,,,,,,,,,,,,,,,,,,,,,,,,,,,,,,,,,,,,,,,
7,1.2451984882354736,0.6077601313591003,1.5726886987686155,0.3874429529905319,0.0,-3.1422727644423754,-0.0008404090185649,0.5143053531646729,0.5142213106155396,0.6108640432357788,1.5707966089248655,0.3899990311264992,0.0,-3.1416066825370104,-1.2640412933251357e-05,0.5155849456787109,0.5155100226402283,,,,,,,,,,,,,,,,,,,,,,,,,,,,,,,,,,,,,,,,,,,,,,,,,,,,,,,,,,,,,,,,,,,,,,,,,,,,,,,,,,,,,,,,,,,,,,,,,,,,,,,,,,,,,,,,,,,,,,,,,,,,,,,,,,,,,,-1.6160041923285462e-05,9.80034292297205e-06,-2.4205288355005905e-05,0.0,0.0034205426927655,0.0042277174070477,-0.0719776451587677,-0.0715051442384719,-1.1057821325266559e-10,-7.108747013262473e-08,-7.323204709308584e-09,0.0,7.853388524381444e-05,7.020848715910688e-05,0.0784080326557159,0.077991671860218,,,,,,,,,,,,,,,,,,,,,,,,,,,,,,,,,,,,,,,,,,,,,,,,,,,,,,,,,,,,,,,,,,,,,,,,,,
8,1.2665276527404783,0.6077601313591003,1.5726886987686155,0.3874429529905319,0.0,-3.1422727644423754,-0.0008404090185649,0.5143053531646729,0.5142213106155396,0.6108640432357788,1.5707966089248655,0.3899990311264992,0.0,-3.14160405993264,-1.024742869049078e-05,0.5128852725028992,0.5128244757652283,,,,,,,,,,,,,,,,,,,,,,,,,,,,,,,,,,,,,,,,,,,,,,,,,,,,,,,,,,,,,,,,,,,,,,,,,,,,,,,,,,,,,,,,,,,,,,,,,,,,,,,,,,,,,,,,,,,,,,,,,,,,,,,,,,,,,,-1.6160041923285462e-05,9.80034292297205e-06,-2.4205288355005905e-05,0.0,0.0034205426927655,0.0042277174070477,-0.0719776451587677,-0.0715051442384719,-1.6298074001497298e-10,-5.757861032407163e-08,-5.997015328773614e-09,0.0,6.331715121632442e-05,5.695518120774068e-05,0.0648258030414581,0.0644875764846801,,,,,,,,,,,,,,,,,,,,,,,,,,,,,,,,,,,,,,,,,,,,,,,,,,,,,,,,,,,,,,,,,,,,,,,,,,
9,1.2877273559570312,0.6077595949172974,1.5726889371871948,0.387442155778408,0.0,-3.142160648105553,-0.0007018314790911,0.5119461417198181,0.5118773579597473,0.6108640432357788,1.5707966089248655,0.3899990311264992,0.0,-3.14160405993264,-1.024742869049078e-05,0.5128852725028992,0.5128244757652283,,,,,,,,,,,,,,,,,,,,,,,,,,,,,,,,,,,,,,,,,,,,,,,,,,,,,,,,,,,,,,,,,,,,,,,,,,,,,,,,,,,,,,,,,,,,,,,,,,,,,,,,,,,,,,,,,,,,,,,,,,,,,,,,,,,,,,-1.349645299342228e-05,8.187174898921512e-06,-2.020867214014288e-05,0.0,0.0028566138353198,0.0035306178033351,-0.06010702252388,-0.0597198531031608,-1.6298074001497298e-10,-5.757861032407163e-08,-5.997015328773614e-09,0.0,6.331715121632442e-05,5.695518120774068e-05,0.0648258030414581,0.0644875764846801,,,,,,,,,,,,,,,,,,,,,,,,,,,,,,,,,,,,,,,,,,,,,,,,,,,,,,,,,,,,,,,,,,,,,,,,,,
10,1.309643268585205,0.6077591776847839,1.572689175605774,0.3874415299296379,0.0,-3.1420717775801927,-0.0005920007824897,0.5100763440132141,0.5100195407867432,0.6108640432357788,1.5707966089248655,0.3899990311264992,0.0,-3.1416018545607836,-8.303972208523192e-06,0.5106531977653503,0.5106039643287659,,,,,,,,,,,,,,,,,,,,,,,,,,,,,,,,,,,,,,,,,,,,,,,,,,,,,,,,,,,,,,,,,,,,,,,,,,,,,,,,,,,,,,,,,,,,,,,,,,,,,,,,,,,,,,,,,,,,,,,,,,,,,,,,,,,,,,-1.138524658017559e-05,6.90818660586956e-06,-1.704195346974302e-05,0.0,0.0024096469860523,0.0029781197663396,-0.0506992153823375,-0.0503785498440265,-2.0361490271625368e-10,-4.66948719690663e-08,-4.915436058183786e-09,0.0,5.1392165914876387e-05,4.625927977031097e-05,0.0535963512957096,0.0533217974007129,,,,,,,,,,,,,,,,,,,,,,,,,,,,,,,,,,,,,,,,,,,,,,,,,,,,,,,,,,,,,,,,,,,,,,,,,,
11,1.331562042236328,0.6077591776847839,1.572689175605774,0.3874415299296379,0.0,-3.1420717775801927,-0.0005920007824897,0.5100763440132141,0.5100195407867432,0.6108640432357788,1.5707966089248655,0.3899990311264992,0.0,-3.1416018545607836,-8.303972208523192e-06,0.5106531977653503,0.5106039643287659,,,,,,,,,,,,,,,,,,,,,,,,,,,,,,,,,,,,,,,,,,,,,,,,,,,,,,,,,,,,,,,,,,,,,,,,,,,,,,,,,,,,,,,,,,,,,,,,,,,,,,,,,,,,,,,,,,,,,,,,,,,,,,,,,,,,,,-1.138524658017559e-05,6.90818660586956e-06,-1.704195346974302e-05,0.0,0.0024096469860523,0.0029781197663396,-0.0506992153823375,-0.0503785498440265,-2.0361490271625368e-10,-4.66948719690663e-08,-4.915436058183786e-09,0.0,5.1392165914876387e-05,4.625927977031097e-05,0.0535963512957096,0.0533217974007129,,,,,,,,,,,,,,,,,,,,,,,,,,,,,,,,,,,,,,,,,,,,,,,,,,,,,,,,,,,,,,,,,,,,,,,,,,
12,1.353119134902954,0.6077587604522705,1.572689414024353,0.3874409413337707,0.0,-3.1419888079146654,-0.0004894586163572,0.5083307027816772,0.5082848072052002,0.6108640432357788,1.5707966089248655,0.3899990311264992,0.0,-3.14160018563073,-6.801008112233831e-06,0.5088964104652405,0.5088561177253723,,,,,,,,,,,,,,,,,,,,,,,,,,,,,,,,,,,,,,,,,,,,,,,,,,,,,,,,,,,,,,,,,,,,,,,,,,,,,,,,,,,,,,,,,,,,,,,,,,,,,,,,,,,,,,,,,,,,,,,,,,,,,,,,,,,,,,-9.413990483153611e-06,5.713658083550399e-06,-1.4086172996030656e-05,0.0,0.0019923374056816,0.0024622816126793,-0.0419160462915897,-0.0416563898324966,-2.2687407508215071e-10,-3.8281712022580905e-08,-4.0741161555502e-09,0.0,4.2152489186264575e-05,3.7968486140016466e-05,0.0447579883038997,0.0445327386260032,,,,,,,,,,,,,,,,,,,,,,,,,,,,,,,,,,,,,,,,,,,,,,,,,,,,,,,,,,,,,,,,,,,,,,,,,,
13,1.3740620613098145,0.6077587604522705,1.572689414024353,0.3874409413337707,0.0,-3.1419888079146654,-0.0004894586163572,0.5083307027816772,0.5082848072052002,0.6108640432357788,1.5707966089248655,0.3899990311264992,0.0,-3.1415988147239,-5.567657808569493e-06,0.5074293613433838,0.5073963403701782,,,,,,,,,,,,,,,,,,,,,,,,,,,,,,,,,,,,,,,,,,,,,,,,,,,,,,,,,,,,,,,,,,,,,,,,,,,,,,,,,,,,,,,,,,,,,,,,,,,,,,,,,,,,,,,,,,,,,,,,,,,,,,,,,,,,,,-9.413990483153611e-06,5.713658083550399e-06,-1.4086172996030656e-05,0.0,0.0019923374056816,0.0024622816126793,-0.0419160462915897,-0.0416563898324966,-2.3803181647963356e-10,-3.138145387993063e-08,-3.378651580732139e-09,0.0,3.4563196095405146e-05,3.11514813802205e-05,0.0373771227896213,0.0371923819184303,,,,,,,,,,,,,,,,,,,,,,,,,,,,,,,,,,,,,,,,,,,,,,,,,,,,,,,,,,,,,,,,,,,,,,,,,,
14,1.3949718475341797,0.6077584624290466,1.572689652442932,0.3874404570460319,0.0,-3.141920202968529,-0.0004046778194606,0.5068874955177307,0.5068504810333252,0.6108640432357788,1.5707966089248655,0.3899990311264992,0.0,-3.1415988147239,-5.567657808569493e-06,0.5074293613433838,0.5073963403701782,,,,,,,,,,,,,,,,,,,,,,,,,,,,,,,,,,,,,,,,,,,,,,,,,,,,,,,,,,,,,,,,,,,,,,,,,,,,,,,,,,,,,,,,,,,,,,,,,,,,,,,,,,,,,,,,,,,,,,,,,,,,,,,,,,,,,,-7.784039553371258e-06,4.7256726247724146e-06,-1.1643048310361335e-05,0.0,0.0016473034629598,0.0020357884932309,-0.0346544794738292,-0.0344443134963512,-2.3803181647963356e-10,-3.138145387993063e-08,-3.378651580732139e-09,0.0,3.4563196095405146e-05,3.11514813802205e-05,0.0373771227896213,0.0371923819184303,,,,,,,,,,,,,,,,,,,,,,,,,,,,,,,,,,,,,,,,,,,,,,,,,,,,,,,,,,,,,,,,,,,,,,,,,,
15,1.4164268970489502,0.6077584624290466,1.572689652442932,0.3874404570460319,0.0,-3.141920202968529,-0.0004046778194606,0.5068874955177307,0.5068504810333252,0.6108640432357788,1.5707966089248655,0.3899990311264992,0.0,-3.141597741840294,-4.555949999485165e-06,0.5062041878700256,0.5061772465705872,,,,,,,,,,,,,,,,,,,,,,,,,,,,,,,,,,,,,,,,,,,,,,,,,,,,,,,,,,,,,,,,,,,,,,,,,,,,,,,,,,,,,,,,,,,,,,,,,,,,,,,,,,,,,,,,,,,,,,,,,,,,,,,,,,,,,,-7.784039553371258e-06,4.7256726247724146e-06,-1.1643048310361335e-05,0.0,0.0016473034629598,0.0020357884932309,-0.0346544794738292,-0.0344443134963512,-2.403632848313464e-10,-2.572164703451563e-08,-2.803091092573595e-09,0.0,2.8330912755336612e-05,2.5548421035637148e-05,0.0312134064733982,0.0310619436204433,,,,,,,,,,,,,,,,,,,,,,,,,,,,,,,,,,,,,,,,,,,,,,,,,,,,,,,,,,,,,,,,,,,,,,,,,,
16,1.4378933906555176,0.6077581644058228,1.5726897716522217,0.3874400547146797,0.0,-3.1418635189513475,-0.0003345819714013,0.5056942701339722,0.5056644082069397,0.6108640432357788,1.5707966089248655,0.3899990311264992,0.0,-3.141597741840294,-4.555949999485165e-06,0.5062041878700256,0.5061772465705872,,,,,,,,,,,,,,,,,,,,,,,,,,,,,,,,,,,,,,,,,,,,,,,,,,,,,,,,,,,,,,,,,,,,,,,,,,,,,,,,,,,,,,,,,,,,,,,,,,,,,,,,,,,,,,,,,,,,,,,,,,,,,,,,,,,,,,-6.436298917833483e-06,3.9085198295651935e-06,-9.62366357271094e-06,0.0,0.001362025970593,0.0016831663670018,-0.0286509096622467,-0.0284808836877346,-2.403632848313464e-10,-2.572164703451563e-08,-2.803091092573595e-09,0.0,2.8330912755336612e-05,2.5548421035637148e-05,0.0312134064733982,0.0310619436204433,,,,,,,,,,,,,,,,,,,,,,,,,,,,,,,,,,,,,,,,,,,,,,,,,,,,,,,,,,,,,,,,,,,,,,,,,,
17,1.4585585594177246,0.6077579855918884,1.5726898908615112,0.3874397566914558,0.0,-3.141821140048912,-0.00028222205583,0.5048030614852905,0.5047783851623535,0.6108640432357788,1.5707966089248655,0.3899990311264992,0.0,-3.141596728561333,-3.6849505704594776e-06,0.5051294565200806,0.5051076412200928,,,,,,,,,,,,,,,,,,,,,,,,,,,,,,,,,,,,,,,,,,,,,,,,,,,,,,,,,,,,,,,,,,,,,,,,,,,,,,,,,,,,,,,,,,,,,,,,,,,,,,,,,,,,,,,,,,,,,,,,,,,,,,,,,,,,,,-5.4294873734761495e-06,3.2979160096147098e-06,-8.115629498206545e-06,0.0,0.0011489241151139,0.0014197647105902,-0.0241665374487638,-0.024025933817029,-2.3542279237176444e-10,-2.0847213733077297e-08,-2.302623425265437e-09,0.0,2.295867852808442e-05,2.0714724087156355e-05,0.0258064586669206,0.0256836879998445,,,,,,,,,,,,,,,,,,,,,,,,,,,,,,,,,,,,,,,,,,,,,,,,,,,,,,,,,,,,,,,,,,,,,,,,,,
18,1.4809789657592771,0.6077579855918884,1.5726898908615112,0.3874397566914558,0.0,-3.141821140048912,-0.00028222205583,0.5048030614852905,0.5047783851623535,0.6108640432357788,1.5707966089248655,0.3899990311264992,0.0,-3.1415960133055956,-3.0124783734208904e-06,0.504283607006073,0.5042657852172852,,,,,,,,,,,,,,,,,,,,,,,,,,,,,,,,,,,,,,,,,,,,,,,,,,,,,,,,,,,,,,,,,,,,,,,,,,,,,,,,,,,,,,,,,,,,,,,,,,,,,,,,,,,,,,,,,,,,,,,,,,,,,,,,,,,,,,-5.4294873734761495e-06,3.2979160096147098e-06,-8.115629498206545e-06,0.0,0.0011489241151139,0.0014197647105902,-0.0241665374487638,-0.024025933817029,-2.259858966624506e-10,-1.708067109973399e-08,-1.911755420636041e-09,0.0,1.8805205399985425e-05,1.6974983736872673e-05,0.021550815552473,0.0214502327144145,,,,,,,,,,,,,,,,,,,,,,,,,,,,,,,,,,,,,,,,,,,,,,,,,,,,,,,,,,,,,,,,,,,,,,,,,,
19,1.5024473667144775,0.6077578067779541,1.5726900100708008,0.3874394810199738,0.0,-3.141781562564782,-0.0002333370503038,0.5039709806442261,0.5039510726928711,0.6108640432357788,1.5707966089248655,0.3899990311264992,0.0,-3.1415960133055956,-3.0124783734208904e-06,0.504283607006073,0.5042657852172852,,,,,,,,,,,,,,,,,,,,,,,,,,,,,,,,,,,,,,,,,,,,,,,,,,,,,,,,,,,,,,,,,,,,,,,,,,,,,,,,,,,,,,,,,,,,,,,,,,,,,,,,,,,,,,,,,,,,,,,,,,,,,,,,,,,,,,-4.489417278819019e-06,2.7276412311039167e-06,-6.708046385028865e-06,0.0,0.0009499583975411,0.0011738429311662,-0.0199799071997404,-0.0198662616312503,-2.259858966624506e-10,-1.708067109973399e-08,-1.911755420636041e-09,0.0,1.8805205399985425e-05,1.6974983736872673e-05,0.021550815552473,0.0214502327144145,,,,,,,,,,,,,,,,,,,,,,,,,,,,,,,,,,,,,,,,,,,,,,,,,,,,,,,,,,,,,,,,,,,,,,,,,,
20,1.5241341590881348,0.6077578067779541,1.5726900100708008,0.3874394810199738,0.0,-3.141781562564782,-0.0002333370503038,0.5039709806442261,0.5039510726928711,0.6108640432357788,1.5707966089248655,0.3899990311264992,0.0,-3.141595417259148,-2.461525809849263e-06,0.5035772323608398,0.5035626292228699,,,,,,,,,,,,,,,,,,,,,,,,,,,,,,,,,,,,,,,,,,,,,,,,,,,,,,,,,,,,,,,,,,,,,,,,,,,,,,,,,,,,,,,,,,,,,,,,,,,,,,,,,,,,,,,,,,,,,,,,,,,,,,,,,,,,,,-4.489417278819019e-06,2.7276412311039167e-06,-6.708046385028865e-06,0.0,0.0009499583975411,0.0011738429311662,-0.0199799071997404,-0.0198662616312503,-2.1388446569403638e-10,-1.3991474645536073e-08,-1.5876466807895895e-09,0.0,1.5397341485368088e-05,1.3904718798585236e-05,0.0179969538003206,0.0179145783185958,,,,,,,,,,,,,,,,,,,,,,,,,,,,,,,,,,,,,,,,,,,,,,,,,,,,,,,,,,,,,,,,,,,,,,,,,,
21,1.5458085536956787,0.6077576279640198,1.5726901292800903,0.3874392500519752,0.0,-3.1417488396147997,-0.0001929195714183,0.5032830238342285,0.5032670497894287,0.6108640432357788,1.5707966089248655,0.3899990311264992,0.0,-3.141595417259148,-2.461525809849263e-06,0.5035772323608398,0.5035626292228699,,,,,,,,,,,,,,,,,,,,,,,,,,,,,,,,,,,,,,,,,,,,,,,,,,,,,,,,,,,,,,,,,,,,,,,,,,,,,,,,,,,,,,,,,,,,,,,,,,,,,,,,,,,,,,,,,,,,,,,,,,,,,,,,,,,,,,-3.7121119476069e-06,2.255976141896099e-06,-5.544595751416637e-06,0.0,0.000785449752584,0.0009705174015834,-0.016518572345376,-0.0164267625659704,-2.1388446569403638e-10,-1.3991474645536073e-08,-1.5876466807895895e-09,0.0,1.5397341485368088e-05,1.3904718798585236e-05,0.0179969538003206,0.0179145783185958,,,,,,,,,,,,,,,,,,,,,,,,,,,,,,,,,,,,,,,,,,,,,,,,,,,,,,,,,,,,,,,,,,,,,,,,,,
22,1.5680592060089111,0.6077576279640198,1.5726901292800903,0.3874392500519752,0.0,-3.1417488396147997,-0.0001929195714183,0.5032830238342285,0.5032670497894287,0.6108640432357788,1.5707966089248655,0.3899990311264992,0.0,-3.141594880817345,-2.010320031331503e-06,0.5029873251914978,0.5029754042625427,,,,,,,,,,,,,,,,,,,,,,,,,,,,,,,,,,,,,,,,,,,,,,,,,,,,,,,,,,,,,,,,,,,,,,,,,,,,,,,,,,,,,,,,,,,,,,,,,,,,,,,,,,,,,,,,,,,,,,,,,,,,,,,,,,,,,,-3.7121119476069e-06,2.255976141896099e-06,-5.544595751416637e-06,0.0,0.000785449752584,0.0009705174015834,-0.016518572345376,-0.0164267625659704,-1.9939605522267811e-10,-1.1457834681039005e-08,-1.3187992919938551e-09,0.0,1.2602099559444468e-05,1.1385014659026638e-05,0.0150291444733738,0.0149617092683911,,,,,,,,,,,,,,,,,,,,,,,,,,,,,,,,,,,,,,,,,,,,,,,,,,,,,,,,,,,,,,,,,,,,,,,,,,
23,1.5894453525543213,0.6077575087547302,1.57269024848938,0.3874390563368797,0.0,-3.1417217791060716,-0.0001595029752934,0.5027142763137817,0.5027014017105103,0.6108640432357788,1.5707966089248655,0.3899990311264992,0.0,-3.1415944635848314,-1.6409587715315863e-06,0.5024946928024292,0.5024849772453308,,,,,,,,,,,,,,,,,,,,,,,,,,,,,,,,,,,,,,,,,,,,,,,,,,,,,,,,,,,,,,,,,,,,,,,,,,,,,,,,,,,,,,,,,,,,,,,,,,,,,,,,,,,,,,,,,,,,,,,,,,,,,,,,,,,,,,-3.0693904591316823e-06,1.865869762696093e-06,-4.5829356167814694e-06,0.0,0.0006494305562227,0.000802410126198,-0.0136568825691938,-0.0135827530175447,-1.8407497748285095e-10,-9.380607401965337e-09,-1.0956999751954301e-09,0.0,1.0310081961506512e-05,9.317913281847725e-06,0.0125507451593875,0.012495563365519,,,,,,,,,,,,,,,,,,,,,,,,,,,,,,,,,,,,,,,,,,,,,,,,,,,,,,,,,,,,,,,,,,,,,,,,,,
24,1.610565423965454,0.6077574491500854,1.57269024848938,0.3874389147758484,0.0,-3.141701573131493,-0.0001345416385447,0.5022894144058228,0.5022788643836975,0.6108640432357788,1.5707966089248655,0.3899990311264992,0.0,-3.1415944635848314,-1.6409587715315863e-06,0.5024946928024292,0.5024849772453308,,,,,,,,,,,,,,,,,,,,,,,,,,,,,,,,,,,,,,,,,,,,,,,,,,,,,,,,,,,,,,,,,,,,,,,,,,,,,,,,,,,,,,,,,,,,,,,,,,,,,,,,,,,,,,,,,,,,,,,,,,,,,,,,,,,,,,-2.589254108897876e-06,1.5743719359306851e-06,-3.864787686325144e-06,0.0,0.0005478234379552,0.0006768380408175,-0.0115193389356136,-0.0114581519737839,-1.8407497748285095e-10,-9.380607401965337e-09,-1.0956999751954301e-09,0.0,1.0310081961506512e-05,9.317913281847725e-06,0.0125507451593875,0.012495563365519,,,,,,,,,,,,,,,,,,,,,,,,,,,,,,,,,,,,,,,,,,,,,,,,,,,,,,,,,,,,,,,,,,,,,,,,,,
25,1.631551742553711,0.6077574491500854,1.57269024848938,0.3874389147758484,0.0,-3.141701573131493,-0.0001345416385447,0.5022894144058228,0.5022788643836975,0.6108640432357788,1.5707966089248655,0.3899990311264992,0.0,-3.1415941655616075,-1.3387279977905564e-06,0.5020833015441895,0.5020753741264343,,,,,,,,,,,,,,,,,,,,,,,,,,,,,,,,,,,,,,,,,,,,,,,,,,,,,,,,,,,,,,,,,,,,,,,,,,,,,,,,,,,,,,,,,,,,,,,,,,,,,,,,,,,,,,,,,,,,,,,,,,,,,,,,,,,,,,-2.589254108897876e-06,1.5743719359306851e-06,-3.864787686325144e-06,0.0,0.0005478234379552,0.0006768380408175,-0.0115193389356136,-0.0114581519737839,-1.6853185513809876e-10,-7.676970170678032e-09,-9.104592080255711e-10,0.0,8.431322385149542e-06,7.622753400937654e-06,0.0104810493066906,0.0104359127581119,,,,,,,,,,,,,,,,,,,,,,,,,,,,,,,,,,,,,,,,,,,,,,,,,,,,,,,,,,,,,,,,,,,,,,,,,,
26,1.6536369323730469,0.6077573299407959,1.5726903676986694,0.3874387806653976,0.0,-3.141682738063744,-0.0001112369354814,0.5018928050994873,0.5018842816352844,0.6108640432357788,1.5707966089248655,0.3899990311264992,0.0,-3.1415941655616075,-1.3387279977905564e-06,0.5020833015441895,0.5020753741264343,,,,,,,,,,,,,,,,,,,,,,,,,,,,,,,,,,,,,,,,,,,,,,,,,,,,,,,,,,,,,,,,,,,,,,,,,,,,,,,,,,,,,,,,,,,,,,,,,,,,,,,,,,,,,,,,,,,,,,,,,,,,,,,,,,,,,,-2.1409462078736397e-06,1.3021279983149725e-06,-3.1944750844559167e-06,0.0,0.0004529555735643,0.0005595997208729,-0.009523719549179,-0.0094743706285953,-1.6853185513809876e-10,-7.676970170678032e-09,-9.104592080255711e-10,0.0,8.431322385149542e-06,7.622753400937654e-06,0.0104810493066906,0.0104359127581119,,,,,,,,,,,,,,,,,,,,,,,,,,,,,,,,,,,,,,,,,,,,,,,,,,,,,,,,,,,,,,,,,,,,,,,,,,
27,1.6753759384155271,0.6077573299407959,1.5726903676986694,0.3874387806653976,0.0,-3.141682738063744,-0.0001112369354814,0.5018928050994873,0.5018842816352844,0.6108640432357788,1.5707966089248655,0.3899990311264992,0.0,-3.1415938675383837,-1.091537797037745e-06,0.5017397403717041,0.5017333030700684,,,,,,,,,,,,,,,,,,,,,,,,,,,,,,,,,,,,,,,,,,,,,,,,,,,,,,,,,,,,,,,,,,,,,,,,,,,,,,,,,,,,,,,,,,,,,,,,,,,,,,,,,,,,,,,,,,,,,,,,,,,,,,,,,,,,,,-2.1409462078736397e-06,1.3021279983149725e-06,-3.1944750844559167e-06,0.0,0.0004529555735643,0.0005595997208729,-0.009523719549179,-0.0094743706285953,-1.5343282200319663e-10,-6.280864717211898e-09,-7.565753579186206e-10,0.0,6.8918429860787e-06,6.233140084077604e-06,0.008752659894526,0.0087157553061842,,,,,,,,,,,,,,,,,,,,,,,,,,,,,,,,,,,,,,,,,,,,,,,,,,,,,,,,,,,,,,,,,,,,,,,,,,
28,1.6972451210021973,0.6077572703361511,1.5726903676986694,0.3874386689066887,0.0,-3.1416671216468126,-9.196895553031936e-05,0.5015649199485779,0.5015580654144287,0.6108640432357788,1.5707966089248655,0.3899990311264992,0.0,-3.141593629119805,-8.89458362962614e-07,0.5014528632164001,0.5014475584030151,,,,,,,,,,,,,,,,,,,,,,,,,,,,,,,,,,,,,,,,,,,,,,,,,,,,,,,,,,,,,,,,,,,,,,,,,,,,,,,,,,,,,,,,,,,,,,,,,,,,,,,,,,,,,,,,,,,,,,,,,,,,,,,,,,,,,,-1.770258677424863e-06,1.0769607570182416e-06,-2.6404225081932964e-06,0.0,0.0003745164431165,0.0004626686568371,-0.0078738229349255,-0.0078340461477637,-1.3833378886829448e-10,-5.136557845730749e-09,-6.288580767233043e-10,0.0,5.630831765301991e-06,5.094443167763529e-06,0.0073092919774353,0.0072791329585015,,,,,,,,,,,,,,,,,,,,,,,,,,,,,,,,,,,,,,,,,,,,,,,,,,,,,,,,,,,,,,,,,,,,,,,,,,
29,1.718549728393555,0.6077572107315063,1.5726903676986694,0.3874385869503021,0.0,-3.141654843089989,-7.680353155592456e-05,0.5013068318367004,0.5013012886047363,0.6108640432357788,1.5707966089248655,0.3899990311264992,0.0,-3.141593629119805,-8.89458362962614e-07,0.5014528632164001,0.5014475584030151,,,,,,,,,,,,,,,,,,,,,,,,,,,,,,,,,,,,,,,,,,,,,,,,,,,,,,,,,,,,,,,,,,,,,,,,,,,,,,,,,,,,,,,,,,,,,,,,,,,,,,,,,,,,,,,,,,,,,,,,,,,,,,,,,,,,,,-1.4784735640205326e-06,8.996746601042105e-07,-2.204455540777417e-06,0.0,0.0003127756644971,0.0003863761376123,-0.0065752635709941,-0.0065428563393652,-1.3833378886829448e-10,-5.136557845730749e-09,-6.288580767233043e-10,0.0,5.630831765301991e-06,5.094443167763529e-06,0.0073092919774353,0.0072791329585015,,,,,,,,,,,,,,,,,,,,,,,,,,,,,,,,,,,,,,,,,,,,,,,,,,,,,,,,,,,,,,,,,,,,,,,,,,
30,1.7401387691497805,0.6077572107315063,1.5726903676986694,0.3874385869503021,0.0,-3.141654843089989,-7.680353155592456e-05,0.5013068318367004,0.5013012886047363,0.6108640432357788,1.5707966089248655,0.3899990311264992,0.0,-3.1415934503058702,-7.161065127547772e-07,0.5012011528015137,0.5011969208717346,,,,,,,,,,,,,,,,,,,,,,,,,,,,,,,,,,,,,,,,,,,,,,,,,,,,,,,,,,,,,,,,,,,,,,,,,,,,,,,,,,,,,,,,,,,,,,,,,,,,,,,,,,,,,,,,,,,,,,,,,,,,,,,,,,,,,,-1.4784735640205326e-06,8.996746601042105e-07,-2.204455540777417e-06,0.0,0.0003127756644971,0.0003863761376123,-0.0065752635709941,-0.0065428563393652,-1.2356782264077992e-10,-4.152345134400548e-09,-5.172737238545722e-10,0.0,4.54678047390189e-06,4.115172487217933e-06,0.0060431379824876,0.0060187787748873,,,,,,,,,,,,,,,,,,,,,,,,,,,,,,,,,,,,,,,,,,,,,,,,,,,,,,,,,,,,,,,,,,,,,,,,,,
31,1.7621924877166748,0.6077571511268616,1.572690486907959,0.3874385124444962,0.0,-3.1416445910910875,-6.413883966160938e-05,0.5010913014411926,0.5010867714881897,0.6108640432357788,1.5707966089248655,0.3899990311264992,0.0,-3.1415934503058702,-7.161065127547772e-07,0.5012011528015137,0.5011969208717346,,,,,,,,,,,,,,,,,,,,,,,,,,,,,,,,,,,,,,,,,,,,,,,,,,,,,,,,,,,,,,,,,,,,,,,,,,,,,,,,,,,,,,,,,,,,,,,,,,,,,,,,,,,,,,,,,,,,,,,,,,,,,,,,,,,,,,-1.2347818483249284e-06,7.515725997109257e-07,-1.8404722368359216e-06,0.0,0.000261213252088,0.0003226639528293,-0.0054908636957407,-0.0054644769988954,-1.2356782264077992e-10,-4.152345134400548e-09,-5.172737238545722e-10,0.0,4.54678047390189e-06,4.115172487217933e-06,0.0060431379824876,0.0060187787748873,,,,,,,,,,,,,,,,,,,,,,,,,,,,,,,,,,,,,,,,,,,,,,,,,,,,,,,,,,,,,,,,,,,,,,,,,,
32,1.7830171585083008,0.6077571511268616,1.572690486907959,0.3874385124444962,0.0,-3.1416445910910875,-6.413883966160938e-05,0.5010913014411926,0.5010867714881897,0.6108640432357788,1.5707966089248655,0.3899990311264992,0.0,-3.1415933310965807,-5.76117145101307e-07,0.5009931325912476,0.5009896755218506,,,,,,,,,,,,,,,,,,,,,,,,,,,,,,,,,,,,,,,,,,,,,,,,,,,,,,,,,,,,,,,,,,,,,,,,,,,,,,,,,,,,,,,,,,,,,,,,,,,,,,,,,,,,,,,,,,,,,,,,,,,,,,,,,,,,,,-1.2347818483249284e-06,7.515725997109257e-07,-1.8404722368359216e-06,0.0,0.000261213252088,0.0003226639528293,-0.0054908636957407,-0.0054644769988954,-1.0991207943789048e-10,-3.355093980417223e-09,-4.2564562985347715e-10,0.0,3.66933886652987e-06,3.3222484034922672e-06,0.0049963141791522,0.0049766502343118,,,,,,,,,,,,,,,,,,,,,,,,,,,,,,,,,,,,,,,,,,,,,,,,,,,,,,,,,,,,,,,,,,,,,,,,,,
33,1.8043029308319092,0.6077570915222168,1.572690486907959,0.3874384528398514,0.0,-3.1416360676268846,-5.3562518587568775e-05,0.500911295413971,0.5009076595306396,0.6108640432357788,1.5707966089248655,0.3899990311264992,0.0,-3.1415933310965807,-5.76117145101307e-07,0.5009931325912476,0.5009896755218506,,,,,,,,,,,,,,,,,,,,,,,,,,,,,,,,,,,,,,,,,,,,,,,,,,,,,,,,,,,,,,,,,,,,,,,,,,,,,,,,,,,,,,,,,,,,,,,,,,,,,,,,,,,,,,,,,,,,,,,,,,,,,,,,,,,,,,-1.0312572840120993e-06,6.278503406065283e-07,-1.5365872059192045e-06,0.0,0.0002181511808885,0.0002694576396606,-0.004585304763168,-0.0045638340525329,-1.0991207943789048e-10,-3.355093980417223e-09,-4.2564562985347715e-10,0.0,3.66933886652987e-06,3.3222484034922672e-06,0.0049963141791522,0.0049766502343118,,,,,,,,,,,,,,,,,,,,,,,,,,,,,,,,,,,,,,,,,,,,,,,,,,,,,,,,,,,,,,,,,,,,,,,,,,
34,1.8255507946014404,0.6077570915222168,1.572690486907959,0.3874384006857872,0.0,-3.1416289150695116,-4.473020089790225e-05,0.5007610321044922,0.5007580518722534,0.6108640432357788,1.5707966089248655,0.3899990311264992,0.0,-3.141593211887291,-4.631353363038216e-07,0.500821053981781,0.5008183121681213,,,,,,,,,,,,,,,,,,,,,,,,,,,,,,,,,,,,,,,,,,,,,,,,,,,,,,,,,,,,,,,,,,,,,,,,,,,,,,,,,,,,,,,,,,,,,,,,,,,,,,,,,,,,,,,,,,,,,,,,,,,,,,,,,,,,,,-8.612786928097194e-07,5.24495249010215e-07,-1.2828774060835713e-06,0.0,0.000182188116014,0.0002250248653581,-0.0038290910888463,-0.0038116327486932,-9.71445146547012e-11,-2.709499291597694e-09,-3.5021291422410167e-10,0.0,2.9594541501865024e-06,2.6805128072737716e-06,0.004130826331675,0.004114962182939,,,,,,,,,,,,,,,,,,,,,,,,,,,,,,,,,,,,,,,,,,,,,,,,,,,,,,,,,,,,,,,,,,,,,,,,,,
35,1.847121000289917,0.6077570915222168,1.572690486907959,0.3874384006857872,0.0,-3.1416289150695116,-4.473020089790225e-05,0.5007610321044922,0.5007580518722534,0.6108640432357788,1.5707966089248655,0.3899990311264992,0.0,-3.1415930926780016,-3.763288418667799e-07,0.5006856918334961,0.5006834268569946,,,,,,,,,,,,,,,,,,,,,,,,,,,,,,,,,,,,,,,,,,,,,,,,,,,,,,,,,,,,,,,,,,,,,,,,,,,,,,,,,,,,,,,,,,,,,,,,,,,,,,,,,,,,,,,,,,,,,,,,,,,,,,,,,,,,,,-8.612786928097194e-07,5.24495249010215e-07,-1.2828774060835713e-06,0.0,0.000182188116014,0.0002250248653581,-0.0038290910888463,-0.0038116327486932,-8.593126210598712e-11,-2.212008354263162e-09,-2.9112823263233167e-10,0.0,2.4126704829541268e-06,2.1860516881133663e-06,0.0034496274311095,0.0034366906620562,,,,,,,,,,,,,,,,,,,,,,,,,,,,,,,,,,,,,,,,,,,,,,,,,,,,,,,,,,,,,,,,,,,,,,,,,,
36,1.8685247898101809,0.607757031917572,1.572690486907959,0.3874383634328842,0.0,-3.141622954605034,-3.735430436790921e-05,0.5006355047225952,0.5006331205368042,0.6108640432357788,1.5707966089248655,0.3899990311264992,0.0,-3.1415930926780016,-3.763288418667799e-07,0.5006856918334961,0.5006834268569946,,,,,,,,,,,,,,,,,,,,,,,,,,,,,,,,,,,,,,,,,,,,,,,,,,,,,,,,,,,,,,,,,,,,,,,,,,,,,,,,,,,,,,,,,,,,,,,,,,,,,,,,,,,,,,,,,,,,,,,,,,,,,,,,,,,,,,-7.1931731326913e-07,4.381535063657793e-07,-1.071058250090573e-06,0.0,0.000152153748786,0.0001879188930615,-0.0031975931487977,-0.0031834077090024,-8.593126210598712e-11,-2.212008354263162e-09,-2.9112823263233167e-10,0.0,2.4126704829541268e-06,2.1860516881133663e-06,0.0034496274311095,0.0034366906620562,,,,,,,,,,,,,,,,,,,,,,,,,,,,,,,,,,,,,,,,,,,,,,,,,,,,,,,,,,,,,,,,,,,,,,,,,,
37,1.889700174331665,0.607757031917572,1.572690486907959,0.3874383634328842,0.0,-3.141622954605034,-3.735430436790921e-05,0.5006355047225952,0.5006331205368042,0.6108640432357788,1.5707966089248655,0.3899990311264992,0.0,-3.141593033073357,-3.0555608532267797e-07,0.5005726218223572,0.5005707740783691,,,,,,,,,,,,,,,,,,,,,,,,,,,,,,,,,,,,,,,,,,,,,,,,,,,,,,,,,,,,,,,,,,,,,,,,,,,,,,,,,,,,,,,,,,,,,,,,,,,,,,,,,,,,,,,,,,,,,,,,,,,,,,,,,,,,,,-7.1931731326913e-07,4.381535063657793e-07,-1.071058250090573e-06,0.0,0.000152153748786,0.0001879188930615,-0.0031975931487977,-0.0031834077090024,-7.593925488436071e-11,-1.8044454819232671e-09,-2.420424971560919e-10,0.0,1.9657431948871817e-06,1.7817601474234834e-06,0.0028807623311877,0.0028702188283205,,,,,,,,,,,,,,,,,,,,,,,,,,,,,,,,,,,,,,,,,,,,,,,,,,,,,,,,,,,,,,,,,,,,,,,,,,
38,1.9116971492767336,0.607757031917572,1.572690486907959,0.3874383261799812,0.0,-3.141617947814873,-3.11946751025971e-05,0.5005307197570801,0.5005287528038025,0.6108640432357788,1.5707966089248655,0.3899990311264992,0.0,-3.141593033073357,-3.0555608532267797e-07,0.5005726218223572,0.5005707740783691,,,,,,,,,,,,,,,,,,,,,,,,,,,,,,,,,,,,,,,,,,,,,,,,,,,,,,,,,,,,,,,,,,,,,,,,,,,,,,,,,,,,,,,,,,,,,,,,,,,,,,,,,,,,,,,,,,,,,,,,,,,,,,,,,,,,,,-6.007550155118224e-07,3.66025545872617e-07,-8.942131444200641e-07,0.0,0.0001270706707146,0.0001569315936649,-0.0026702426839619,-0.0026587252505123,-7.593925488436071e-11,-1.8044454819232671e-09,-2.420424971560919e-10,0.0,1.9657431948871817e-06,1.7817601474234834e-06,0.0028807623311877,0.0028702188283205,,,,,,,,,,,,,,,,,,,,,,,,,,,,,,,,,,,,,,,,,,,,,,,,,,,,,,,,,,,,,,,,,,,,,,,,,,
39,1.9335715770721436,0.607757031917572,1.572690486907959,0.3874382963776588,0.0,-3.141613775489738,-2.6050749511341564e-05,0.500443160533905,0.5004416108131409,0.6108640432357788,1.5707966089248655,0.3899990311264992,0.0,-3.141592973468712,-2.45020260081219e-07,0.5004734396934509,0.5004719495773315,,,,,,,,,,,,,,,,,,,,,,,,,,,,,,,,,,,,,,,,,,,,,,,,,,,,,,,,,,,,,,,,,,,,,,,,,,,,,,,,,,,,,,,,,,,,,,,,,,,,,,,,,,,,,,,,,,,,,,,,,,,,,,,,,,,,,,-5.017348030378344e-07,3.057710671328096e-07,-7.46567366149975e-07,0.0,0.0001061226503225,0.0001310539810219,-0.0022298633120954,-0.0022205198183655,-6.650235917504688e-11,-1.455280340678655e-09,-1.99180949511657e-10,0.0,1.5824087995497391e-06,1.434879550288315e-06,0.0023817415349185,0.0023732513654977,,,,,,,,,,,,,,,,,,,,,,,,,,,,,,,,,,,,,,,,,,,,,,,,,,,,,,,,,,,,,,,,,,,,,,,,,,
40,1.9554648399353027,0.607757031917572,1.572690486907959,0.3874382963776588,0.0,-3.1416135370711595,-2.5791252483031712e-05,0.5004387497901917,0.5004372596740723,0.6108640432357788,1.5707966089248655,0.3899990311264992,0.0,-3.1415929138640672,-2.009328454732895e-07,0.5003993511199951,0.5003981590270996,,,,,,,,,,,,,,,,,,,,,,,,,,,,,,,,,,,,,,,,,,,,,,,,,,,,,,,,,,,,,,,,,,,,,,,,,,,,,,,,,,,,,,,,,,,,,,,,,,,,,,,,,,,,,,,,,,,,,,,,,,,,,,,,,,,,,,-4.967390623278334e-07,3.0273074003162037e-07,-7.391200256279262e-07,0.0,0.0001050658465828,0.0001297485287068,-0.0022076475434005,-0.0021984123159199,-5.856426454897701e-11,-1.1995959781074814e-09,-1.6733836538662672e-10,0.0,1.3024413192397333e-06,1.1814523759312578e-06,0.0020089908502995,0.0020020003430545,,,,,,,,,,,,,,,,,,,,,,,,,,,,,,,,,,,,,,,,,,,,,,,,,,,,,,,,,,,,,,,,,,,,,,,,,,
41,1.9770100116729736,0.6077569723129272,1.5726906061172483,0.3874382665753365,0.0,-3.141609960792473,-2.1323790861060843e-05,0.500362753868103,0.5003615021705627,0.6108640432357788,1.5707966089248655,0.3899990311264992,0.0,-3.1415929138640672,-1.9859683675349518e-07,0.5003953576087952,0.5003941655158997,,,,,,,,,,,,,,,,,,,,,,,,,,,,,,,,,,,,,,,,,,,,,,,,,,,,,,,,,,,,,,,,,,,,,,,,,,,,,,,,,,,,,,,,,,,,,,,,,,,,,,,,,,,,,,,,,,,,,,,,,,,,,,,,,,,,,,-4.107327811198047e-07,2.503810492271441e-07,-6.109265200393565e-07,0.0,8.687160880072042e-05,0.0001072740051313,-0.0018251930596306,-0.0018177946330979,-5.850875339774575e-11,-1.1857181902996672e-09,-1.655273140777069e-10,0.0,1.287584950659948e-06,1.1680020861604137e-06,0.0019889776594936,0.0019820670131593,,,,,,,,,,,,,,,,,,,,,,,,,,,,,,,,,,,,,,,,,,,,,,,,,,,,,,,,,,,,,,,,,,,,,,,,,,
42,1.9992611408233645,0.6077569723129272,1.5726906061172483,0.3874382665753365,0.0,-3.141609960792473,-2.1323790861060843e-05,0.500362753868103,0.5003615021705627,0.6108640432357788,1.5707966089248655,0.3899990311264992,0.0,-3.1415928542594225,-1.608208037851e-07,0.5003301501274109,0.5003291964530945,,,,,,,,,,,,,,,,,,,,,,,,,,,,,,,,,,,,,,,,,,,,,,,,,,,,,,,,,,,,,,,,,,,,,,,,,,,,,,,,,,,,,,,,,,,,,,,,,,,,,,,,,,,,,,,,,,,,,,,,,,,,,,,,,,,,,,-4.107327811198047e-07,2.503810492271441e-07,-6.109265200393565e-07,0.0,8.687160880072042e-05,0.0001072740051313,-0.0018251930596306,-0.0018177946330979,-5.1070259132757194e-11,-9.660050537263487e-10,-1.376468383718077e-10,0.0,1.0469650533195818e-06,9.501183626525744e-07,0.0016609828453511,0.0016553616151213,,,,,,,,,,,,,,,,,,,,,,,,,,,,,,,,,,,,,,,,,,,,,,,,,,,,,,,,,,,,,,,,,,,,,,,,,,
43,2.0206310749053955,0.6077569723129272,1.5726906061172483,0.3874382442235947,0.0,-3.1416069805602342,-1.7630165530135855e-05,0.5002999305725098,0.5002989172935486,0.6108640432357788,1.5707966089248655,0.3899990311264992,0.0,-3.1415928542594225,-1.608208037851e-07,0.5003301501274109,0.5003291964530945,,,,,,,,,,,,,,,,,,,,,,,,,,,,,,,,,,,,,,,,,,,,,,,,,,,,,,,,,,,,,,,,,,,,,,,,,,,,,,,,,,,,,,,,,,,,,,,,,,,,,,,,,,,,,,,,,,,,,,,,,,,,,,,,,,,,,,-3.3961771350732306e-07,2.0708380077394398e-07,-5.049669198342599e-07,0.0,7.182807166827843e-05,8.869242446962744e-05,-0.0015089951921254,-0.0015030745416879,-5.1070259132757194e-11,-9.660050537263487e-10,-1.376468383718077e-10,0.0,1.0469650533195818e-06,9.501183626525744e-07,0.0016609828453511,0.0016553616151213,,,,,,,,,,,,,,,,,,,,,,,,,,,,,,,,,,,,,,,,,,,,,,,,,,,,,,,,,,,,,,,,,,,,,,,,,,
44,2.041858196258545,0.6077569723129272,1.5726906061172483,0.3874382442235947,0.0,-3.1416069805602342,-1.7630165530135855e-05,0.5002999305725098,0.5002989172935486,0.6108640432357788,1.5707966089248655,0.3899990311264992,0.0,-3.1415927946547777,-1.3010274813041178e-07,0.500275731086731,0.5002749562263489,,,,,,,,,,,,,,,,,,,,,,,,,,,,,,,,,,,,,,,,,,,,,,,,,,,,,,,,,,,,,,,,,,,,,,,,,,,,,,,,,,,,,,,,,,,,,,,,,,,,,,,,,,,,,,,,,,,,,,,,,,,,,,,,,,,,,,-3.3961771350732306e-07,2.0708380077394398e-07,-5.049669198342599e-07,0.0,7.182807166827843e-05,8.869242446962744e-05,-0.0015089951921254,-0.0015030745416879,-4.4797499043625066e-11,-7.860379014346107e-10,-1.1440848268762237e-10,0.0,8.506884228154377e-07,7.723292014816252e-07,0.0013870764523744,0.001382507267408,,,,,,,,,,,,,,,,,,,,,,,,,,,,,,,,,,,,,,,,,,,,,,,,,,,,,,,,,,,,,,,,,,,,,,,,,,
45,2.0637800693511963,0.6077569723129272,1.5726906061172483,0.3874382293224335,0.0,-3.1416047155837328,-1.487112785980571e-05,0.5002529621124268,0.5002521872520447,0.6108640432357788,1.5707966089248655,0.3899990311264992,0.0,-3.1415927946547777,-1.0639691083724757e-07,0.5002325773239136,0.500231921672821,,,,,,,,,,,,,,,,,,,,,,,,,,,,,,,,,,,,,,,,,,,,,,,,,,,,,,,,,,,,,,,,,,,,,,,,,,,,,,,,,,,,,,,,,,,,,,,,,,,,,,,,,,,,,,,,,,,,,,,,,,,,,,,,,,,,,,-2.864923374090722e-07,1.7473145419444339e-07,-4.258385217781324e-07,0.0,6.059037332306616e-05,7.481249485863373e-05,-0.001272810739465,-0.0012679647188633,-3.924638392049928e-11,-6.470379787515411e-10,-9.613143614473073e-11,0.0,6.987318670326204e-07,6.346385248434672e-07,0.0011699941242113,0.0011662397300824,,,,,,,,,,,,,,,,,,,,,,,,,,,,,,,,,,,,,,,,,,,,,,,,,,,,,,,,,,,,,,,,,,,,,,,,,,
46,2.085641622543335,0.6077569723129272,1.5726906061172483,0.3874382144212723,0.0,-3.1416026294211656,-1.2295206943235826e-05,0.5002091526985168,0.5002084970474243,0.6108640432357788,1.5707966089248655,0.3899990311264992,0.0,-3.1415927946547777,-1.0514224157986973e-07,0.5002302527427673,0.5002295970916748,,,,,,,,,,,,,,,,,,,,,,,,,,,,,,,,,,,,,,,,,,,,,,,,,,,,,,,,,,,,,,,,,,,,,,,,,,,,,,,,,,,,,,,,,,,,,,,,,,,,,,,,,,,,,,,,,,,,,,,,,,,,,,,,,,,,,,-2.3688834005497486e-07,1.4451595120590357e-07,-3.5198064551877906e-07,0.0,5.009796223021112e-05,6.185375968925655e-05,-0.0010523080127313,-0.0010484381346032,-3.913536161803677e-11,-6.39266417579165e-10,-9.5139174316472e-11,0.0,6.906752219038026e-07,6.273366466302832e-07,0.001158338971436,0.0011546277673915,,,,,,,,,,,,,,,,,,,,,,,,,,,,,,,,,,,,,,,,,,,,,,,,,,,,,,,,,,,,,,,,,,,,,,,,,,
47,2.1077046394348145,0.6077569723129272,1.5726906061172483,0.3874382144212723,0.0,-3.1416026294211656,-1.2295206943235826e-05,0.5002091526985168,0.5002084970474243,0.6108640432357788,1.5707966089248655,0.3899990311264992,0.0,-3.1415927946547777,-8.487580771543436e-08,0.5001922845840454,0.5001917481422424,,,,,,,,,,,,,,,,,,,,,,,,,,,,,,,,,,,,,,,,,,,,,,,,,,,,,,,,,,,,,,,,,,,,,,,,,,,,,,,,,,,,,,,,,,,,,,,,,,,,,,,,,,,,,,,,,,,,,,,,,,,,,,,,,,,,,,-2.3688834005497486e-07,1.4451595120590357e-07,-3.5198064551877906e-07,0.0,5.009796223021112e-05,6.185375968925655e-05,-0.0010523080127313,-0.0010484381346032,-3.397282455352979e-11,-5.196953978270358e-10,-7.910339050454239e-11,0.0,5.603022827926907e-07,5.091600314699463e-07,0.0009673216263763,0.00096430972917,,,,,,,,,,,,,,,,,,,,,,,,,,,,,,,,,,,,,,,,,,,,,,,,,,,,,,,,,,,,,,,,,,,,,,,,,,
48,2.128819704055786,0.6077569723129272,1.5726906061172483,0.3874382069706917,0.0,-3.141600900886467,-1.0165477760892829e-05,0.5001729130744934,0.5001724362373352,0.6108640432357788,1.5707966089248655,0.3899990311264992,0.0,-3.1415927946547777,-8.487580771543436e-08,0.5001922845840454,0.5001917481422424,,,,,,,,,,,,,,,,,,,,,,,,,,,,,,,,,,,,,,,,,,,,,,,,,,,,,,,,,,,,,,,,,,,,,,,,,,,,,,,,,,,,,,,,,,,,,,,,,,,,,,,,,,,,,,,,,,,,,,,,,,,,,,,,,,,,,,-1.9587321276048897e-07,1.195254952790492e-07,-2.909328600253503e-07,0.0,4.142252146266401e-05,5.1139686547685415e-05,-0.000870005285833,-0.0008669188828207,-3.397282455352979e-11,-5.196953978270358e-10,-7.910339050454239e-11,0.0,5.603022827926907e-07,5.091600314699463e-07,0.0009673216263763,0.00096430972917,,,,,,,,,,,,,,,,,,,,,,,,,,,,,,,,,,,,,,,,,,,,,,,,,,,,,,,,,,,,,,,,,,,,,,,,,,
49,2.1501007080078125,0.6077569723129272,1.5726906061172483,0.3874382069706917,0.0,-3.141600900886467,-1.0165477760892829e-05,0.5001729130744934,0.5001724362373352,0.6108640432357788,1.5707966089248655,0.3899990311264992,0.0,-3.141592735050133,-6.843411881618523e-08,0.5001605749130249,0.5001601576805115,,,,,,,,,,,,,,,,,,,,,,,,,,,,,,,,,,,,,,,,,,,,,,,,,,,,,,,,,,,,,,,,,,,,,,,,,,,,,,,,,,,,,,,,,,,,,,,,,,,,,,,,,,,,,,,,,,,,,,,,,,,,,,,,,,,,,,-1.9587321276048897e-07,1.195254952790492e-07,-2.909328600253503e-07,0.0,4.142252146266401e-05,5.1139686547685415e-05,-0.000870005285833,-0.0008669188828207,-2.964295475749168e-11,-4.2221781626494703e-10,-6.579459199684834e-11,0.0,4.541447253814113e-07,4.128980606310506e-07,0.0008078042883425,0.0008053618948906,,,,,,,,,,,,,,,,,,,,,,,,,,,,,,,,,,,,,,,,,,,,,,,,,,,,,,,,,,,,,,,,,,,,,,,,,,
50,2.1711583137512207,0.6077569723129272,1.5726906061172483,0.3874381920695305,0.0,-3.1415994703749925,-8.404651453020051e-06,0.5001429319381714,0.5001425743103027,0.6108640432357788,1.5707966089248655,0.3899990311264992,0.0,-3.141592735050133,-5.5775966956161944e-08,0.5001354217529297,0.5001351237297058,,,,,,,,,,,,,,,,,,,,,,,,,,,,,,,,,,,,,,,,,,,,,,,,,,,,,,,,,,,,,,,,,,,,,,,,,,,,,,,,,,,,,,,,,,,,,,,,,,,,,,,,,,,,,,,,,,,,,,,,,,,,,,,,,,,,,,-1.6195916430206125e-07,9.88564821113869e-08,-2.4047321289799584e-07,0.0,3.424940223339945e-05,4.22814664489124e-05,-0.0007192848715931,-0.0007168265874497,-2.5868196473766147e-11,-3.4661162828797387e-10,-5.5226656581197624e-11,0.0,3.721077916907234e-07,3.384805040695938e-07,0.0006813801010139,0.0006793779903091,,,,,,,,,,,,,,,,,,,,,,,,,,,,,,,,,,,,,,,,,,,,,,,,,,,,,,,,,,,,,,,,,,,,,,,,,,
51,2.1928040981292725,0.6077569723129272,1.5726906061172483,0.3874381920695305,0.0,-3.1415994703749925,-8.404651453020051e-06,0.5001429319381714,0.5001425743103027,0.6108640432357788,1.5707966089248655,0.3899990311264992,0.0,-3.141592735050133,-5.4445610686570944e-08,0.5001327395439148,0.5001324415206909,,,,,,,,,,,,,,,,,,,,,,,,,,,,,,,,,,,,,,,,,,,,,,,,,,,,,,,,,,,,,,,,,,,,,,,,,,,,,,,,,,,,,,,,,,,,,,,,,,,,,,,,,,,,,,,,,,,,,,,,,,,,,,,,,,,,,,-1.6195916430206125e-07,9.88564821113869e-08,-2.4047321289799584e-07,0.0,3.424940223339945e-05,4.22814664489124e-05,-0.0007192848715931,-0.0007168265874497,-2.5368596112684827e-11,-3.386180225106727e-10,-5.410255576876466e-11,0.0,3.634671941199486e-07,3.306402334146697e-07,0.0006678721983917,0.0006659164791926,,,,,,,,,,,,,,,,,,,,,,,,,,,,,,,,,,,,,,,,,,,,,,,,,,,,,,,,,,,,,,,,,,,,,,,,,,
52,2.215061902999878,0.6077569127082825,1.5726906061172483,0.3874381846189499,0.0,-3.141598337886742,-7.018744327069726e-06,0.5001193881034851,0.5001190900802612,0.6108640432357788,1.5707966089248655,0.3899990311264992,0.0,-3.141592735050133,-4.3249851700011284e-08,0.5001097321510315,0.5001094937324524,,,,,,,,,,,,,,,,,,,,,,,,,,,,,,,,,,,,,,,,,,,,,,,,,,,,,,,,,,,,,,,,,,,,,,,,,,,,,,,,,,,,,,,,,,,,,,,,,,,,,,,,,,,,,,,,,,,,,,,,,,,,,,,,,,,,,,-1.352642442498109e-07,8.258304973196574e-08,-2.007681416671403e-07,0.0,2.8603291866602376e-05,3.530935282469727e-05,-0.0006006596377119,-0.0005986806354485,-2.181588243388433e-11,-2.714495295208507e-10,-4.4526882181372684e-11,0.0,2.9057622441541753e-07,2.644902110660041e-07,0.0005521798739209,0.0005506155430339,,,,,,,,,,,,,,,,,,,,,,,,,,,,,,,,,,,,,,,,,,,,,,,,,,,,,,,,,,,,,,,,,,,,,,,,,,
53,2.2366409301757812,0.6077569127082825,1.5726906061172483,0.3874381771683693,0.0,-3.1415973842124254,-5.8029831961903255e-06,0.500098705291748,0.500098466873169,0.6108640432357788,1.5707966089248655,0.3899990311264992,0.0,-3.141592735050133,-4.3249851700011284e-08,0.5001097321510315,0.5001094937324524,,,,,,,,,,,,,,,,,,,,,,,,,,,,,,,,,,,,,,,,,,,,,,,,,,,,,,,,,,,,,,,,,,,,,,,,,,,,,,,,,,,,,,,,,,,,,,,,,,,,,,,,,,,,,,,,,,,,,,,,,,,,,,,,,,,,,,-1.118443151426618e-07,6.830236287669322e-08,-1.659466875025828e-07,0.0,2.3650074581382796e-05,2.9193199225119315e-05,-0.0004966008709743,-0.000495029205922,-2.181588243388433e-11,-2.714495295208507e-10,-4.4526882181372684e-11,0.0,2.9057622441541753e-07,2.644902110660041e-07,0.0005521798739209,0.0005506155430339,,,,,,,,,,,,,,,,,,,,,,,,,,,,,,,,,,,,,,,,,,,,,,,,,,,,,,,,,,,,,,,,,,,,,,,,,,
54,2.2575953006744385,0.6077569127082825,1.5726906061172483,0.3874381771683693,0.0,-3.1415973842124254,-5.8029831961903255e-06,0.500098705291748,0.500098466873169,0.6108640432357788,1.5707966089248655,0.3899990311264992,0.0,-3.141592735050133,-3.4721740149734615e-08,0.5000916719436646,0.5000914335250854,,,,,,,,,,,,,,,,,,,,,,,,,,,,,,,,,,,,,,,,,,,,,,,,,,,,,,,,,,,,,,,,,,,,,,,,,,,,,,,,,,,,,,,,,,,,,,,,,,,,,,,,,,,,,,,,,,,,,,,,,,,,,,,,,,,,,,-1.118443151426618e-07,6.830236287669322e-08,-1.659466875025828e-07,0.0,2.3650074581382796e-05,2.9193199225119315e-05,-0.0004966008709743,-0.000495029205922,-1.8762769116165142e-11,-2.1971313657331848e-10,-3.698430450782553e-11,0.0,2.34802897125519e-07,2.1385214665770039e-07,0.0004611219919752,0.0004598571977112,,,,,,,,,,,,,,,,,,,,,,,,,,,,,,,,,,,,,,,,,,,,,,,,,,,,,,,,,,,,,,,,,,,,,,,,,,
55,2.2785773277282715,0.6077569127082825,1.5726906061172483,0.3874381771683693,0.0,-3.1415966093520433,-4.8460847210662905e-06,0.5000824332237244,0.50008225440979,0.6108640432357788,1.5707966089248655,0.3899990311264992,0.0,-3.141592735050133,-3.4721740149734615e-08,0.5000916719436646,0.5000914335250854,,,,,,,,,,,,,,,,,,,,,,,,,,,,,,,,,,,,,,,,,,,,,,,,,,,,,,,,,,,,,,,,,,,,,,,,,,,,,,,,,,,,,,,,,,,,,,,,,,,,,,,,,,,,,,,,,,,,,,,,,,,,,,,,,,,,,,-9.340922701994715e-08,5.7058024083289645e-08,-1.3854685221303953e-07,0.0,1.975129453057889e-05,2.4379311071243137e-05,-0.0004147009167354,-0.0004134394694119,-1.8762769116165142e-11,-2.1971313657331848e-10,-3.698430450782553e-11,0.0,2.34802897125519e-07,2.1385214665770039e-07,0.0004611219919752,0.0004598571977112,,,,,,,,,,,,,,,,,,,,,,,,,,,,,,,,,,,,,,,,,,,,,,,,,,,,,,,,,,,,,,,,,,,,,,,,,,
56,2.3003244400024414,0.6077569127082825,1.5726906061172483,0.3874381771683693,0.0,-3.1415966093520433,-4.8460847210662905e-06,0.5000824332237244,0.50008225440979,0.6108640432357788,1.5707966089248655,0.3899990311264992,0.0,-3.141592735050133,-2.7488775700135193e-08,0.5000757575035095,0.50007563829422,,,,,,,,,,,,,,,,,,,,,,,,,,,,,,,,,,,,,,,,,,,,,,,,,,,,,,,,,,,,,,,,,,,,,,,,,,,,,,,,,,,,,,,,,,,,,,,,,,,,,,,,,,,,,,,,,,,,,,,,,,,,,,,,,,,,,,-9.340922701994715e-08,5.7058024083289645e-08,-1.3854685221303953e-07,0.0,1.975129453057889e-05,2.4379311071243137e-05,-0.0004147009167354,-0.0004134394694119,-1.6209256159527282e-11,-1.758593271006248e-10,-3.046868313205664e-11,0.0,1.872731445473619e-07,1.706794847677884e-07,0.0003812440263573,0.0003802346182055,,,,,,,,,,,,,,,,,,,,,,,,,,,,,,,,,,,,,,,,,,,,,,,,,,,,,,,,,,,,,,,,,,,,,,,,,,
57,2.321986436843872,0.6077569127082825,1.5726906061172483,0.3874381697177887,0.0,-3.141595894096306,-4.006663857580861e-06,0.5000681281089783,0.5000680088996887,0.6108640432357788,1.5707966089248655,0.3899990311264992,0.0,-3.141592675445488,-2.2267215626925463e-08,0.5000638961791992,0.5000637769699097,,,,,,,,,,,,,,,,,,,,,,,,,,,,,,,,,,,,,,,,,,,,,,,,,,,,,,,,,,,,,,,,,,,,,,,,,,,,,,,,,,,,,,,,,,,,,,,,,,,,,,,,,,,,,,,,,,,,,,,,,,,,,,,,,,,,,,-7.723649275703792e-08,4.719147383980271e-08,-1.14517092697497e-07,0.0,1.633097417652607e-05,2.015641803154722e-05,-0.0003428578202147,-0.0003418594133108,-1.4155343563970746e-11,-1.438849039914203e-10,-2.562533518712939e-11,0.0,1.527898376707526e-07,1.3934212006461166e-07,0.0003215780016034,0.0003207539557479,,,,,,,,,,,,,,,,,,,,,,,,,,,,,,,,,,,,,,,,,,,,,,,,,,,,,,,,,,,,,,,,,,,,,,,,,,
58,2.3433496952056885,0.6077569127082825,1.5726906061172483,0.3874381697177887,0.0,-3.141595357654503,-3.3459743917774176e-06,0.5000569224357605,0.500056803226471,0.6108640432357788,1.5707966089248655,0.3899990311264992,0.0,-3.141592675445488,-2.2267215626925463e-08,0.5000638961791992,0.5000637769699097,,,,,,,,,,,,,,,,,,,,,,,,,,,,,,,,,,,,,,,,,,,,,,,,,,,,,,,,,,,,,,,,,,,,,,,,,,,,,,,,,,,,,,,,,,,,,,,,,,,,,,,,,,,,,,,,,,,,,,,,,,,,,,,,,,,,,,-6.450562040072327e-08,3.94227974709338e-08,-9.560894653759533e-08,0.0,1.3638768905366304e-05,1.6832671462907456e-05,-0.0002863133267965,-0.0002855148050002,-1.4155343563970746e-11,-1.438849039914203e-10,-2.562533518712939e-11,0.0,1.527898376707526e-07,1.3934212006461166e-07,0.0003215780016034,0.0003207539557479,,,,,,,,,,,,,,,,,,,,,,,,,,,,,,,,,,,,,,,,,,,,,,,,,,,,,,,,,,,,,,,,,,,,,,,,,,
59,2.365168571472168,0.6077569127082825,1.5726906061172483,0.3874381697177887,0.0,-3.141595357654503,-3.3459743917774176e-06,0.5000569224357605,0.500056803226471,0.6108640432357788,1.5707966089248655,0.3899990311264992,0.0,-3.141592675445488,-1.7560324749865686e-08,0.5000528693199158,0.5000527501106262,,,,,,,,,,,,,,,,,,,,,,,,,,,,,,,,,,,,,,,,,,,,,,,,,,,,,,,,,,,,,,,,,,,,,,,,,,,,,,,,,,,,,,,,,,,,,,,,,,,,,,,,,,,,,,,,,,,,,,,,,,,,,,,,,,,,,,-6.450562040072327e-08,3.94227974709338e-08,-9.560894653759533e-08,0.0,1.3638768905366304e-05,1.6832671462907456e-05,-0.0002863133267965,-0.0002855148050002,-1.2212453270876722e-11,-1.1490808304870369e-10,-2.1066481892262342e-11,0.0,1.2154116291185346e-07,1.1093035112708095e-07,0.0002658725716173,0.0002652165712788,,,,,,,,,,,,,,,,,,,,,,,,,,,,,,,,,,,,,,,,,,,,,,,,,,,,,,,,,,,,,,,,,,,,,,,,,,
60,2.3867082595825195,0.6077569127082825,1.5726906061172483,0.3874381622672081,0.0,-3.1415949404219896,-2.794231022562599e-06,0.500047504901886,0.5000474452972412,0.6108640432357788,1.5707966089248655,0.3899990311264992,0.0,-3.141592675445488,-1.7560324749865686e-08,0.5000528693199158,0.5000527501106262,,,,,,,,,,,,,,,,,,,,,,,,,,,,,,,,,,,,,,,,,,,,,,,,,,,,,,,,,,,,,,,,,,,,,,,,,,,,,,,,,,,,,,,,,,,,,,,,,,,,,,,,,,,,,,,,,,,,,,,,,,,,,,,,,,,,,,-5.3873460359454846e-08,3.2932991445022715e-08,-7.982271199580283e-08,0.0,1.1390380677767098e-05,1.4057003681955392e-05,-0.0002390942099737,-0.0002384567924309,-1.2212453270876722e-11,-1.1490808304870369e-10,-2.1066481892262342e-11,0.0,1.2154116291185346e-07,1.1093035112708095e-07,0.0002658725716173,0.0002652165712788,,,,,,,,,,,,,,,,,,,,,,,,,,,,,,,,,,,,,,,,,,,,,,,,,,,,,,,,,,,,,,,,,,,,,,,,,,
61,2.4083311557769775,0.6077569127082825,1.5726906061172483,0.3874381622672081,0.0,-3.1415949404219896,-2.794231022562599e-06,0.500047504901886,0.5000474452972412,0.6108640432357788,1.5707966089248655,0.3899990311264992,0.0,-3.141592675445488,-1.3815950161699677e-08,0.5000436902046204,0.5000436305999756,,,,,,,,,,,,,,,,,,,,,,,,,,,,,,,,,,,,,,,,,,,,,,,,,,,,,,,,,,,,,,,,,,,,,,,,,,,,,,,,,,,,,,,,,,,,,,,,,,,,,,,,,,,,,,,,,,,,,,,,,,,,,,,,,,,,,,-5.3873460359454846e-08,3.2932991445022715e-08,-7.982271199580283e-08,0.0,1.1390380677767098e-05,1.4057003681955392e-05,-0.0002390942099737,-0.0002384567924309,-1.0436096431476471e-11,-9.148237722911289e-11,-1.7305601396344628e-11,0.0,9.65340021252814e-08,8.818062013915552e-08,0.0002198167348979,0.0002192952961195,,,,,,,,,,,,,,,,,,,,,,,,,,,,,,,,,,,,,,,,,,,,,,,,,,,,,,,,,,,,,,,,,,,,,,,,,,
62,2.431288957595825,0.6077569127082825,1.5726906061172483,0.3874381622672081,0.0,-3.141594582794121,-2.3569468794448767e-06,0.5000400543212891,0.5000399947166443,0.6108640432357788,1.5707966089248655,0.3899990311264992,0.0,-3.141592675445488,-1.1123529652934394e-08,0.5000368356704712,0.5000367760658264,,,,,,,,,,,,,,,,,,,,,,,,,,,,,,,,,,,,,,,,,,,,,,,,,,,,,,,,,,,,,,,,,,,,,,,,,,,,,,,,,,,,,,,,,,,,,,,,,,,,,,,,,,,,,,,,,,,,,,,,,,,,,,,,,,,,,,-4.544609311096792e-08,2.7787661949219e-08,-6.731446688945654e-08,0.0,9.608327673049644e-06,1.1857148820126897e-05,-0.0002016717480728,-0.0002011575270444,-9.15933995315754e-12,-7.471800955727304e-11,-1.4585554986012994e-11,0.0,7.844275273782841e-08,7.171303906261528e-08,0.0001854146539699,0.0001849906111601,,,,,,,,,,,,,,,,,,,,,,,,,,,,,,,,,,,,,,,,,,,,,,,,,,,,,,,,,,,,,,,,,,,,,,,,,,
63,2.4535796642303467,0.6077569127082825,1.5726906061172483,0.3874381548166275,0.0,-3.141594284770897,-1.968291826415225e-06,0.5000334978103638,0.500033438205719,0.6108640432357788,1.5707966089248655,0.3899990311264992,0.0,-3.141592675445488,-1.0981842990531732e-08,0.5000364780426025,0.5000364184379578,,,,,,,,,,,,,,,,,,,,,,,,,,,,,,,,,,,,,,,,,,,,,,,,,,,,,,,,,,,,,,,,,,,,,,,,,,,,,,,,,,,,,,,,,,,,,,,,,,,,,,,,,,,,,,,,,,,,,,,,,,,,,,,,,,,,,,-3.795535974404629e-08,2.3213431177282473e-08,-5.6199976228299426e-08,0.0,8.024368980841246e-06,9.901932571665384e-06,-0.0001684118178673,-0.0001680031127762,-8.770761894538737e-12,-7.37188088351104e-11,-1.4377388168895776e-11,0.0,7.748646169147834e-08,7.084315711836099e-08,0.0001835675939219,0.0001831486879382,,,,,,,,,,,,,,,,,,,,,,,,,,,,,,,,,,,,,,,,,,,,,,,,,,,,,,,,,,,,,,,,,,,,,,,,,,
64,2.47468638420105,0.6077569127082825,1.5726906061172483,0.3874381548166275,0.0,-3.141594284770897,-1.968291826415225e-06,0.5000334978103638,0.500033438205719,0.6108640432357788,1.5707966089248655,0.3899990311264992,0.0,-3.141592675445488,-8.594478018153495e-09,0.5000301599502563,0.5000301003456116,,,,,,,,,,,,,,,,,,,,,,,,,,,,,,,,,,,,,,,,,,,,,,,,,,,,,,,,,,,,,,,,,,,,,,,,,,,,,,,,,,,,,,,,,,,,,,,,,,,,,,,,,,,,,,,,,,,,,,,,,,,,,,,,,,,,,,-3.795535974404629e-08,2.3213431177282473e-08,-5.6199976228299426e-08,0.0,8.024368980841246e-06,9.901932571665384e-06,-0.0001684118178673,-0.0001680031127762,-7.605027718682322e-12,-5.850875339774575e-11,-1.1823875212257916e-11,0.0,6.133443974931653e-08,5.6131536751991014e-08,0.000151769054355,0.0001514371542725,,,,,,,,,,,,,,,,,,,,,,,,,,,,,,,,,,,,,,,,,,,,,,,,,,,,,,,,,,,,,,,,,,,,,,,,,,
65,2.495823621749878,0.6077569127082825,1.5726906061172483,0.3874381548166275,0.0,-3.141593986747673,-1.6437251133538666e-06,0.5000279545783997,0.5000278949737549,0.6108640432357788,1.5707966089248655,0.3899990311264992,0.0,-3.141592675445488,-8.594478018153495e-09,0.5000301599502563,0.5000301003456116,,,,,,,,,,,,,,,,,,,,,,,,,,,,,,,,,,,,,,,,,,,,,,,,,,,,,,,,,,,,,,,,,,,,,,,,,,,,,,,,,,,,,,,,,,,,,,,,,,,,,,,,,,,,,,,,,,,,,,,,,,,,,,,,,,,,,,-3.1699364910764416e-08,1.939215543700357e-08,-4.69206753450635e-08,0.0,6.701529855490662e-06,8.269126738014165e-06,-0.0001406371593475,-0.0001403131609549,-7.605027718682322e-12,-5.850875339774575e-11,-1.1823875212257916e-11,0.0,6.133443974931653e-08,5.6131536751991014e-08,0.000151769054355,0.0001514371542725,,,,,,,,,,,,,,,,,,,,,,,,,,,,,,,,,,,,,,,,,,,,,,,,,,,,,,,,,,,,,,,,,,,,,,,,,,
66,2.5165159702301025,0.6077569127082825,1.5726906061172483,0.3874381548166275,0.0,-3.141593986747673,-1.6437251133538666e-06,0.5000279545783997,0.5000278949737549,0.6108640432357788,1.5707966089248655,0.3899990311264992,0.0,-3.141592675445488,-6.704679478275466e-09,0.5000249147415161,0.5000249147415161,,,,,,,,,,,,,,,,,,,,,,,,,,,,,,,,,,,,,,,,,,,,,,,,,,,,,,,,,,,,,,,,,,,,,,,,,,,,,,,,,,,,,,,,,,,,,,,,,,,,,,,,,,,,,,,,,,,,,,,,,,,,,,,,,,,,,,-3.1699364910764416e-08,1.939215543700357e-08,-4.69206753450635e-08,0.0,6.701529855490662e-06,8.269126738014165e-06,-0.0001406371593475,-0.0001403131609549,-6.550315845288424e-12,-4.651834473179406e-11,-9.728329253277934e-12,0.0,4.845246337481513e-08,4.4390720432829767e-08,0.0001254788221558,0.0001252163638127,,,,,,,,,,,,,,,,,,,,,,,,,,,,,,,,,,,,,,,,,,,,,,,,,,,,,,,,,,,,,,,,,,,,,,,,,,
67,2.537447690963745,0.6077569127082825,1.5726906061172483,0.3874381548166275,0.0,-3.141593807933739,-1.3726786391998758e-06,0.500023365020752,0.5000233054161072,0.6108640432357788,1.5707966089248655,0.3899990311264992,0.0,-3.141592675445488,-6.704679478275466e-09,0.5000249147415161,0.5000249147415161,,,,,,,,,,,,,,,,,,,,,,,,,,,,,,,,,,,,,,,,,,,,,,,,,,,,,,,,,,,,,,,,,,,,,,,,,,,,,,,,,,,,,,,,,,,,,,,,,,,,,,,,,,,,,,,,,,,,,,,,,,,,,,,,,,,,,,-2.6474655356878433e-08,1.6199930286120434e-08,-3.91734822358103e-08,0.0,5.596764822257683e-06,6.9055672611284535e-06,-0.0001174431235995,-0.0001171870026155,-6.550315845288424e-12,-4.651834473179406e-11,-9.728329253277934e-12,0.0,4.845246337481513e-08,4.4390720432829767e-08,0.0001254788221558,0.0001252163638127,,,,,,,,,,,,,,,,,,,,,,,,,,,,,,,,,,,,,,,,,,,,,,,,,,,,,,,,,,,,,,,,,,,,,,,,,,
68,2.558079242706299,0.6077569127082825,1.5726906061172483,0.3874381548166275,0.0,-3.141593629119805,-1.1463271221145988e-06,0.5000194907188416,0.5000194907188416,0.6108640432357788,1.5707966089248655,0.3899990311264992,0.0,-3.141592675445488,-5.281770132370411e-09,0.5000208020210266,0.5000208020210266,,,,,,,,,,,,,,,,,,,,,,,,,,,,,,,,,,,,,,,,,,,,,,,,,,,,,,,,,,,,,,,,,,,,,,,,,,,,,,,,,,,,,,,,,,,,,,,,,,,,,,,,,,,,,,,,,,,,,,,,,,,,,,,,,,,,,,-2.211092464676767e-08,1.353284151406342e-08,-3.270542237032714e-08,0.0,4.674122919823276e-06,5.7668553381517995e-06,-9.80742697720416e-05,-9.787245653569698e-05,-5.773159728050814e-12,-3.7414515929867775e-11,-8.11156697366755e-12,0.0,3.867739550855731e-08,3.5474247539468706e-08,0.0001047865880536,0.0001045768512994,,,,,,,,,,,,,,,,,,,,,,,,,,,,,,,,,,,,,,,,,,,,,,,,,,,,,,,,,,,,,,,,,,,,,,,,,,
69,2.5791664123535156,0.6077569127082825,1.5726906061172483,0.3874381548166275,0.0,-3.14159356951516,-1.1349081887601642e-06,0.5000193119049072,0.5000192523002625,0.6108640432357788,1.5707966089248655,0.3899990311264992,0.0,-3.141592675445488,-4.202406422848526e-09,0.5000175833702087,0.500017523765564,,,,,,,,,,,,,,,,,,,,,,,,,,,,,,,,,,,,,,,,,,,,,,,,,,,,,,,,,,,,,,,,,,,,,,,,,,,,,,,,,,,,,,,,,,,,,,,,,,,,,,,,,,,,,,,,,,,,,,,,,,,,,,,,,,,,,,-2.1890601331620022e-08,1.3398393505781314e-08,-3.2379222858480716e-08,0.0,4.627576799975941e-06,5.709410288545769e-06,-9.70971814240329e-05,-9.68980384641327e-05,-4.829470157119431e-12,-2.9976021664879227e-11,-6.793177131925177e-12,0.0,3.120132063827441e-08,2.8650950056885452e-08,8.838711801217869e-05,8.821774099487811e-05,,,,,,,,,,,,,,,,,,,,,,,,,,,,,,,,,,,,,,,,,,,,,,,,,,,,,,,,,,,,,,,,,,,,,,,,,,
70,2.6005747318267822,0.6077569127082825,1.5726906061172483,0.3874381548166275,0.0,-3.1415934503058702,-9.383235806126322e-07,0.5000159740447998,0.500015914440155,0.6108640432357788,1.5707966089248655,0.3899990311264992,0.0,-3.141592675445488,-4.1458236843539e-09,0.5000174045562744,0.5000173449516296,,,,,,,,,,,,,,,,,,,,,,,,,,,,,,,,,,,,,,,,,,,,,,,,,,,,,,,,,,,,,,,,,,,,,,,,,,,,,,,,,,,,,,,,,,,,,,,,,,,,,,,,,,,,,,,,,,,,,,,,,,,,,,,,,,,,,,-1.8100410059673777e-08,1.1081358053388612e-08,-2.676334887041776e-08,0.0,3.8262223824858665e-06,4.720447122963378e-06,-8.027598960325122e-05,-8.012176840566099e-05,-4.829470157119431e-12,-2.986499936241671e-11,-6.716849298982197e-12,0.0,3.0807857598347255e-08,2.829128931125524e-08,8.75066252774559e-05,8.733937283977866e-05,,,,,,,,,,,,,,,,,,,,,,,,,,,,,,,,,,,,,,,,,,,,,,,,,,,,,,,,,,,,,,,,,,,,,,,,,,
71,2.6222524642944336,0.6077569127082825,1.5726906061172483,0.3874381548166275,0.0,-3.1415934503058702,-9.383235806126322e-07,0.5000159740447998,0.500015914440155,0.6108640432357788,1.5707966089248655,0.3899990311264992,0.0,-3.141592675445488,-3.285917316020459e-09,0.5000146627426147,0.5000146627426147,,,,,,,,,,,,,,,,,,,,,,,,,,,,,,,,,,,,,,,,,,,,,,,,,,,,,,,,,,,,,,,,,,,,,,,,,,,,,,,,,,,,,,,,,,,,,,,,,,,,,,,,,,,,,,,,,,,,,,,,,,,,,,,,,,,,,,-1.8100410059673777e-08,1.1081358053388612e-08,-2.676334887041776e-08,0.0,3.8262223824858665e-06,4.720447122963378e-06,-8.027598960325122e-05,-8.012176840566099e-05,-4.163336342344337e-12,-2.4202861936828413e-11,-5.648259637780484e-12,0.0,2.4798440634299368e-08,2.2801984300713233e-08,7.38115340936929e-05,7.367673970293254e-05,,,,,,,,,,,,,,,,,,,,,,,,,,,,,,,,,,,,,,,,,,,,,,,,,,,,,,,,,,,,,,,,,,,,,,,,,,
72,2.6439051628112793,0.6077569127082825,1.5726906061172483,0.3874381548166275,0.0,-3.1415933310965807,-7.757906246297352e-07,0.5000131726264954,0.5000131726264954,0.6108640432357788,1.5707966089248655,0.3899990311264992,0.0,-3.141592675445488,-3.285917316020459e-09,0.5000146627426147,0.5000146627426147,,,,,,,,,,,,,,,,,,,,,,,,,,,,,,,,,,,,,,,,,,,,,,,,,,,,,,,,,,,,,,,,,,,,,,,,,,,,,,,,,,,,,,,,,,,,,,,,,,,,,,,,,,,,,,,,,,,,,,,,,,,,,,,,,,,,,,-1.4966527572823907e-08,9.165113112885592e-09,-2.2121456666468475e-08,0.0,3.1636386665923055e-06,3.902788648701971e-06,-6.636891339439899e-05,-6.625002424698323e-05,-4.163336342344337e-12,-2.4202861936828413e-11,-5.648259637780484e-12,0.0,2.4798440634299368e-08,2.2801984300713233e-08,7.38115340936929e-05,7.367673970293254e-05,,,,,,,,,,,,,,,,,,,,,,,,,,,,,,,,,,,,,,,,,,,,,,,,,,,,,,,,,,,,,,,,,,,,,,,,,,
73,2.666304588317871,0.6077569127082825,1.5726906061172483,0.3874381548166275,0.0,-3.1415933310965807,-7.757906246297352e-07,0.5000131726264954,0.5000131726264954,0.6108640432357788,1.5707966089248655,0.3899990311264992,0.0,-3.141592675445488,-2.593620873625468e-09,0.5000123977661133,0.5000123381614685,,,,,,,,,,,,,,,,,,,,,,,,,,,,,,,,,,,,,,,,,,,,,,,,,,,,,,,,,,,,,,,,,,,,,,,,,,,,,,,,,,,,,,,,,,,,,,,,,,,,,,,,,,,,,,,,,,,,,,,,,,,,,,,,,,,,,,-1.4966527572823907e-08,9.165113112885592e-09,-2.2121456666468475e-08,0.0,3.1636386665923055e-06,3.902788648701971e-06,-6.636891339439899e-05,-6.625002424698323e-05,-3.6082248300317584e-12,-1.9650947535865268e-11,-4.7531423241764514e-12,0.0,1.9914569548973304e-08,1.8337930285383663e-08,6.225977267604321e-05,6.215137545950711e-05,,,,,,,,,,,,,,,,,,,,,,,,,,,,,,,,,,,,,,,,,,,,,,,,,,,,,,,,,,,,,,,,,,,,,,,,,,
74,2.6875593662261963,0.6077569127082825,1.5726906061172483,0.3874381473660469,0.0,-3.141593211887291,-6.478645104834868e-07,0.5000110268592834,0.5000110268592834,0.6108640432357788,1.5707966089248655,0.3899990311264992,0.0,-3.141592675445488,-1.979823638365019e-09,0.5000102519989014,0.5000101923942566,,,,,,,,,,,,,,,,,,,,,,,,,,,,,,,,,,,,,,,,,,,,,,,,,,,,,,,,,,,,,,,,,,,,,,,,,,,,,,,,,,,,,,,,,,,,,,,,,,,,,,,,,,,,,,,,,,,,,,,,,,,,,,,,,,,,,,-1.2499556945044787e-08,7.656320022420005e-09,-1.8468927720505235e-08,0.0,2.6421041638968745e-06,3.259227923990693e-06,-5.542327926377766e-05,-5.533081275643781e-05,-3.164135620181696e-12,-1.532107773982716e-11,-3.927413949611491e-12,0.0,1.5538903497258616e-08,1.4333656928045002e-08,5.147480987943709e-05,5.139008499099873e-05,,,,,,,,,,,,,,,,,,,,,,,,,,,,,,,,,,,,,,,,,,,,,,,,,,,,,,,,,,,,,,,,,,,,,,,,,,
75,2.7086181640625,0.6077569127082825,1.5726906061172483,0.3874381473660469,0.0,-3.1415930926780016,-5.410331596067408e-07,0.5000091791152954,0.5000091791152954,0.6108640432357788,1.5707966089248655,0.3899990311264992,0.0,-3.141592675445488,-1.979823638365019e-09,0.5000102519989014,0.5000101923942566,,,,,,,,,,,,,,,,,,,,,,,,,,,,,,,,,,,,,,,,,,,,,,,,,,,,,,,,,,,,,,,,,,,,,,,,,,,,,,,,,,,,,,,,,,,,,,,,,,,,,,,,,,,,,,,,,,,,,,,,,,,,,,,,,,,,,,-1.0439427100550349e-08,6.395772800260602e-09,-1.5419479026945737e-08,0.0,2.206546014349442e-06,2.721788632698008e-06,-4.628281021723524e-05,-4.6211287553887814e-05,-3.164135620181696e-12,-1.532107773982716e-11,-3.927413949611491e-12,0.0,1.5538903497258616e-08,1.4333656928045002e-08,5.147480987943709e-05,5.139008499099873e-05,,,,,,,,,,,,,,,,,,,,,,,,,,,,,,,,,,,,,,,,,,,,,,,,,,,,,,,,,,,,,,,,,,,,,,,,,,
76,2.729583263397217,0.6077569127082825,1.5726906061172483,0.3874381473660469,0.0,-3.1415930926780016,-5.410331596067408e-07,0.5000091791152954,0.5000091791152954,0.6108640432357788,1.5707966089248655,0.3899990311264992,0.0,-3.141592675445488,-1.5008490006351847e-09,0.5000084638595581,0.5000084638595581,,,,,,,,,,,,,,,,,,,,,,,,,,,,,,,,,,,,,,,,,,,,,,,,,,,,,,,,,,,,,,,,,,,,,,,,,,,,,,,,,,,,,,,,,,,,,,,,,,,,,,,,,,,,,,,,,,,,,,,,,,,,,,,,,,,,,,-1.0439427100550349e-08,6.395772800260602e-09,-1.5419479026945737e-08,0.0,2.206546014349442e-06,2.721788632698008e-06,-4.628281021723524e-05,-4.6211287553887814e-05,-2.6645352591003757e-12,-1.1990408665951689e-11,-3.191891195797325e-12,0.0,1.2081391886908932e-08,1.1166453539601662e-08,4.2558072891552e-05,4.249207268003374e-05,,,,,,,,,,,,,,,,,,,,,,,,,,,,,,,,,,,,,,,,,,,,,,,,,,,,,,,,,,,,,,,,,,,,,,,,,,
77,2.751147985458374,0.6077569127082825,1.5726906061172483,0.3874381473660469,0.0,-3.141593033073357,-4.473173760288774e-07,0.5000076293945312,0.5000075697898865,0.6108640432357788,1.5707966089248655,0.3899990311264992,0.0,-3.141592675445488,-1.5008490006351847e-09,0.5000084638595581,0.5000084638595581,,,,,,,,,,,,,,,,,,,,,,,,,,,,,,,,,,,,,,,,,,,,,,,,,,,,,,,,,,,,,,,,,,,,,,,,,,,,,,,,,,,,,,,,,,,,,,,,,,,,,,,,,,,,,,,,,,,,,,,,,,,,,,,,,,,,,,-8.631984016460592e-09,5.289879645431483e-09,-1.2745096533706146e-08,0.0,1.824440687414608e-06,2.250330226161168e-06,-3.826474130619317e-05,-3.8210575439734384e-05,-2.6645352591003757e-12,-1.1990408665951689e-11,-3.191891195797325e-12,0.0,1.2081391886908932e-08,1.1166453539601662e-08,4.2558072891552e-05,4.249207268003374e-05,,,,,,,,,,,,,,,,,,,,,,,,,,,,,,,,,,,,,,,,,,,,,,,,,,,,,,,,,,,,,,,,,,,,,,,,,,
78,2.772757053375244,0.6077569127082825,1.5726906061172483,0.3874381473660469,0.0,-3.141593033073357,-4.473173760288774e-07,0.5000076293945312,0.5000075697898865,0.6108640432357788,1.5707966089248655,0.3899990311264992,0.0,-3.141592675445488,-1.14573928122752e-09,0.5000070929527283,0.5000070333480835,,,,,,,,,,,,,,,,,,,,,,,,,,,,,,,,,,,,,,,,,,,,,,,,,,,,,,,,,,,,,,,,,,,,,,,,,,,,,,,,,,,,,,,,,,,,,,,,,,,,,,,,,,,,,,,,,,,,,,,,,,,,,,,,,,,,,,-8.631984016460592e-09,5.289879645431483e-09,-1.2745096533706146e-08,0.0,1.824440687414608e-06,2.250330226161168e-06,-3.826474130619317e-05,-3.8210575439734384e-05,-2.109423746787798e-12,-9.325873406851317e-12,-2.6575963651964685e-12,0.0,9.483803076193452e-09,8.783598737238663e-09,3.553998249117285e-05,3.548806853359565e-05,,,,,,,,,,,,,,,,,,,,,,,,,,,,,,,,,,,,,,,,,,,,,,,,,,,,,,,,,,,,,,,,,,,,,,,,,,
79,2.794269323348999,0.6077569127082825,1.5726906061172483,0.3874381473660469,0.0,-3.141592973468712,-3.773142793761508e-07,0.5000064373016357,0.5000064373016357,0.6108640432357788,1.5707966089248655,0.3899990311264992,0.0,-3.141592675445488,-1.14573928122752e-09,0.5000070929527283,0.5000070333480835,,,,,,,,,,,,,,,,,,,,,,,,,,,,,,,,,,,,,,,,,,,,,,,,,,,,,,,,,,,,,,,,,,,,,,,,,,,,,,,,,,,,,,,,,,,,,,,,,,,,,,,,,,,,,,,,,,,,,,,,,,,,,,,,,,,,,,-7.281619751609014e-09,4.463540648202979e-09,-1.0747985612624689e-08,0.0,1.539001686978736e-06,1.898164100566646e-06,-3.227563138352707e-05,-3.223369276383892e-05,-2.109423746787798e-12,-9.325873406851317e-12,-2.6575963651964685e-12,0.0,9.483803076193452e-09,8.783598737238663e-09,3.553998249117285e-05,3.548806853359565e-05,,,,,,,,,,,,,,,,,,,,,,,,,,,,,,,,,,,,,,,,,,,,,,,,,,,,,,,,,,,,,,,,,,,,,,,,,,
80,2.8163034915924072,0.6077569127082825,1.5726906061172483,0.3874381473660469,0.0,-3.1415929138640672,-3.150960310449591e-07,0.5000053644180298,0.5000053644180298,0.6108640432357788,1.5707966089248655,0.3899990311264992,0.0,-3.141592675445488,-8.533544426647666e-10,0.500005841255188,0.500005841255188,,,,,,,,,,,,,,,,,,,,,,,,,,,,,,,,,,,,,,,,,,,,,,,,,,,,,,,,,,,,,,,,,,,,,,,,,,,,,,,,,,,,,,,,,,,,,,,,,,,,,,,,,,,,,,,,,,,,,,,,,,,,,,,,,,,,,,-6.081357639686757e-09,3.728795050506051e-09,-8.973328746719744e-09,0.0,1.2852937061325065e-06,1.5851612715778174e-06,-2.6952699045068584e-05,-2.6920990421785973e-05,-1.5543122344752194e-12,-7.216449660063517e-12,-2.220446049250313e-12,0.0,7.3118733290300505e-09,6.789657280847905e-09,2.93835619231686e-05,2.9343435016926375e-05,,,,,,,,,,,,,,,,,,,,,,,,,,,,,,,,,,,,,,,,,,,,,,,,,,,,,,,,,,,,,,,,,,,,,,,,,,
81,2.837390184402466,0.6077569127082825,1.5726906061172483,0.3874381473660469,0.0,-3.1415929138640672,-3.150960310449591e-07,0.5000053644180298,0.5000053644180298,0.6102632880210876,1.570870041847229,0.3900148636102676,0.0,-3.141586297748497,9.96236121864058e-05,0.499985933303833,0.5000334978103638,,,,,,,,,,,,,,,,,,,,,,,,,,,,,,,,,,,,,,,,,,,,,,,,,,,,,,,,,,,,,,,,,,,,,,,,,,,,,,,,,,,,,,,,,,,,,,,,,,,,,,,,,,,,,,,,,,,,,,,,,,,,,,,,,,,,,,-6.081357639686757e-09,3.728795050506051e-09,-8.973328746719744e-09,0.0,1.2852937061325065e-06,1.5851612715778174e-06,-2.6952699045068584e-05,-2.6920990421785973e-05,-0.0114750238135457,0.0031554799061268,-0.0018809655448421,0.0,0.0011499169049784,-0.0242331679910421,-0.0078093665651977,0.0025040758773684,,,,,,,,,,,,,,,,,,,,,,,,,,,,,,,,,,,,,,,,,,,,,,,,,,,,,,,,,,,,,,,,,,,,,,,,,,
82,2.8584506511688232,0.6077569127082825,1.5726906061172483,0.3874381473660469,0.0,-3.1415929138640672,-2.631373945405358e-07,0.5000044703483582,0.5000044703483582,0.6102632880210876,1.570870041847229,0.3900148636102676,0.0,-3.141586297748497,9.96236121864058e-05,0.499985933303833,0.5000334978103638,,,,,,,,,,,,,,,,,,,,,,,,,,,,,,,,,,,,,,,,,,,,,,,,,,,,,,,,,,,,,,,,,,,,,,,,,,,,,,,,,,,,,,,,,,,,,,,,,,,,,,,,,,,,,,,,,,,,,,,,,,,,,,,,,,,,,,-5.078881759601472e-09,3.1147306955858767e-09,-7.491722797681177e-09,0.0,1.0734096349551692e-06,1.3237716984804138e-06,-2.2507631001644768e-05,-2.2483918655780144e-05,-0.0114750238135457,0.0031554799061268,-0.0018809655448421,0.0,0.0011499169049784,-0.0242331679910421,-0.0078093665651977,0.0025040758773684,,,,,,,,,,,,,,,,,,,,,,,,,,,,,,,,,,,,,,,,,,,,,,,,,,,,,,,,,,,,,,,,,,,,,,,,,,
83,2.8803443908691406,0.6077569127082825,1.5726906061172483,0.3874381473660469,0.0,-3.1415929138640672,-2.631373945405358e-07,0.5000044703483582,0.5000044703483582,0.6090602874755859,1.570953130722046,0.3900490021705627,0.0,-3.1415936887244493,0.0002245179493911,0.4999564588069916,0.5000414252281189,,,,,,,,,,,,,,,,,,,,,,,,,,,,,,,,,,,,,,,,,,,,,,,,,,,,,,,,,,,,,,,,,,,,,,,,,,,,,,,,,,,,,,,,,,,,,,,,,,,,,,,,,,,,,,,,,,,,,,,,,,,,,,,,,,,,,,-5.078881759601472e-09,3.1147306955858767e-09,-7.491722797681177e-09,0.0,1.0734096349551692e-06,1.3237716984804138e-06,-2.2507631001644768e-05,-2.2483918655780144e-05,-0.1020853593945503,0.0114517305046319,0.0024043074809014,0.0,-0.0040083467029035,0.0427545495331287,0.0077039818279445,0.0045318738557398,,,,,,,,,,,,,,,,,,,,,,,,,,,,,,,,,,,,,,,,,,,,,,,,,,,,,,,,,,,,,,,,,,,,,,,,,,
84,2.901897668838501,0.6077569127082825,1.5726906061172483,0.3874381473660469,0.0,-3.1415928542594225,-2.2195762028331958e-07,0.5000037550926208,0.5000037550926208,0.6090602874755859,1.570953130722046,0.3900490021705627,0.0,-3.1415936887244493,0.0002245179493911,0.4999564588069916,0.5000414252281189,,,,,,,,,,,,,,,,,,,,,,,,,,,,,,,,,,,,,,,,,,,,,,,,,,,,,,,,,,,,,,,,,,,,,,,,,,,,,,,,,,,,,,,,,,,,,,,,,,,,,,,,,,,,,,,,,,,,,,,,,,,,,,,,,,,,,,-4.284628207784635e-09,2.628341988497595e-09,-6.31782137716641e-09,0.0,9.054719498635676e-07,1.1166076774316025e-06,-1.8984788766829297e-05,-1.8966993593494408e-05,-0.1020853593945503,0.0114517305046319,0.0024043074809014,0.0,-0.0040083467029035,0.0427545495331287,0.0077039818279445,0.0045318738557398,,,,,,,,,,,,,,,,,,,,,,,,,,,,,,,,,,,,,,,,,,,,,,,,,,,,,,,,,,,,,,,,,,,,,,,,,,
85,2.923928737640381,0.6077569127082825,1.5726906061172483,0.3874381473660469,0.0,-3.1415928542594225,-1.8535732237978666e-07,0.5000031590461731,0.5000031590461731,0.6080931425094604,1.5709335803985596,0.3900779476761818,0.0,-3.141588562724998,0.0001283476449316,0.4999697506427765,0.500058114528656,,,,,,,,,,,,,,,,,,,,,,,,,,,,,,,,,,,,,,,,,,,,,,,,,,,,,,,,,,,,,,,,,,,,,,,,,,,,,,,,,,,,,,,,,,,,,,,,,,,,,,,,,,,,,,,,,,,,,,,,,,,,,,,,,,,,,,-3.578415341820573e-09,2.195688075801172e-09,-5.274600312077382e-09,0.0,7.562025530205574e-07,9.324815550826316e-07,-1.585379686730448e-05,-1.5840885680518113e-05,-0.0180413164198398,0.00317675457336,-0.0018366965232416,0.0,0.0001635799853829,-0.024548003450036,-0.0112982932478189,0.0067562046460807,,,,,,,,,,,,,,,,,,,,,,,,,,,,,,,,,,,,,,,,,,,,,,,,,,,,,,,,,,,,,,,,,,,,,,,,,,
86,2.9455230236053467,0.6077569127082825,1.5726906061172483,0.3874381473660469,0.0,-3.1415928542594225,-1.8535732237978666e-07,0.5000031590461731,0.5000031590461731,0.607724666595459,1.5709359645843506,0.3900898909568787,0.0,-3.1415918409804613,3.342003037687391e-05,0.4999946653842926,0.5000117421150208,,,,,,,,,,,,,,,,,,,,,,,,,,,,,,,,,,,,,,,,,,,,,,,,,,,,,,,,,,,,,,,,,,,,,,,,,,,,,,,,,,,,,,,,,,,,,,,,,,,,,,,,,,,,,,,,,,,,,,,,,,,,,,,,,,,,,,-3.578415341820573e-09,2.195688075801172e-09,-5.274600312077382e-09,0.0,7.562025530205574e-07,9.324815550826316e-07,-1.585379686730448e-05,-1.5840885680518113e-05,-0.0077012353576719,0.0002436281356494,0.0002126188919646,0.0,-1.2890534890175331e-05,0.0001071731894626,-4.8269692342728376e-05,2.5146297048195265e-05,,,,,,,,,,,,,,,,,,,,,,,,,,,,,,,,,,,,,,,,,,,,,,,,,,,,,,,,,,,,,,,,,,,,,,,,,,
87,2.9681522846221924,0.6077569127082825,1.5726906061172483,0.3874381473660469,0.0,-3.1415927946547777,-1.5479231763038118e-07,0.5000026226043701,0.5000026226043701,0.6077094078063965,1.5709364414215088,0.3900903156399727,0.0,-3.141591900585106,3.339153772685677e-05,0.499994695186615,0.5000116229057312,,,,,,,,,,,,,,,,,,,,,,,,,,,,,,,,,,,,,,,,,,,,,,,,,,,,,,,,,,,,,,,,,,,,,,,,,,,,,,,,,,,,,,,,,,,,,,,,,,,,,,,,,,,,,,,,,,,,,,,,,,,,,,,,,,,,,,-2.98866487113969e-09,1.8343104812856834e-09,-4.403699627175683e-09,0.0,6.315405016721343e-07,7.78717605953716e-07,-1.3239170584711246e-05,-1.3230016520537902e-05,-0.0076362853869795,0.0002407887513982,0.0002116213436238,0.0,-1.5267942217178643e-05,-1.4246375940274447e-05,-7.4526856224110816e-06,5.450008757179603e-05,,,,,,,,,,,,,,,,,,,,,,,,,,,,,,,,,,,,,,,,,,,,,,,,,,,,,,,,,,,,,,,,,,,,,,,,,,
88,2.990691900253296,0.6077569127082825,1.5726906061172483,0.3874381473660469,0.0,-3.1415927946547777,-1.5479231763038118e-07,0.5000026226043701,0.5000026226043701,0.6074588298797607,1.5709441900253296,0.3900975650548935,0.0,-3.1415920197943956,2.8229485906194896e-05,0.4999955296516418,0.5000101327896118,,,,,,,,,,,,,,,,,,,,,,,,,,,,,,,,,,,,,,,,,,,,,,,,,,,,,,,,,,,,,,,,,,,,,,,,,,,,,,,,,,,,,,,,,,,,,,,,,,,,,,,,,,,,,,,,,,,,,,,,,,,,,,,,,,,,,,-2.98866487113969e-09,1.8343104812856834e-09,-4.403699627175683e-09,0.0,6.315405016721343e-07,7.78717605953716e-07,-1.3239170584711246e-05,-1.3230016520537902e-05,-0.0063882675021886,0.0001951887825271,0.0001843107165768,0.0,-3.432009179960005e-06,-0.0001556179486215,-2.5876919607981108e-05,5.3770829254062846e-05,,,,,,,,,,,,,,,,,,,,,,,,,,,,,,,,,,,,,,,,,,,,,,,,,,,,,,,,,,,,,,,,,,,,,,,,,,
89,3.011782646179199,0.6077569127082825,1.5726906061172483,0.3874381473660469,0.0,-3.1415927946547777,-1.2797976012279833e-07,0.5000021457672119,0.5000022053718567,0.6074588298797607,1.5709441900253296,0.3900975650548935,0.0,-3.1415920197943956,2.8229485906194896e-05,0.4999955296516418,0.5000101327896118,,,,,,,,,,,,,,,,,,,,,,,,,,,,,,,,,,,,,,,,,,,,,,,,,,,,,,,,,,,,,,,,,,,,,,,,,,,,,,,,,,,,,,,,,,,,,,,,,,,,,,,,,,,,,,,,,,,,,,,,,,,,,,,,,,,,,,-2.471078897059442e-09,1.5170087408478141e-09,-3.639963441770533e-09,0.0,5.221770607022336e-07,6.438310151679616e-07,-1.0945606845780276e-05,-1.093945866159629e-05,-0.0063882675021886,0.0001951887825271,0.0001843107165768,0.0,-3.432009179960005e-06,-0.0001556179486215,-2.5876919607981108e-05,5.3770829254062846e-05,,,,,,,,,,,,,,,,,,,,,,,,,,,,,,,,,,,,,,,,,,,,,,,,,,,,,,,,,,,,,,,,,,,,,,,,,,
90,3.032684564590454,0.6077569127082825,1.5726906061172483,0.3874381473660469,0.0,-3.141592735050133,-1.0687618612337246e-07,0.5000017881393433,0.5000017881393433,0.60724937915802,1.5709505081176758,0.390103600025177,0.0,-3.141592139003685,2.317666803719476e-05,0.4999963641166687,0.5000083446502686,,,,,,,,,,,,,,,,,,,,,,,,,,,,,,,,,,,,,,,,,,,,,,,,,,,,,,,,,,,,,,,,,,,,,,,,,,,,,,,,,,,,,,,,,,,,,,,,,,,,,,,,,,,,,,,,,,,,,,,,,,,,,,,,,,,,,,-2.0636270470220093e-09,1.2672085603071535e-09,-3.0389788463480727e-09,0.0,4.36094779843188e-07,5.376646186050493e-07,-9.140445399680177e-06,-9.136435437540058e-06,-0.0053358618170022,0.0001630179031053,0.0001538371870992,0.0,-3.0021283237147145e-06,-0.0001275423419428,-2.0996923922211863e-05,4.512592204264365e-05,,,,,,,,,,,,,,,,,,,,,,,,,,,,,,,,,,,,,,,,,,,,,,,,,,,,,,,,,,,,,,,,,,,,,,,,,,
91,3.0537970066070557,0.6077569127082825,1.5726906061172483,0.3874381473660469,0.0,-3.141592735050133,-1.0581157283695577e-07,0.5000017881393433,0.5000017881393433,0.6070833802223206,1.5709556341171265,0.3901083907485008,0.0,-3.14159219860833,1.9240216715843417e-05,0.4999969899654388,0.5000069737434387,,,,,,,,,,,,,,,,,,,,,,,,,,,,,,,,,,,,,,,,,,,,,,,,,,,,,,,,,,,,,,,,,,,,,,,,,,,,,,,,,,,,,,,,,,,,,,,,,,,,,,,,,,,,,,,,,,,,,,,,,,,,,,,,,,,,,,-2.0433654768226006e-09,1.2548850847338142e-09,-3.008565618856096e-09,0.0,4.31752255281026e-07,5.323090022102406e-07,-9.04938133317046e-06,-9.04547232494224e-06,-0.0045012757182121,0.0001375893771182,0.0001297317794524,0.0,-2.4821767965477193e-06,-0.0001059694768628,-1.7326738088740967e-05,3.7646543205482885e-05,,,,,,,,,,,,,,,,,,,,,,,,,,,,,,,,,,,,,,,,,,,,,,,,,,,,,,,,,,,,,,,,,,,,,,,,,,
92,3.075166940689087,0.6077569127082825,1.5726906061172483,0.3874381473660469,0.0,-3.141592735050133,-8.748327928742584e-08,0.5000014901161194,0.5000014901161194,0.607074499130249,1.5709558725357056,0.3901086440682411,0.0,-3.1415922582129747,1.9030570911127143e-05,0.4999970495700836,0.500006914138794,,,,,,,,,,,,,,,,,,,,,,,,,,,,,,,,,,,,,,,,,,,,,,,,,,,,,,,,,,,,,,,,,,,,,,,,,,,,,,,,,,,,,,,,,,,,,,,,,,,,,,,,,,,,,,,,,,,,,,,,,,,,,,,,,,,,,,-1.689481887723332e-09,1.0377254611171336e-09,-2.4868163084335038e-09,0.0,3.569857653928921e-07,4.401043440793728e-07,-7.481659395125462e-06,-7.479398846044205e-06,-0.004456462804228,0.000136223694426,0.0001284377212869,0.0,-2.455287358316127e-06,-0.0001048228004947,-1.7131980712292716e-05,3.724556154338643e-05,,,,,,,,,,,,,,,,,,,,,,,,,,,,,,,,,,,,,,,,,,,,,,,,,,,,,,,,,,,,,,,,,,,,,,,,,,
93,3.0972609519958496,0.6077569127082825,1.5726906061172483,0.3874381473660469,0.0,-3.141592735050133,-8.748327928742584e-08,0.5000014901161194,0.5000014901161194,0.6069284081459045,1.5709604024887085,0.3901128536462784,0.0,-3.1415923178176195,1.562216129968874e-05,0.4999975860118866,0.5000056624412537,,,,,,,,,,,,,,,,,,,,,,,,,,,,,,,,,,,,,,,,,,,,,,,,,,,,,,,,,,,,,,,,,,,,,,,,,,,,,,,,,,,,,,,,,,,,,,,,,,,,,,,,,,,,,,,,,,,,,,,,,,,,,,,,,,,,,,-1.689481887723332e-09,1.0377254611171336e-09,-2.4868163084335038e-09,0.0,3.569857653928921e-07,4.401043440793728e-07,-7.481659395125462e-06,-7.479398846044205e-06,-0.0037219864316284,0.0001138336228905,0.0001072319646482,0.0,-2.016219923461904e-06,-8.617310231784359e-05,-1.3973847671877593e-05,3.0711085855728015e-05,,,,,,,,,,,,,,,,,,,,,,,,,,,,,,,,,,,,,,,,,,,,,,,,,,,,,,,,,,,,,,,,,,,,,,,,,,
94,3.1201186180114746,0.6077569127082825,1.5726906061172483,0.3874381473660469,0.0,-3.141592735050133,-7.232974041926354e-08,0.5000012516975403,0.5000012516975403,0.6069284081459045,1.5709604024887085,0.3901128536462784,0.0,-3.1415923178176195,1.562216129968874e-05,0.4999975860118866,0.5000056624412537,,,,,,,,,,,,,,,,,,,,,,,,,,,,,,,,,,,,,,,,,,,,,,,,,,,,,,,,,,,,,,,,,,,,,,,,,,,,,,,,,,,,,,,,,,,,,,,,,,,,,,,,,,,,,,,,,,,,,,,,,,,,,,,,,,,,,,-1.396882609583372e-09,8.58202398035246e-10,-2.0554737911737675e-09,0.0,2.951668989226164e-07,3.638711518760829e-07,-6.185530310176546e-06,-6.184464382386068e-06,-0.0037219864316284,0.0001138336228905,0.0001072319646482,0.0,-2.016219923461904e-06,-8.617310231784359e-05,-1.3973847671877593e-05,3.0711085855728015e-05,,,,,,,,,,,,,,,,,,,,,,,,,,,,,,,,,,,,,,,,,,,,,,,,,,,,,,,,,,,,,,,,,,,,,,,,,,
95,3.141514539718628,0.6077569127082825,1.5726906061172483,0.3874381473660469,0.0,-3.141592735050133,-7.232974041926354e-08,0.5000012516975403,0.5000012516975403,0.6068063974380493,1.5709640979766846,0.3901163703203201,0.0,-3.1415923774222643,1.2820468327845448e-05,0.4999980330467224,0.5000046491622925,,,,,,,,,,,,,,,,,,,,,,,,,,,,,,,,,,,,,,,,,,,,,,,,,,,,,,,,,,,,,,,,,,,,,,,,,,,,,,,,,,,,,,,,,,,,,,,,,,,,,,,,,,,,,,,,,,,,,,,,,,,,,,,,,,,,,,-1.396882609583372e-09,8.58202398035246e-10,-2.0554737911737675e-09,0.0,2.951668989226164e-07,3.638711518760829e-07,-6.185530310176546e-06,-6.184464382386068e-06,-0.0031085598748177,9.512338874628767e-05,8.952733332989737e-05,0.0,-1.6551606449866083e-06,-7.082585216267034e-05,-1.1391733096388634e-05,2.5319499400211495e-05,,,,,,,,,,,,,,,,,,,,,,,,,,,,,,,,,,,,,,,,,,,,,,,,,,,,,,,,,,,,,,,,,,,,,,,,,,
96,3.162975311279297,0.6077569127082825,1.5726906061172483,0.3874381473660469,0.0,-3.141592735050133,-5.980104589298207e-08,0.5000010132789612,0.5000010132789612,0.6067044734954834,1.570967197418213,0.3901193058490753,0.0,-3.141592437026909,1.051803701557219e-05,0.4999984204769134,0.5000038743019104,,,,,,,,,,,,,,,,,,,,,,,,,,,,,,,,,,,,,,,,,,,,,,,,,,,,,,,,,,,,,,,,,,,,,,,,,,,,,,,,,,,,,,,,,,,,,,,,,,,,,,,,,,,,,,,,,,,,,,,,,,,,,,,,,,,,,,-1.1550205236687814e-09,7.096545573404001e-10,-1.6990298057351083e-09,0.0,2.440526145619515e-07,3.0084260060903034e-07,-5.113944098411594e-06,-5.11372672917787e-06,-0.002596233272925,7.948830170789734e-05,7.474579615518451e-05,0.0,-1.358571466880676e-06,-5.819764919579029e-05,-9.281542588723823e-06,2.0872088498435915e-05,,,,,,,,,,,,,,,,,,,,,,,,,,,,,,,,,,,,,,,,,,,,,,,,,,,,,,,,,,,,,,,,,,,,,,,,,,
97,3.185558557510376,0.6077569127082825,1.5726906061172483,0.3874381473660469,0.0,-3.141592735050133,-4.993998814484257e-08,0.5000008344650269,0.5000008344650269,0.6067044734954834,1.570967197418213,0.3901193058490753,0.0,-3.141592437026909,1.051803701557219e-05,0.4999984204769134,0.5000038743019104,,,,,,,,,,,,,,,,,,,,,,,,,,,,,,,,,,,,,,,,,,,,,,,,,,,,,,,,,,,,,,,,,,,,,,,,,,,,,,,,,,,,,,,,,,,,,,,,,,,,,,,,,,,,,,,,,,,,,,,,,,,,,,,,,,,,,,-9.647282972480298e-10,5.927480728473711e-10,-1.4184486918367154e-09,0.0,2.0382012166919594e-07,2.51234610004758e-07,-4.270547378837364e-06,-4.270890258339932e-06,-0.002596233272925,7.948830170789734e-05,7.474579615518451e-05,0.0,-1.358571466880676e-06,-5.819764919579029e-05,-9.281542588723823e-06,2.0872088498435915e-05,,,,,,,,,,,,,,,,,,,,,,,,,,,,,,,,,,,,,,,,,,,,,,,,,,,,,,,,,,,,,,,,,,,,,,,,,,
98,3.207608461380005,0.6077569127082825,1.5726906061172483,0.3874381473660469,0.0,-3.141592735050133,-4.993998814484257e-08,0.5000008344650269,0.5000008344650269,0.6066150665283203,1.5709699392318726,0.3901218762993813,0.0,-3.141592496631554,8.531796083843801e-06,0.4999987185001373,0.5000031590461731,,,,,,,,,,,,,,,,,,,,,,,,,,,,,,,,,,,,,,,,,,,,,,,,,,,,,,,,,,,,,,,,,,,,,,,,,,,,,,,,,,,,,,,,,,,,,,,,,,,,,,,,,,,,,,,,,,,,,,,,,,,,,,,,,,,,,,-9.647282972480298e-10,5.927480728473711e-10,-1.4184486918367154e-09,0.0,2.0382012166919594e-07,2.51234610004758e-07,-4.270547378837364e-06,-4.270890258339932e-06,-0.0021467567421495,6.576364830834791e-05,6.178226612973958e-05,0.0,-1.1027503887817147e-06,-4.7289024223573506e-05,-7.471845947293332e-06,1.701994551694952e-05,,,,,,,,,,,,,,,,,,,,,,,,,,,,,,,,,,,,,,,,,,,,,,,,,,,,,,,,,,,,,,,,,,,,,,,,,,
99,3.2290329933166504,0.6077569127082825,1.5726906061172483,0.3874381473660469,0.0,-3.141592735050133,-4.1705000342062704e-08,0.5000007152557373,0.5000007152557373,0.6066150665283203,1.5709699392318726,0.3901218762993813,0.0,-3.141592496631554,8.531796083843801e-06,0.4999987185001373,0.5000031590461731,,,,,,,,,,,,,,,,,,,,,,,,,,,,,,,,,,,,,,,,,,,,,,,,,,,,,,,,,,,,,,,,,,,,,,,,,,,,,,,,,,,,,,,,,,,,,,,,,,,,,,,,,,,,,,,,,,,,,,,,,,,,,,,,,,,,,,-8.057998712729385e-10,4.954925358902074e-10,-1.184309650348325e-09,0.0,1.7021989151544406e-07,2.0980641579626538e-07,-3.566243776731426e-06,-3.5669684166350635e-06,-0.0021467567421495,6.576364830834791e-05,6.178226612973958e-05,0.0,-1.1027503887817147e-06,-4.7289024223573506e-05,-7.471845947293332e-06,1.701994551694952e-05,,,,,,,,,,,,,,,,,,,,,,,,,,,,,,,,,,,,,,,,,,,,,,,,,,,,,,,,,,,,,,,,,,,,,,,,,,
100,3.250242233276367,0.6077569127082825,1.5726906061172483,0.3874381473660469,0.0,-3.141592735050133,-4.1705000342062704e-08,0.5000007152557373,0.5000007152557373,0.6065411567687988,1.570972204208374,0.3901239997148514,0.0,-3.141592496631554,6.9181000981188845e-06,0.4999989867210388,0.5000025629997253,,,,,,,,,,,,,,,,,,,,,,,,,,,,,,,,,,,,,,,,,,,,,,,,,,,,,,,,,,,,,,,,,,,,,,,,,,,,,,,,,,,,,,,,,,,,,,,,,,,,,,,,,,,,,,,,,,,,,,,,,,,,,,,,,,,,,,-8.057998712729385e-10,4.954925358902074e-10,-1.184309650348325e-09,0.0,1.7021989151544406e-07,2.0980641579626538e-07,-3.566243776731426e-06,-3.5669684166350635e-06,-0.0017750966362655,5.4408639698522165e-05,5.106704338686541e-05,0.0,-8.948996992330649e-07,-3.841370926238597e-05,-6.01077726969379e-06,1.3876684533897787e-05,,,,,,,,,,,,,,,,,,,,,,,,,,,,,,,,,,,,,,,,,,,,,,,,,,,,,,,,,,,,,,,,,,,,,,,,,,
101,3.2722837924957275,0.6077569127082825,1.5726906061172483,0.3874381473660469,0.0,-3.141592675445488,-3.4827937867021326e-08,0.5000005960464478,0.5000005960464478,0.6065411567687988,1.570972204208374,0.3901239997148514,0.0,-3.141592496631554,6.9181000981188845e-06,0.4999989867210388,0.5000025629997253,,,,,,,,,,,,,,,,,,,,,,,,,,,,,,,,,,,,,,,,,,,,,,,,,,,,,,,,,,,,,,,,,,,,,,,,,,,,,,,,,,,,,,,,,,,,,,,,,,,,,,,,,,,,,,,,,,,,,,,,,,,,,,,,,,,,,,-6.729616863765385e-10,4.1400216588272087e-10,-9.887091145799332e-10,0.0,1.4215872568001944e-07,1.752096494556099e-07,-2.9780951535940403e-06,-2.9790667213092092e-06,-0.0017750966362655,5.4408639698522165e-05,5.106704338686541e-05,0.0,-8.948996992330649e-07,-3.841370926238597e-05,-6.01077726969379e-06,1.3876684533897787e-05,,,,,,,,,,,,,,,,,,,,,,,,,,,,,,,,,,,,,,,,,,,,,,,,,,,,,,,,,,,,,,,,,,,,,,,,,,
102,3.2936644554138184,0.6077569127082825,1.5726906061172483,0.3874381473660469,0.0,-3.141592675445488,-2.9084890940112015e-08,0.5000004768371582,0.5000004768371582,0.606480062007904,1.5709741115570068,0.3901257580518723,0.0,-3.1415925562361986,5.6074718486343045e-06,0.4999991953372955,0.5000020861625671,,,,,,,,,,,,,,,,,,,,,,,,,,,,,,,,,,,,,,,,,,,,,,,,,,,,,,,,,,,,,,,,,,,,,,,,,,,,,,,,,,,,,,,,,,,,,,,,,,,,,,,,,,,,,,,,,,,,,,,,,,,,,,,,,,,,,,-5.61939383914023e-10,3.4539038296088615e-10,-8.254369410209961e-10,0.0,1.1872336358464965e-07,1.463181149574666e-07,-2.4869441404007375e-06,-2.4880614546418656e-06,-0.001467780675739,4.5014174247626215e-05,4.221020208206028e-05,0.0,-7.260431971189973e-07,-3.1194471375783905e-05,-4.8318061089958064e-06,1.1312111382721923e-05,,,,,,,,,,,,,,,,,,,,,,,,,,,,,,,,,,,,,,,,,,,,,,,,,,,,,,,,,,,,,,,,,,,,,,,,,,
103,3.3150627613067627,0.6077569127082825,1.5726906061172483,0.3874381473660469,0.0,-3.141592675445488,-2.9084890940112015e-08,0.5000004768371582,0.5000004768371582,0.6064319610595703,1.5709755420684814,0.3901271438598633,0.0,-3.1415925562361986,4.593975972966291e-06,0.4999993443489074,0.5000017285346985,,,,,,,,,,,,,,,,,,,,,,,,,,,,,,,,,,,,,,,,,,,,,,,,,,,,,,,,,,,,,,,,,,,,,,,,,,,,,,,,,,,,,,,,,,,,,,,,,,,,,,,,,,,,,,,,,,,,,,,,,,,,,,,,,,,,,,-5.61939383914023e-10,3.4539038296088615e-10,-8.254369410209961e-10,0.0,1.1872336358464965e-07,1.463181149574666e-07,-2.4869441404007375e-06,-2.4880614546418656e-06,-0.0012258733622729,3.761515108635649e-05,3.524096973706037e-05,0.0,-5.954144057795929e-07,-2.5603436370147392e-05,-3.926104000129271e-06,9.319744094682392e-06,,,,,,,,,,,,,,,,,,,,,,,,,,,,,,,,,,,,,,,,,,,,,,,,,,,,,,,,,,,,,,,,,,,,,,,,,,
104,3.335901260375977,0.6077569127082825,1.5726906061172483,0.3874381473660469,0.0,-3.141592675445488,-2.4046910240826943e-08,0.5000004172325134,0.5000004172325134,0.6064319610595703,1.5709755420684814,0.3901271438598633,0.0,-3.1415925562361986,4.593975972966291e-06,0.4999993443489074,0.5000017285346985,,,,,,,,,,,,,,,,,,,,,,,,,,,,,,,,,,,,,,,,,,,,,,,,,,,,,,,,,,,,,,,,,,,,,,,,,,,,,,,,,,,,,,,,,,,,,,,,,,,,,,,,,,,,,,,,,,,,,,,,,,,,,,,,,,,,,,-4.6479486925932173e-10,2.8588242884097776e-10,-6.82280620889486e-10,0.0,9.81642003239358e-08,1.2097335400085285e-07,-2.056103994618752e-06,-2.057294523183373e-06,-0.0012258733622729,3.761515108635649e-05,3.524096973706037e-05,0.0,-5.954144057795929e-07,-2.5603436370147392e-05,-3.926104000129271e-06,9.319744094682392e-06,,,,,,,,,,,,,,,,,,,,,,,,,,,,,,,,,,,,,,,,,,,,,,,,,,,,,,,,,,,,,,,,,,,,,,,,,,
105,3.3575313091278076,0.6077569127082825,1.5726906061172483,0.3874381473660469,0.0,-3.141592675445488,-2.4046910240826943e-08,0.5000004172325134,0.5000004172325134,0.6063938140869141,1.570976734161377,0.390128239095211,0.0,-3.1415926158408434,3.804274228969007e-06,0.499999463558197,0.5000014305114746,,,,,,,,,,,,,,,,,,,,,,,,,,,,,,,,,,,,,,,,,,,,,,,,,,,,,,,,,,,,,,,,,,,,,,,,,,,,,,,,,,,,,,,,,,,,,,,,,,,,,,,,,,,,,,,,,,,,,,,,,,,,,,,,,,,,,,-4.6479486925932173e-10,2.8588242884097776e-10,-6.82280620889486e-10,0.0,9.81642003239358e-08,1.2097335400085285e-07,-2.056103994618752e-06,-2.057294523183373e-06,-0.0010341305751353,3.174742596456781e-05,2.9718856239924207e-05,0.0,-4.935771471537009e-07,-2.1240492060314864e-05,-3.2249436117126606e-06,7.760225344100036e-06,,,,,,,,,,,,,,,,,,,,,,,,,,,,,,,,,,,,,,,,,,,,,,,,,,,,,,,,,,,,,,,,,,,,,,,,,,
106,3.3789515495300293,0.6077569127082825,1.5726906061172483,0.3874381473660469,0.0,-3.141592675445488,-2.008162880429154e-08,0.5000003576278687,0.5000003576278687,0.6063938140869141,1.570976734161377,0.390128239095211,0.0,-3.1415926158408434,3.804274228969007e-06,0.499999463558197,0.5000014305114746,,,,,,,,,,,,,,,,,,,,,,,,,,,,,,,,,,,,,,,,,,,,,,,,,,,,,,,,,,,,,,,,,,,,,,,,,,,,,,,,,,,,,,,,,,,,,,,,,,,,,,,,,,,,,,,,,,,,,,,,,,,,,,,,,,,,,,-3.8802294710649216e-10,2.3880897259687117e-10,-5.696276783595522e-10,0.0,8.198186662866648e-08,1.0102518643861913e-07,-1.7170092405649484e-06,-1.718214093671122e-06,-0.0010341305751353,3.174742596456781e-05,2.9718856239924207e-05,0.0,-4.935771471537009e-07,-2.1240492060314864e-05,-3.2249436117126606e-06,7.760225344100036e-06,,,,,,,,,,,,,,,,,,,,,,,,,,,,,,,,,,,,,,,,,,,,,,,,,,,,,,,,,,,,,,,,,,,,,,,,,,
107,3.399784803390503,0.6077569127082825,1.5726906061172483,0.3874381473660469,0.0,-3.141592675445488,-1.693894624565928e-08,0.5000002980232239,0.5000002980232239,0.6063581705093384,1.570977807044983,0.3901292672753334,0.0,-3.1415926158408434,3.07992354464659e-06,0.4999995827674866,0.5000011324882507,,,,,,,,,,,,,,,,,,,,,,,,,,,,,,,,,,,,,,,,,,,,,,,,,,,,,,,,,,,,,,,,,,,,,,,,,,,,,,,,,,,,,,,,,,,,,,,,,,,,,,,,,,,,,,,,,,,,,,,,,,,,,,,,,,,,,,-3.2757130341565244e-10,2.0150547896946589e-10,-4.803588082857857e-10,0.0,6.915501415960534e-08,8.521513450432394e-08,-1.4482674259852502e-06,-1.449451360713283e-06,-0.00085509539349,2.6265681299264543e-05,2.45645314862486e-05,0.0,-4.001062166025804e-07,-1.7232276150025427e-05,-2.586214350230875e-06,6.322817171167117e-06,,,,,,,,,,,,,,,,,,,,,,,,,,,,,,,,,,,,,,,,,,,,,,,,,,,,,,,,,,,,,,,,,,,,,,,,,,
108,3.42098331451416,0.6077569127082825,1.5726906061172483,0.3874381473660469,0.0,-3.141592675445488,-1.693894624565928e-08,0.5000002980232239,0.5000002980232239,0.606330156326294,1.5709786415100098,0.3901300719380379,0.0,-3.1415926158408434,2.5203207769664004e-06,0.4999996423721313,0.5000009536743164,,,,,,,,,,,,,,,,,,,,,,,,,,,,,,,,,,,,,,,,,,,,,,,,,,,,,,,,,,,,,,,,,,,,,,,,,,,,,,,,,,,,,,,,,,,,,,,,,,,,,,,,,,,,,,,,,,,,,,,,,,,,,,,,,,,,,,-3.2757130341565244e-10,2.0150547896946589e-10,-4.803588082857857e-10,0.0,6.915501415960534e-08,8.521513450432394e-08,-1.4482674259852502e-06,-1.449451360713283e-06,-0.0007141657406464,2.1948311768937856e-05,2.050872535619419e-05,0.0,-3.278363749359414e-07,-1.4130449926597066e-05,-2.0963975657650735e-06,5.206550213188166e-06,,,,,,,,,,,,,,,,,,,,,,,,,,,,,,,,,,,,,,,,,,,,,,,,,,,,,,,,,,,,,,,,,,,,,,,,,,
109,3.442197799682617,0.6077569127082825,1.5726906061172483,0.3874381473660469,0.0,-3.141592675445488,-1.4004842618930981e-08,0.5000002384185791,0.5000002384185791,0.6063287258148193,1.570978760719299,0.3901301091909409,0.0,-3.1415926158408434,2.4923699584178394e-06,0.4999996721744537,0.5000009536743164,,,,,,,,,,,,,,,,,,,,,,,,,,,,,,,,,,,,,,,,,,,,,,,,,,,,,,,,,,,,,,,,,,,,,,,,,,,,,,,,,,,,,,,,,,,,,,,,,,,,,,,,,,,,,,,,,,,,,,,,,,,,,,,,,,,,,,-2.707833957060757e-10,1.6653345369377348e-10,-3.969949369242442e-10,0.0,5.717965123608337e-08,7.045474603728509e-08,-1.1973688742727973e-06,-1.198502218358044e-06,-0.0007070558494888,2.173043685615994e-05,2.03041490749456e-05,0.0,-3.242247998969106e-07,-1.3975379260955378e-05,-2.072030838462524e-06,5.150637662154622e-06,,,,,,,,,,,,,,,,,,,,,,,,,,,,,,,,,,,,,,,,,,,,,,,,,,,,,,,,,,,,,,,,,,,,,,,,,,
110,3.4641616344451904,0.6077569127082825,1.5726906061172483,0.3874381473660469,0.0,-3.141592675445488,-1.4004842618930981e-08,0.5000002384185791,0.5000002384185791,0.6063055992126465,1.5709794759750366,0.390130772292614,0.0,-3.1415926158408434,2.0386139567563077e-06,0.4999997317790985,0.5000007748603821,,,,,,,,,,,,,,,,,,,,,,,,,,,,,,,,,,,,,,,,,,,,,,,,,,,,,,,,,,,,,,,,,,,,,,,,,,,,,,,,,,,,,,,,,,,,,,,,,,,,,,,,,,,,,,,,,,,,,,,,,,,,,,,,,,,,,,-2.707833957060757e-10,1.6653345369377348e-10,-3.969949369242442e-10,0.0,5.717965123608337e-08,7.045474603728509e-08,-1.1973688742727973e-06,-1.198502218358044e-06,-0.0005905248690396,1.815852738218382e-05,1.695176433713641e-05,0.0,-2.6556983812042745e-07,-1.1455714229668956e-05,-1.67799589689821e-06,4.240486305207014e-06,,,,,,,,,,,,,,,,,,,,,,,,,,,,,,,,,,,,,,,,,,,,,,,,,,,,,,,,,,,,,,,,,,,,,,,,,,
111,3.4856908321380615,0.6077569127082825,1.5726906061172483,0.3874381473660469,0.0,-3.141592675445488,-1.1578973335701905e-08,0.5000001788139343,0.5000001788139343,0.6063055992126465,1.5709794759750366,0.390130772292614,0.0,-3.1415926158408434,2.0386139567563077e-06,0.4999997317790985,0.5000007748603821,,,,,,,,,,,,,,,,,,,,,,,,,,,,,,,,,,,,,,,,,,,,,,,,,,,,,,,,,,,,,,,,,,,,,,,,,,,,,,,,,,,,,,,,,,,,,,,,,,,,,,,,,,,,,,,,,,,,,,,,,,,,,,,,,,,,,,-2.2393198406689407e-10,1.3788969965844444e-10,-3.28126414927965e-10,0.0,4.7278238213266384e-08,5.825059545827572e-08,-9.899348469843972e-07,-9.910017979564143e-07,-0.0005905248690396,1.815852738218382e-05,1.695176433713641e-05,0.0,-2.6556983812042745e-07,-1.1455714229668956e-05,-1.67799589689821e-06,4.240486305207014e-06,,,,,,,,,,,,,,,,,,,,,,,,,,,,,,,,,,,,,,,,,,,,,,,,,,,,,,,,,,,,,,,,,,,,,,,,,,
112,3.506614446640014,0.6077569127082825,1.5726906061172483,0.3874381473660469,0.0,-3.141592675445488,-1.1578973335701905e-08,0.5000001788139343,0.5000001788139343,0.6062862277030945,1.5709800720214844,0.3901313310861588,0.0,-3.1415926158408434,1.666733624006156e-06,0.4999997913837433,0.5000006556510925,,,,,,,,,,,,,,,,,,,,,,,,,,,,,,,,,,,,,,,,,,,,,,,,,,,,,,,,,,,,,,,,,,,,,,,,,,,,,,,,,,,,,,,,,,,,,,,,,,,,,,,,,,,,,,,,,,,,,,,,,,,,,,,,,,,,,,-2.2393198406689407e-10,1.3788969965844444e-10,-3.28126414927965e-10,0.0,4.7278238213266384e-08,5.825059545827572e-08,-9.899348469843972e-07,-9.910017979564143e-07,-0.0004931995063088,1.5173736755969005e-05,1.4152886251395104e-05,0.0,-2.1745111666859887e-07,-9.38702669373015e-06,-1.357583983008226e-06,3.4904912808997324e-06,,,,,,,,,,,,,,,,,,,,,,,,,,,,,,,,,,,,,,,,,,,,,,,,,,,,,,,,,,,,,,,,,,,,,,,,,,
113,3.5275630950927734,0.6077569127082825,1.5726906061172483,0.3874381473660469,0.0,-3.141592675445488,-9.573305703725056e-09,0.5000001788139343,0.5000001788139343,0.6062862277030945,1.5709800720214844,0.3901313310861588,0.0,-3.1415926158408434,1.666733624006156e-06,0.4999997913837433,0.5000006556510925,,,,,,,,,,,,,,,,,,,,,,,,,,,,,,,,,,,,,,,,,,,,,,,,,,,,,,,,,,,,,,,,,,,,,,,,,,,,,,,,,,,,,,,,,,,,,,,,,,,,,,,,,,,,,,,,,,,,,,,,,,,,,,,,,,,,,,-1.8496315590255108e-10,1.1413092693146608e-10,-2.7125524049154137e-10,0.0,3.90908958536329e-08,4.816080689806768e-08,-8.184381385945017e-07,-8.194255087801139e-07,-0.0004931995063088,1.5173736755969005e-05,1.4152886251395104e-05,0.0,-2.1745111666859887e-07,-9.38702669373015e-06,-1.357583983008226e-06,3.4904912808997324e-06,,,,,,,,,,,,,,,,,,,,,,,,,,,,,,,,,,,,,,,,,,,,,,,,,,,,,,,,,,,,,,,,,,,,,,,,,,
114,3.54951810836792,0.6077569127082825,1.5726906061172483,0.3874381473660469,0.0,-3.141592675445488,-7.994687578616322e-09,0.5000001192092896,0.5000001192092896,0.6062700748443604,1.5709805488586426,0.3901317930221558,0.0,-3.1415926158408434,1.3620644949696723e-06,0.4999998211860657,0.500000536441803,,,,,,,,,,,,,,,,,,,,,,,,,,,,,,,,,,,,,,,,,,,,,,,,,,,,,,,,,,,,,,,,,,,,,,,,,,,,,,,,,,,,,,,,,,,,,,,,,,,,,,,,,,,,,,,,,,,,,,,,,,,,,,,,,,,,,,-1.5459855617905302e-10,9.536815781530096e-11,-2.2651325259914754e-10,0.0,3.2646497061250563e-08,4.021917021646004e-08,-6.834603141214757e-07,-6.843686719548714e-07,-0.0004119145451113,1.267956213268917e-05,1.1816124242614023e-05,0.0,-1.7798556939396806e-07,-7.689093763474375e-06,-1.0972252084684442e-06,2.872568757084082e-06,,,,,,,,,,,,,,,,,,,,,,,,,,,,,,,,,,,,,,,,,,,,,,,,,,,,,,,,,,,,,,,,,,,,,,,,,,
115,3.5705456733703613,0.6077569127082825,1.5726906061172483,0.3874381473660469,0.0,-3.141592675445488,-7.915050836970751e-09,0.5000001192092896,0.5000001192092896,0.6062565445899963,1.5709809064865112,0.3901321804523468,0.0,-3.141592675445488,1.112552240556397e-06,0.499999850988388,0.5000004172325134,,,,,,,,,,,,,,,,,,,,,,,,,,,,,,,,,,,,,,,,,,,,,,,,,,,,,,,,,,,,,,,,,,,,,,,,,,,,,,,,,,,,,,,,,,,,,,,,,,,,,,,,,,,,,,,,,,,,,,,,,,,,,,,,,,,,,,-1.5315526624704034e-10,9.414691248821327e-11,-2.2420953982305034e-10,0.0,3.23218110054313e-08,3.981846674605549e-08,-6.766509841327206e-07,-6.775559313609847e-07,-0.000344026251696,1.059536043612752e-05,9.865180800261442e-06,0.0,-1.4562789374394924e-07,-6.295888852037024e-06,-8.858242495080049e-07,2.3635464003746165e-06,,,,,,,,,,,,,,,,,,,,,,,,,,,,,,,,,,,,,,,,,,,,,,,,,,,,,,,,,,,,,,,,,,,,,,,,,,
116,3.5914995670318604,0.6077569127082825,1.5726906061172483,0.3874381473660469,0.0,-3.141592675445488,-6.676382557913031e-09,0.5000001192092896,0.5000001192092896,0.6062565445899963,1.5709809064865112,0.3901321804523468,0.0,-3.141592675445488,1.112552240556397e-06,0.499999850988388,0.5000004172325134,,,,,,,,,,,,,,,,,,,,,,,,,,,,,,,,,,,,,,,,,,,,,,,,,,,,,,,,,,,,,,,,,,,,,,,,,,,,,,,,,,,,,,,,,,,,,,,,,,,,,,,,,,,,,,,,,,,,,,,,,,,,,,,,,,,,,,-1.2922996006636822e-10,7.982503547054876e-11,-1.8907791998756807e-10,0.0,2.7265024016287498e-08,3.358695721544791e-08,-5.707439640900702e-07,-5.715720021726156e-07,-0.000344026251696,1.059536043612752e-05,9.865180800261442e-06,0.0,-1.4562789374394924e-07,-6.295888852037024e-06,-8.858242495080049e-07,2.3635464003746165e-06,,,,,,,,,,,,,,,,,,,,,,,,,,,,,,,,,,,,,,,,,,,,,,,,,,,,,,,,,,,,,,,,,,,,,,,,,,
117,3.612325668334961,0.6077569127082825,1.5726906061172483,0.3874381473660469,0.0,-3.141592675445488,-6.676382557913031e-09,0.5000001192092896,0.5000001192092896,0.6062452793121338,1.57098126411438,0.3901325082778931,0.0,-3.141592675445488,9.08290871848294e-07,0.4999998807907104,0.5000003576278687,,,,,,,,,,,,,,,,,,,,,,,,,,,,,,,,,,,,,,,,,,,,,,,,,,,,,,,,,,,,,,,,,,,,,,,,,,,,,,,,,,,,,,,,,,,,,,,,,,,,,,,,,,,,,,,,,,,,,,,,,,,,,,,,,,,,,,-1.2922996006636822e-10,7.982503547054876e-11,-1.8907791998756807e-10,0.0,2.7265024016287498e-08,3.358695721544791e-08,-5.707439640900702e-07,-5.715720021726156e-07,-0.0002873267512768,8.853745384840295e-06,8.236354915425181e-06,0.0,-1.1910461239494909e-07,-5.153081019670935e-06,-7.143124207686924e-07,1.944305495271692e-06,,,,,,,,,,,,,,,,,,,,,,,,,,,,,,,,,,,,,,,,,,,,,,,,,,,,,,,,,,,,,,,,,,,,,,,,,,
118,3.633080959320069,0.6077569127082825,1.5726906061172483,0.3874381473660469,0.0,-3.141592675445488,-5.519923629293544e-09,0.5000001192092896,0.5000001192092896,0.6062452793121338,1.57098126411438,0.3901325082778931,0.0,-3.141592675445488,9.08290871848294e-07,0.4999998807907104,0.5000003576278687,,,,,,,,,,,,,,,,,,,,,,,,,,,,,,,,,,,,,,,,,,,,,,,,,,,,,,,,,,,,,,,,,,,,,,,,,,,,,,,,,,,,,,,,,,,,,,,,,,,,,,,,,,,,,,,,,,,,,,,,,,,,,,,,,,,,,,-1.0652589921278376e-10,6.561418075534675e-11,-1.5633327965502986e-10,0.0,2.2543245492556707e-08,2.776928198500173e-08,-4.7186722440528683e-07,-4.726139479771519e-07,-0.0002873267512768,8.853745384840295e-06,8.236354915425181e-06,0.0,-1.1910461239494909e-07,-5.153081019670935e-06,-7.143124207686924e-07,1.944305495271692e-06,,,,,,,,,,,,,,,,,,,,,,,,,,,,,,,,,,,,,,,,,,,,,,,,,,,,,,,,,,,,,,,,,,,,,,,,,,
