MHC-RobotSimulators-Research/Data_Analysis_MotionReplication/mai_plotter/offset_fixed/1arm__a3.csv
Unnamed: 0,time,jpos0,jpos1,jpos2,jpos3,jpos4,jpos5,jpos6,jpos7,jpos8,jpos9,jpos10,jpos11,jpos12,jpos13,jpos14,jpos15,runlevel,sublevel,last_seq,type0,type1,pos0,pos1,pos2,pos3,pos4,pos5,ori0,ori1,ori2,ori3,ori4,ori5,ori6,ori7,ori8,ori9,ori10,ori11,ori12,ori13,ori14,ori15,ori16,ori17,ori_d0,ori_d1,ori_d2,ori_d3,ori_d4,ori_d5,ori_d6,ori_d7,ori_d8,ori_d9,ori_d10,ori_d11,ori_d12,ori_d13,ori_d14,ori_d15,ori_d16,ori_d17,pos_d0,pos_d1,pos_d2,pos_d3,pos_d4,pos_d5,encVals0,encVals1,encVals2,encVals3,encVals4,encVals5,encVals6,encVals7,encVals8,encVals9,encVals10,encVals11,encVals12,encVals13,encVals14,encVals15,dac_vals0,dac_vals1,dac_vals2,dac_vals3,dac_vals4,dac_vals5,dac_vals6,dac_vals7,dac_vals8,dac_vals9,dac_vals10,dac_vals11,dac_vals12,dac_vals13,dac_vals14,dac_vals15,Tau0,Tau1,Tau2,Tau3,Tau4,Tau5,Tau6,Tau7,Tau8,Tau9,Tau10,Tau11,Tau12,Tau13,Tau14,Tau15,mpos0,mpos1,mpos2,mpos3,mpos4,mpos5,mpos6,mpos7,mpos8,mpos9,mpos10,mpos11,mpos12,mpos13,mpos14,mpos15,mvel0,mvel1,mvel2,mvel3,mvel4,mvel5,mvel6,mvel7,mvel8,mvel9,mvel10,mvel11,mvel12,mvel13,mvel14,mvel15,jvel0,jvel1,jvel2,jvel3,jvel4,jvel5,jvel6,jvel7,jvel8,jvel9,jvel10,jvel11,jvel12,jvel13,jvel14,jvel15,mpos_d0,mpos_d1,mpos_d2,mpos_d3,mpos_d4,mpos_d5,mpos_d6,mpos_d7,mpos_d8,mpos_d9,mpos_d10,mpos_d11,mpos_d12,mpos_d13,mpos_d14,mpos_d15,jpos_d0,jpos_d1,jpos_d2,jpos_d3,jpos_d4,jpos_d5,jpos_d6,jpos_d7,jpos_d8,jpos_d9,jpos_d10,jpos_d11,jpos_d12,jpos_d13,jpos_d14,jpos_d15,grasp_d0,grasp_d1,encoffsets0,encoffsets1,encoffsets2,encoffsets3,encoffsets4,encoffsets5,encoffsets6,encoffsets7,encoffsets8,encoffsets9,encoffsets10,encoffsets11,encoffsets12,encoffsets13,encoffsets14,encoffsets15,jac_vel0,jac_vel1,jac_vel2,jac_vel3,jac_vel4,jac_vel5,jac_vel6,jac_vel7,jac_vel8,jac_vel9,jac_vel10,jac_vel11,jac_f0,jac_f1,jac_f2,jac_f3,jac_f4,jac_f5,jac_f6,jac_f7,jac_f8,jac_f9,jac_f10,jac_f11
0,0.0,0.6108641624450684,1.5707969665527344,0.3899991130828857,0.0,-3.141592675445488,3.152574573363741e-17,0.7852993011474609,0.7852993011474609,0.6108166575431824,1.570808172225952,0.3899600049853325,0.0,-3.1417384684066088,-0.000419728225097,0.7852993011474609,0.7852993011474609,,,,,,,,,,,,,,,,,,,,,,,,,,,,,,,,,,,,,,,,,,,,,,,,,,,,,,,,,,,,,,,,,,,,,,,,,,,,,,,,,,,,,,,,,,,,,,,,,,,,,,,,,,,,,,,,,,,,,,,,,,,,,,,,,,,,,,0.0,0.0,0.0,0.0,0.0,0.0,0.0,0.0,0.0,0.0,0.0,0.0,0.0,0.0,0.0,0.0,,,,,,,,,,,,,,,,,,,,,,,,,,,,,,,,,,,,,,,,,,,,,,,,,,,,,,,,,,,,,,,,,,,,,,,,,,
1,1.116309642791748,0.6108048558235168,1.5708327293395996,0.3899504235386848,0.0,-3.1415923178176195,-1.0495058404558222e-06,0.5338205099105835,0.5334487557411194,0.6077591776847839,1.5715495347976685,0.3874535030126572,0.0,-3.1425927221755297,-0.0027947050984948,0.5290974974632263,0.5288876295089722,,,,,,,,,,,,,,,,,,,,,,,,,,,,,,,,,,,,,,,,,,,,,,,,,,,,,,,,,,,,,,,,,,,,,,,,,,,,,,,,,,,,,,,,,,,,,,,,,,,,,,,,,,,,,,,,,,,,,,,,,,,,,,,,,,,,,,-1.2480301165851415e-06,1.3669613508682232e-05,-5.062977834313642e-06,0.0,0.006222260184586,0.0006392823997884,-0.2130053788423538,-0.1827555149793625,-2.8357917472021658e-05,3.1193828817777103e-06,-4.4229997001821175e-05,0.0,0.0091770105063915,0.0175223182886838,0.1321508437395095,0.1133914664387703,,,,,,,,,,,,,,,,,,,,,,,,,,,,,,,,,,,,,,,,,,,,,,,,,,,,,,,,,,,,,,,,,,,,,,,,,,
2,1.1388506889343262,0.6108048558235168,1.5708327293395996,0.3899504086375236,0.0,-3.1415987551192552,-8.283249712803809e-07,0.5250682830810547,0.5247703194618225,0.6077591776847839,1.5715495347976685,0.3874535030126572,0.0,-3.1425927221755297,-0.0027947050984948,0.5290974974632263,0.5288876295089722,,,,,,,,,,,,,,,,,,,,,,,,,,,,,,,,,,,,,,,,,,,,,,,,,,,,,,,,,,,,,,,,,,,,,,,,,,,,,,,,,,,,,,,,,,,,,,,,,,,,,,,,,,,,,,,,,,,,,,,,,,,,,,,,,,,,,,9.876413287202013e-07,1.6575485233261134e-06,-1.4709435163240414e-06,0.0,-0.0032200489658862,0.0001933525054482,-0.1579970121383667,-0.1265803426504135,-2.8357917472021658e-05,3.1193828817777103e-06,-4.4229997001821175e-05,0.0,0.0091770105063915,0.0175223182886838,0.1321508437395095,0.1133914664387703,,,,,,,,,,,,,,,,,,,,,,,,,,,,,,,,,,,,,,,,,,,,,,,,,,,,,,,,,,,,,,,,,,,,,,,,,,
3,1.1602771282196045,0.6108048558235168,1.5708327293395996,0.3899504086375236,0.0,-3.1415987551192552,-8.283249712803809e-07,0.5250682830810547,0.5247703194618225,0.6077581644058228,1.5715497732162476,0.3874519681930542,0.0,-3.1423441112021715,-0.0021146640647202,0.5221611857414246,0.5220350027084351,,,,,,,,,,,,,,,,,,,,,,,,,,,,,,,,,,,,,,,,,,,,,,,,,,,,,,,,,,,,,,,,,,,,,,,,,,,,,,,,,,,,,,,,,,,,,,,,,,,,,,,,,,,,,,,,,,,,,,,,,,,,,,,,,,,,,,9.876413287202013e-07,1.6575485233261134e-06,-1.4709435163240414e-06,0.0,-0.0032200489658862,0.0001933525054482,-0.1579970121383667,-0.1265803426504135,-2.481609226379078e-05,6.1031496443320066e-06,-3.687816933961585e-05,0.0,0.0039469911716878,0.0105963060632348,0.1115998700261116,0.1105884462594986,,,,,,,,,,,,,,,,,,,,,,,,,,,,,,,,,,,,,,,,,,,,,,,,,,,,,,,,,,,,,,,,,,,,,,,,,,
4,1.181762933731079,0.6108048558235168,1.5708327293395996,0.3899503937363625,0.0,-3.1415923178176195,-7.725771133948456e-09,0.5206741094589233,0.5205351114273071,0.6077581644058228,1.5715497732162476,0.3874519681930542,0.0,-3.1423441112021715,-0.0021146640647202,0.5221611857414246,0.5220350027084351,,,,,,,,,,,,,,,,,,,,,,,,,,,,,,,,,,,,,,,,,,,,,,,,,,,,,,,,,,,,,,,,,,,,,,,,,,,,,,,,,,,,,,,,,,,,,,,,,,,,,,,,,,,,,,,,,,,,,,,,,,,,,,,,,,,,,,-4.743356782910269e-07,2.8782420713469037e-07,-3.621429414124578e-07,0.0,-1.3512184523278847e-05,-1.1559825452422956e-06,-0.1040020808577537,-0.1033035665750503,-2.481609226379078e-05,6.1031496443320066e-06,-3.687816933961585e-05,0.0,0.0039469911716878,0.0105963060632348,0.1115998700261116,0.1105884462594986,,,,,,,,,,,,,,,,,,,,,,,,,,,,,,,,,,,,,,,,,,,,,,,,,,,,,,,,,,,,,,,,,,,,,,,,,,
5,1.203376293182373,0.6108047962188721,1.5708327293395996,0.3899503788352013,0.0,-3.1415922582129747,-2.2915768838061013e-08,0.5172646641731262,0.5171501636505127,0.6077573299407959,1.5715500116348269,0.3874507537484169,0.0,-3.142221683261803,-0.0017673996044322,0.5185067653656006,0.5184023380279541,,,,,,,,,,,,,,,,,,,,,,,,,,,,,,,,,,,,,,,,,,,,,,,,,,,,,,,,,,,,,,,,,,,,,,,,,,,,,,,,,,,,,,,,,,,,,,,,,,,,,,,,,,,,,,,,,,,,,,,,,,,,,,,,,,,,,,-3.7552817389041593e-07,2.1250113491078082e-07,-3.1024373470245337e-07,0.0,-2.3851705464039696e-06,2.569607602254109e-07,-0.0868667364120483,-0.0862326696515083,-2.0732826669700444e-05,5.05309117215802e-06,-3.083272167714313e-05,0.0,0.0031596790067851,0.0088927363976836,0.0931072384119033,0.0925368443131446,,,,,,,,,,,,,,,,,,,,,,,,,,,,,,,,,,,,,,,,,,,,,,,,,,,,,,,,,,,,,,,,,,,,,,,,,,
6,1.224869966506958,0.6108047962188721,1.5708327293395996,0.3899503788352013,0.0,-3.1415922582129747,-2.2915768838061013e-08,0.5172646641731262,0.5171501636505127,0.6077566742897034,1.5715501308441162,0.3874497479200363,0.0,-3.14211767315667,-0.0014757547760382,0.5154548287391663,0.5153689980506897,,,,,,,,,,,,,,,,,,,,,,,,,,,,,,,,,,,,,,,,,,,,,,,,,,,,,,,,,,,,,,,,,,,,,,,,,,,,,,,,,,,,,,,,,,,,,,,,,,,,,,,,,,,,,,,,,,,,,,,,,,,,,,,,,,,,,,-3.7552817389041593e-07,2.1250113491078082e-07,-3.1024373470245337e-07,0.0,-2.3851705464039696e-06,2.569607602254109e-07,-0.0868667364120483,-0.0862326696515083,-1.7311480405624025e-05,4.2270025915058795e-06,-2.574172685854137e-05,0.0,0.0026488075964152,0.0074304649606347,0.077754907310009,0.0772830918431282,,,,,,,,,,,,,,,,,,,,,,,,,,,,,,,,,,,,,,,,,,,,,,,,,,,,,,,,,,,,,,,,,,,,,,,,,,
7,1.245772361755371,0.6108047962188721,1.5708327293395996,0.3899503713846207,0.0,-3.1415923774222643,-1.457262133186532e-08,0.5144173502922058,0.5143234729766846,0.6077566742897034,1.5715501308441162,0.3874497479200363,0.0,-3.14211767315667,-0.0014757547760382,0.5154548287391663,0.5153689980506897,,,,,,,,,,,,,,,,,,,,,,,,,,,,,,,,,,,,,,,,,,,,,,,,,,,,,,,,,,,,,,,,,,,,,,,,,,,,,,,,,,,,,,,,,,,,,,,,,,,,,,,,,,,,,,,,,,,,,,,,,,,,,,,,,,,,,,-3.1363751418211905e-07,1.774461679815431e-07,-2.5891509380926436e-07,0.0,-1.594707327967626e-06,1.9495173830819112e-07,-0.0725408494472503,-0.0720192641019821,-1.7311480405624025e-05,4.2270025915058795e-06,-2.574172685854137e-05,0.0,0.0026488075964152,0.0074304649606347,0.077754907310009,0.0772830918431282,,,,,,,,,,,,,,,,,,,,,,,,,,,,,,,,,,,,,,,,,,,,,,,,,,,,,,,,,,,,,,,,,,,,,,,,,,
8,1.2672510147094729,0.6108047962188721,1.5708327293395996,0.3899503713846207,0.0,-3.1415923774222643,-1.457262133186532e-08,0.5144173502922058,0.5143234729766846,0.6077560782432556,1.5715502500534058,0.3874488613009453,0.0,-3.142026537654808,-0.0012199344346299,0.5127776265144348,0.5127079486846924,,,,,,,,,,,,,,,,,,,,,,,,,,,,,,,,,,,,,,,,,,,,,,,,,,,,,,,,,,,,,,,,,,,,,,,,,,,,,,,,,,,,,,,,,,,,,,,,,,,,,,,,,,,,,,,,,,,,,,,,,,,,,,,,,,,,,,-3.1363751418211905e-07,1.774461679815431e-07,-2.5891509380926436e-07,0.0,-1.594707327967626e-06,1.9495173830819112e-07,-0.0725408494472503,-0.0720192641019821,-1.43146826303564e-05,3.4978615985892247e-06,-2.1277093765093017e-05,0.0,0.0021884199231863,0.0061423638835549,0.0642855688929557,0.0639016404747963,,,,,,,,,,,,,,,,,,,,,,,,,,,,,,,,,,,,,,,,,,,,,,,,,,,,,,,,,,,,,,,,,,,,,,,,,,
9,1.2894575595855713,0.6108047962188721,1.5708327293395996,0.3899503639340401,0.0,-3.141592437026909,-8.318959743291998e-09,0.5119196772575378,0.5118436217308044,0.6077560782432556,1.5715502500534058,0.3874488613009453,0.0,-3.142026537654808,-0.0012199344346299,0.5127776265144348,0.5127079486846924,,,,,,,,,,,,,,,,,,,,,,,,,,,,,,,,,,,,,,,,,,,,,,,,,,,,,,,,,,,,,,,,,,,,,,,,,,,,,,,,,,,,,,,,,,,,,,,,,,,,,,,,,,,,,,,,,,,,,,,,,,,,,,,,,,,,,,-2.593291696939559e-07,1.4702783346365322e-07,-2.1390847848579145e-07,0.0,-1.3396060012382804e-06,1.3999384407270554e-07,-0.0599738769233226,-0.0595503114163875,-1.43146826303564e-05,3.4978615985892247e-06,-2.1277093765093017e-05,0.0,0.0021884199231863,0.0061423638835549,0.0642855688929557,0.0639016404747963,,,,,,,,,,,,,,,,,,,,,,,,,,,,,,,,,,,,,,,,,,,,,,,,,,,,,,,,,,,,,,,,,,,,,,,,,,
10,1.3103108406066897,0.6108047962188721,1.5708327293395996,0.3899503564834595,0.0,-3.141592437026909,-4.263926989267475e-09,0.5100540518760681,0.5099910497665405,0.6077556014060974,1.571550369262695,0.3874481609463692,0.0,-3.1419548332671434,-0.0010186142753809,0.5106704831123352,0.5106132626533508,,,,,,,,,,,,,,,,,,,,,,,,,,,,,,,,,,,,,,,,,,,,,,,,,,,,,,,,,,,,,,,,,,,,,,,,,,,,,,,,,,,,,,,,,,,,,,,,,,,,,,,,,,,,,,,,,,,,,,,,,,,,,,,,,,,,,,-2.1876218170291398e-07,1.242281797431133e-07,-1.8031610693469704e-07,0.0,-1.1369476169420525e-06,1.0237578607075193e-07,-0.0505869463086128,-0.0502354763448238,-1.1955689842579886e-05,2.9234026897029253e-06,-1.7764010408427566e-05,0.0,0.0018266886472702,0.0051287561655044,0.0536843053996562,0.0533686652779579,,,,,,,,,,,,,,,,,,,,,,,,,,,,,,,,,,,,,,,,,,,,,,,,,,,,,,,,,,,,,,,,,,,,,,,,,,
11,1.332463026046753,0.6108047962188721,1.5708327293395996,0.3899503564834595,0.0,-3.141592437026909,-3.865871178732051e-09,0.5098547339439392,0.5097931027412415,0.6077552437782288,1.5715504884719849,0.387447609603405,0.0,-3.1418980300406725,-0.0008590808138251,0.5090004801750183,0.5089530348777771,,,,,,,,,,,,,,,,,,,,,,,,,,,,,,,,,,,,,,,,,,,,,,,,,,,,,,,,,,,,,,,,,,,,,,,,,,,,,,,,,,,,,,,,,,,,,,,,,,,,,,,,,,,,,,,,,,,,,,,,,,,,,,,,,,,,,,-2.144278141713585e-07,1.2178880126612057e-07,-1.767284771858613e-07,0.0,-1.1149552392453188e-06,9.857011917802085e-08,-0.0495840013027191,-0.0492401644587516,-1.0085851499752607e-05,2.467756303303758e-06,-1.4980412743170746e-05,0.0,0.0015401218552142,0.0043255244381725,0.0452823862433433,0.0450201109051704,,,,,,,,,,,,,,,,,,,,,,,,,,,,,,,,,,,,,,,,,,,,,,,,,,,,,,,,,,,,,,,,,,,,,,,,,,
12,1.3542659282684326,0.6108047962188721,1.5708327293395996,0.3899503490328789,0.0,-3.141592496631554,-7.638301657841851e-10,0.5081474781036377,0.5080975890159607,0.607755184173584,1.5715504884719849,0.3874475798010826,0.0,-3.141894930599144,-0.000850516022183,0.5089108347892761,0.5088638663291931,,,,,,,,,,,,,,,,,,,,,,,,,,,,,,,,,,,,,,,,,,,,,,,,,,,,,,,,,,,,,,,,,,,,,,,,,,,,,,,,,,,,,,,,,,,,,,,,,,,,,,,,,,,,,,,,,,,,,,,,,,,,,,,,,,,,,,-1.773007909378066e-07,1.0087097734867713e-07,-1.460129652741671e-07,0.0,-9.244430430044304e-07,6.7854614371754e-08,-0.0409940630197525,-0.0407150499522686,-9.985451470129192e-06,2.443282483000075e-06,-1.4830979125690646e-05,0.0,0.0015247397823259,0.0042824014090001,0.044831283390522,0.0445718541741371,,,,,,,,,,,,,,,,,,,,,,,,,,,,,,,,,,,,,,,,,,,,,,,,,,,,,,,,,,,,,,,,,,,,,,,,,,
13,1.375141143798828,0.6108047962188721,1.5708327293395996,0.3899503490328789,0.0,-3.141592496631554,-7.638301657841851e-10,0.5081474781036377,0.5080975890159607,0.6077548861503601,1.5715506076812744,0.3874470955133438,0.0,-3.1418449819068224,-0.0007101577357389,0.5074413418769836,0.5074028372764587,,,,,,,,,,,,,,,,,,,,,,,,,,,,,,,,,,,,,,,,,,,,,,,,,,,,,,,,,,,,,,,,,,,,,,,,,,,,,,,,,,,,,,,,,,,,,,,,,,,,,,,,,,,,,,,,,,,,,,,,,,,,,,,,,,,,,,-1.773007909378066e-07,1.0087097734867713e-07,-1.460129652741671e-07,0.0,-9.244430430044304e-07,6.7854614371754e-08,-0.0409940630197525,-0.0407150499522686,-8.339901796716731e-06,2.04200591724657e-06,-1.2382225577312056e-05,0.0,0.0012727034045383,0.0035757061559706,0.0374382063746452,0.037225030362606,,,,,,,,,,,,,,,,,,,,,,,,,,,,,,,,,,,,,,,,,,,,,,,,,,,,,,,,,,,,,,,,,,,,,,,,,,
14,1.3969311714172363,0.6108047366142273,1.5708327293395996,0.3899503415822983,0.0,-3.1415925562361986,1.1570433500196484e-09,0.506872296333313,0.5068309307098389,0.6077548861503601,1.5715506076812744,0.3874470955133438,0.0,-3.1418449819068224,-0.0007101577357389,0.5074413418769836,0.5074028372764587,,,,,,,,,,,,,,,,,,,,,,,,,,,,,,,,,,,,,,,,,,,,,,,,,,,,,,,,,,,,,,,,,,,,,,,,,,,,,,,,,,,,,,,,,,,,,,,,,,,,,,,,,,,,,,,,,,,,,,,,,,,,,,,,,,,,,,-1.495659773809166e-07,8.521372762970715e-08,-1.2308598229537893e-07,0.0,-7.797289640620875e-07,4.7288597926353766e-08,-0.0345777906477451,-0.0343464203178882,-8.339901796716731e-06,2.04200591724657e-06,-1.2382225577312056e-05,0.0,0.0012727034045383,0.0035757061559706,0.0374382063746452,0.037225030362606,,,,,,,,,,,,,,,,,,,,,,,,,,,,,,,,,,,,,,,,,,,,,,,,,,,,,,,,,,,,,,,,,,,,,,,,,,
15,1.4189183712005615,0.6108047366142273,1.5708327293395996,0.3899503415822983,0.0,-3.1415925562361986,1.1570433500196484e-09,0.506872296333313,0.5068309307098389,0.6077545881271362,1.5715506076812744,0.387446685731411,0.0,-3.1418032586554796,-0.0005929618491791,0.5062142014503479,0.5061826109886169,,,,,,,,,,,,,,,,,,,,,,,,,,,,,,,,,,,,,,,,,,,,,,,,,,,,,,,,,,,,,,,,,,,,,,,,,,,,,,,,,,,,,,,,,,,,,,,,,,,,,,,,,,,,,,,,,,,,,,,,,,,,,,,,,,,,,,-1.495659773809166e-07,8.521372762970715e-08,-1.2308598229537893e-07,0.0,-7.797289640620875e-07,4.7288597926353766e-08,-0.0345777906477451,-0.0343464203178882,-6.9655311563110445e-06,1.7066280406652368e-06,-1.0337788808101324e-05,0.0,0.0010623283451423,0.0029856273904442,0.0312643162906169,0.0310891885310411,,,,,,,,,,,,,,,,,,,,,,,,,,,,,,,,,,,,,,,,,,,,,,,,,,,,,,,,,,,,,,,,,,,,,,,,,,
16,1.4400849342346191,0.6108047366142273,1.5708327293395996,0.3899503415822983,0.0,-3.1415925562361986,2.594659154198098e-09,0.5056816935539246,0.5056483149528503,0.6077545881271362,1.5715506076812744,0.387446685731411,0.0,-3.1418032586554796,-0.0005929618491791,0.5062142014503479,0.5061826109886169,,,,,,,,,,,,,,,,,,,,,,,,,,,,,,,,,,,,,,,,,,,,,,,,,,,,,,,,,,,,,,,,,,,,,,,,,,,,,,,,,,,,,,,,,,,,,,,,,,,,,,,,,,,,,,,,,,,,,,,,,,,,,,,,,,,,,,-1.236695226225493e-07,7.056755180201435e-08,-1.0169573982921065e-07,0.0,-6.430773282772861e-07,3.0174323484288834e-08,-0.0285875257104635,-0.028399908915162,-6.9655311563110445e-06,1.7066280406652368e-06,-1.0337788808101324e-05,0.0,0.0010623283451423,0.0029856273904442,0.0312643162906169,0.0310891885310411,,,,,,,,,,,,,,,,,,,,,,,,,,,,,,,,,,,,,,,,,,,,,,,,,,,,,,,,,,,,,,,,,,,,,,,,,,
17,1.4612746238708496,0.6108047366142273,1.5708327293395996,0.3899503341317177,0.0,-3.1415925562361986,3.444754703707531e-09,0.5047447085380554,0.5047173500061035,0.6077543497085571,1.571550726890564,0.3874463355541229,0.0,-3.1417667210082323,-0.0004901701468043,0.5051377415657043,0.5051121115684509,,,,,,,,,,,,,,,,,,,,,,,,,,,,,,,,,,,,,,,,,,,,,,,,,,,,,,,,,,,,,,,,,,,,,,,,,,,,,,,,,,,,,,,,,,,,,,,,,,,,,,,,,,,,,,,,,,,,,,,,,,,,,,,,,,,,,,-1.0328538024850786e-07,5.9018457676529585e-08,-8.487190683581504e-08,0.0,-5.34729736045847e-07,1.8321104633400864e-08,-0.0238728523254394,-0.0237190853804349,-5.759738996857777e-06,1.4121819731371945e-06,-8.544816409994382e-06,0.0,0.0008778718765825,0.002468068851158,0.0258484594523906,0.0257061999291181,,,,,,,,,,,,,,,,,,,,,,,,,,,,,,,,,,,,,,,,,,,,,,,,,,,,,,,,,,,,,,,,,,,,,,,,,,
18,1.4826183319091797,0.6108047366142273,1.5708327293395996,0.3899503341317177,0.0,-3.1415925562361986,3.4802847270754e-09,0.5046973824501038,0.5046703815460205,0.6077541708946228,1.571550726890564,0.3874460673332214,0.0,-3.141739422080925,-0.0004133994225412,0.5043336749076843,0.5043123960494995,,,,,,,,,,,,,,,,,,,,,,,,,,,,,,,,,,,,,,,,,,,,,,,,,,,,,,,,,,,,,,,,,,,,,,,,,,,,,,,,,,,,,,,,,,,,,,,,,,,,,,,,,,,,,,,,,,,,,,,,,,,,,,,,,,,,,,-1.0225698332533285e-07,5.8435368543996447e-08,-8.402350459846275e-08,0.0,-5.292502578413405e-07,1.776509073181387e-08,-0.0236350148916244,-0.0234829373657703,-4.85893497170764e-06,1.1920627684958165e-06,-7.2058578552969266e-06,0.0,0.0007401542388834,0.0020815241150557,0.0218030214309692,0.0216849334537982,,,,,,,,,,,,,,,,,,,,,,,,,,,,,,,,,,,,,,,,,,,,,,,,,,,,,,,,,,,,,,,,,,,,,,,,,,
19,1.5038442611694336,0.6108047366142273,1.5708327293395996,0.3899503341317177,0.0,-3.1415926158408434,3.968130268816594e-09,0.5038836002349854,0.5038617849349976,0.6077541708946228,1.571550726890564,0.3874460673332214,0.0,-3.141739422080925,-0.0004133994225412,0.5043336749076843,0.5043123960494995,,,,,,,,,,,,,,,,,,,,,,,,,,,,,,,,,,,,,,,,,,,,,,,,,,,,,,,,,,,,,,,,,,,,,,,,,,,,,,,,,,,,,,,,,,,,,,,,,,,,,,,,,,,,,,,,,,,,,,,,,,,,,,,,,,,,,,-8.45518073333551e-08,4.8386517903509236e-08,-6.94226400810294e-08,0.0,-4.3479724354256177e-07,8.883164426265466e-09,-0.0195404775440692,-0.0194172579795122,-4.85893497170764e-06,1.1920627684958165e-06,-7.2058578552969266e-06,0.0,0.0007401542388834,0.0020815241150557,0.0218030214309692,0.0216849334537982,,,,,,,,,,,,,,,,,,,,,,,,,,,,,,,,,,,,,,,,,,,,,,,,,,,,,,,,,,,,,,,,,,,,,,,,,,
20,1.525543212890625,0.6108047366142273,1.5708327293395996,0.3899503341317177,0.0,-3.1415926158408434,3.968130268816594e-09,0.5038836002349854,0.5038617849349976,0.6077539920806885,1.571550726890564,0.3874458214640617,0.0,-3.1417139112929613,-0.0003417350235395,0.5035829544067383,0.5035657286643982,,,,,,,,,,,,,,,,,,,,,,,,,,,,,,,,,,,,,,,,,,,,,,,,,,,,,,,,,,,,,,,,,,,,,,,,,,,,,,,,,,,,,,,,,,,,,,,,,,,,,,,,,,,,,,,,,,,,,,,,,,,,,,,,,,,,,,-8.45518073333551e-08,4.8386517903509236e-08,-6.94226400810294e-08,0.0,-4.3479724354256177e-07,8.883164426265466e-09,-0.0195404775440692,-0.0194172579795122,-4.017813807877246e-06,9.863903187579126e-07,-5.956084351055324e-06,0.0,0.0006116383010521,0.0017206881893798,0.018026128411293,0.0179302580654621,,,,,,,,,,,,,,,,,,,,,,,,,,,,,,,,,,,,,,,,,,,,,,,,,,,,,,,,,,,,,,,,,,,,,,,,,,
21,1.5466201305389404,0.6108047366142273,1.5708327293395996,0.3899503341317177,0.0,-3.1415926158408434,4.1683376750256684e-09,0.5032431483268738,0.5032252669334412,0.6077539920806885,1.571550726890564,0.3874458214640617,0.0,-3.1417139112929613,-0.0003417350235395,0.5035829544067383,0.5035657286643982,,,,,,,,,,,,,,,,,,,,,,,,,,,,,,,,,,,,,,,,,,,,,,,,,,,,,,,,,,,,,,,,,,,,,,,,,,,,,,,,,,,,,,,,,,,,,,,,,,,,,,,,,,,,,,,,,,,,,,,,,,,,,,,,,,,,,,-7.061529316843007e-08,4.0464300354869926e-08,-5.793861390657185e-08,0.0,-3.604150435876363e-07,2.9114242128258642e-09,-0.0163178481161594,-0.0162169393151998,-4.017813807877246e-06,9.863903187579126e-07,-5.956084351055324e-06,0.0,0.0006116383010521,0.0017206881893798,0.018026128411293,0.0179302580654621,,,,,,,,,,,,,,,,,,,,,,,,,,,,,,,,,,,,,,,,,,,,,,,,,,,,,,,,,,,,,,,,,,,,,,,,,,
22,1.5689682960510254,0.6108047366142273,1.5708327293395996,0.3899503341317177,0.0,-3.1415926158408434,4.1683376750256684e-09,0.5032431483268738,0.5032252669334412,0.6077538728713989,1.5715508460998535,0.387445612847805,0.0,-3.1416928708533556,-0.000282493798295,0.5029622912406921,0.5029483437538147,,,,,,,,,,,,,,,,,,,,,,,,,,,,,,,,,,,,,,,,,,,,,,,,,,,,,,,,,,,,,,,,,,,,,,,,,,,,,,,,,,,,,,,,,,,,,,,,,,,,,,,,,,,,,,,,,,,,,,,,,,,,,,,,,,,,,,-7.061529316843007e-08,4.0464300354869926e-08,-5.793861390657185e-08,0.0,-3.604150435876363e-07,2.9114242128258642e-09,-0.0163178481161594,-0.0162169393151998,-3.322297516206163e-06,8.162015774360043e-07,-4.923069809592562e-06,0.0,0.0005054370849393,0.0014224025653675,0.0149034978821873,0.0148256933316588,,,,,,,,,,,,,,,,,,,,,,,,,,,,,,,,,,,,,,,,,,,,,,,,,,,,,,,,,,,,,,,,,,,,,,,,,,
23,1.59076189994812,0.6108047366142273,1.5708327293395996,0.3899503266811371,0.0,-3.1415926158408434,4.189001590049202e-09,0.5027082562446594,0.5026937127113342,0.6077537536621094,1.5715508460998535,0.3874454563856125,0.0,-3.141676300762108,-0.0002358738565817,0.502473771572113,0.5024623870849609,,,,,,,,,,,,,,,,,,,,,,,,,,,,,,,,,,,,,,,,,,,,,,,,,,,,,,,,,,,,,,,,,,,,,,,,,,,,,,,,,,,,,,,,,,,,,,,,,,,,,,,,,,,,,,,,,,,,,,,,,,,,,,,,,,,,,,-5.897599208992688e-08,3.3838155388821185e-08,-4.835446532069909e-08,0.0,-2.984131697303383e-07,-1.2748749833590978e-09,-0.0136266974732279,-0.0135440900921821,-2.774802624117001e-06,6.821414331170672e-07,-4.11022074331413e-06,0.0,0.0004218896501697,0.0011876656208187,0.0124457795172929,0.0123819587752223,,,,,,,,,,,,,,,,,,,,,,,,,,,,,,,,,,,,,,,,,,,,,,,,,,,,,,,,,,,,,,,,,,,,,,,,,,
24,1.6125941276550293,0.6108047366142273,1.5708327293395996,0.3899503266811371,0.0,-3.1415926158408434,4.085615845639268e-09,0.5022616386413574,0.5022497177124023,0.6077537536621094,1.5715508460998535,0.3874454414844513,0.0,-3.141675466297081,-0.0002335222088731,0.5024491548538208,0.5024378299713135,,,,,,,,,,,,,,,,,,,,,,,,,,,,,,,,,,,,,,,,,,,,,,,,,,,,,,,,,,,,,,,,,,,,,,,,,,,,,,,,,,,,,,,,,,,,,,,,,,,,,,,,,,,,,,,,,,,,,,,,,,,,,,,,,,,,,,-4.9254932577014194e-08,2.8295588094806593e-08,-4.03557756101236e-08,0.0,-2.468300124292e-07,-4.118764440619316e-09,-0.0113793723285198,-0.0113117760047316,-2.7471810426504817e-06,6.753755315003218e-07,-4.069220267410856e-06,0.0,0.0004176760267,0.0011758246691897,0.0123217953369021,0.012258674018085,,,,,,,,,,,,,,,,,,,,,,,,,,,,,,,,,,,,,,,,,,,,,,,,,,,,,,,,,,,,,,,,,,,,,,,,,,
25,1.6341736316680908,0.6108047366142273,1.5708327293395996,0.3899503266811371,0.0,-3.1415926158408434,4.085615845639268e-09,0.5022616386413574,0.5022497177124023,0.6077536940574646,1.5715508460998535,0.3874453148245811,0.0,-3.1416618168334276,-0.0001949839788721,0.5020452737808228,0.5020360350608826,,,,,,,,,,,,,,,,,,,,,,,,,,,,,,,,,,,,,,,,,,,,,,,,,,,,,,,,,,,,,,,,,,,,,,,,,,,,,,,,,,,,,,,,,,,,,,,,,,,,,,,,,,,,,,,,,,,,,,,,,,,,,,,,,,,,,,-4.9254932577014194e-08,2.8295588094806593e-08,-4.03557756101236e-08,0.0,-2.468300124292e-07,-4.118764440619316e-09,-0.0113793723285198,-0.0113117760047316,-2.294462319696322e-06,5.644449174724286e-07,-3.3973503832385177e-06,0.0,0.0003486352507025,0.0009817795362323,0.01028982270509,0.0102380635216832,,,,,,,,,,,,,,,,,,,,,,,,,,,,,,,,,,,,,,,,,,,,,,,,,,,,,,,,,,,,,,,,,,,,,,,,,,
26,1.655946969985962,0.6108047366142273,1.5708327293395996,0.3899503266811371,0.0,-3.1415926158408434,3.899729872358648e-09,0.501888632774353,0.5018789172172546,0.6077536940574646,1.5715508460998535,0.3874453148245811,0.0,-3.1416618168334276,-0.0001949839788721,0.5020452737808228,0.5020360350608826,,,,,,,,,,,,,,,,,,,,,,,,,,,,,,,,,,,,,,,,,,,,,,,,,,,,,,,,,,,,,,,,,,,,,,,,,,,,,,,,,,,,,,,,,,,,,,,,,,,,,,,,,,,,,,,,,,,,,,,,,,,,,,,,,,,,,,-4.113642759762115e-08,2.3661073100811336e-08,-3.3680358058063575e-08,0.0,-2.0398493916218285e-07,-5.9631681814664725e-09,-0.0095026781782507,-0.0094473883509635,-2.294462319696322e-06,5.644449174724286e-07,-3.3973503832385177e-06,0.0,0.0003486352507025,0.0009817795362323,0.01028982270509,0.0102380635216832,,,,,,,,,,,,,,,,,,,,,,,,,,,,,,,,,,,,,,,,,,,,,,,,,,,,,,,,,,,,,,,,,,,,,,,,,,
27,1.677335262298584,0.6108047366142273,1.5708327293395996,0.3899503266811371,0.0,-3.1415926158408434,3.899729872358648e-09,0.501888632774353,0.5018789172172546,0.607753574848175,1.5715508460998535,0.3874452030658722,0.0,-3.1416503727416307,-0.0001628056925255,0.5017079710960388,0.5017004013061523,,,,,,,,,,,,,,,,,,,,,,,,,,,,,,,,,,,,,,,,,,,,,,,,,,,,,,,,,,,,,,,,,,,,,,,,,,,,,,,,,,,,,,,,,,,,,,,,,,,,,,,,,,,,,,,,,,,,,,,,,,,,,,,,,,,,,,-4.113642759762115e-08,2.3661073100811336e-08,-3.3680358058063575e-08,0.0,-2.0398493916218285e-07,-5.9631681814664725e-09,-0.0095026781782507,-0.0094473883509635,-1.9163487650075695e-06,4.7173432449199026e-07,-2.8364133868308272e-06,0.0,0.0002910066978074,0.0008197569986805,0.0085929399356246,0.0085505126044154,,,,,,,,,,,,,,,,,,,,,,,,,,,,,,,,,,,,,,,,,,,,,,,,,,,,,,,,,,,,,,,,,,,,,,,,,,
28,1.699005365371704,0.6108047366142273,1.5708327293395996,0.3899503266811371,0.0,-3.1415926158408434,3.662201208953774e-09,0.5015771389007568,0.5015692710876465,0.607753574848175,1.5715508460998535,0.3874452030658722,0.0,-3.1416503727416307,-0.0001628056925255,0.5017079710960388,0.5017004013061523,,,,,,,,,,,,,,,,,,,,,,,,,,,,,,,,,,,,,,,,,,,,,,,,,,,,,,,,,,,,,,,,,,,,,,,,,,,,,,,,,,,,,,,,,,,,,,,,,,,,,,,,,,,,,,,,,,,,,,,,,,,,,,,,,,,,,,-3.4356016698211533e-08,1.9785062477239993e-08,-2.8109223393357752e-08,0.0,-1.6844676054006413e-07,-7.067068263921783e-09,-0.0079354895278811,-0.0078902849927544,-1.9163487650075695e-06,4.7173432449199026e-07,-2.8364133868308272e-06,0.0,0.0002910066978074,0.0008197569986805,0.0085929399356246,0.0085505126044154,,,,,,,,,,,,,,,,,,,,,,,,,,,,,,,,,,,,,,,,,,,,,,,,,,,,,,,,,,,,,,,,,,,,,,,,,,
29,1.7205114364624023,0.6108047366142273,1.5708327293395996,0.3899503266811371,0.0,-3.141592675445488,3.380392410434751e-09,0.5013039112091064,0.5012975335121155,0.6077535152435303,1.5715508460998535,0.3874450987577438,0.0,-3.1416403591613085,-0.0001345824857708,0.5014120936393738,0.5014060139656067,,,,,,,,,,,,,,,,,,,,,,,,,,,,,,,,,,,,,,,,,,,,,,,,,,,,,,,,,,,,,,,,,,,,,,,,,,,,,,,,,,,,,,,,,,,,,,,,,,,,,,,,,,,,,,,,,,,,,,,,,,,,,,,,,,,,,,-2.8407498575688805e-08,1.6380008460714638e-08,-2.3225213752198215e-08,0.0,-1.375276070803011e-07,-7.650461597563663e-09,-0.0065607414580881,-0.0065242131240665,-1.5846139831410255e-06,3.903402046034899e-07,-2.3444704311259557e-06,0.0,0.0002404779806965,0.0006776485824957,0.0071044024080038,0.0070700193755328,,,,,,,,,,,,,,,,,,,,,,,,,,,,,,,,,,,,,,,,,,,,,,,,,,,,,,,,,,,,,,,,,,,,,,,,,,
30,1.7413320541381836,0.6108047366142273,1.5708327293395996,0.3899503266811371,0.0,-3.141592675445488,3.380392410434751e-09,0.5013039112091064,0.5012975335121155,0.6077534556388855,1.5715508460998535,0.3874450242519379,0.0,-3.1416320741156847,-0.0001112518875743,0.5011674761772156,0.5011625289916992,,,,,,,,,,,,,,,,,,,,,,,,,,,,,,,,,,,,,,,,,,,,,,,,,,,,,,,,,,,,,,,,,,,,,,,,,,,,,,,,,,,,,,,,,,,,,,,,,,,,,,,,,,,,,,,,,,,,,,,,,,,,,,,,,,,,,,-2.8407498575688805e-08,1.6380008460714638e-08,-2.3225213752198215e-08,0.0,-1.375276070803011e-07,-7.650461597563663e-09,-0.0065607414580881,-0.0065242131240665,-1.3103045830575866e-06,3.229900755741255e-07,-1.937849447131157e-06,0.0,0.0001987227296922,0.000560175103601,0.0058737215586006,0.0058458684943616,,,,,,,,,,,,,,,,,,,,,,,,,,,,,,,,,,,,,,,,,,,,,,,,,,,,,,,,,,,,,,,,,,,,,,,,,,
31,1.7621231079101562,0.6108047366142273,1.5708327293395996,0.3899503266811371,0.0,-3.141592675445488,3.101005896510855e-09,0.5010889172554016,0.5010836720466614,0.6077534556388855,1.5715508460998535,0.3874450242519379,0.0,-3.1416320741156847,-0.0001112518875743,0.5011674761772156,0.5011625289916992,,,,,,,,,,,,,,,,,,,,,,,,,,,,,,,,,,,,,,,,,,,,,,,,,,,,,,,,,,,,,,,,,,,,,,,,,,,,,,,,,,,,,,,,,,,,,,,,,,,,,,,,,,,,,,,,,,,,,,,,,,,,,,,,,,,,,,-2.3724911812905706e-08,1.3696266343288244e-08,-1.9383481486556775e-08,0.0,-1.1341644068352252e-07,-7.809597413199754e-09,-0.0054787388071417,-0.0054489029571413,-1.3103045830575866e-06,3.229900755741255e-07,-1.937849447131157e-06,0.0,0.0001987227296922,0.000560175103601,0.0058737215586006,0.0058458684943616,,,,,,,,,,,,,,,,,,,,,,,,,,,,,,,,,,,,,,,,,,,,,,,,,,,,,,,,,,,,,,,,,,,,,,,,,,
32,1.7844653129577637,0.6108047366142273,1.5708327293395996,0.3899503266811371,0.0,-3.141592675445488,3.101005896510855e-09,0.5010889172554016,0.5010836720466614,0.6077534556388855,1.571550965309143,0.3874449571967125,0.0,-3.141625577209404,-9.289188892580567e-05,0.5009749531745911,0.5009709000587463,,,,,,,,,,,,,,,,,,,,,,,,,,,,,,,,,,,,,,,,,,,,,,,,,,,,,,,,,,,,,,,,,,,,,,,,,,,,,,,,,,,,,,,,,,,,,,,,,,,,,,,,,,,,,,,,,,,,,,,,,,,,,,,,,,,,,,-2.3724911812905706e-08,1.3696266343288244e-08,-1.9383481486556775e-08,0.0,-1.1341644068352252e-07,-7.809597413199754e-09,-0.0054787388071417,-0.0054489029571413,-1.0943745110125749e-06,2.699375158954354e-07,-1.6178909163500066e-06,0.0,0.0001658742839936,0.0004677292599808,0.0049050929956138,0.0048822872340679,,,,,,,,,,,,,,,,,,,,,,,,,,,,,,,,,,,,,,,,,,,,,,,,,,,,,,,,,,,,,,,,,,,,,,,,,,
33,1.8072330951690672,0.6108047366142273,1.5708327293395996,0.3899503192305565,0.0,-3.141592675445488,2.8058795287222438e-09,0.5009002685546875,0.5008960962295532,0.6077534556388855,1.571550965309143,0.3874449571967125,0.0,-3.141625577209404,-9.289188892580567e-05,0.5009749531745911,0.5009709000587463,,,,,,,,,,,,,,,,,,,,,,,,,,,,,,,,,,,,,,,,,,,,,,,,,,,,,,,,,,,,,,,,,,,,,,,,,,,,,,,,,,,,,,,,,,,,,,,,,,,,,,,,,,,,,,,,,,,,,,,,,,,,,,,,,,,,,,-1.9617363733459573e-08,1.1338929795101649e-08,-1.601574517451354e-08,0.0,-9.248041266118889e-08,-7.689459735615856e-09,-0.0045295995660126,-0.004505515564233,-1.0943745110125749e-06,2.699375158954354e-07,-1.6178909163500066e-06,0.0,0.0001658742839936,0.0004677292599808,0.0049050929956138,0.0048822872340679,,,,,,,,,,,,,,,,,,,,,,,,,,,,,,,,,,,,,,,,,,,,,,,,,,,,,,,,,,,,,,,,,,,,,,,,,,
34,1.8285048007965088,0.6108047366142273,1.5708327293395996,0.3899503192305565,0.0,-3.141592675445488,2.549055189149385e-09,0.5007593631744385,0.5007559061050415,0.6077533960342407,1.571550965309143,0.3874449050426483,0.0,-3.1416198551635057,-7.678856491111219e-05,0.5008060932159424,0.5008028149604797,,,,,,,,,,,,,,,,,,,,,,,,,,,,,,,,,,,,,,,,,,,,,,,,,,,,,,,,,,,,,,,,,,,,,,,,,,,,,,,,,,,,,,,,,,,,,,,,,,,,,,,,,,,,,,,,,,,,,,,,,,,,,,,,,,,,,,-1.6548707293395637e-08,9.575673587391977e-09,-1.3501456841424897e-08,0.0,-7.701023463368983e-08,-7.412664260186831e-09,-0.0038206386379897,-0.0038007642142474,-9.049296636476356e-07,2.2336121219268537e-07,-1.3372866760619218e-06,0.0,0.0001370727550238,0.000386646046536,0.004055393859744,0.0040369350463151,,,,,,,,,,,,,,,,,,,,,,,,,,,,,,,,,,,,,,,,,,,,,,,,,,,,,,,,,,,,,,,,,,,,,,,,,,
35,1.8499739170074463,0.6108047366142273,1.5708327293395996,0.3899503192305565,0.0,-3.141592675445488,2.549055189149385e-09,0.5007593631744385,0.5007559061050415,0.6077533960342407,1.571550965309143,0.3874448603391647,0.0,-3.1416153848151476,-6.411606591427699e-05,0.5006731152534485,0.5006704926490784,,,,,,,,,,,,,,,,,,,,,,,,,,,,,,,,,,,,,,,,,,,,,,,,,,,,,,,,,,,,,,,,,,,,,,,,,,,,,,,,,,,,,,,,,,,,,,,,,,,,,,,,,,,,,,,,,,,,,,,,,,,,,,,,,,,,,,-1.6548707293395637e-08,9.575673587391977e-09,-1.3501456841424897e-08,0.0,-7.701023463368983e-08,-7.412664260186831e-09,-0.0038206386379897,-0.0038007642142474,-7.558030006293848e-07,1.8667323331555965e-07,-1.1164871693836176e-06,0.0,0.0001144148845924,0.0003228376153856,0.0033866236917674,0.0033715225290507,,,,,,,,,,,,,,,,,,,,,,,,,,,,,,,,,,,,,,,,,,,,,,,,,,,,,,,,,,,,,,,,,,,,,,,,,,
36,1.871556043624878,0.6108047366142273,1.5708327293395996,0.3899503192305565,0.0,-3.141592675445488,2.275679644725414e-09,0.5006278157234192,0.5006250143051147,0.6077533960342407,1.571550965309143,0.3874448603391647,0.0,-3.1416153848151476,-6.411606591427699e-05,0.5006731152534485,0.5006704926490784,,,,,,,,,,,,,,,,,,,,,,,,,,,,,,,,,,,,,,,,,,,,,,,,,,,,,,,,,,,,,,,,,,,,,,,,,,,,,,,,,,,,,,,,,,,,,,,,,,,,,,,,,,,,,,,,,,,,,,,,,,,,,,,,,,,,,,-1.3683387756202592e-08,7.927325462731005e-09,-1.1155576906674014e-08,0.0,-6.272987462807579e-08,-6.981575317865918e-09,-0.003158749314025,-0.0031427247449755,-7.558030006293848e-07,1.8667323331555965e-07,-1.1164871693836176e-06,0.0,0.0001144148845924,0.0003228376153856,0.0033866236917674,0.0033715225290507,,,,,,,,,,,,,,,,,,,,,,,,,,,,,,,,,,,,,,,,,,,,,,,,,,,,,,,,,,,,,,,,,,,,,,,,,,
37,1.8927061557769775,0.6108047366142273,1.5708327293395996,0.3899503192305565,0.0,-3.141592675445488,2.275679644725414e-09,0.5006278157234192,0.5006250143051147,0.607753336429596,1.571550965309143,0.3874448230862617,0.0,-3.1416116297225267,-5.353491724235937e-05,0.5005621314048767,0.5005599856376648,,,,,,,,,,,,,,,,,,,,,,,,,,,,,,,,,,,,,,,,,,,,,,,,,,,,,,,,,,,,,,,,,,,,,,,,,,,,,,,,,,,,,,,,,,,,,,,,,,,,,,,,,,,,,,,,,,,,,,,,,,,,,,,,,,,,,,-1.3683387756202592e-08,7.927325462731005e-09,-1.1155576906674014e-08,0.0,-6.272987462807579e-08,-6.981575317865918e-09,-0.003158749314025,-0.0031427247449755,-6.312512255135516e-07,1.5601109737417573e-07,-9.321439051745984e-07,0.0,9.550229151500388e-05,0.0002695594739634,0.0028281398117542,0.0028157907072454,,,,,,,,,,,,,,,,,,,,,,,,,,,,,,,,,,,,,,,,,,,,,,,,,,,,,,,,,,,,,,,,,,,,,,,,,,
38,1.9142446517944336,0.6108047366142273,1.5708327293395996,0.3899503192305565,0.0,-3.141592675445488,2.020335676533591e-09,0.5005190372467041,0.5005168318748474,0.607753336429596,1.571550965309143,0.3874448230862617,0.0,-3.1416116297225267,-5.353491724235937e-05,0.5005621314048767,0.5005599856376648,,,,,,,,,,,,,,,,,,,,,,,,,,,,,,,,,,,,,,,,,,,,,,,,,,,,,,,,,,,,,,,,,,,,,,,,,,,,,,,,,,,,,,,,,,,,,,,,,,,,,,,,,,,,,,,,,,,,,,,,,,,,,,,,,,,,,,-1.1314227776892949e-08,6.562750343164225e-09,-9.217355767532354e-09,0.0,-5.1072312601263554e-08,-6.475143532469474e-09,-0.0026115260552614,-0.0025986139662563,-6.312512255135516e-07,1.5601109737417573e-07,-9.321439051745984e-07,0.0,9.550229151500388e-05,0.0002695594739634,0.0028281398117542,0.0028157907072454,,,,,,,,,,,,,,,,,,,,,,,,,,,,,,,,,,,,,,,,,,,,,,,,,,,,,,,,,,,,,,,,,,,,,,,,,,
39,1.935241460800171,0.6108047366142273,1.5708327293395996,0.3899503192305565,0.0,-3.141592675445488,2.020335676533591e-09,0.5005190372467041,0.5005168318748474,0.607753336429596,1.571550965309143,0.3874447932839394,0.0,-3.141608649490288,-4.515013279160485e-05,0.5004741549491882,0.500472366809845,,,,,,,,,,,,,,,,,,,,,,,,,,,,,,,,,,,,,,,,,,,,,,,,,,,,,,,,,,,,,,,,,,,,,,,,,,,,,,,,,,,,,,,,,,,,,,,,,,,,,,,,,,,,,,,,,,,,,,,,,,,,,,,,,,,,,,-1.1314227776892949e-08,6.562750343164225e-09,-9.217355767532354e-09,0.0,-5.1072312601263554e-08,-6.475143532469474e-09,-0.0026115260552614,-0.0025986139662563,-5.325260303834511e-07,1.316915501092808e-07,-7.860788286961906e-07,0.0,8.05201125331223e-05,0.0002273404388688,0.0023855189792811,0.0023753112182021,,,,,,,,,,,,,,,,,,,,,,,,,,,,,,,,,,,,,,,,,,,,,,,,,,,,,,,,,,,,,,,,,,,,,,,,,,
40,1.9562938213348389,0.6108047366142273,1.5708327293395996,0.3899503192305565,0.0,-3.141592675445488,1.7850493305715531e-09,0.500429093837738,0.5004273653030396,0.6077532768249512,1.571550965309143,0.387444763481617,0.0,-3.141606026885918,-3.769895192817785e-05,0.5003959536552429,0.5003945231437683,,,,,,,,,,,,,,,,,,,,,,,,,,,,,,,,,,,,,,,,,,,,,,,,,,,,,,,,,,,,,,,,,,,,,,,,,,,,,,,,,,,,,,,,,,,,,,,,,,,,,,,,,,,,,,,,,,,,,,,,,,,,,,,,,,,,,,-9.355350272244324e-09,5.432654326398278e-09,-7.615796882021186e-09,0.0,-4.156230914986736e-08,-5.933513236300314e-09,-0.0021591039840132,-0.0021487066987901,-4.4476911398305674e-07,1.1005996469748425e-07,-6.56289330436266e-07,0.0,6.721024692524225e-05,0.0001898222253657,0.0019921259954571,0.0019837860018014,,,,,,,,,,,,,,,,,,,,,,,,,,,,,,,,,,,,,,,,,,,,,,,,,,,,,,,,,,,,,,,,,,,,,,,,,,
41,1.977668523788452,0.6108047366142273,1.5708327293395996,0.3899503192305565,0.0,-3.141592675445488,1.5813449438795144e-09,0.5003583431243896,0.500356912612915,0.6077532768249512,1.571550965309143,0.387444763481617,0.0,-3.1416058480719835,-3.732309050974436e-05,0.5003920197486877,0.5003905892372131,,,,,,,,,,,,,,,,,,,,,,,,,,,,,,,,,,,,,,,,,,,,,,,,,,,,,,,,,,,,,,,,,,,,,,,,,,,,,,,,,,,,,,,,,,,,,,,,,,,,,,,,,,,,,,,,,,,,,,,,,,,,,,,,,,,,,,-7.813083513497077e-09,4.5423664829513655e-09,-6.356172477239852e-09,0.0,-3.417765981339471e-08,-5.412970072171674e-09,-0.0018030229257419,-0.001794560230337,-4.403416653531167e-07,1.0896850000108317e-07,-6.497427307294856e-07,0.0,6.65389743517153e-05,0.0001879297051345,0.0019722804427146,0.0019640338141471,,,,,,,,,,,,,,,,,,,,,,,,,,,,,,,,,,,,,,,,,,,,,,,,,,,,,,,,,,,,,,,,,,,,,,,,,,
42,1.9987297058105469,0.6108047366142273,1.5708327293395996,0.3899503192305565,0.0,-3.141592675445488,1.5705764466744652e-09,0.5003547668457031,0.5003533363342285,0.6077532768249512,1.571550965309143,0.3874447485804558,0.0,-3.141603821514061,-3.147744428133592e-05,0.5003306865692139,0.5003294944763184,,,,,,,,,,,,,,,,,,,,,,,,,,,,,,,,,,,,,,,,,,,,,,,,,,,,,,,,,,,,,,,,,,,,,,,,,,,,,,,,,,,,,,,,,,,,,,,,,,,,,,,,,,,,,,,,,,,,,,,,,,,,,,,,,,,,,,-7.735256879470853e-09,4.4976244950589725e-09,-6.292605547741914e-09,0.0,-3.380779034500847e-08,-5.384226398064129e-09,-0.0017850598087534,-0.0017766936216503,-3.7147378861845937e-07,9.198208772431826e-08,-5.479294600263529e-07,0.0,5.610047446680255e-05,0.0001584956771694,0.001663606846705,0.0016567962011322,,,,,,,,,,,,,,,,,,,,,,,,,,,,,,,,,,,,,,,,,,,,,,,,,,,,,,,,,,,,,,,,,,,,,,,,,,
43,2.0206494331359863,0.6108047366142273,1.5708327293395996,0.3899503192305565,0.0,-3.141592675445488,1.386490366961368e-09,0.5002962946891785,0.500295102596283,0.6077532768249512,1.571550965309143,0.3874447485804558,0.0,-3.141603821514061,-3.147744428133592e-05,0.5003306865692139,0.5003294944763184,,,,,,,,,,,,,,,,,,,,,,,,,,,,,,,,,,,,,,,,,,,,,,,,,,,,,,,,,,,,,,,,,,,,,,,,,,,,,,,,,,,,,,,,,,,,,,,,,,,,,,,,,,,,,,,,,,,,,,,,,,,,,,,,,,,,,,-6.460498802596248e-09,3.76054742901033e-09,-5.251826973307061e-09,0.0,-2.7789937462330272e-08,-4.873994541298998e-09,-0.0014906662981957,-0.0014838617062196,-3.7147378861845937e-07,9.198208772431826e-08,-5.479294600263529e-07,0.0,5.610047446680255e-05,0.0001584956771694,0.001663606846705,0.0016567962011322,,,,,,,,,,,,,,,,,,,,,,,,,,,,,,,,,,,,,,,,,,,,,,,,,,,,,,,,,,,,,,,,,,,,,,,,,,
44,2.0422165393829346,0.6108047366142273,1.5708327293395996,0.3899503192305565,0.0,-3.141592675445488,1.386490366961368e-09,0.5002962946891785,0.500295102596283,0.6077532768249512,1.571550965309143,0.387444726228714,0.0,-3.1416018545607836,-2.602063977974467e-05,0.5002734065055847,0.5002724528312683,,,,,,,,,,,,,,,,,,,,,,,,,,,,,,,,,,,,,,,,,,,,,,,,,,,,,,,,,,,,,,,,,,,,,,,,,,,,,,,,,,,,,,,,,,,,,,,,,,,,,,,,,,,,,,,,,,,,,,,,,,,,,,,,,,,,,,-6.460498802596248e-09,3.76054742901033e-09,-5.251826973307061e-09,0.0,-2.7789937462330272e-08,-4.873994541298998e-09,-0.0014906662981957,-0.0014838617062196,-3.071688468025968e-07,7.611023278286666e-08,-4.528974670847674e-07,0.0,4.635942605091259e-05,0.0001310195366386,0.0013754237443208,0.0013699271949008,,,,,,,,,,,,,,,,,,,,,,,,,,,,,,,,,,,,,,,,,,,,,,,,,,,,,,,,,,,,,,,,,,,,,,,,,,
45,2.0635857582092285,0.6108047366142273,1.5708327293395996,0.3899503192305565,0.0,-3.141592675445488,1.220382350730631e-09,0.5002474188804626,0.5002464652061462,0.6077532768249512,1.571550965309143,0.387444726228714,0.0,-3.1416018545607836,-2.602063977974467e-05,0.5002734065055847,0.5002724528312683,,,,,,,,,,,,,,,,,,,,,,,,,,,,,,,,,,,,,,,,,,,,,,,,,,,,,,,,,,,,,,,,,,,,,,,,,,,,,,,,,,,,,,,,,,,,,,,,,,,,,,,,,,,,,,,,,,,,,,,,,,,,,,,,,,,,,,-5.395572877375798e-09,3.1440405834359812e-09,-4.383181373412981e-09,0.0,-2.2834401036675445e-08,-4.385505736337336e-09,-0.0012448243796825,-0.0012392938369885,-3.071688468025968e-07,7.611023278286666e-08,-4.528974670847674e-07,0.0,4.635942605091259e-05,0.0001310195366386,0.0013754237443208,0.0013699271949008,,,,,,,,,,,,,,,,,,,,,,,,,,,,,,,,,,,,,,,,,,,,,,,,,,,,,,,,,,,,,,,,,,,,,,,,,,
46,2.084651470184326,0.6108047366142273,1.5708327293395996,0.3899503192305565,0.0,-3.141592675445488,1.220382350730631e-09,0.5002474188804626,0.5002464652061462,0.6077532768249512,1.571550965309143,0.3874447113275528,0.0,-3.141600245235374,-2.150980435544625e-05,0.5002260208129883,0.5002252459526062,,,,,,,,,,,,,,,,,,,,,,,,,,,,,,,,,,,,,,,,,,,,,,,,,,,,,,,,,,,,,,,,,,,,,,,,,,,,,,,,,,,,,,,,,,,,,,,,,,,,,,,,,,,,,,,,,,,,,,,,,,,,,,,,,,,,,,-5.395572877375798e-09,3.1440405834359812e-09,-4.383181373412981e-09,0.0,-2.2834401036675445e-08,-4.385505736337336e-09,-0.0012448243796825,-0.0012392938369885,-2.5399560854566516e-07,6.29778469374287e-08,-3.743477918760618e-07,0.0,3.830976493190974e-05,0.0001083065362763,0.0011371618602424,0.0011327286483719,,,,,,,,,,,,,,,,,,,,,,,,,,,,,,,,,,,,,,,,,,,,,,,,,,,,,,,,,,,,,,,,,,,,,,,,,,
47,2.1063036918640137,0.6108047366142273,1.5708327293395996,0.3899503192305565,0.0,-3.141592675445488,1.0635397007519032e-09,0.5002045631408691,0.5002037882804871,0.6077532768249512,1.571550965309143,0.3874446964263916,0.0,-3.141599053142479,-1.814087590901181e-05,0.5001906752586365,0.500190019607544,,,,,,,,,,,,,,,,,,,,,,,,,,,,,,,,,,,,,,,,,,,,,,,,,,,,,,,,,,,,,,,,,,,,,,,,,,,,,,,,,,,,,,,,,,,,,,,,,,,,,,,,,,,,,,,,,,,,,,,,,,,,,,,,,,,,,,-4.461209179851266e-09,2.602584814326292e-09,-3.6215128673688915e-09,0.0,-1.8551272518152473e-08,-3.9004963703348494e-09,-0.0010291704675182,-0.0010247305035591,-2.1427159424547426e-07,5.3160697177645495e-08,-3.15688225782651e-07,0.0,3.229978392482735e-05,9.134326683124527e-05,0.0009591893176548,0.0009555337601341,,,,,,,,,,,,,,,,,,,,,,,,,,,,,,,,,,,,,,,,,,,,,,,,,,,,,,,,,,,,,,,,,,,,,,,,,,
48,2.1270742416381836,0.6108047366142273,1.5708327293395996,0.3899503192305565,0.0,-3.141592675445488,9.313111948294759e-10,0.5001708269119263,0.5001702308654785,0.6077532768249512,1.571550965309143,0.3874446964263916,0.0,-3.141599053142479,-1.814087590901181e-05,0.5001906752586365,0.500190019607544,,,,,,,,,,,,,,,,,,,,,,,,,,,,,,,,,,,,,,,,,,,,,,,,,,,,,,,,,,,,,,,,,,,,,,,,,,,,,,,,,,,,,,,,,,,,,,,,,,,,,,,,,,,,,,,,,,,,,,,,,,,,,,,,,,,,,,-3.726019492944488e-09,2.1763701951726944e-09,-3.022492034432389e-09,0.0,-1.5231705674523255e-08,-3.474732723773854e-09,-0.0008594387909397,-0.0008558359113521,-2.1427159424547426e-07,5.3160697177645495e-08,-3.15688225782651e-07,0.0,3.229978392482735e-05,9.134326683124527e-05,0.0009591893176548,0.0009555337601341,,,,,,,,,,,,,,,,,,,,,,,,,,,,,,,,,,,,,,,,,,,,,,,,,,,,,,,,,,,,,,,,,,,,,,,,,,
49,2.1482555866241455,0.6108047366142273,1.5708327293395996,0.3899503192305565,0.0,-3.141592675445488,9.313111948294759e-10,0.5001708269119263,0.5001702308654785,0.6077532768249512,1.571550965309143,0.387444688975811,0.0,-3.141597980258873,-1.4996043319115415e-05,0.5001576542854309,0.5001571178436279,,,,,,,,,,,,,,,,,,,,,,,,,,,,,,,,,,,,,,,,,,,,,,,,,,,,,,,,,,,,,,,,,,,,,,,,,,,,,,,,,,,,,,,,,,,,,,,,,,,,,,,,,,,,,,,,,,,,,,,,,,,,,,,,,,,,,,-3.726019492944488e-09,2.1763701951726944e-09,-3.022492034432389e-09,0.0,-1.5231705674523255e-08,-3.474732723773854e-09,-0.0008594387909397,-0.0008558359113521,-1.771795439253765e-07,4.398770414582032e-08,-2.609357920846378e-07,0.0,2.669136847543996e-05,7.550837472081184e-05,0.0007930309511721,0.0007900861091911,,,,,,,,,,,,,,,,,,,,,,,,,,,,,,,,,,,,,,,,,,,,,,,,,,,,,,,,,,,,,,,,,,,,,,,,,,
50,2.169517517089844,0.6108047366142273,1.5708327293395996,0.3899503192305565,0.0,-3.141592675445488,8.137680529429757e-10,0.5001426339149475,0.5001421570777893,0.6077532768249512,1.571550965309143,0.387444688975811,0.0,-3.141597980258873,-1.4996043319115415e-05,0.5001576542854309,0.5001571178436279,,,,,,,,,,,,,,,,,,,,,,,,,,,,,,,,,,,,,,,,,,,,,,,,,,,,,,,,,,,,,,,,,,,,,,,,,,,,,,,,,,,,,,,,,,,,,,,,,,,,,,,,,,,,,,,,,,,,,,,,,,,,,,,,,,,,,,-3.111899626873082e-09,1.819544515058169e-09,-2.5225654898264342e-09,0.0,-1.2501555346489113e-08,-3.083313826479639e-09,-0.0007176994695328,-0.0007147783180698,-1.771795439253765e-07,4.398770414582032e-08,-2.609357920846378e-07,0.0,2.669136847543996e-05,7.550837472081184e-05,0.0007930309511721,0.0007900861091911,,,,,,,,,,,,,,,,,,,,,,,,,,,,,,,,,,,,,,,,,,,,,,,,,,,,,,,,,,,,,,,,,,,,,,,,,,
51,2.1913046836853027,0.6108047366142273,1.5708327293395996,0.3899503192305565,0.0,-3.141592675445488,8.137680529429757e-10,0.5001426339149475,0.5001421570777893,0.6077532172203064,1.571550965309143,0.3874446815252304,0.0,-3.1415970265845568,-1.239638640981866e-05,0.500130295753479,0.5001299381256104,,,,,,,,,,,,,,,,,,,,,,,,,,,,,,,,,,,,,,,,,,,,,,,,,,,,,,,,,,,,,,,,,,,,,,,,,,,,,,,,,,,,,,,,,,,,,,,,,,,,,,,,,,,,,,,,,,,,,,,,,,,,,,,,,,,,,,-3.111899626873082e-09,1.819544515058169e-09,-2.5225654898264342e-09,0.0,-1.2501555346489113e-08,-3.083313826479639e-09,-0.0007176994695328,-0.0007147783180698,-1.465084125129579e-07,3.6397661773435175e-08,-2.1567954888723762e-07,0.0,2.205676901212428e-05,6.241854134714231e-05,0.0006556558073498,0.0006532851839438,,,,,,,,,,,,,,,,,,,,,,,,,,,,,,,,,,,,,,,,,,,,,,,,,,,,,,,,,,,,,,,,,,,,,,,,,,
52,2.2144172191619873,0.6108047366142273,1.5708327293395996,0.3899503192305565,0.0,-3.141592675445488,7.151180203557316e-10,0.5001203417778015,0.5001199245452881,0.6077532172203064,1.571550965309143,0.3874446740746498,0.0,-3.141596311328819,-1.035059176501818e-05,0.5001088380813599,0.5001084804534912,,,,,,,,,,,,,,,,,,,,,,,,,,,,,,,,,,,,,,,,,,,,,,,,,,,,,,,,,,,,,,,,,,,,,,,,,,,,,,,,,,,,,,,,,,,,,,,,,,,,,,,,,,,,,,,,,,,,,,,,,,,,,,,,,,,,,,-2.624955808272489e-09,1.5365486660812167e-09,-2.1266530758623503e-09,0.0,-1.0370482250721125e-08,-2.7447268902136553e-09,-0.0006053670076653,-0.0006029728101566,-1.2236472457516356e-07,3.0418778607099746e-08,-1.800687101649601e-07,0.0,1.8410786651656963e-05,5.211752431932837e-05,0.0005475323996506,0.0005456033977679,,,,,,,,,,,,,,,,,,,,,,,,,,,,,,,,,,,,,,,,,,,,,,,,,,,,,,,,,,,,,,,,,,,,,,,,,,
53,2.236015558242798,0.6108047366142273,1.5708327293395996,0.3899503192305565,0.0,-3.141592675445488,6.225769344503361e-10,0.5001004934310913,0.5001001358032227,0.6077532172203064,1.571550965309143,0.3874446740746498,0.0,-3.141596311328819,-1.035059176501818e-05,0.5001088380813599,0.5001084804534912,,,,,,,,,,,,,,,,,,,,,,,,,,,,,,,,,,,,,,,,,,,,,,,,,,,,,,,,,,,,,,,,,,,,,,,,,,,,,,,,,,,,,,,,,,,,,,,,,,,,,,,,,,,,,,,,,,,,,,,,,,,,,,,,,,,,,,-2.1923574067272966e-09,1.2848611063986935e-09,-1.774837277146446e-09,0.0,-8.505474546893765e-09,-2.41990427696237e-09,-0.0005055294022895,-0.0005035916692577,-1.2236472457516356e-07,3.0418778607099746e-08,-1.800687101649601e-07,0.0,1.8410786651656963e-05,5.211752431932837e-05,0.0005475323996506,0.0005456033977679,,,,,,,,,,,,,,,,,,,,,,,,,,,,,,,,,,,,,,,,,,,,,,,,,,,,,,,,,,,,,,,,,,,,,,,,,,
54,2.2580885887145996,0.6108047366142273,1.5708327293395996,0.3899503192305565,0.0,-3.141592675445488,6.225769344503361e-10,0.5001004934310913,0.5001001358032227,0.6077532172203064,1.571550965309143,0.3874446666240692,0.0,-3.1415957152823717,-8.556252396374475e-06,0.5000900030136108,0.500089704990387,,,,,,,,,,,,,,,,,,,,,,,,,,,,,,,,,,,,,,,,,,,,,,,,,,,,,,,,,,,,,,,,,,,,,,,,,,,,,,,,,,,,,,,,,,,,,,,,,,,,,,,,,,,,,,,,,,,,,,,,,,,,,,,,,,,,,,-2.1923574067272966e-09,1.2848611063986935e-09,-1.774837277146446e-09,0.0,-8.505474546893765e-09,-2.41990427696237e-09,-0.0005055294022895,-0.0005035916692577,-1.0118245086232493e-07,2.5170310280486777e-08,-1.488379410830021e-07,0.0,1.5213993719953578e-05,4.308263669372536e-05,0.0004526845004875,0.0004511338484007,,,,,,,,,,,,,,,,,,,,,,,,,,,,,,,,,,,,,,,,,,,,,,,,,,,,,,,,,,,,,,,,,,,,,,,,,,
55,2.2797646522521973,0.6108047366142273,1.5708327293395996,0.3899503192305565,0.0,-3.141592675445488,5.411122661058697e-10,0.5000839233398438,0.5000836253166199,0.6077532172203064,1.571550965309143,0.3874446666240692,0.0,-3.1415957152823717,-8.556252396374475e-06,0.5000900030136108,0.500089704990387,,,,,,,,,,,,,,,,,,,,,,,,,,,,,,,,,,,,,,,,,,,,,,,,,,,,,,,,,,,,,,,,,,,,,,,,,,,,,,,,,,,,,,,,,,,,,,,,,,,,,,,,,,,,,,,,,,,,,,,,,,,,,,,,,,,,,,-1.831035323363039e-09,1.0740297540223762e-09,-1.481384459545154e-09,0.0,-6.972811217309527e-09,-2.1273152128742367e-09,-0.0004221570852678,-0.0004205904260743,-1.0118245086232493e-07,2.5170310280486777e-08,-1.488379410830021e-07,0.0,1.5213993719953578e-05,4.308263669372536e-05,0.0004526845004875,0.0004511338484007,,,,,,,,,,,,,,,,,,,,,,,,,,,,,,,,,,,,,,,,,,,,,,,,,,,,,,,,,,,,,,,,,,,,,,,,,,
56,2.3012776374816895,0.6108047366142273,1.5708327293395996,0.3899503192305565,0.0,-3.141592675445488,4.733197722650573e-10,0.5000707507133484,0.5000705718994141,0.6077532172203064,1.571550965309143,0.3874446591734886,0.0,-3.1415951788405687,-7.072972039168235e-06,0.5000743865966797,0.5000742077827454,,,,,,,,,,,,,,,,,,,,,,,,,,,,,,,,,,,,,,,,,,,,,,,,,,,,,,,,,,,,,,,,,,,,,,,,,,,,,,,,,,,,,,,,,,,,,,,,,,,,,,,,,,,,,,,,,,,,,,,,,,,,,,,,,,,,,,-1.5444867607072863e-09,9.067191442113651e-10,-1.2487719747156232e-09,0.0,-5.7786553320227085e-09,-1.8792771783182616e-09,-0.0003560821351129,-0.000354801712092,-8.366701820250455e-08,2.0826895763548237e-08,-1.230237955951452e-07,0.0,1.2572278137668036e-05,3.561399717000313e-05,0.0003742669068742,0.0003730214375536,,,,,,,,,,,,,,,,,,,,,,,,,,,,,,,,,,,,,,,,,,,,,,,,,,,,,,,,,,,,,,,,,,,,,,,,,,
57,2.324228048324585,0.6108047366142273,1.5708327293395996,0.3899503192305565,0.0,-3.141592675445488,4.695885902350483e-10,0.5000700950622559,0.5000698566436768,0.6077532172203064,1.571550965309143,0.3874446591734886,0.0,-3.1415947616080553,-5.965181117062457e-06,0.5000627636909485,0.5000625848770142,,,,,,,,,,,,,,,,,,,,,,,,,,,,,,,,,,,,,,,,,,,,,,,,,,,,,,,,,,,,,,,,,,,,,,,,,,,,,,,,,,,,,,,,,,,,,,,,,,,,,,,,,,,,,,,,,,,,,,,,,,,,,,,,,,,,,,-1.5293322164211531e-09,8.981704269217515e-10,-1.2362819656885904e-09,0.0,-5.714317907745681e-09,-1.865611665152755e-09,-0.000352534581907,-0.0003512693219818,-7.058170581331069e-08,1.7580159550334432e-08,-1.0374613879093887e-07,0.0,1.0599942470435051e-05,3.0036026146262884e-05,0.0003156919265165,0.0003146689559798,,,,,,,,,,,,,,,,,,,,,,,,,,,,,,,,,,,,,,,,,,,,,,,,,,,,,,,,,,,,,,,,,,,,,,,,,,
58,2.3455610275268555,0.6108047366142273,1.5708327293395996,0.3899503192305565,0.0,-3.141592675445488,4.0370265463884886e-10,0.5000579357147217,0.5000577569007874,0.6077532172203064,1.571550965309143,0.3874446591734886,0.0,-3.1415947616080553,-5.905708349018823e-06,0.500062108039856,0.5000619292259216,,,,,,,,,,,,,,,,,,,,,,,,,,,,,,,,,,,,,,,,,,,,,,,,,,,,,,,,,,,,,,,,,,,,,,,,,,,,,,,,,,,,,,,,,,,,,,,,,,,,,,,,,,,,,,,,,,,,,,,,,,,,,,,,,,,,,,-1.2643219804431283e-09,7.431832926840797e-10,-1.0214538104236226e-09,0.0,-4.629907568443059e-09,-1.6198923313837101e-09,-0.000291461328743,-0.0002904527646023,-6.987932721358447e-08,1.740596644594916e-08,-1.0271127592886843e-07,0.0,1.0494073649169875e-05,2.973656592075713e-05,0.000312547024805,0.0003115358413197,,,,,,,,,,,,,,,,,,,,,,,,,,,,,,,,,,,,,,,,,,,,,,,,,,,,,,,,,,,,,,,,,,,,,,,,,,
59,2.3671398162841797,0.6108047366142273,1.5708327293395996,0.3899503192305565,0.0,-3.141592675445488,4.0370265463884886e-10,0.5000579357147217,0.5000577569007874,0.6077532172203064,1.571550965309143,0.387444651722908,0.0,-3.141594403980186,-4.931079274683725e-06,0.5000518560409546,0.500051736831665,,,,,,,,,,,,,,,,,,,,,,,,,,,,,,,,,,,,,,,,,,,,,,,,,,,,,,,,,,,,,,,,,,,,,,,,,,,,,,,,,,,,,,,,,,,,,,,,,,,,,,,,,,,,,,,,,,,,,,,,,,,,,,,,,,,,,,-1.2643219804431283e-09,7.431832926840797e-10,-1.0214538104236226e-09,0.0,-4.629907568443059e-09,-1.6198923313837101e-09,-0.000291461328743,-0.0002904527646023,-5.8363593069543647e-08,1.45470302470585e-08,-8.575261745136231e-08,0.0,8.759394404478371e-06,2.4829096219036728e-05,0.0002610052761156,0.0002601849846541,,,,,,,,,,,,,,,,,,,,,,,,,,,,,,,,,,,,,,,,,,,,,,,,,,,,,,,,,,,,,,,,,,,,,,,,,,
60,2.3886592388153076,0.6108047366142273,1.5708327293395996,0.3899503192305565,0.0,-3.141592675445488,3.4655459058008375e-10,0.5000478625297546,0.5000477433204651,0.6077532172203064,1.571550965309143,0.387444651722908,0.0,-3.141594403980186,-4.931079274683725e-06,0.5000518560409546,0.500051736831665,,,,,,,,,,,,,,,,,,,,,,,,,,,,,,,,,,,,,,,,,,,,,,,,,,,,,,,,,,,,,,,,,,,,,,,,,,,,,,,,,,,,,,,,,,,,,,,,,,,,,,,,,,,,,,,,,,,,,,,,,,,,,,,,,,,,,,-1.0454970222895101e-09,6.153966225497243e-10,-8.44067871152987e-10,0.0,-3.749167643007922e-09,-1.403776095365572e-09,-0.0002409684093436,-0.0002401655947323,-5.8363593069543647e-08,1.45470302470585e-08,-8.575261745136231e-08,0.0,8.759394404478371e-06,2.4829096219036728e-05,0.0002610052761156,0.0002601849846541,,,,,,,,,,,,,,,,,,,,,,,,,,,,,,,,,,,,,,,,,,,,,,,,,,,,,,,,,,,,,,,,,,,,,,,,,,
61,2.410230875015259,0.6108047366142273,1.5708327293395996,0.3899503192305565,0.0,-3.141592675445488,3.4655459058008375e-10,0.5000478625297546,0.5000477433204651,0.6077532172203064,1.571550965309143,0.387444651722908,0.0,-3.1415941655616075,-4.158758201810997e-06,0.5000437498092651,0.5000436305999756,,,,,,,,,,,,,,,,,,,,,,,,,,,,,,,,,,,,,,,,,,,,,,,,,,,,,,,,,,,,,,,,,,,,,,,,,,,,,,,,,,,,,,,,,,,,,,,,,,,,,,,,,,,,,,,,,,,,,,,,,,,,,,,,,,,,,,-1.0454970222895101e-09,6.153966225497243e-10,-8.44067871152987e-10,0.0,-3.749167643007922e-09,-1.403776095365572e-09,-0.0002409684093436,-0.0002401655947323,-4.923566976344773e-08,1.2279177674656694e-08,-7.23153519288644e-08,0.0,7.385219760180917e-06,2.094028786814306e-05,0.0002201563911512,0.0002194837288698,,,,,,,,,,,,,,,,,,,,,,,,,,,,,,,,,,,,,,,,,,,,,,,,,,,,,,,,,,,,,,,,,,,,,,,,,,
62,2.431298017501831,0.6108047366142273,1.5708327293395996,0.3899503192305565,0.0,-3.141592675445488,2.970946266778185e-10,0.5000395774841309,0.5000395178794861,0.6077532172203064,1.571550965309143,0.387444651722908,0.0,-3.1415939271430284,-3.507400151647744e-06,0.500036895275116,0.5000368356704712,,,,,,,,,,,,,,,,,,,,,,,,,,,,,,,,,,,,,,,,,,,,,,,,,,,,,,,,,,,,,,,,,,,,,,,,,,,,,,,,,,,,,,,,,,,,,,,,,,,,,,,,,,,,,,,,,,,,,,,,,,,,,,,,,,,,,,-8.644196469731468e-10,5.092593013955593e-10,-6.973727151304843e-10,0.0,-3.034739126661634e-09,-1.2137364446829222e-09,-0.0001992229226743,-0.0001985848357435,-4.1535276551485374e-08,1.0364931135598e-08,-6.09836874332359e-08,0.0,6.226624464034103e-06,1.7660555386100896e-05,0.000185700613656,0.0001851494453148,,,,,,,,,,,,,,,,,,,,,,,,,,,,,,,,,,,,,,,,,,,,,,,,,,,,,,,,,,,,,,,,,,,,,,,,,,
63,2.453315258026123,0.6108047366142273,1.5708327293395996,0.3899503192305565,0.0,-3.141592675445488,2.5646862411576876e-10,0.5000330805778503,0.5000329613685608,0.6077532172203064,1.571550965309143,0.387444651722908,0.0,-3.1415939271430284,-3.507400151647744e-06,0.500036895275116,0.5000368356704712,,,,,,,,,,,,,,,,,,,,,,,,,,,,,,,,,,,,,,,,,,,,,,,,,,,,,,,,,,,,,,,,,,,,,,,,,,,,,,,,,,,,,,,,,,,,,,,,,,,,,,,,,,,,,,,,,,,,,,,,,,,,,,,,,,,,,,-7.220335440649706e-10,4.2588155224621005e-10,-5.819303372511796e-10,0.0,-2.4822921496081563e-09,-1.0557509311226454e-09,-0.0001663669245317,-0.0001658543478697,-4.1535276551485374e-08,1.0364931135598e-08,-6.09836874332359e-08,0.0,6.226624464034103e-06,1.7660555386100896e-05,0.000185700613656,0.0001851494453148,,,,,,,,,,,,,,,,,,,,,,,,,,,,,,,,,,,,,,,,,,,,,,,,,,,,,,,,,,,,,,,,,,,,,,,,,,
64,2.4746339321136475,0.6108047366142273,1.5708327293395996,0.3899503192305565,0.0,-3.141592675445488,2.5646862411576876e-10,0.5000330805778503,0.5000329613685608,0.6077532172203064,1.571550965309143,0.3874446442723274,0.0,-3.1415936887244493,-2.899369974329602e-06,0.500030517578125,0.5000304579734802,,,,,,,,,,,,,,,,,,,,,,,,,,,,,,,,,,,,,,,,,,,,,,,,,,,,,,,,,,,,,,,,,,,,,,,,,,,,,,,,,,,,,,,,,,,,,,,,,,,,,,,,,,,,,,,,,,,,,,,,,,,,,,,,,,,,,,-7.220335440649706e-10,4.2588155224621005e-10,-5.819303372511796e-10,0.0,-2.4822921496081563e-09,-1.0557509311226454e-09,-0.0001663669245317,-0.0001658543478697,-3.434541540059399e-08,8.576250820624411e-09,-5.040679695866857e-08,0.0,5.14544490215485e-06,1.4598987945646512e-05,0.0001535320770926,0.0001530913868919,,,,,,,,,,,,,,,,,,,,,,,,,,,,,,,,,,,,,,,,,,,,,,,,,,,,,,,,,,,,,,,,,,,,,,,,,,
65,2.496896982192993,0.6108047366142273,1.5708327293395996,0.3899503192305565,0.0,-3.141592675445488,2.211642535776548e-10,0.500027596950531,0.5000275373458862,0.6077532172203064,1.571550965309143,0.3874446442723274,0.0,-3.1415936887244493,-2.899369974329602e-06,0.500030517578125,0.5000304579734802,,,,,,,,,,,,,,,,,,,,,,,,,,,,,,,,,,,,,,,,,,,,,,,,,,,,,,,,,,,,,,,,,,,,,,,,,,,,,,,,,,,,,,,,,,,,,,,,,,,,,,,,,,,,,,,,,,,,,,,,,,,,,,,,,,,,,,-6.029066135226913e-10,3.5582647939236267e-10,-4.857503288491215e-10,0.0,-2.030597912039411e-09,-9.165119219112227e-10,-0.0001389295503031,-0.0001385184586979,-3.434541540059399e-08,8.576250820624411e-09,-5.040679695866857e-08,0.0,5.14544490215485e-06,1.4598987945646512e-05,0.0001535320770926,0.0001530913868919,,,,,,,,,,,,,,,,,,,,,,,,,,,,,,,,,,,,,,,,,,,,,,,,,,,,,,,,,,,,,,,,,,,,,,,,,,
66,2.518831729888916,0.6108047366142273,1.5708327293395996,0.3899503192305565,0.0,-3.141592675445488,2.211642535776548e-10,0.500027596950531,0.5000275373458862,0.6077532172203064,1.571550965309143,0.3874446442723274,0.0,-3.141593509910515,-2.3967456854734337e-06,0.50002521276474,0.5000251531600952,,,,,,,,,,,,,,,,,,,,,,,,,,,,,,,,,,,,,,,,,,,,,,,,,,,,,,,,,,,,,,,,,,,,,,,,,,,,,,,,,,,,,,,,,,,,,,,,,,,,,,,,,,,,,,,,,,,,,,,,,,,,,,,,,,,,,,-6.029066135226913e-10,3.5582647939236267e-10,-4.857503288491215e-10,0.0,-2.030597912039411e-09,-9.165119219112227e-10,-0.0001389295503031,-0.0001385184586979,-2.839994905912135e-08,7.096656595706463e-09,-4.1664275585162613e-08,0.0,4.251997324900003e-06,1.2068161595379934e-05,0.0001269360363949,0.0001265840837731,,,,,,,,,,,,,,,,,,,,,,,,,,,,,,,,,,,,,,,,,,,,,,,,,,,,,,,,,,,,,,,,,,,,,,,,,,
67,2.539766311645508,0.6108047366142273,1.5708327293395996,0.3899503192305565,0.0,-3.141592675445488,1.8895494890980302e-10,0.500022828578949,0.5000227689743042,0.6077532172203064,1.571550965309143,0.3874446442723274,0.0,-3.1415933907012255,-2.0213594780216222e-06,0.5000212788581848,0.50002121925354,,,,,,,,,,,,,,,,,,,,,,,,,,,,,,,,,,,,,,,,,,,,,,,,,,,,,,,,,,,,,,,,,,,,,,,,,,,,,,,,,,,,,,,,,,,,,,,,,,,,,,,,,,,,,,,,,,,,,,,,,,,,,,,,,,,,,,-4.986011603591578e-10,2.9465319073551655e-10,-4.0128317335685887e-10,0.0,-1.6407430969422874e-09,-7.882773322975821e-10,-0.0001148613300756,-0.0001145362402894,-2.3958168782201028e-08,5.9900973070625704e-09,-3.513563129331487e-08,0.0,3.584940486689447e-06,1.0178007869399153e-05,0.0001070697981049,0.0001067822740878,,,,,,,,,,,,,,,,,,,,,,,,,,,,,,,,,,,,,,,,,,,,,,,,,,,,,,,,,,,,,,,,,,,,,,,,,,
68,2.5617878437042236,0.6108047366142273,1.5708327293395996,0.3899503192305565,0.0,-3.141592675445488,1.6398905844372536e-10,0.5000192523002625,0.5000191926956177,0.6077532172203064,1.571550965309143,0.3874446442723274,0.0,-3.1415933907012255,-2.001206439672387e-06,0.5000210404396057,0.5000210404396057,,,,,,,,,,,,,,,,,,,,,,,,,,,,,,,,,,,,,,,,,,,,,,,,,,,,,,,,,,,,,,,,,,,,,,,,,,,,,,,,,,,,,,,,,,,,,,,,,,,,,,,,,,,,,,,,,,,,,,,,,,,,,,,,,,,,,,-4.2060799287924056e-10,2.4913404672588513e-10,-3.3834046675451646e-10,0.0,-1.3556378242185472e-09,-6.881696323901564e-10,-9.688353020465e-05,-9.662048250902444e-05,-2.371974794357357e-08,5.930922419850049e-09,-3.4785138325332816e-08,0.0,3.549134135027998e-06,1.0076532817038242e-05,0.0001060031718225,0.0001057190529536,,,,,,,,,,,,,,,,,,,,,,,,,,,,,,,,,,,,,,,,,,,,,,,,,,,,,,,,,,,,,,,,,,,,,,,,,,
69,2.5827395915985107,0.6108047366142273,1.5708327293395996,0.3899503192305565,0.0,-3.141592675445488,1.6398905844372536e-10,0.5000192523002625,0.5000191926956177,0.6077532172203064,1.571550965309143,0.3874446442723274,0.0,-3.141593271491936,-1.654284460528288e-06,0.5000174045562744,0.5000174045562744,,,,,,,,,,,,,,,,,,,,,,,,,,,,,,,,,,,,,,,,,,,,,,,,,,,,,,,,,,,,,,,,,,,,,,,,,,,,,,,,,,,,,,,,,,,,,,,,,,,,,,,,,,,,,,,,,,,,,,,,,,,,,,,,,,,,,,-4.2060799287924056e-10,2.4913404672588513e-10,-3.3834046675451646e-10,0.0,-1.3556378242185472e-09,-6.881696323901564e-10,-9.688353020465e-05,-9.662048250902444e-05,-1.9613533908113823e-08,4.907407813448117e-09,-2.8752083380823024e-08,0.0,2.9328668915695744e-06,8.329701813636348e-06,8.76404665177688e-05,8.741411875234917e-05,,,,,,,,,,,,,,,,,,,,,,,,,,,,,,,,,,,,,,,,,,,,,,,,,,,,,,,,,,,,,,,,,,,,,,,,,,
70,2.6044890880584717,0.6108047366142273,1.5708327293395996,0.3899503192305565,0.0,-3.141592675445488,1.41020917165946e-10,0.5000160932540894,0.5000160336494446,0.6077532172203064,1.571550965309143,0.3874446442723274,0.0,-3.141593271491936,-1.654284460528288e-06,0.5000174045562744,0.5000174045562744,,,,,,,,,,,,,,,,,,,,,,,,,,,,,,,,,,,,,,,,,,,,,,,,,,,,,,,,,,,,,,,,,,,,,,,,,,,,,,,,,,,,,,,,,,,,,,,,,,,,,,,,,,,,,,,,,,,,,,,,,,,,,,,,,,,,,,-3.5110803153770576e-10,2.0816681711721683e-10,-2.8228114290484996e-10,0.0,-1.1070033778537436e-09,-5.951819592731056e-10,-8.0905418144539e-05,-8.069561590673402e-05,-1.9613533908113823e-08,4.907407813448117e-09,-2.8752083380823024e-08,0.0,2.9328668915695744e-06,8.329701813636348e-06,8.76404665177688e-05,8.741411875234917e-05,,,,,,,,,,,,,,,,,,,,,,,,,,,,,,,,,,,,,,,,,,,,,,,,,,,,,,,,,,,,,,,,,,,,,,,,,,
71,2.6264965534210205,0.6108047366142273,1.5708327293395996,0.3899503192305565,0.0,-3.141592675445488,1.41020917165946e-10,0.5000160932540894,0.5000160336494446,0.6077532172203064,1.571550965309143,0.3874446442723274,0.0,-3.1415931522826464,-1.36750350065995e-06,0.5000144243240356,0.5000143647193909,,,,,,,,,,,,,,,,,,,,,,,,,,,,,,,,,,,,,,,,,,,,,,,,,,,,,,,,,,,,,,,,,,,,,,,,,,,,,,,,,,,,,,,,,,,,,,,,,,,,,,,,,,,,,,,,,,,,,,,,,,,,,,,,,,,,,,-3.5110803153770576e-10,2.0816681711721683e-10,-2.8228114290484996e-10,0.0,-1.1070033778537436e-09,-5.951819592731056e-10,-8.0905418144539e-05,-8.069561590673402e-05,-1.621830492126719e-08,4.060418667961585e-09,-2.3765329260072576e-08,0.0,2.42360647462192e-06,6.885695256642066e-06,7.245868619065732e-05,7.227862806757912e-05,,,,,,,,,,,,,,,,,,,,,,,,,,,,,,,,,,,,,,,,,,,,,,,,,,,,,,,,,,,,,,,,,,,,,,,,,,
72,2.6490721702575684,0.6108047366142273,1.5708327293395996,0.3899503192305565,0.0,-3.141592675445488,1.2117040704140436e-10,0.5000134110450745,0.5000134110450745,0.6077532172203064,1.571550965309143,0.3874446442723274,0.0,-3.1415931522826464,-1.36750350065995e-06,0.5000144243240356,0.5000143647193909,,,,,,,,,,,,,,,,,,,,,,,,,,,,,,,,,,,,,,,,,,,,,,,,,,,,,,,,,,,,,,,,,,,,,,,,,,,,,,,,,,,,,,,,,,,,,,,,,,,,,,,,,,,,,,,,,,,,,,,,,,,,,,,,,,,,,,-2.9326541195473505e-10,1.7386092565629951e-10,-2.356587147644973e-10,0.0,-9.034439862887211e-10,-5.139398351339253e-10,-6.756243237759918e-05,-6.739547097822651e-05,-1.621830492126719e-08,4.060418667961585e-09,-2.3765329260072576e-08,0.0,2.42360647462192e-06,6.885695256642066e-06,7.245868619065732e-05,7.227862806757912e-05,,,,,,,,,,,,,,,,,,,,,,,,,,,,,,,,,,,,,,,,,,,,,,,,,,,,,,,,,,,,,,,,,,,,,,,,,,
73,2.6710736751556396,0.6108047366142273,1.5708327293395996,0.3899503192305565,0.0,-3.141592675445488,1.0491832402870216e-10,0.5000113248825073,0.5000113248825073,0.6077532172203064,1.571550965309143,0.3874446442723274,0.0,-3.1415930926780016,-1.1418219401093666e-06,0.5000120401382446,0.5000119805335999,,,,,,,,,,,,,,,,,,,,,,,,,,,,,,,,,,,,,,,,,,,,,,,,,,,,,,,,,,,,,,,,,,,,,,,,,,,,,,,,,,,,,,,,,,,,,,,,,,,,,,,,,,,,,,,,,,,,,,,,,,,,,,,,,,,,,,-2.4769075679387237e-10,1.469935284603707e-10,-1.9866747136276783e-10,0.0,-7.4495964952348e-10,-4.4733117210427054e-10,-5.6987733842106536e-05,-5.68534669582732e-05,-1.3545720101149072e-08,3.393618719371716e-09,-1.9841426279754163e-08,0.0,2.0229783785907784e-06,5.7493371059536e-06,6.050961746950634e-05,6.036484410287813e-05,,,,,,,,,,,,,,,,,,,,,,,,,,,,,,,,,,,,,,,,,,,,,,,,,,,,,,,,,,,,,,,,,,,,,,,,,,
74,2.6918489933013916,0.6108047366142273,1.5708327293395996,0.3899503192305565,0.0,-3.141592675445488,1.0491832402870216e-10,0.5000113248825073,0.5000113248825073,0.6077532172203064,1.571550965309143,0.3874446368217468,0.0,-3.141593033073357,-9.438796269023442e-07,0.5000099539756775,0.5000099539756775,,,,,,,,,,,,,,,,,,,,,,,,,,,,,,,,,,,,,,,,,,,,,,,,,,,,,,,,,,,,,,,,,,,,,,,,,,,,,,,,,,,,,,,,,,,,,,,,,,,,,,,,,,,,,,,,,,,,,,,,,,,,,,,,,,,,,,-2.4769075679387237e-10,1.469935284603707e-10,-1.9866747136276783e-10,0.0,-7.4495964952348e-10,-4.4733117210427054e-10,-5.6987733842106536e-05,-5.68534669582732e-05,-1.1200929073140742e-08,2.807976073881946e-09,-1.6400178992626024e-08,0.0,1.6717095832063933e-06,4.7526527851005085e-06,5.002766192774288e-05,4.991285095456987e-05,,,,,,,,,,,,,,,,,,,,,,,,,,,,,,,,,,,,,,,,,,,,,,,,,,,,,,,,,,,,,,,,,,,,,,,,,,
75,2.7131946086883545,0.6108047366142273,1.5708327293395996,0.3899503192305565,0.0,-3.141592675445488,9.001645956407954e-11,0.5000094771385193,0.5000094175338745,0.6077532172203064,1.571550965309143,0.3874446368217468,0.0,-3.141593033073357,-9.438796269023442e-07,0.5000099539756775,0.5000099539756775,,,,,,,,,,,,,,,,,,,,,,,,,,,,,,,,,,,,,,,,,,,,,,,,,,,,,,,,,,,,,,,,,,,,,,,,,,,,,,,,,,,,,,,,,,,,,,,,,,,,,,,,,,,,,,,,,,,,,,,,,,,,,,,,,,,,,,-2.0655699373151035e-10,1.226796442210798e-10,-1.6584650319728667e-10,0.0,-6.076250613773482e-10,-3.854701280392447e-10,-4.758927025250159e-05,-4.748295032186434e-05,-1.1200929073140742e-08,2.807976073881946e-09,-1.6400178992626024e-08,0.0,1.6717095832063933e-06,4.7526527851005085e-06,5.002766192774288e-05,4.991285095456987e-05,,,,,,,,,,,,,,,,,,,,,,,,,,,,,,,,,,,,,,,,,,,,,,,,,,,,,,,,,,,,,,,,,,,,,,,,,,
76,2.7345168590545654,0.6108047366142273,1.5708327293395996,0.3899503192305565,0.0,-3.141592675445488,9.001645956407954e-11,0.5000094771385193,0.5000094175338745,0.6077532172203064,1.571550965309143,0.3874446368217468,0.0,-3.141592973468712,-7.881094461481553e-07,0.5000082850456238,0.5000082850456238,,,,,,,,,,,,,,,,,,,,,,,,,,,,,,,,,,,,,,,,,,,,,,,,,,,,,,,,,,,,,,,,,,,,,,,,,,,,,,,,,,,,,,,,,,,,,,,,,,,,,,,,,,,,,,,,,,,,,,,,,,,,,,,,,,,,,,-2.0655699373151035e-10,1.226796442210798e-10,-1.6584650319728667e-10,0.0,-6.076250613773482e-10,-3.854701280392447e-10,-4.758927025250159e-05,-4.748295032186434e-05,-9.354850227794032e-09,2.347122496360043e-09,-1.3692325495640034e-08,0.0,1.3953713278169744e-06,3.968314103985904e-06,4.17776609538123e-05,4.168564919382334e-05,,,,,,,,,,,,,,,,,,,,,,,,,,,,,,,,,,,,,,,,,,,,,,,,,,,,,,,,,,,,,,,,,,,,,,,,,,
77,2.7559850215911865,0.6108047366142273,1.5708327293395996,0.3899503192305565,0.0,-3.141592675445488,7.71777572405874e-11,0.5000079274177551,0.5000078678131104,0.6077532172203064,1.571550965309143,0.3874446368217468,0.0,-3.141592973468712,-7.881094461481553e-07,0.5000082850456238,0.5000082850456238,,,,,,,,,,,,,,,,,,,,,,,,,,,,,,,,,,,,,,,,,,,,,,,,,,,,,,,,,,,,,,,,,,,,,,,,,,,,,,,,,,,,,,,,,,,,,,,,,,,,,,,,,,,,,,,,,,,,,,,,,,,,,,,,,,,,,,-1.725286580267493e-10,1.028066520802895e-10,-1.3838930001952576e-10,0.0,-4.950484466803573e-10,-3.3193697790423466e-10,-3.974081118940376e-05,-3.965686846640892e-05,-9.354850227794032e-09,2.347122496360043e-09,-1.3692325495640034e-08,0.0,1.3953713278169744e-06,3.968314103985904e-06,4.17776609538123e-05,4.168564919382334e-05,,,,,,,,,,,,,,,,,,,,,,,,,,,,,,,,,,,,,,,,,,,,,,,,,,,,,,,,,,,,,,,,,,,,,,,,,,
78,2.7783753871917725,0.6108047366142273,1.5708327293395996,0.3899503192305565,0.0,-3.141592675445488,6.55583157205264e-11,0.5000065565109253,0.5000064969062805,0.6077532172203064,1.571550965309143,0.3874446368217468,0.0,-3.1415929138640672,-6.580462468264159e-07,0.500006914138794,0.500006914138794,,,,,,,,,,,,,,,,,,,,,,,,,,,,,,,,,,,,,,,,,,,,,,,,,,,,,,,,,,,,,,,,,,,,,,,,,,,,,,,,,,,,,,,,,,,,,,,,,,,,,,,,,,,,,,,,,,,,,,,,,,,,,,,,,,,,,,-1.4266365866433262e-10,8.515410598874951e-11,-1.1440154379371847e-10,0.0,-3.984590435379687e-10,-2.832701850863373e-10,-3.2856092730071396e-05,-3.2790921977721155e-05,-7.813139468737518e-09,1.961097950697876e-09,-1.1431619206803134e-08,0.0,1.1647118753899122e-06,3.3134163004433503e-06,3.4888158552348614e-05,3.481454405118711e-05,,,,,,,,,,,,,,,,,,,,,,,,,,,,,,,,,,,,,,,,,,,,,,,,,,,,,,,,,,,,,,,,,,,,,,,,,,
79,2.7992682456970215,0.6108047366142273,1.5708327293395996,0.3899503192305565,0.0,-3.141592675445488,6.55583157205264e-11,0.5000065565109253,0.5000064969062805,0.6077532172203064,1.571550965309143,0.3874446368217468,0.0,-3.1415928542594225,-5.549808292926173e-07,0.500005841255188,0.500005841255188,,,,,,,,,,,,,,,,,,,,,,,,,,,,,,,,,,,,,,,,,,,,,,,,,,,,,,,,,,,,,,,,,,,,,,,,,,,,,,,,,,,,,,,,,,,,,,,,,,,,,,,,,,,,,,,,,,,,,,,,,,,,,,,,,,,,,,-1.4266365866433262e-10,8.515410598874951e-11,-1.1440154379371847e-10,0.0,-3.984590435379687e-10,-2.832701850863373e-10,-3.2856092730071396e-05,-3.2790921977721155e-05,-6.591283074897092e-09,1.6554535520185711e-09,-9.640295672852517e-09,0.0,9.819892738960334e-07,2.7944581688643666e-06,2.942795617855154e-05,2.9368431569309905e-05,,,,,,,,,,,,,,,,,,,,,,,,,,,,,,,,,,,,,,,,,,,,,,,,,,,,,,,,,,,,,,,,,,,,,,,,,,
80,2.8206493854522705,0.6108047366142273,1.5708327293395996,0.3899503192305565,0.0,-3.141592675445488,5.5650341973523254e-11,0.5000054240226746,0.5000053644180298,0.6077532172203064,1.571550965309143,0.3874446368217468,0.0,-3.1415928542594225,-5.494476340572874e-07,0.5000057816505432,0.5000057816505432,,,,,,,,,,,,,,,,,,,,,,,,,,,,,,,,,,,,,,,,,,,,,,,,,,,,,,,,,,,,,,,,,,,,,,,,,,,,,,,,,,,,,,,,,,,,,,,,,,,,,,,,,,,,,,,,,,,,,,,,,,,,,,,,,,,,,,-1.180722186688854e-10,7.038813976123491e-11,-9.449385718340864e-11,0.0,-3.20798942965439e-10,-2.4127030928688953e-10,-2.7164087441633455e-05,-2.7113701435155235e-05,-6.5257799164442085e-09,1.6391332735565811e-09,-9.544122825388968e-09,0.0,9.72181396718952e-07,2.766597390291281e-06,2.9134795113350265e-05,2.907601447077468e-05,,,,,,,,,,,,,,,,,,,,,,,,,,,,,,,,,,,,,,,,,,,,,,,,,,,,,,,,,,,,,,,,,,,,,,,,,,
81,2.8422114849090576,0.6108047366142273,1.5708327293395996,0.3899503192305565,0.0,-3.141592675445488,5.5650341973523254e-11,0.5000054240226746,0.5000053644180298,0.6072847247123718,1.571613073348999,0.3874569749832153,0.0,-3.141584986446312,0.0001069276622729,0.49998739361763,0.5000289678573608,,,,,,,,,,,,,,,,,,,,,,,,,,,,,,,,,,,,,,,,,,,,,,,,,,,,,,,,,,,,,,,,,,,,,,,,,,,,,,,,,,,,,,,,,,,,,,,,,,,,,,,,,,,,,,,,,,,,,,,,,,,,,,,,,,,,,,-1.180722186688854e-10,7.038813976123491e-11,-9.449385718340864e-11,0.0,-3.20798942965439e-10,-2.4127030928688953e-10,-2.7164087441633455e-05,-2.7113701435155235e-05,-0.0118959071114659,0.0034702017437666,-0.0020351989660412,0.0,0.0017358713084831,-0.0244986526668071,-0.0072861285880208,0.0015831522177904,,,,,,,,,,,,,,,,,,,,,,,,,,,,,,,,,,,,,,,,,,,,,,,,,,,,,,,,,,,,,,,,,,,,,,,,,,
82,2.863734722137451,0.6108047366142273,1.5708327293395996,0.3899503192305565,0.0,-3.141592675445488,4.720643320688111e-11,0.5000044703483582,0.5000044703483582,0.6072847247123718,1.571613073348999,0.3874569749832153,0.0,-3.141584986446312,0.0001069276622729,0.49998739361763,0.5000289678573608,,,,,,,,,,,,,,,,,,,,,,,,,,,,,,,,,,,,,,,,,,,,,,,,,,,,,,,,,,,,,,,,,,,,,,,,,,,,,,,,,,,,,,,,,,,,,,,,,,,,,,,,,,,,,,,,,,,,,,,,,,,,,,,,,,,,,,-9.753309271332e-11,5.839773109528322e-11,-7.800010637382114e-11,0.0,-2.577382751667301e-10,-2.0577148318601246e-10,-2.2458167222794145e-05,-2.2419400920625776e-05,-0.0118959071114659,0.0034702017437666,-0.0020351989660412,0.0,0.0017358713084831,-0.0244986526668071,-0.0072861285880208,0.0015831522177904,,,,,,,,,,,,,,,,,,,,,,,,,,,,,,,,,,,,,,,,,,,,,,,,,,,,,,,,,,,,,,,,,,,,,,,,,,
83,2.8853840827941895,0.6108047366142273,1.5708327293395996,0.3899503192305565,0.0,-3.141592675445488,4.720643320688111e-11,0.5000044703483582,0.5000044703483582,0.6063861846923828,1.571669578552246,0.3874836257100105,0.0,-3.141588503120354,9.592866990715264e-05,0.499986320734024,0.5000305771827698,,,,,,,,,,,,,,,,,,,,,,,,,,,,,,,,,,,,,,,,,,,,,,,,,,,,,,,,,,,,,,,,,,,,,,,,,,,,,,,,,,,,,,,,,,,,,,,,,,,,,,,,,,,,,,,,,,,,,,,,,,,,,,,,,,,,,,-9.753309271332e-11,5.839773109528322e-11,-7.800010637382114e-11,0.0,-2.577382751667301e-10,-2.0577148318601246e-10,-2.2458167222794145e-05,-2.2419400920625776e-05,-0.0062587745487689,-0.0005427626310847,3.8886348193045706e-05,0.0,-0.0013282619183883,-0.0184371192008256,-0.0063792816363275,0.0086813829839229,,,,,,,,,,,,,,,,,,,,,,,,,,,,,,,,,,,,,,,,,,,,,,,,,,,,,,,,,,,,,,,,,,,,,,,,,,
84,2.907917737960815,0.6108047366142273,1.5708327293395996,0.3899503192305565,0.0,-3.141592675445488,4.001948078480311e-11,0.5000036954879761,0.5000036954879761,0.6052791476249695,1.5716800689697266,0.3875214299559593,0.0,-3.141588979957512,0.0001673016085987,0.4999496042728424,0.5000672936439514,,,,,,,,,,,,,,,,,,,,,,,,,,,,,,,,,,,,,,,,,,,,,,,,,,,,,,,,,,,,,,,,,,,,,,,,,,,,,,,,,,,,,,,,,,,,,,,,,,,,,,,,,,,,,,,,,,,,,,,,,,,,,,,,,,,,,,-8.065770273901761e-11,4.8183679268731794e-11,-6.452477441243332e-11,0.0,-2.0677903833643538e-10,-1.7492993165113546e-10,-1.856750350270886e-05,-1.853784306149464e-05,-0.00183298275806,-0.0101314987987279,0.0014949332689866,0.0,0.0042147790081799,0.0071846647188067,0.0049543660134077,-0.01371063105762,,,,,,,,,,,,,,,,,,,,,,,,,,,,,,,,,,,,,,,,,,,,,,,,,,,,,,,,,,,,,,,,,,,,,,,,,,
85,2.930248498916626,0.6108047366142273,1.5708327293395996,0.3899503192305565,0.0,-3.141592675445488,3.3906096680302866e-11,0.5000030398368835,0.5000030398368835,0.6052791476249695,1.5716800689697266,0.3875214299559593,0.0,-3.141588979957512,0.0001673016085987,0.4999496042728424,0.5000672936439514,,,,,,,,,,,,,,,,,,,,,,,,,,,,,,,,,,,,,,,,,,,,,,,,,,,,,,,,,,,,,,,,,,,,,,,,,,,,,,,,,,,,,,,,,,,,,,,,,,,,,,,,,,,,,,,,,,,,,,,,,,,,,,,,,,,,,,-6.677991493120317e-11,3.985700658404312e-11,-5.3283766288103607e-11,0.0,-1.6536771951791707e-10,-1.4882289844919683e-10,-1.5350859030149877e-05,-1.5328312656492926e-05,-0.00183298275806,-0.0101314987987279,0.0014949332689866,0.0,0.0042147790081799,0.0071846647188067,0.0049543660134077,-0.01371063105762,,,,,,,,,,,,,,,,,,,,,,,,,,,,,,,,,,,,,,,,,,,,,,,,,,,,,,,,,,,,,,,,,,,,,,,,,,
86,2.9520208835601807,0.6108047366142273,1.5708327293395996,0.3899503192305565,0.0,-3.141592675445488,3.3906096680302866e-11,0.5000030398368835,0.5000030398368835,0.6047672033309937,1.5716832876205444,0.3875334775447845,0.0,-3.1415918409804613,3.069505328312516e-05,0.4999943375587463,0.500012218952179,,,,,,,,,,,,,,,,,,,,,,,,,,,,,,,,,,,,,,,,,,,,,,,,,,,,,,,,,,,,,,,,,,,,,,,,,,,,,,,,,,,,,,,,,,,,,,,,,,,,,,,,,,,,,,,,,,,,,,,,,,,,,,,,,,,,,,-6.677991493120317e-11,3.985700658404312e-11,-5.3283766288103607e-11,0.0,-1.6536771951791707e-10,-1.4882289844919683e-10,-1.5350859030149877e-05,-1.5328312656492926e-05,-0.0076613156124949,0.0002172076929127,0.0002694859285838,0.0,-1.4022212781128474e-05,0.0002711915294639,-3.771231058635749e-05,0.0003721042594406,,,,,,,,,,,,,,,,,,,,,,,,,,,,,,,,,,,,,,,,,,,,,,,,,,,,,,,,,,,,,,,,,,,,,,,,,,
87,2.973379135131836,0.6108047366142273,1.5708327293395996,0.3899503192305565,0.0,-3.141592675445488,2.8964766349282023e-11,0.5000025629997253,0.5000025629997253,0.6047672033309937,1.5716832876205444,0.3875334775447845,0.0,-3.1415918409804613,3.069505328312516e-05,0.4999943375587463,0.500012218952179,,,,,,,,,,,,,,,,,,,,,,,,,,,,,,,,,,,,,,,,,,,,,,,,,,,,,,,,,,,,,,,,,,,,,,,,,,,,,,,,,,,,,,,,,,,,,,,,,,,,,,,,,,,,,,,,,,,,,,,,,,,,,,,,,,,,,,-5.5677684684951594e-11,3.3306690738754696e-11,-4.4457493242333606e-11,0.0,-1.3489209749195652e-10,-1.2723458397978504e-10,-1.2819183211831842e-05,-1.2801917364413384e-05,-0.0076613156124949,0.0002172076929127,0.0002694859285838,0.0,-1.4022212781128474e-05,0.0002711915294639,-3.771231058635749e-05,0.0003721042594406,,,,,,,,,,,,,,,,,,,,,,,,,,,,,,,,,,,,,,,,,,,,,,,,,,,,,,,,,,,,,,,,,,,,,,,,,,
88,2.994922876358032,0.6108047366142273,1.5708327293395996,0.3899503192305565,0.0,-3.141592675445488,2.8964766349282023e-11,0.5000025629997253,0.5000025629997253,0.6045025587081909,1.571691393852234,0.3875413453578949,0.0,-3.1415920197943956,2.8463568014558405e-05,0.4999954402446747,0.5000101923942566,,,,,,,,,,,,,,,,,,,,,,,,,,,,,,,,,,,,,,,,,,,,,,,,,,,,,,,,,,,,,,,,,,,,,,,,,,,,,,,,,,,,,,,,,,,,,,,,,,,,,,,,,,,,,,,,,,,,,,,,,,,,,,,,,,,,,,-5.5677684684951594e-11,3.3306690738754696e-11,-4.4457493242333606e-11,0.0,-1.3489209749195652e-10,-1.2723458397978504e-10,-1.2819183211831842e-05,-1.2801917364413384e-05,-0.0063644042238593,0.0001917124318424,0.0001886458339868,0.0,-2.5225476747436915e-06,-0.0001562633551657,-2.6227160560665652e-05,5.203757245908491e-05,,,,,,,,,,,,,,,,,,,,,,,,,,,,,,,,,,,,,,,,,,,,,,,,,,,,,,,,,,,,,,,,,,,,,,,,,,
89,3.0164270401000977,0.6108047366142273,1.5708327293395996,0.3899503192305565,0.0,-3.141592675445488,2.4729088568542498e-11,0.5000021457672119,0.5000021457672119,0.6045025587081909,1.571691393852234,0.3875413453578949,0.0,-3.1415920197943956,2.8463568014558405e-05,0.4999954402446747,0.5000101923942566,,,,,,,,,,,,,,,,,,,,,,,,,,,,,,,,,,,,,,,,,,,,,,,,,,,,,,,,,,,,,,,,,,,,,,,,,,,,,,,,,,,,,,,,,,,,,,,,,,,,,,,,,,,,,,,,,,,,,,,,,,,,,,,,,,,,,,-4.6684878185487826e-11,2.7977620220553945e-11,-3.7088387916384136e-11,0.0,-1.0907941216942163e-10,-1.0909871617226229e-10,-1.0705033673730212e-05,-1.0691920579120053e-05,-0.0063644042238593,0.0001917124318424,0.0001886458339868,0.0,-2.5225476747436915e-06,-0.0001562633551657,-2.6227160560665652e-05,5.203757245908491e-05,,,,,,,,,,,,,,,,,,,,,,,,,,,,,,,,,,,,,,,,,,,,,,,,,,,,,,,,,,,,,,,,,,,,,,,,,,
90,3.039268970489502,0.6108047366142273,1.5708327293395996,0.3899503192305565,0.0,-3.141592675445488,2.1290686227914968e-11,0.5000017881393433,0.5000017881393433,0.604283332824707,1.5716979503631592,0.3875478422641754,0.0,-3.141592139003685,2.311122625542339e-05,0.4999963343143463,0.5000083446502686,,,,,,,,,,,,,,,,,,,,,,,,,,,,,,,,,,,,,,,,,,,,,,,,,,,,,,,,,,,,,,,,,,,,,,,,,,,,,,,,,,,,,,,,,,,,,,,,,,,,,,,,,,,,,,,,,,,,,,,,,,,,,,,,,,,,,,-3.913536161803677e-11,2.353672812205332e-11,-3.134992265785286e-11,0.0,-8.915090887740007e-11,-9.426141117652163e-11,-9.02950887393672e-06,-9.019488061312586e-06,-0.0052634258754551,0.0001583418634254,0.0001560300297569,0.0,-2.9122807063686196e-06,-0.0001272835215786,-2.1047131667728536e-05,4.488754348130897e-05,,,,,,,,,,,,,,,,,,,,,,,,,,,,,,,,,,,,,,,,,,,,,,,,,,,,,,,,,,,,,,,,,,,,,,,,,,
91,3.0601015090942383,0.6108047366142273,1.5708327293395996,0.3899503192305565,0.0,-3.141592675445488,2.1290686227914968e-11,0.5000017881393433,0.5000017881393433,0.604110836982727,1.5717031955718994,0.3875529533624649,0.0,-3.1415922582129747,1.8974618797074072e-05,0.4999970197677612,0.5000068545341492,,,,,,,,,,,,,,,,,,,,,,,,,,,,,,,,,,,,,,,,,,,,,,,,,,,,,,,,,,,,,,,,,,,,,,,,,,,,,,,,,,,,,,,,,,,,,,,,,,,,,,,,,,,,,,,,,,,,,,,,,,,,,,,,,,,,,,-3.913536161803677e-11,2.353672812205332e-11,-3.134992265785286e-11,0.0,-8.915090887740007e-11,-9.426141117652163e-11,-9.02950887393672e-06,-9.019488061312586e-06,-0.0043959729373455,0.0001323158649029,0.00013026810484,0.0,-2.3622233129572123e-06,-0.000104570230178,-1.7170747014461085e-05,3.706500501721166e-05,,,,,,,,,,,,,,,,,,,,,,,,,,,,,,,,,,,,,,,,,,,,,,,,,,,,,,,,,,,,,,,,,,,,,,,,,,
92,3.0809504985809326,0.6108047366142273,1.5708327293395996,0.3899503192305565,0.0,-3.141592675445488,1.816194243609015e-11,0.5000014901161194,0.5000014901161194,0.604110836982727,1.5717031955718994,0.3875529533624649,0.0,-3.1415922582129747,1.8974618797074072e-05,0.4999970197677612,0.5000068545341492,,,,,,,,,,,,,,,,,,,,,,,,,,,,,,,,,,,,,,,,,,,,,,,,,,,,,,,,,,,,,,,,,,,,,,,,,,,,,,,,,,,,,,,,,,,,,,,,,,,,,,,,,,,,,,,,,,,,,,,,,,,,,,,,,,,,,,-3.2807090377673376e-11,1.9872992140790305e-11,-2.6117996654306808e-11,0.0,-7.216449660063518e-11,-8.034319737282303e-11,-7.54035499994643e-06,-7.532905783591559e-06,-0.0043959729373455,0.0001323158649029,0.00013026810484,0.0,-2.3622233129572123e-06,-0.000104570230178,-1.7170747014461085e-05,3.706500501721166e-05,,,,,,,,,,,,,,,,,,,,,,,,,,,,,,,,,,,,,,,,,,,,,,,,,,,,,,,,,,,,,,,,,,,,,,,,,,
93,3.102443218231201,0.6108047366142273,1.5708327293395996,0.3899503192305565,0.0,-3.141592675445488,1.816194243609015e-11,0.5000014901161194,0.5000014901161194,0.6039594411849976,1.5717077255249023,0.3875574386119843,0.0,-3.1415923178176195,1.5404546502395533e-05,0.499997615814209,0.5000056028366089,,,,,,,,,,,,,,,,,,,,,,,,,,,,,,,,,,,,,,,,,,,,,,,,,,,,,,,,,,,,,,,,,,,,,,,,,,,,,,,,,,,,,,,,,,,,,,,,,,,,,,,,,,,,,,,,,,,,,,,,,,,,,,,,,,,,,,-3.2807090377673376e-11,1.9872992140790305e-11,-2.6117996654306808e-11,0.0,-7.216449660063518e-11,-8.034319737282303e-11,-7.54035499994643e-06,-7.532905783591559e-06,-0.0036349142901599,0.0001094711769837,0.0001076752450899,0.0,-1.9155002064508153e-06,-8.502571290591732e-05,-1.3849529750586951e-05,3.023742283403408e-05,,,,,,,,,,,,,,,,,,,,,,,,,,,,,,,,,,,,,,,,,,,,,,,,,,,,,,,,,,,,,,,,,,,,,,,,,,
94,3.124187707901001,0.6108047366142273,1.5708327293395996,0.3899503192305565,0.0,-3.141592675445488,1.5486372600959086e-11,0.5000012516975403,0.5000012516975403,0.6039594411849976,1.5717077255249023,0.3875574386119843,0.0,-3.1415923178176195,1.5404546502395533e-05,0.499997615814209,0.5000056028366089,,,,,,,,,,,,,,,,,,,,,,,,,,,,,,,,,,,,,,,,,,,,,,,,,,,,,,,,,,,,,,,,,,,,,,,,,,,,,,,,,,,,,,,,,,,,,,,,,,,,,,,,,,,,,,,,,,,,,,,,,,,,,,,,,,,,,,-2.7422508708241367e-11,1.6320278461989798e-11,-2.1802004646076508e-11,0.0,-5.839773109528322e-11,-6.9165034810581e-11,-6.296793799265288e-06,-6.2913400142861065e-06,-0.0036349142901599,0.0001094711769837,0.0001076752450899,0.0,-1.9155002064508153e-06,-8.502571290591732e-05,-1.3849529750586951e-05,3.023742283403408e-05,,,,,,,,,,,,,,,,,,,,,,,,,,,,,,,,,,,,,,,,,,,,,,,,,,,,,,,,,,,,,,,,,,,,,,,,,,
95,3.1455390453338623,0.6108047366142273,1.5708327293395996,0.3899503192305565,0.0,-3.141592675445488,1.3199766800420232e-11,0.500001072883606,0.500001072883606,0.6038342714309692,1.5717114210128784,0.3875611490011215,0.0,-3.1415923774222643,1.2502068784669971e-05,0.4999980926513672,0.5000045299530029,,,,,,,,,,,,,,,,,,,,,,,,,,,,,,,,,,,,,,,,,,,,,,,,,,,,,,,,,,,,,,,,,,,,,,,,,,,,,,,,,,,,,,,,,,,,,,,,,,,,,,,,,,,,,,,,,,,,,,,,,,,,,,,,,,,,,,-2.298161660974074e-11,1.3877787807814455e-11,-1.8235413179468196e-11,0.0,-4.6684878185487826e-11,-5.905174266240819e-11,-5.258321380097186e-06,-5.254407824395457e-06,-0.0030056145042181,9.057040006155148e-05,8.900068496586755e-05,0.0,-1.552296907902928e-06,-6.911743548698723e-05,-1.1164011993969323e-05,2.466318801452871e-05,,,,,,,,,,,,,,,,,,,,,,,,,,,,,,,,,,,,,,,,,,,,,,,,,,,,,,,,,,,,,,,,,,,,,,,,,,
96,3.166903257369995,0.6108047366142273,1.5708327293395996,0.3899503192305565,0.0,-3.141592675445488,1.3199766800420232e-11,0.500001072883606,0.500001072883606,0.6037408113479614,1.5717142820358276,0.387563913166523,0.0,-3.141592437026909,1.0368887160439044e-05,0.4999984204769134,0.5000038146972656,,,,,,,,,,,,,,,,,,,,,,,,,,,,,,,,,,,,,,,,,,,,,,,,,,,,,,,,,,,,,,,,,,,,,,,,,,,,,,,,,,,,,,,,,,,,,,,,,,,,,,,,,,,,,,,,,,,,,,,,,,,,,,,,,,,,,,-2.298161660974074e-11,1.3877787807814455e-11,-1.8235413179468196e-11,0.0,-4.6684878185487826e-11,-5.905174266240819e-11,-5.258321380097186e-06,-5.254407824395457e-06,-0.0025354963727295,7.644279685337096e-05,7.505476241931319e-05,0.0,-1.2858719173891586e-06,-5.7410688896197826e-05,-9.200924978358673e-06,2.0550489352899604e-05,,,,,,,,,,,,,,,,,,,,,,,,,,,,,,,,,,,,,,,,,,,,,,,,,,,,,,,,,,,,,,,,,,,,,,,,,,
97,3.188767910003662,0.6108047366142273,1.5708327293395996,0.3899503192305565,0.0,-3.141592675445488,1.1246085659943894e-11,0.5000008940696716,0.5000008940696716,0.6037357449531555,1.5717144012451172,0.3875640621781349,0.0,-3.141592437026909,1.0255313100060448e-05,0.4999984502792358,0.5000037550926208,,,,,,,,,,,,,,,,,,,,,,,,,,,,,,,,,,,,,,,,,,,,,,,,,,,,,,,,,,,,,,,,,,,,,,,,,,,,,,,,,,,,,,,,,,,,,,,,,,,,,,,,,,,,,,,,,,,,,,,,,,,,,,,,,,,,,,-1.915134717478395e-11,1.1435297153639112e-11,-1.5216994331268552e-11,0.0,-3.7969627442180354e-11,-5.045672560322067e-11,-4.391114998725243e-06,-4.388381967146415e-06,-0.0025102540384978,7.568402361357585e-05,7.430608820868656e-05,0.0,-1.271698920390918e-06,-5.67869828955736e-05,-9.096703251998406e-06,2.033107193710748e-05,,,,,,,,,,,,,,,,,,,,,,,,,,,,,,,,,,,,,,,,,,,,,,,,,,,,,,,,,,,,,,,,,,,,,,,,,,
98,3.2103190422058105,0.6108047366142273,1.5708327293395996,0.3899503192305565,0.0,-3.141592675445488,1.1246085659943894e-11,0.5000008940696716,0.5000008940696716,0.6036534905433655,1.5717169046401978,0.3875664985179901,0.0,-3.141592496631554,8.409620022575837e-06,0.4999987483024597,0.5000030994415283,,,,,,,,,,,,,,,,,,,,,,,,,,,,,,,,,,,,,,,,,,,,,,,,,,,,,,,,,,,,,,,,,,,,,,,,,,,,,,,,,,,,,,,,,,,,,,,,,,,,,,,,,,,,,,,,,,,,,,,,,,,,,,,,,,,,,,-1.915134717478395e-11,1.1435297153639112e-11,-1.5216994331268552e-11,0.0,-3.7969627442180354e-11,-5.045672560322067e-11,-4.391114998725243e-06,-4.388381967146415e-06,-0.0020965349394828,6.324430432869121e-05,6.203763769008219e-05,0.0,-1.0415676570119103e-06,-4.6644134272355586e-05,-7.407838438666659e-06,1.6757825505919755e-05,,,,,,,,,,,,,,,,,,,,,,,,,,,,,,,,,,,,,,,,,,,,,,,,,,,,,,,,,,,,,,,,,,,,,,,,,,
99,3.2323060035705566,0.6108047366142273,1.5708327293395996,0.3899503192305565,0.0,-3.141592675445488,9.493838874774507e-12,0.5000007152557373,0.5000007152557373,0.6036534905433655,1.5717169046401978,0.3875664985179901,0.0,-3.141592496631554,8.409620022575837e-06,0.4999987483024597,0.5000030994415283,,,,,,,,,,,,,,,,,,,,,,,,,,,,,,,,,,,,,,,,,,,,,,,,,,,,,,,,,,,,,,,,,,,,,,,,,,,,,,,,,,,,,,,,,,,,,,,,,,,,,,,,,,,,,,,,,,,,,,,,,,,,,,,,,,,,,,-1.5709655798445965e-11,9.436895709313829e-12,-1.2476131239225197e-11,0.0,-3.0031532816110484e-11,-4.235920988970854e-11,-3.630395895015681e-06,-3.628603508332162e-06,-0.0020965349394828,6.324430432869121e-05,6.203763769008219e-05,0.0,-1.0415676570119103e-06,-4.6644134272355586e-05,-7.407838438666659e-06,1.6757825505919755e-05,,,,,,,,,,,,,,,,,,,,,,,,,,,,,,,,,,,,,,,,,,,,,,,,,,,,,,,,,,,,,,,,,,,,,,,,,,
100,3.25425124168396,0.6108047366142273,1.5708327293395996,0.3899503192305565,0.0,-3.141592675445488,8.009403903996848e-12,0.5000005960464478,0.5000005960464478,0.6035847663879395,1.5717190504074097,0.3875685325264931,0.0,-3.141592496631554,6.893798399687512e-06,0.4999989867210388,0.5000025629997253,,,,,,,,,,,,,,,,,,,,,,,,,,,,,,,,,,,,,,,,,,,,,,,,,,,,,,,,,,,,,,,,,,,,,,,,,,,,,,,,,,,,,,,,,,,,,,,,,,,,,,,,,,,,,,,,,,,,,,,,,,,,,,,,,,,,,,-1.304512053934559e-11,7.771561172376096e-12,-1.0345890810725678e-11,0.0,-2.375877272697835e-11,-3.602224421528355e-11,-3.001464165208745e-06,-3.0003686788404593e-06,-0.0017510015750303,5.284915096126497e-05,5.179477739147842e-05,0.0,-8.528493253834313e-07,-3.83025617338717e-05,-6.02875752520049e-06,1.3810739801556338e-05,,,,,,,,,,,,,,,,,,,,,,,,,,,,,,,,,,,,,,,,,,,,,,,,,,,,,,,,,,,,,,,,,,,,,,,,,,
101,3.2749037742614746,0.6108047366142273,1.5708327293395996,0.3899503192305565,0.0,-3.141592675445488,8.009403903996848e-12,0.5000005960464478,0.5000005960464478,0.6035302877426147,1.5717206001281738,0.387570141851902,0.0,-3.1415925562361986,5.712123311241157e-06,0.4999991655349731,0.5000021457672119,,,,,,,,,,,,,,,,,,,,,,,,,,,,,,,,,,,,,,,,,,,,,,,,,,,,,,,,,,,,,,,,,,,,,,,,,,,,,,,,,,,,,,,,,,,,,,,,,,,,,,,,,,,,,,,,,,,,,,,,,,,,,,,,,,,,,,-1.304512053934559e-11,7.771561172376096e-12,-1.0345890810725678e-11,0.0,-2.375877272697835e-11,-3.602224421528355e-11,-3.001464165208745e-06,-3.0003686788404593e-06,-0.0014771216083317,4.4605305447475985e-05,4.367876681499183e-05,0.0,-7.059290396682627e-07,-3.17907179123722e-05,-4.959877969668014e-06,1.1503389941935891e-05,,,,,,,,,,,,,,,,,,,,,,,,,,,,,,,,,,,,,,,,,,,,,,,,,,,,,,,,,,,,,,,,,,,,,,,,,,
102,3.2970633506774902,0.6108047366142273,1.5708327293395996,0.3899503192305565,0.0,-3.141592675445488,6.756385815404054e-12,0.5000004768371582,0.5000004768371582,0.6035273671150208,1.5717207193374634,0.3875702312588692,0.0,-3.1415925562361986,5.649235845339717e-06,0.4999991655349731,0.5000020861625671,,,,,,,,,,,,,,,,,,,,,,,,,,,,,,,,,,,,,,,,,,,,,,,,,,,,,,,,,,,,,,,,,,,,,,,,,,,,,,,,,,,,,,,,,,,,,,,,,,,,,,,,,,,,,,,,,,,,,,,,,,,,,,,,,,,,,,-1.0880185641326534e-11,6.661338147750939e-12,-8.527900607901984e-12,0.0,-1.9206858326015208e-11,-3.039965501550057e-11,-2.481488763805828e-06,-2.480902821844211e-06,-0.0014624160248786,4.416254159878008e-05,4.32430679211393e-05,0.0,-6.981147748774674e-07,-3.144389847875573e-05,-4.903171429759823e-06,1.138030711445026e-05,,,,,,,,,,,,,,,,,,,,,,,,,,,,,,,,,,,,,,,,,,,,,,,,,,,,,,,,,,,,,,,,,,,,,,,,,,
103,3.318631410598755,0.6108047366142273,1.5708327293395996,0.3899503192305565,0.0,-3.141592675445488,6.756385815404054e-12,0.5000004768371582,0.5000004768371582,0.6034794449806213,1.571722149848938,0.3875716468691826,0.0,-3.1415925562361986,4.6276827561086975e-06,0.4999993145465851,0.5000017285346985,,,,,,,,,,,,,,,,,,,,,,,,,,,,,,,,,,,,,,,,,,,,,,,,,,,,,,,,,,,,,,,,,,,,,,,,,,,,,,,,,,,,,,,,,,,,,,,,,,,,,,,,,,,,,,,,,,,,,,,,,,,,,,,,,,,,,,-1.0880185641326534e-11,6.661338147750939e-12,-8.527900607901984e-12,0.0,-1.9206858326015208e-11,-3.039965501550057e-11,-2.481488763805828e-06,-2.480902821844211e-06,-0.0012213928857818,3.690367884701118e-05,3.610330168157816e-05,0.0,-5.712682877856423e-07,-2.580584077804815e-05,-3.9849451241025236e-06,9.37615732254926e-06,,,,,,,,,,,,,,,,,,,,,,,,,,,,,,,,,,,,,,,,,,,,,,,,,,,,,,,,,,,,,,,,,,,,,,,,,,
104,3.339754104614258,0.6108047366142273,1.5708327293395996,0.3899503192305565,0.0,-3.141592675445488,5.695866521493454e-12,0.5000004172325134,0.5000004172325134,0.6034794449806213,1.571722149848938,0.3875716468691826,0.0,-3.1415925562361986,4.6276827561086975e-06,0.4999993145465851,0.5000017285346985,,,,,,,,,,,,,,,,,,,,,,,,,,,,,,,,,,,,,,,,,,,,,,,,,,,,,,,,,,,,,,,,,,,,,,,,,,,,,,,,,,,,,,,,,,,,,,,,,,,,,,,,,,,,,,,,,,,,,,,,,,,,,,,,,,,,,,-8.93729534823251e-12,5.440092820663267e-12,-7.098488463697095e-12,0.0,-1.482147737874584e-11,-2.5636376702053987e-11,-2.0515949472610373e-06,-2.0513734853011556e-06,-0.0012213928857818,3.690367884701118e-05,3.610330168157816e-05,0.0,-5.712682877856423e-07,-2.580584077804815e-05,-3.9849451241025236e-06,9.37615732254926e-06,,,,,,,,,,,,,,,,,,,,,,,,,,,,,,,,,,,,,,,,,,,,,,,,,,,,,,,,,,,,,,,,,,,,,,,,,,
105,3.3616268634796143,0.6108047366142273,1.5708327293395996,0.3899503192305565,0.0,-3.141592675445488,5.695866521493454e-12,0.5000004172325134,0.5000004172325134,0.6034414172172546,1.5717233419418335,0.3875727719068527,0.0,-3.1415926158408434,3.8317739381454885e-06,0.499999463558197,0.5000014305114746,,,,,,,,,,,,,,,,,,,,,,,,,,,,,,,,,,,,,,,,,,,,,,,,,,,,,,,,,,,,,,,,,,,,,,,,,,,,,,,,,,,,,,,,,,,,,,,,,,,,,,,,,,,,,,,,,,,,,,,,,,,,,,,,,,,,,,-8.93729534823251e-12,5.440092820663267e-12,-7.098488463697095e-12,0.0,-1.482147737874584e-11,-2.5636376702053987e-11,-2.0515949472610373e-06,-2.0513734853011556e-06,-0.0010303508024662,3.114707942586392e-05,3.044606273761019e-05,0.0,-4.725545466044423e-07,-2.140652759408113e-05,-3.273974471085239e-06,7.807385372871067e-06,,,,,,,,,,,,,,,,,,,,,,,,,,,,,,,,,,,,,,,,,,,,,,,,,,,,,,,,,,,,,,,,,,,,,,,,,,
106,3.3833107948303223,0.6108047366142273,1.5708327293395996,0.3899503192305565,0.0,-3.141592675445488,4.8446979934724235e-12,0.5000003576278687,0.5000003576278687,0.603407621383667,1.57172429561615,0.3875737702846527,0.0,-3.1415926158408434,3.136528903269209e-06,0.4999995529651642,0.5000011920928955,,,,,,,,,,,,,,,,,,,,,,,,,,,,,,,,,,,,,,,,,,,,,,,,,,,,,,,,,,,,,,,,,,,,,,,,,,,,,,,,,,,,,,,,,,,,,,,,,,,,,,,,,,,,,,,,,,,,,,,,,,,,,,,,,,,,,,-7.327471962526033e-12,4.551914400963142e-12,-5.842548667089886e-12,0.0,-1.1879386363489177e-11,-2.1876906536322238e-11,-1.713244159873284e-06,-1.71326780673553e-06,-0.0008605369948782,2.6027484636870213e-05,2.5419170924578793e-05,0.0,-3.864197992697882e-07,-1.7557655155542307e-05,-2.6569091460260097e-06,6.430394932976924e-06,,,,,,,,,,,,,,,,,,,,,,,,,,,,,,,,,,,,,,,,,,,,,,,,,,,,,,,,,,,,,,,,,,,,,,,,,,
107,3.404419183731079,0.6108047366142273,1.5708327293395996,0.3899503192305565,0.0,-3.141592675445488,4.081656887477969e-12,0.5000002980232239,0.5000002980232239,0.603407621383667,1.57172429561615,0.3875737702846527,0.0,-3.1415926158408434,3.136528903269209e-06,0.4999995529651642,0.5000011920928955,,,,,,,,,,,,,,,,,,,,,,,,,,,,,,,,,,,,,,,,,,,,,,,,,,,,,,,,,,,,,,,,,,,,,,,,,,,,,,,,,,,,,,,,,,,,,,,,,,,,,,,,,,,,,,,,,,,,,,,,,,,,,,,,,,,,,,-6.328271240363392e-12,3.6637359812630166e-12,-4.815592369311617e-12,0.0,-9.270362255620055e-12,-1.841266548952003e-11,-1.416441136825597e-06,-1.4166429309625528e-06,-0.0008605369948782,2.6027484636870213e-05,2.5419170924578793e-05,0.0,-3.864197992697882e-07,-1.7557655155542307e-05,-2.6569091460260097e-06,6.430394932976924e-06,,,,,,,,,,,,,,,,,,,,,,,,,,,,,,,,,,,,,,,,,,,,,,,,,,,,,,,,,,,,,,,,,,,,,,,,,,
108,3.425558567047119,0.6108047366142273,1.5708327293395996,0.3899503192305565,0.0,-3.141592675445488,4.081656887477969e-12,0.5000002980232239,0.5000002980232239,0.6033779978752136,1.5717252492904663,0.3875746420025825,0.0,-3.1415926158408434,2.5379069938935572e-06,0.4999996423721313,0.5000009536743164,,,,,,,,,,,,,,,,,,,,,,,,,,,,,,,,,,,,,,,,,,,,,,,,,,,,,,,,,,,,,,,,,,,,,,,,,,,,,,,,,,,,,,,,,,,,,,,,,,,,,,,,,,,,,,,,,,,,,,,,,,,,,,,,,,,,,,-6.328271240363392e-12,3.6637359812630166e-12,-4.815592369311617e-12,0.0,-9.270362255620055e-12,-1.841266548952003e-11,-1.416441136825597e-06,-1.4166429309625528e-06,-0.0007115553016774,2.15334785025334e-05,2.101056270475965e-05,0.0,-3.123367093849083e-07,-1.4238039511837997e-05,-2.1293499230523594e-06,5.238478479441255e-06,,,,,,,,,,,,,,,,,,,,,,,,,,,,,,,,,,,,,,,,,,,,,,,,,,,,,,,,,,,,,,,,,,,,,,,,,,
109,3.446943998336792,0.6108047366142273,1.5708327293395996,0.3899503192305565,0.0,-3.141592675445488,3.468982262902487e-12,0.5000002384185791,0.5000002384185791,0.6033779978752136,1.5717252492904663,0.3875746420025825,0.0,-3.1415926158408434,2.5379069938935572e-06,0.4999996423721313,0.5000009536743164,,,,,,,,,,,,,,,,,,,,,,,,,,,,,,,,,,,,,,,,,,,,,,,,,,,,,,,,,,,,,,,,,,,,,,,,,,,,,,,,,,,,,,,,,,,,,,,,,,,,,,,,,,,,,,,,,,,,,,,,,,,,,,,,,,,,,,-5.218048215738236e-12,3.219646771412954e-12,-3.9968028886505635e-12,0.0,-7.66053886991358e-12,-1.5902022754143985e-11,-1.1828402648461631e-06,-1.1831534720840864e-06,-0.0007115553016774,2.15334785025334e-05,2.101056270475965e-05,0.0,-3.123367093849083e-07,-1.4238039511837997e-05,-2.1293499230523594e-06,5.238478479441255e-06,,,,,,,,,,,,,,,,,,,,,,,,,,,,,,,,,,,,,,,,,,,,,,,,,,,,,,,,,,,,,,,,,,,,,,,,,,
110,3.468507766723633,0.6108047366142273,1.5708327293395996,0.3899503192305565,0.0,-3.141592675445488,3.468982262902487e-12,0.5000002384185791,0.5000002384185791,0.6033535003662109,1.5717259645462036,0.3875753647089004,0.0,-3.1415926158408434,2.0525594663922675e-06,0.4999997317790985,0.5000007748603821,,,,,,,,,,,,,,,,,,,,,,,,,,,,,,,,,,,,,,,,,,,,,,,,,,,,,,,,,,,,,,,,,,,,,,,,,,,,,,,,,,,,,,,,,,,,,,,,,,,,,,,,,,,,,,,,,,,,,,,,,,,,,,,,,,,,,,-5.218048215738236e-12,3.219646771412954e-12,-3.9968028886505635e-12,0.0,-7.66053886991358e-12,-1.5902022754143985e-11,-1.1828402648461631e-06,-1.1831534720840864e-06,-0.0005883662961423,1.781541322998237e-05,1.7366564861731604e-05,0.0,-2.523378839214274e-07,-1.1541674211912324e-05,-1.704858050288749e-06,4.266616997483652e-06,,,,,,,,,,,,,,,,,,,,,,,,,,,,,,,,,,,,,,,,,,,,,,,,,,,,,,,,,,,,,,,,,,,,,,,,,,
111,3.489511013031006,0.6108047366142273,1.5708327293395996,0.3899503192305565,0.0,-3.141592675445488,2.920701007436133e-12,0.5000001788139343,0.5000001788139343,0.6033535003662109,1.5717259645462036,0.3875753647089004,0.0,-3.1415926158408434,2.0525594663922675e-06,0.4999997317790985,0.5000007748603821,,,,,,,,,,,,,,,,,,,,,,,,,,,,,,,,,,,,,,,,,,,,,,,,,,,,,,,,,,,,,,,,,,,,,,,,,,,,,,,,,,,,,,,,,,,,,,,,,,,,,,,,,,,,,,,,,,,,,,,,,,,,,,,,,,,,,,-4.385380947269368e-12,2.55351295663786e-12,-3.427813588530171e-12,0.0,-5.773159728050814e-12,-1.304855268974281e-11,-9.779245147001348e-07,-9.783092309589847e-07,-0.0005883662961423,1.781541322998237e-05,1.7366564861731604e-05,0.0,-2.523378839214274e-07,-1.1541674211912324e-05,-1.704858050288749e-06,4.266616997483652e-06,,,,,,,,,,,,,,,,,,,,,,,,,,,,,,,,,,,,,,,,,,,,,,,,,,,,,,,,,,,,,,,,,,,,,,,,,,
112,3.511274814605713,0.6108047366142273,1.5708327293395996,0.3899503192305565,0.0,-3.141592675445488,2.5258675359629557e-12,0.5000001788139343,0.5000001788139343,0.6033342480659485,1.5717265605926514,0.3875759384036064,0.0,-3.1415926158408434,1.6779090401541907e-06,0.4999997615814209,0.5000006556510925,,,,,,,,,,,,,,,,,,,,,,,,,,,,,,,,,,,,,,,,,,,,,,,,,,,,,,,,,,,,,,,,,,,,,,,,,,,,,,,,,,,,,,,,,,,,,,,,,,,,,,,,,,,,,,,,,,,,,,,,,,,,,,,,,,,,,,-3.3861802251067274e-12,2.220446049250313e-12,-2.8796409701215e-12,0.0,-4.996003610813205e-12,-1.1650618837732996e-11,-8.331627441293676e-07,-8.335805432579946e-07,-0.0004913966404274,1.488709222030593e-05,1.449919909646269e-05,0.0,-2.060701547179633e-07,-9.456445695832372e-06,-1.3797148312733043e-06,3.51210223925591e-06,,,,,,,,,,,,,,,,,,,,,,,,,,,,,,,,,,,,,,,,,,,,,,,,,,,,,,,,,,,,,,,,,,,,,,,,,,
113,3.5326731204986572,0.6108047366142273,1.5708327293395996,0.3899503192305565,0.0,-3.141592675445488,2.5030728358077514e-12,0.5000001788139343,0.5000001788139343,0.6033173203468323,1.5717270374298096,0.3875764375925064,0.0,-3.141592675445488,1.3556850717577618e-06,0.4999998211860657,0.500000536441803,,,,,,,,,,,,,,,,,,,,,,,,,,,,,,,,,,,,,,,,,,,,,,,,,,,,,,,,,,,,,,,,,,,,,,,,,,,,,,,,,,,,,,,,,,,,,,,,,,,,,,,,,,,,,,,,,,,,,,,,,,,,,,,,,,,,,,-3.885780586188048e-12,2.3314683517128287e-12,-2.8727020762175925e-12,0.0,-4.6629367034256575e-12,-1.1397369159560355e-11,-8.248625249507313e-07,-8.252815177911543e-07,-0.0004063229134771,1.231660553457914e-05,1.198450627271086e-05,0.0,-1.6631717869586282e-07,-7.659577931917738e-06,-1.102322698898206e-06,2.8593103706953116e-06,,,,,,,,,,,,,,,,,,,,,,,,,,,,,,,,,,,,,,,,,,,,,,,,,,,,,,,,,,,,,,,,,,,,,,,,,,
114,3.553762674331665,0.6108047366142273,1.5708327293395996,0.3899503192305565,0.0,-3.141592675445488,2.1256371229155798e-12,0.5000001192092896,0.5000001192092896,0.6033173203468323,1.5717270374298096,0.3875764375925064,0.0,-3.141592675445488,1.3556850717577618e-06,0.4999998211860657,0.500000536441803,,,,,,,,,,,,,,,,,,,,,,,,,,,,,,,,,,,,,,,,,,,,,,,,,,,,,,,,,,,,,,,,,,,,,,,,,,,,,,,,,,,,,,,,,,,,,,,,,,,,,,,,,,,,,,,,,,,,,,,,,,,,,,,,,,,,,,-3.0531133177191805e-12,1.887379141862766e-12,-2.2620794126737565e-12,0.0,-3.941291737419306e-12,-9.595429485698135e-12,-6.888253665238153e-07,-6.892598776175873e-07,-0.0004063229134771,1.231660553457914e-05,1.198450627271086e-05,0.0,-1.6631717869586282e-07,-7.659577931917738e-06,-1.102322698898206e-06,2.8593103706953116e-06,,,,,,,,,,,,,,,,,,,,,,,,,,,,,,,,,,,,,,,,,,,,,,,,,,,,,,,,,,,,,,,,,,,,,,,,,,
115,3.5746312141418457,0.6108047366142273,1.5708327293395996,0.3899503192305565,0.0,-3.141592675445488,2.1256371229155798e-12,0.5000001192092896,0.5000001192092896,0.6033039689064026,1.5717275142669678,0.3875768250226974,0.0,-3.141592675445488,1.1071481367253e-06,0.499999850988388,0.5000004172325134,,,,,,,,,,,,,,,,,,,,,,,,,,,,,,,,,,,,,,,,,,,,,,,,,,,,,,,,,,,,,,,,,,,,,,,,,,,,,,,,,,,,,,,,,,,,,,,,,,,,,,,,,,,,,,,,,,,,,,,,,,,,,,,,,,,,,,-3.0531133177191805e-12,1.887379141862766e-12,-2.2620794126737565e-12,0.0,-3.941291737419306e-12,-9.595429485698135e-12,-6.888253665238153e-07,-6.892598776175873e-07,-0.0003393561637494,1.0292113984178286e-05,1.0005761396314485e-05,0.0,-1.3568524082074873e-07,-6.270855010370724e-06,-8.901764090296638e-07,2.3526829409092898e-06,,,,,,,,,,,,,,,,,,,,,,,,,,,,,,,,,,,,,,,,,,,,,,,,,,,,,,,,,,,,,,,,,,,,,,,,,,
116,3.595576763153076,0.6108047366142273,1.5708327293395996,0.3899503192305565,0.0,-3.141592675445488,1.8048303736944993e-12,0.5000001192092896,0.5000001192092896,0.6033039689064026,1.5717275142669678,0.3875768250226974,0.0,-3.141592675445488,1.1071481367253e-06,0.499999850988388,0.5000004172325134,,,,,,,,,,,,,,,,,,,,,,,,,,,,,,,,,,,,,,,,,,,,,,,,,,,,,,,,,,,,,,,,,,,,,,,,,,,,,,,,,,,,,,,,,,,,,,,,,,,,,,,,,,,,,,,,,,,,,,,,,,,,,,,,,,,,,,-2.55351295663786e-12,1.5543122344752194e-12,-1.9567680809018384e-12,0.0,-2.942091015256665e-12,-8.209007258674905e-12,-5.752236802436528e-07,-5.756562018177647e-07,-0.0003393561637494,1.0292113984178286e-05,1.0005761396314485e-05,0.0,-1.3568524082074873e-07,-6.270855010370724e-06,-8.901764090296638e-07,2.3526829409092898e-06,,,,,,,,,,,,,,,,,,,,,,,,,,,,,,,,,,,,,,,,,,,,,,,,,,,,,,,,,,,,,,,,,,,,,,,,,,
117,3.616564273834229,0.6108047366142273,1.5708327293395996,0.3899503192305565,0.0,-3.141592675445488,1.8048303736944993e-12,0.5000001192092896,0.5000001192092896,0.6032922863960266,1.5717278718948364,0.3875771751999855,0.0,-3.141592675445488,8.935638788898359e-07,0.4999998807907104,0.5000003576278687,,,,,,,,,,,,,,,,,,,,,,,,,,,,,,,,,,,,,,,,,,,,,,,,,,,,,,,,,,,,,,,,,,,,,,,,,,,,,,,,,,,,,,,,,,,,,,,,,,,,,,,,,,,,,,,,,,,,,,,,,,,,,,,,,,,,,,-2.55351295663786e-12,1.5543122344752194e-12,-1.9567680809018384e-12,0.0,-2.942091015256665e-12,-8.209007258674905e-12,-5.752236802436528e-07,-5.756562018177647e-07,-0.0002806046395562,8.515013178111985e-06,8.270394573628437e-06,0.0,-1.0938749994693353e-07,-5.0749604270095006e-06,-7.094796501405654e-07,1.9145154510624707e-06,,,,,,,,,,,,,,,,,,,,,,,,,,,,,,,,,,,,,,,,,,,,,,,,,,,,,,,,,,,,,,,,,,,,,,,,,,
118,3.637819290161133,0.6108047366142273,1.5708327293395996,0.3899503192305565,0.0,-3.141592675445488,1.53337054425301e-12,0.5000001192092896,0.5000001192092896,0.6032922863960266,1.5717278718948364,0.3875771751999855,0.0,-3.141592675445488,8.935638788898359e-07,0.4999998807907104,0.5000003576278687,,,,,,,,,,,,,,,,,,,,,,,,,,,,,,,,,,,,,,,,,,,,,,,,,,,,,,,,,,,,,,,,,,,,,,,,,,,,,,,,,,,,,,,,,,,,,,,,,,,,,,,,,,,,,,,,,,,,,,,,,,,,,,,,,,,,,,-1.887379141862766e-12,1.1102230246251565e-12,-1.5890067039947553e-12,0.0,-3.1086244689504387e-12,-6.686594854199424e-12,-4.803576985068503e-07,-4.807768618775299e-07,-0.0002806046395562,8.515013178111985e-06,8.270394573628437e-06,0.0,-1.0938749994693353e-07,-5.0749604270095006e-06,-7.094796501405654e-07,1.9145154510624707e-06,,,,,,,,,,,,,,,,,,,,,,,,,,,,,,,,,,,,,,,,,,,,,,,,,,,,,,,,,,,,,,,,,,,,,,,,,,
