MHC-RobotSimulators-Research/Data_Analysis_MotionReplication/mai_plotter/offset_fixed/1arm__p1.csv
Unnamed: 0,time,jpos0,jpos1,jpos2,jpos3,jpos4,jpos5,jpos6,jpos7,jpos8,jpos9,jpos10,jpos11,jpos12,jpos13,jpos14,jpos15,runlevel,sublevel,last_seq,type0,type1,pos0,pos1,pos2,pos3,pos4,pos5,ori0,ori1,ori2,ori3,ori4,ori5,ori6,ori7,ori8,ori9,ori10,ori11,ori12,ori13,ori14,ori15,ori16,ori17,ori_d0,ori_d1,ori_d2,ori_d3,ori_d4,ori_d5,ori_d6,ori_d7,ori_d8,ori_d9,ori_d10,ori_d11,ori_d12,ori_d13,ori_d14,ori_d15,ori_d16,ori_d17,pos_d0,pos_d1,pos_d2,pos_d3,pos_d4,pos_d5,encVals0,encVals1,encVals2,encVals3,encVals4,encVals5,encVals6,encVals7,encVals8,encVals9,encVals10,encVals11,encVals12,encVals13,encVals14,encVals15,dac_vals0,dac_vals1,dac_vals2,dac_vals3,dac_vals4,dac_vals5,dac_vals6,dac_vals7,dac_vals8,dac_vals9,dac_vals10,dac_vals11,dac_vals12,dac_vals13,dac_vals14,dac_vals15,Tau0,Tau1,Tau2,Tau3,Tau4,Tau5,Tau6,Tau7,Tau8,Tau9,Tau10,Tau11,Tau12,Tau13,Tau14,Tau15,mpos0,mpos1,mpos2,mpos3,mpos4,mpos5,mpos6,mpos7,mpos8,mpos9,mpos10,mpos11,mpos12,mpos13,mpos14,mpos15,mvel0,mvel1,mvel2,mvel3,mvel4,mvel5,mvel6,mvel7,mvel8,mvel9,mvel10,mvel11,mvel12,mvel13,mvel14,mvel15,jvel0,jvel1,jvel2,jvel3,jvel4,jvel5,jvel6,jvel7,jvel8,jvel9,jvel10,jvel11,jvel12,jvel13,jvel14,jvel15,mpos_d0,mpos_d1,mpos_d2,mpos_d3,mpos_d4,mpos_d5,mpos_d6,mpos_d7,mpos_d8,mpos_d9,mpos_d10,mpos_d11,mpos_d12,mpos_d13,mpos_d14,mpos_d15,jpos_d0,jpos_d1,jpos_d2,jpos_d3,jpos_d4,jpos_d5,jpos_d6,jpos_d7,jpos_d8,jpos_d9,jpos_d10,jpos_d11,jpos_d12,jpos_d13,jpos_d14,jpos_d15,grasp_d0,grasp_d1,encoffsets0,encoffsets1,encoffsets2,encoffsets3,encoffsets4,encoffsets5,encoffsets6,encoffsets7,encoffsets8,encoffsets9,encoffsets10,encoffsets11,encoffsets12,encoffsets13,encoffsets14,encoffsets15,jac_vel0,jac_vel1,jac_vel2,jac_vel3,jac_vel4,jac_vel5,jac_vel6,jac_vel7,jac_vel8,jac_vel9,jac_vel10,jac_vel11,jac_f0,jac_f1,jac_f2,jac_f3,jac_f4,jac_f5,jac_f6,jac_f7,jac_f8,jac_f9,jac_f10,jac_f11
0,0.0,0.522391,1.577812,0.39793,0.0,-3.14245,-0.002519,0.784464,0.783546,0.526427,1.575363,0.399673,0.0,-3.14305,-0.00218,0.782907,0.779864,3.0,1.0,111.0,0.0,1.0,-79812.0,-25898.0,14003.0,-78110.0,25656.0,13561.0,-0.937522,-0.215626,0.273054,-0.306513,0.140514,-0.941438,0.164631,-0.966313,-0.197827,-0.937217,0.214446,0.275024,0.309409,0.147441,0.939429,0.160907,0.965543,-0.204536,-0.937586,-0.215525,0.272912,-0.306422,0.140939,-0.941404,0.164432,-0.966274,-0.198184,-0.937406,0.213799,0.274881,0.309165,0.147657,0.939476,0.160271,0.965654,-0.204514,-79901.0,-25901.0,13982.0,-78114.0,25649.0,13541.0,18323.0,17343.0,-157769.0,0.0,-54168.0,-54284.0,-55410.0,-52846.0,-14998.0,-12619.0,155045.0,0.0,53519.0,53383.0,52190.0,55146.0,80.0,237.0,58.0,0.0,638.0,1044.0,160.0,341.0,-54.0,-205.0,43.0,0.0,565.0,662.0,6.0,268.0,-0.021756,-0.064203,-0.015832,0.0,0.02336,0.038212,-0.005879,0.01248,-0.014665,-0.055714,0.011897,0.0,0.020694,0.024247,-0.000254,0.009838,4076.460205,11514.870117,51295.230469,0.0,-17635.861328,-17636.400391,18038.611328,-17230.769531,4107.959961,11501.910156,51512.222656,0.0,17708.759766,17708.580078,-17306.910156,18112.050781,0.0,0.0,0.0,0.0,0.0,0.0,0.0,0.0,0.0,0.0,0.0,0.0,0.0,0.0,0.0,0.0,0.0,0.0,0.0,0.0,0.0,0.0,0.0,0.0,0.0,0.0,0.0,0.0,0.0,0.0,0.0,0.0,4074.61499,11510.977539,51284.578125,0.0,-17635.855469,-17636.486328,18038.691406,-17230.855469,4107.70752,11499.620117,51512.164062,0.0,17708.822266,17708.642578,-17306.857422,18111.601562,29.917233,90.371895,22.79512,0.0,-0.139505,-0.153802,44.960114,44.879665,30.16021,90.24308,22.8997,0.0,-0.163078,-0.117937,44.859703,44.636307,1.568,1.562,-63617.0,-145286.0,-412178.0,0.0,141786.0,141676.0,-145019.0,138607.0,-60642.0,-140418.0,-417313.0,0.0,-143245.0,-143379.0,140109.0,-146099.0,0.0,0.0,0.0,0.0,0.0,0.0,0.0,0.0,0.0,0.0,0.0,0.0,0.0,0.0,0.0,0.0,0.0,0.0,0.0,0.0,0.0,0.0,0.0,0.0
1,1.3218989372253418,0.522391,1.577812,0.39793,0.0,-3.091791,0.040281,0.468537,0.579773,0.526427,1.575363,0.399673,0.0,-3.1424670000000003,-0.001654,0.522707,0.544296,3.0,1.0,111.0,0.0,1.0,-79947.0,-25375.0,14136.0,-78112.0,25650.0,13563.0,-0.959236,-0.175575,0.221451,-0.255349,0.202694,-0.945364,0.121096,-0.963374,-0.239264,-0.934651,0.225815,0.274656,0.310701,0.143077,0.939677,0.172896,0.963606,-0.203888,-0.959236,-0.175575,0.221451,-0.255349,0.202694,-0.945364,0.121096,-0.963374,-0.239264,-0.934651,0.225815,0.274656,0.310701,0.143077,0.939677,0.172896,0.963606,-0.203888,-79947.0,-25375.0,14136.0,-78112.0,25650.0,13563.0,18323.0,17343.0,-157769.0,0.0,-53994.0,-54039.0,-53724.0,-54135.0,-14998.0,-12619.0,155045.0,0.0,53521.0,53386.0,53678.0,53796.0,80.0,237.0,58.0,0.0,799.0,1093.0,646.0,-612.0,-54.0,-205.0,43.0,0.0,614.0,700.0,763.0,-1013.0,-0.021756,-0.064203,-0.015832,0.0,0.029264,0.040008,-0.023646,-0.022414,-0.014665,-0.055714,0.011897,0.0,0.022473,0.02565,-0.027926,-0.037072,4076.460205,11514.870117,51295.230469,0.0,-17620.201172,-17614.349609,17886.871094,-17346.779297,4107.959961,11501.910156,51512.222656,0.0,17708.939453,17708.851562,-17440.830078,17990.550781,0.0,0.0,0.0,0.0,0.0,0.0,-269.273376,-89.174942,0.0,0.0,0.0,0.0,0.0,0.0,-178.349884,-89.174942,0.0,0.0,0.0,0.0,0.0,0.0,-0.522657,-0.173088,0.0,0.0,0.0,0.0,0.0,0.0,-0.346175,-0.173088,4074.61499,11510.977539,51284.578125,0.0,-17617.990234,-17616.662109,17879.1875,-17360.873047,4107.70752,11499.620117,51512.164062,0.0,17709.763672,17709.763672,-17453.072266,17967.085938,29.917233,90.371895,22.79512,0.0,3.171656,2.050947,26.119177,31.522816,30.16021,90.24308,22.8997,0.0,0.011401,0.006747,28.536486,28.627041,1.048,1.067,-63617.0,-145286.0,-412178.0,0.0,141786.0,141676.0,-145019.0,138607.0,-60642.0,-140418.0,-417313.0,0.0,-143245.0,-143379.0,140109.0,-146099.0,0.0,0.0,0.0,0.0,0.0,-0.522657,0.0,0.0,0.0,0.0,0.0,-0.346175,0.0,0.0,0.0,0.0,0.0,-0.522657,0.0,0.0,0.0,0.0,0.0,-0.346175
2,1.342890977859497,0.522391,1.577812,0.39793,0.0,-3.090043,0.040281,0.461027,0.574183,0.526427,1.575363,0.399673,0.0,-3.1424670000000003,-0.001654,0.520433,0.538181,3.0,1.0,111.0,0.0,1.0,-79947.0,-25375.0,14137.0,-78112.0,25650.0,13563.0,-0.959413,-0.175107,0.221051,-0.255075,0.204569,-0.945033,0.120262,-0.963062,-0.240931,-0.935083,0.224019,0.274656,0.310426,0.143674,0.939677,0.171045,0.963936,-0.203888,-0.959427,-0.174948,0.221119,-0.255071,0.204317,-0.945089,0.120163,-0.963145,-0.240651,-0.935004,0.224346,0.274656,0.310476,0.143565,0.939677,0.171382,0.963877,-0.203888,-79947.0,-25375.0,14137.0,-78112.0,25650.0,13563.0,18323.0,17343.0,-157769.0,0.0,-53988.0,-54039.0,-53681.0,-54167.0,-14998.0,-12619.0,155045.0,0.0,53521.0,53386.0,53691.0,53761.0,80.0,237.0,58.0,0.0,735.0,1092.0,562.0,-555.0,-54.0,-205.0,43.0,0.0,614.0,701.0,746.0,-954.0,-0.021756,-0.064203,-0.015832,0.0,0.026908,0.039994,-0.020595,-0.020315,-0.014665,-0.055714,0.011897,0.0,0.022491,0.025669,-0.027318,-0.034924,4076.460205,11514.870117,51295.230469,0.0,-17619.660156,-17614.349609,17883.001953,-17349.660156,4107.959961,11501.910156,51512.222656,0.0,17708.939453,17708.851562,-17442.001953,17987.400391,0.0,0.0,0.0,0.0,90.92347,0.0,-89.174942,-178.349884,0.0,0.0,0.0,0.0,0.0,0.0,0.0,-180.098419,0.0,0.0,0.0,0.0,0.294136,0.0,-0.173088,-0.346175,0.0,0.0,0.0,0.0,0.0,0.0,0.0,-0.349569,4074.61499,11510.977539,51284.578125,0.0,-17617.962891,-17616.630859,17878.933594,-17361.080078,4107.70752,11499.620117,51512.164062,0.0,17709.765625,17709.765625,-17453.302734,17966.859375,29.917233,90.371895,22.79512,0.0,3.17692,2.054453,26.089222,31.501581,30.16021,90.24308,22.8997,0.0,0.011677,0.006943,28.51074,28.601789,1.036,1.059,-63617.0,-145286.0,-412178.0,0.0,141786.0,141676.0,-145019.0,138607.0,-60642.0,-140418.0,-417313.0,0.0,-143245.0,-143379.0,140109.0,-146099.0,0.0,0.0,0.0,0.010608,-0.005269,-0.466985,0.0,0.0,0.0,0.0,0.0,0.0,0.0,0.0,0.0,0.010608,-0.005269,-0.466985,0.0,0.0,0.0,0.0,0.0,0.0
3,1.3628818988800049,0.522391,1.577812,0.39793,0.0,-3.0897550000000003,0.040281,0.459978,0.572608,0.526427,1.575363,0.399673,0.0,-3.1424670000000003,-0.001654,0.520433,0.534162,3.0,1.0,111.0,0.0,1.0,-79947.0,-25375.0,14137.0,-78112.0,25650.0,13563.0,-0.959369,-0.175434,0.220985,-0.255116,0.204771,-0.944979,0.12053,-0.96296,-0.241207,-0.935531,0.22214,0.274656,0.310137,0.144297,0.939677,0.169108,0.964278,-0.203888,-0.959369,-0.175434,0.220985,-0.255116,0.204771,-0.944979,0.12053,-0.96296,-0.241207,-0.935511,0.222222,0.274656,0.310149,0.14427,0.939677,0.169193,0.964263,-0.203888,-79947.0,-25375.0,14137.0,-78112.0,25650.0,13563.0,18323.0,17343.0,-157769.0,0.0,-53987.0,-54039.0,-53675.0,-54176.0,-14998.0,-12619.0,155045.0,0.0,53521.0,53386.0,53691.0,53738.0,80.0,237.0,58.0,0.0,775.0,1091.0,551.0,-540.0,-54.0,-205.0,43.0,0.0,615.0,701.0,751.0,-914.0,-0.021756,-0.064203,-0.015832,0.0,0.028383,0.039954,-0.020186,-0.019795,-0.014665,-0.055714,0.011897,0.0,0.022505,0.025684,-0.027515,-0.033454,4076.460205,11514.870117,51295.230469,0.0,-17619.570312,-17614.349609,17882.460938,-17350.470703,4107.959961,11501.910156,51512.222656,0.0,17708.939453,17708.851562,-17442.001953,17985.330078,0.0,0.0,0.0,0.0,0.0,0.0,0.0,0.0,0.0,0.0,0.0,0.0,0.0,0.0,0.0,-90.92347,0.0,0.0,0.0,0.0,0.0,0.0,0.0,0.0,0.0,0.0,0.0,0.0,0.0,0.0,0.0,-0.176481,4074.61499,11510.977539,51284.578125,0.0,-17617.962891,-17616.630859,17878.933594,-17361.080078,4107.70752,11499.620117,51512.164062,0.0,17709.765625,17709.765625,-17453.302734,17966.859375,29.917233,90.371895,22.79512,0.0,3.17692,2.054453,26.089222,31.501581,30.16021,90.24308,22.8997,0.0,0.011677,0.006943,28.51074,28.601789,1.032,1.054,-63617.0,-145286.0,-412178.0,0.0,141786.0,141676.0,-145019.0,138607.0,-60642.0,-140418.0,-417313.0,0.0,-143245.0,-143379.0,140109.0,-146099.0,0.0,0.0,0.0,0.0,0.0,0.0,0.0,0.0,0.0,0.0,0.0,0.0,0.0,0.0,0.0,0.0,0.0,0.0,0.0,0.0,0.0,0.0,0.0,0.0
4,1.3849279880523682,0.522391,1.577812,0.39793,0.0,-3.089461,0.040281,0.459978,0.572608,0.526427,1.575363,0.399673,0.0,-3.1424670000000003,-0.001654,0.52026,0.533463,3.0,1.0,111.0,0.0,1.0,-79947.0,-25375.0,14137.0,-78112.0,25650.0,13563.0,-0.95937,-0.17551,0.220918,-0.255103,0.205045,-0.944923,0.120545,-0.962888,-0.241487,-0.935589,0.221894,0.274656,0.310099,0.144379,0.939677,0.168854,0.964323,-0.203888,-0.95937,-0.17551,0.220918,-0.255103,0.205045,-0.944923,0.120545,-0.962888,-0.241487,-0.935589,0.221894,0.274656,0.310099,0.144379,0.939677,0.168854,0.964323,-0.203888,-79947.0,-25375.0,14137.0,-78112.0,25650.0,13563.0,18323.0,17343.0,-157769.0,0.0,-53986.0,-54039.0,-53675.0,-54176.0,-14998.0,-12619.0,155045.0,0.0,53521.0,53386.0,53692.0,53734.0,80.0,237.0,58.0,0.0,772.0,1090.0,553.0,-546.0,-54.0,-205.0,43.0,0.0,615.0,702.0,755.0,-915.0,-0.021756,-0.064203,-0.015832,0.0,0.028271,0.03991,-0.020254,-0.019999,-0.014665,-0.055714,0.011897,0.0,0.022521,0.025702,-0.027653,-0.03349,4076.460205,11514.870117,51295.230469,0.0,-17619.480469,-17614.349609,17882.460938,-17350.470703,4107.959961,11501.910156,51512.222656,0.0,17708.939453,17708.851562,-17442.089844,17984.970703,0.0,0.0,0.0,0.0,0.0,0.0,0.0,0.0,0.0,0.0,0.0,0.0,0.0,0.0,0.0,0.0,0.0,0.0,0.0,0.0,0.0,0.0,0.0,0.0,0.0,0.0,0.0,0.0,0.0,0.0,0.0,0.0,4074.61499,11510.977539,51284.578125,0.0,-17617.962891,-17616.630859,17878.933594,-17361.080078,4107.70752,11499.620117,51512.164062,0.0,17709.765625,17709.765625,-17453.302734,17966.859375,29.917233,90.371895,22.79512,0.0,3.17692,2.054453,26.089222,31.501581,30.16021,90.24308,22.8997,0.0,0.011677,0.006943,28.51074,28.601789,1.032,1.053,-63617.0,-145286.0,-412178.0,0.0,141786.0,141676.0,-145019.0,138607.0,-60642.0,-140418.0,-417313.0,0.0,-143245.0,-143379.0,140109.0,-146099.0,0.0,0.0,0.0,0.0,0.0,0.0,0.0,0.0,0.0,0.0,0.0,0.0,0.0,0.0,0.0,0.0,0.0,0.0,0.0,0.0,0.0,0.0,0.0,0.0
5,1.404926061630249,0.522391,1.577812,0.39793,0.0,-3.089461,0.040281,0.459978,0.572435,0.526427,1.575363,0.399673,0.0,-3.142173,-0.001654,0.51991,0.53329,3.0,1.0,111.0,0.0,1.0,-79947.0,-25375.0,14137.0,-78112.0,25650.0,13563.0,-0.959355,-0.175593,0.220918,-0.25512,0.205023,-0.944923,0.120629,-0.962877,-0.241487,-0.93557,0.221896,0.27472,0.31011,0.144075,0.93972,0.16894,0.964368,-0.203604,-0.959355,-0.175593,0.220918,-0.25512,0.205023,-0.944923,0.120629,-0.962877,-0.241487,-0.93557,0.221896,0.27472,0.31011,0.144075,0.93972,0.16894,0.964368,-0.203604,-79947.0,-25375.0,14137.0,-78112.0,25650.0,13563.0,18323.0,17343.0,-157769.0,0.0,-53986.0,-54039.0,-53675.0,-54177.0,-14998.0,-12619.0,155045.0,0.0,53522.0,53386.0,53694.0,53733.0,80.0,237.0,58.0,0.0,773.0,1089.0,555.0,-549.0,-54.0,-205.0,43.0,0.0,611.0,702.0,756.0,-921.0,-0.021756,-0.064203,-0.015832,0.0,0.028297,0.039871,-0.020315,-0.020105,-0.014665,-0.055714,0.011897,0.0,0.022391,0.025718,-0.02769,-0.033728,4076.460205,11514.870117,51295.230469,0.0,-17619.480469,-17614.349609,17882.460938,-17350.560547,4107.959961,11501.910156,51512.222656,0.0,17709.03125,17708.851562,-17442.269531,17984.880859,0.0,0.0,0.0,0.0,0.0,0.0,0.0,0.0,0.0,0.0,0.0,0.0,0.0,0.0,0.0,0.0,0.0,0.0,0.0,0.0,0.0,0.0,0.0,0.0,0.0,0.0,0.0,0.0,0.0,0.0,0.0,0.0,4074.61499,11510.977539,51284.578125,0.0,-17617.962891,-17616.630859,17878.933594,-17361.080078,4107.70752,11499.620117,51512.164062,0.0,17709.765625,17709.765625,-17453.302734,17966.859375,29.917233,90.371895,22.79512,0.0,3.17692,2.054453,26.089222,31.501581,30.16021,90.24308,22.8997,0.0,0.011677,0.006943,28.51074,28.601789,1.032,1.053,-63617.0,-145286.0,-412178.0,0.0,141786.0,141676.0,-145019.0,138607.0,-60642.0,-140418.0,-417313.0,0.0,-143245.0,-143379.0,140109.0,-146099.0,0.0,0.0,0.0,0.0,0.0,0.0,0.0,0.0,0.0,0.0,0.0,0.0,0.0,0.0,0.0,0.0,0.0,0.0,0.0,0.0,0.0,0.0,0.0,0.0
6,1.425887107849121,0.522391,1.577812,0.39793,0.0,-3.089172,0.040281,0.459978,0.572259,0.526427,1.575363,0.399673,0.0,-3.142173,-0.001654,0.519561,0.532591,3.0,1.0,111.0,0.0,1.0,-79947.0,-25375.0,14138.0,-78112.0,25650.0,13563.0,-0.959341,-0.175753,0.220852,-0.255126,0.205269,-0.944868,0.120729,-0.962796,-0.241762,-0.935609,0.221732,0.27472,0.310085,0.144129,0.93972,0.168771,0.964397,-0.203604,-0.959341,-0.175753,0.220852,-0.255126,0.205269,-0.944868,0.120729,-0.962796,-0.241762,-0.935609,0.221732,0.27472,0.310085,0.144129,0.93972,0.168771,0.964397,-0.203604,-79947.0,-25375.0,14138.0,-78112.0,25650.0,13563.0,18323.0,17343.0,-157769.0,0.0,-53985.0,-54039.0,-53675.0,-54178.0,-14998.0,-12619.0,155045.0,0.0,53522.0,53386.0,53696.0,53729.0,80.0,237.0,58.0,0.0,770.0,1088.0,556.0,-552.0,-54.0,-205.0,43.0,0.0,612.0,703.0,757.0,-922.0,-0.021756,-0.064203,-0.015832,0.0,0.028183,0.039829,-0.02038,-0.020218,-0.014665,-0.055714,0.011897,0.0,0.022404,0.025735,-0.027734,-0.03374,4076.460205,11514.870117,51295.230469,0.0,-17619.390625,-17614.349609,17882.460938,-17350.650391,4107.959961,11501.910156,51512.222656,0.0,17709.03125,17708.851562,-17442.451172,17984.521484,0.0,0.0,0.0,0.0,0.0,0.0,0.0,0.0,0.0,0.0,0.0,0.0,0.0,0.0,0.0,0.0,0.0,0.0,0.0,0.0,0.0,0.0,0.0,0.0,0.0,0.0,0.0,0.0,0.0,0.0,0.0,0.0,4074.61499,11510.977539,51284.578125,0.0,-17617.962891,-17616.630859,17878.933594,-17361.080078,4107.70752,11499.620117,51512.164062,0.0,17709.765625,17709.765625,-17453.302734,17966.859375,29.917233,90.371895,22.79512,0.0,3.17692,2.054453,26.089222,31.501581,30.16021,90.24308,22.8997,0.0,0.011677,0.006943,28.51074,28.601789,1.032,1.052,-63617.0,-145286.0,-412178.0,0.0,141786.0,141676.0,-145019.0,138607.0,-60642.0,-140418.0,-417313.0,0.0,-143245.0,-143379.0,140109.0,-146099.0,0.0,0.0,0.0,0.0,0.0,0.0,0.0,0.0,0.0,0.0,0.0,0.0,0.0,0.0,0.0,0.0,0.0,0.0,0.0,0.0,0.0,0.0,0.0,0.0
7,1.4468870162963867,0.522391,1.577812,0.39793,0.0,-3.0888780000000002,0.040281,0.459978,0.572086,0.526427,1.575363,0.399673,0.0,-3.142173,-0.001654,0.519388,0.532068,3.0,1.0,111.0,0.0,1.0,-79947.0,-25375.0,14138.0,-78112.0,25650.0,13563.0,-0.959328,-0.175912,0.220785,-0.25513,0.205521,-0.944812,0.120828,-0.962713,-0.242043,-0.935648,0.221569,0.27472,0.310059,0.144183,0.93972,0.168603,0.964427,-0.203604,-0.959328,-0.175912,0.220785,-0.25513,0.205521,-0.944812,0.120828,-0.962713,-0.242043,-0.935648,0.221569,0.27472,0.310059,0.144183,0.93972,0.168603,0.964427,-0.203604,-79947.0,-25375.0,14138.0,-78112.0,25650.0,13563.0,18323.0,17343.0,-157769.0,0.0,-53984.0,-54039.0,-53675.0,-54179.0,-14998.0,-12619.0,155045.0,0.0,53522.0,53386.0,53697.0,53726.0,80.0,237.0,58.0,0.0,766.0,1087.0,558.0,-555.0,-54.0,-205.0,43.0,0.0,612.0,703.0,761.0,-924.0,-0.021756,-0.064203,-0.015832,0.0,0.028066,0.039787,-0.020445,-0.020331,-0.014665,-0.055714,0.011897,0.0,0.022418,0.025752,-0.027854,-0.033826,4076.460205,11514.870117,51295.230469,0.0,-17619.300781,-17614.349609,17882.460938,-17350.740234,4107.959961,11501.910156,51512.222656,0.0,17709.03125,17708.851562,-17442.539062,17984.251953,0.0,0.0,0.0,0.0,0.0,0.0,0.0,0.0,0.0,0.0,0.0,0.0,0.0,0.0,0.0,0.0,0.0,0.0,0.0,0.0,0.0,0.0,0.0,0.0,0.0,0.0,0.0,0.0,0.0,0.0,0.0,0.0,4074.61499,11510.977539,51284.578125,0.0,-17617.962891,-17616.630859,17878.933594,-17361.080078,4107.70752,11499.620117,51512.164062,0.0,17709.765625,17709.765625,-17453.302734,17966.859375,29.917233,90.371895,22.79512,0.0,3.17692,2.054453,26.089222,31.501581,30.16021,90.24308,22.8997,0.0,0.011677,0.006943,28.51074,28.601789,1.032,1.051,-63617.0,-145286.0,-412178.0,0.0,141786.0,141676.0,-145019.0,138607.0,-60642.0,-140418.0,-417313.0,0.0,-143245.0,-143379.0,140109.0,-146099.0,0.0,0.0,0.0,0.0,0.0,0.0,0.0,0.0,0.0,0.0,0.0,0.0,0.0,0.0,0.0,0.0,0.0,0.0,0.0,0.0,0.0,0.0,0.0,0.0
8,1.4668920040130615,0.522391,1.577812,0.39793,0.0,-3.0888780000000002,0.040281,0.459978,0.571909,0.526427,1.575363,0.399673,0.0,-3.142173,-0.001654,0.519211,0.531542,3.0,1.0,111.0,0.0,1.0,-79947.0,-25375.0,14138.0,-78112.0,25650.0,13563.0,-0.959312,-0.175996,0.220785,-0.255148,0.205499,-0.944812,0.120913,-0.962702,-0.242043,-0.935686,0.221405,0.27472,0.310034,0.144237,0.93972,0.168434,0.964456,-0.203604,-0.959312,-0.175996,0.220785,-0.255148,0.205499,-0.944812,0.120913,-0.962702,-0.242043,-0.935686,0.221405,0.27472,0.310034,0.144237,0.93972,0.168434,0.964456,-0.203604,-79947.0,-25375.0,14138.0,-78112.0,25650.0,13563.0,18323.0,17343.0,-157769.0,0.0,-53984.0,-54039.0,-53675.0,-54180.0,-14998.0,-12619.0,155045.0,0.0,53522.0,53386.0,53698.0,53723.0,80.0,237.0,58.0,0.0,767.0,1086.0,560.0,-558.0,-54.0,-205.0,43.0,0.0,612.0,704.0,764.0,-926.0,-0.021756,-0.064203,-0.015832,0.0,0.028089,0.039747,-0.020506,-0.020432,-0.014665,-0.055714,0.011897,0.0,0.022431,0.025768,-0.027962,-0.03389,4076.460205,11514.870117,51295.230469,0.0,-17619.300781,-17614.349609,17882.460938,-17350.832031,4107.959961,11501.910156,51512.222656,0.0,17709.03125,17708.851562,-17442.630859,17983.980469,0.0,0.0,0.0,0.0,0.0,0.0,0.0,0.0,0.0,0.0,0.0,0.0,0.0,0.0,0.0,0.0,0.0,0.0,0.0,0.0,0.0,0.0,0.0,0.0,0.0,0.0,0.0,0.0,0.0,0.0,0.0,0.0,4074.61499,11510.977539,51284.578125,0.0,-17617.962891,-17616.630859,17878.933594,-17361.080078,4107.70752,11499.620117,51512.164062,0.0,17709.765625,17709.765625,-17453.302734,17966.859375,29.917233,90.371895,22.79512,0.0,3.17692,2.054453,26.089222,31.501581,30.16021,90.24308,22.8997,0.0,0.011677,0.006943,28.51074,28.601789,1.031,1.05,-63617.0,-145286.0,-412178.0,0.0,141786.0,141676.0,-145019.0,138607.0,-60642.0,-140418.0,-417313.0,0.0,-143245.0,-143379.0,140109.0,-146099.0,0.0,0.0,0.0,0.0,0.0,0.0,0.0,0.0,0.0,0.0,0.0,0.0,0.0,0.0,0.0,0.0,0.0,0.0,0.0,0.0,0.0,0.0,0.0,0.0
9,1.4868810176849363,0.522391,1.577812,0.39793,0.0,-3.08859,0.040281,0.459978,0.571736,0.526427,1.575363,0.399673,0.0,-3.142173,-0.00148,0.518952,0.53093,3.0,1.0,111.0,0.0,1.0,-79947.0,-25375.0,14138.0,-78112.0,25648.0,13563.0,-0.959298,-0.176154,0.220718,-0.255153,0.205746,-0.944757,0.121011,-0.962621,-0.242318,-0.935773,0.22124,0.274558,0.309846,0.144293,0.939774,0.168299,0.964485,-0.203576,-0.959298,-0.176154,0.220718,-0.255153,0.205746,-0.944757,0.121011,-0.962621,-0.242318,-0.935773,0.22124,0.274558,0.309846,0.144293,0.939774,0.168299,0.964485,-0.203576,-79947.0,-25375.0,14138.0,-78112.0,25648.0,13563.0,18323.0,17343.0,-157769.0,0.0,-53983.0,-54039.0,-53675.0,-54181.0,-14998.0,-12619.0,155045.0,0.0,53522.0,53387.0,53699.0,53719.0,80.0,237.0,58.0,0.0,764.0,1085.0,562.0,-561.0,-54.0,-205.0,43.0,0.0,613.0,702.0,767.0,-925.0,-0.021756,-0.064203,-0.015832,0.0,0.027971,0.039707,-0.020568,-0.020533,-0.014665,-0.055714,0.011897,0.0,0.022444,0.025705,-0.028069,-0.033871,4076.460205,11514.870117,51295.230469,0.0,-17619.210938,-17614.349609,17882.460938,-17350.919922,4107.959961,11501.910156,51512.222656,0.0,17709.03125,17708.939453,-17442.720703,17983.621094,0.0,0.0,0.0,0.0,0.0,0.0,0.0,0.0,0.0,0.0,0.0,0.0,0.0,0.0,0.0,0.0,0.0,0.0,0.0,0.0,0.0,0.0,0.0,0.0,0.0,0.0,0.0,0.0,0.0,0.0,0.0,0.0,4074.61499,11510.977539,51284.578125,0.0,-17617.962891,-17616.630859,17878.933594,-17361.080078,4107.70752,11499.620117,51512.164062,0.0,17709.765625,17709.765625,-17453.302734,17966.859375,29.917233,90.371895,22.79512,0.0,3.17692,2.054453,26.089222,31.501581,30.16021,90.24308,22.8997,0.0,0.011677,0.006943,28.51074,28.601789,1.031,1.049,-63617.0,-145286.0,-412178.0,0.0,141786.0,141676.0,-145019.0,138607.0,-60642.0,-140418.0,-417313.0,0.0,-143245.0,-143379.0,140109.0,-146099.0,0.0,0.0,0.0,0.0,0.0,0.0,0.0,0.0,0.0,0.0,0.0,0.0,0.0,0.0,0.0,0.0,0.0,0.0,0.0,0.0,0.0,0.0,0.0,0.0
10,1.5069220066070557,0.522391,1.577812,0.39793,0.0,-3.08859,0.040281,0.459978,0.57156,0.526427,1.575363,0.399673,0.0,-3.142173,-0.00148,0.518775,0.530757,3.0,1.0,111.0,0.0,1.0,-79947.0,-25375.0,14138.0,-78112.0,25648.0,13563.0,-0.959283,-0.176239,0.220718,-0.255172,0.205723,-0.944757,0.121096,-0.96261,-0.242318,-0.935772,0.221242,0.274558,0.309846,0.144292,0.939774,0.168301,0.964485,-0.203576,-0.959283,-0.176239,0.220718,-0.255172,0.205723,-0.944757,0.121096,-0.96261,-0.242318,-0.935772,0.221242,0.274558,0.309846,0.144292,0.939774,0.168301,0.964485,-0.203576,-79947.0,-25375.0,14138.0,-78112.0,25648.0,13563.0,18323.0,17343.0,-157769.0,0.0,-53983.0,-54039.0,-53675.0,-54182.0,-14998.0,-12619.0,155045.0,0.0,53522.0,53387.0,53700.0,53718.0,80.0,237.0,58.0,0.0,764.0,1084.0,563.0,-563.0,-54.0,-205.0,43.0,0.0,613.0,702.0,769.0,-931.0,-0.021756,-0.064203,-0.015832,0.0,0.027993,0.039668,-0.020629,-0.02063,-0.014665,-0.055714,0.011897,0.0,0.022456,0.025719,-0.028174,-0.034085,4076.460205,11514.870117,51295.230469,0.0,-17619.210938,-17614.349609,17882.460938,-17351.011719,4107.959961,11501.910156,51512.222656,0.0,17709.03125,17708.939453,-17442.810547,17983.53125,0.0,0.0,0.0,0.0,0.0,0.0,0.0,0.0,0.0,0.0,0.0,0.0,0.0,0.0,0.0,0.0,0.0,0.0,0.0,0.0,0.0,0.0,0.0,0.0,0.0,0.0,0.0,0.0,0.0,0.0,0.0,0.0,4074.61499,11510.977539,51284.578125,0.0,-17617.962891,-17616.630859,17878.933594,-17361.080078,4107.70752,11499.620117,51512.164062,0.0,17709.765625,17709.765625,-17453.302734,17966.859375,29.917233,90.371895,22.79512,0.0,3.17692,2.054453,26.089222,31.501581,30.16021,90.24308,22.8997,0.0,0.011677,0.006943,28.51074,28.601789,1.031,1.049,-63617.0,-145286.0,-412178.0,0.0,141786.0,141676.0,-145019.0,138607.0,-60642.0,-140418.0,-417313.0,0.0,-143245.0,-143379.0,140109.0,-146099.0,0.0,0.0,0.0,0.0,0.0,0.0,0.0,0.0,0.0,0.0,0.0,0.0,0.0,0.0,0.0,0.0,0.0,0.0,0.0,0.0,0.0,0.0,0.0,0.0
11,1.5288870334625244,0.522391,1.577812,0.39793,0.0,-3.088295,0.040281,0.459978,0.571213,0.526427,1.575363,0.399673,0.0,-3.142173,-0.00148,0.518602,0.530407,3.0,1.0,111.0,0.0,1.0,-79947.0,-25375.0,14138.0,-78112.0,25648.0,13563.0,-0.959254,-0.176481,0.220651,-0.255194,0.205953,-0.944701,0.121278,-0.962516,-0.242598,-0.935792,0.221159,0.274558,0.309834,0.14432,0.939774,0.168216,0.9645,-0.203576,-0.959254,-0.176481,0.220651,-0.255194,0.205953,-0.944701,0.121278,-0.962516,-0.242598,-0.935792,0.221159,0.274558,0.309834,0.14432,0.939774,0.168216,0.9645,-0.203576,-79947.0,-25375.0,14138.0,-78112.0,25648.0,13563.0,18323.0,17343.0,-157769.0,0.0,-53982.0,-54039.0,-53675.0,-54184.0,-14998.0,-12619.0,155045.0,0.0,53522.0,53387.0,53701.0,53716.0,80.0,237.0,58.0,0.0,761.0,1082.0,565.0,-564.0,-54.0,-205.0,43.0,0.0,614.0,703.0,773.0,-935.0,-0.021756,-0.064203,-0.015832,0.0,0.027872,0.039624,-0.020697,-0.020665,-0.014665,-0.055714,0.011897,0.0,0.02247,0.025735,-0.028297,-0.034246,4076.460205,11514.870117,51295.230469,0.0,-17619.121094,-17614.349609,17882.460938,-17351.189453,4107.959961,11501.910156,51512.222656,0.0,17709.03125,17708.939453,-17442.900391,17983.351562,0.0,0.0,0.0,0.0,0.0,0.0,0.0,0.0,0.0,0.0,0.0,0.0,0.0,0.0,0.0,0.0,0.0,0.0,0.0,0.0,0.0,0.0,0.0,0.0,0.0,0.0,0.0,0.0,0.0,0.0,0.0,0.0,4074.61499,11510.977539,51284.578125,0.0,-17617.962891,-17616.630859,17878.933594,-17361.080078,4107.70752,11499.620117,51512.164062,0.0,17709.765625,17709.765625,-17453.302734,17966.859375,29.917233,90.371895,22.79512,0.0,3.17692,2.054453,26.089222,31.501581,30.16021,90.24308,22.8997,0.0,0.011677,0.006943,28.51074,28.601789,1.031,1.049,-63617.0,-145286.0,-412178.0,0.0,141786.0,141676.0,-145019.0,138607.0,-60642.0,-140418.0,-417313.0,0.0,-143245.0,-143379.0,140109.0,-146099.0,0.0,0.0,0.0,0.0,0.0,0.0,0.0,0.0,0.0,0.0,0.0,0.0,0.0,0.0,0.0,0.0,0.0,0.0,0.0,0.0,0.0,0.0,0.0,0.0
12,1.549901008605957,0.522391,1.577812,0.39793,0.0,-3.088295,0.040281,0.459978,0.570864,0.526427,1.575363,0.399673,0.0,-3.142173,-0.00148,0.518425,0.529881,3.0,1.0,111.0,0.0,1.0,-79947.0,-25375.0,14138.0,-78112.0,25648.0,13563.0,-0.959223,-0.176649,0.220651,-0.25523,0.205909,-0.944701,0.121446,-0.962495,-0.242598,-0.935831,0.220996,0.274558,0.309808,0.144374,0.939774,0.168047,0.964529,-0.203576,-0.959223,-0.176649,0.220651,-0.25523,0.205909,-0.944701,0.121446,-0.962495,-0.242598,-0.935831,0.220996,0.274558,0.309808,0.144374,0.939774,0.168047,0.964529,-0.203576,-79947.0,-25375.0,14138.0,-78112.0,25648.0,13563.0,18323.0,17343.0,-157769.0,0.0,-53982.0,-54039.0,-53675.0,-54186.0,-14998.0,-12619.0,155045.0,0.0,53522.0,53387.0,53702.0,53713.0,80.0,237.0,58.0,0.0,762.0,1081.0,567.0,-565.0,-54.0,-205.0,43.0,0.0,614.0,703.0,776.0,-937.0,-0.021756,-0.064203,-0.015832,0.0,0.027894,0.039582,-0.020761,-0.020687,-0.014665,-0.055714,0.011897,0.0,0.022484,0.02575,-0.028407,-0.034309,4076.460205,11514.870117,51295.230469,0.0,-17619.121094,-17614.349609,17882.460938,-17351.369141,4107.959961,11501.910156,51512.222656,0.0,17709.03125,17708.939453,-17442.990234,17983.080078,0.0,0.0,0.0,0.0,0.0,0.0,0.0,0.0,0.0,0.0,0.0,0.0,0.0,0.0,0.0,0.0,0.0,0.0,0.0,0.0,0.0,0.0,0.0,0.0,0.0,0.0,0.0,0.0,0.0,0.0,0.0,0.0,4074.61499,11510.977539,51284.578125,0.0,-17617.962891,-17616.630859,17878.933594,-17361.080078,4107.70752,11499.620117,51512.164062,0.0,17709.765625,17709.765625,-17453.302734,17966.859375,29.917233,90.371895,22.79512,0.0,3.17692,2.054453,26.089222,31.501581,30.16021,90.24308,22.8997,0.0,0.011677,0.006943,28.51074,28.601789,1.03,1.048,-63617.0,-145286.0,-412178.0,0.0,141786.0,141676.0,-145019.0,138607.0,-60642.0,-140418.0,-417313.0,0.0,-143245.0,-143379.0,140109.0,-146099.0,0.0,0.0,0.0,0.0,0.0,0.0,0.0,0.0,0.0,0.0,0.0,0.0,0.0,0.0,0.0,0.0,0.0,0.0,0.0,0.0,0.0,0.0,0.0,0.0
13,1.5698869228363037,0.522391,1.577812,0.39793,0.0,-3.088295,0.040281,0.459978,0.570687,0.526427,1.575363,0.399673,0.0,-3.142173,-0.00148,0.518252,0.529358,3.0,1.0,111.0,0.0,1.0,-79947.0,-25375.0,14138.0,-78112.0,25648.0,13563.0,-0.959207,-0.176733,0.220651,-0.255248,0.205886,-0.944701,0.121531,-0.962484,-0.242598,-0.935869,0.220832,0.274558,0.309783,0.144428,0.939774,0.167879,0.964559,-0.203576,-0.959207,-0.176733,0.220651,-0.255248,0.205886,-0.944701,0.121531,-0.962484,-0.242598,-0.935869,0.220832,0.274558,0.309783,0.144428,0.939774,0.167879,0.964559,-0.203576,-79947.0,-25375.0,14138.0,-78112.0,25648.0,13563.0,18323.0,17343.0,-157769.0,0.0,-53982.0,-54039.0,-53675.0,-54187.0,-14998.0,-12619.0,155045.0,0.0,53522.0,53387.0,53703.0,53710.0,80.0,237.0,58.0,0.0,762.0,1080.0,569.0,-567.0,-54.0,-205.0,43.0,0.0,614.0,704.0,779.0,-938.0,-0.021756,-0.064203,-0.015832,0.0,0.027914,0.039542,-0.020823,-0.020776,-0.014665,-0.055714,0.011897,0.0,0.022497,0.025764,-0.028509,-0.034355,4076.460205,11514.870117,51295.230469,0.0,-17619.121094,-17614.349609,17882.460938,-17351.460938,4107.959961,11501.910156,51512.222656,0.0,17709.03125,17708.939453,-17443.080078,17982.810547,0.0,0.0,0.0,0.0,0.0,0.0,0.0,0.0,0.0,0.0,0.0,0.0,0.0,0.0,0.0,0.0,0.0,0.0,0.0,0.0,0.0,0.0,0.0,0.0,0.0,0.0,0.0,0.0,0.0,0.0,0.0,0.0,4074.61499,11510.977539,51284.578125,0.0,-17617.962891,-17616.630859,17878.933594,-17361.080078,4107.70752,11499.620117,51512.164062,0.0,17709.765625,17709.765625,-17453.302734,17966.859375,29.917233,90.371895,22.79512,0.0,3.17692,2.054453,26.089222,31.501581,30.16021,90.24308,22.8997,0.0,0.011677,0.006943,28.51074,28.601789,1.03,1.047,-63617.0,-145286.0,-412178.0,0.0,141786.0,141676.0,-145019.0,138607.0,-60642.0,-140418.0,-417313.0,0.0,-143245.0,-143379.0,140109.0,-146099.0,0.0,0.0,0.0,0.0,0.0,0.0,0.0,0.0,0.0,0.0,0.0,0.0,0.0,0.0,0.0,0.0,0.0,0.0,0.0,0.0,0.0,0.0,0.0,0.0
14,1.5908870697021484,0.522391,1.577812,0.39793,0.0,-3.088007,0.040281,0.459978,0.570338,0.526427,1.575363,0.399673,0.0,-3.1418850000000003,-0.00148,0.517903,0.528836,3.0,1.0,111.0,0.0,1.0,-79947.0,-25376.0,14138.0,-78112.0,25648.0,13563.0,-0.959178,-0.176976,0.220585,-0.255272,0.206111,-0.944645,0.121714,-0.962392,-0.242873,-0.935889,0.220672,0.27462,0.309769,0.144184,0.939816,0.167796,0.964632,-0.203297,-0.959178,-0.176976,0.220585,-0.255272,0.206111,-0.944645,0.121714,-0.962392,-0.242873,-0.935889,0.220672,0.27462,0.309769,0.144184,0.939816,0.167796,0.964632,-0.203297,-79947.0,-25376.0,14138.0,-78112.0,25648.0,13563.0,18323.0,17343.0,-157769.0,0.0,-53981.0,-54039.0,-53675.0,-54189.0,-14998.0,-12619.0,155045.0,0.0,53523.0,53387.0,53705.0,53707.0,80.0,237.0,58.0,0.0,759.0,1079.0,570.0,-568.0,-54.0,-205.0,43.0,0.0,611.0,704.0,779.0,-940.0,-0.021756,-0.064203,-0.015832,0.0,0.027794,0.0395,-0.020888,-0.020794,-0.014665,-0.055714,0.011897,0.0,0.022369,0.02578,-0.028538,-0.034409,4076.460205,11514.870117,51295.230469,0.0,-17619.03125,-17614.349609,17882.460938,-17351.640625,4107.959961,11501.910156,51512.222656,0.0,17709.121094,17708.939453,-17443.259766,17982.541016,0.0,0.0,0.0,0.0,0.0,0.0,0.0,0.0,0.0,0.0,0.0,0.0,0.0,0.0,-89.174942,0.0,0.0,0.0,0.0,0.0,0.0,0.0,0.0,0.0,0.0,0.0,0.0,0.0,0.0,0.0,-0.173088,0.0,4074.61499,11510.977539,51284.578125,0.0,-17617.962891,-17616.630859,17878.933594,-17361.080078,4107.70752,11499.620117,51512.164062,0.0,17709.765625,17709.765625,-17453.302734,17966.859375,29.917233,90.371895,22.79512,0.0,3.17692,2.054453,26.089222,31.501581,30.16021,90.24308,22.8997,0.0,0.011677,0.006943,28.51074,28.601789,1.03,1.046,-63617.0,-145286.0,-412178.0,0.0,141786.0,141676.0,-145019.0,138607.0,-60642.0,-140418.0,-417313.0,0.0,-143245.0,-143379.0,140109.0,-146099.0,0.0,0.0,0.0,0.0,0.0,0.0,0.0,0.0,0.0,0.0,0.0,-0.173088,0.0,0.0,0.0,0.0,0.0,0.0,0.0,0.0,0.0,0.0,0.0,-0.173088
15,1.610887050628662,0.522391,1.577812,0.39793,0.0,-3.088007,0.040281,0.459978,0.570165,0.526427,1.575363,0.399673,0.0,-3.1418850000000003,-0.00148,0.517726,0.52831,3.0,1.0,111.0,0.0,1.0,-79947.0,-25376.0,14138.0,-78112.0,25648.0,13563.0,-0.959162,-0.177059,0.220585,-0.255289,0.206088,-0.944645,0.121798,-0.962381,-0.242873,-0.935927,0.220509,0.27462,0.309744,0.144238,0.939816,0.167627,0.964661,-0.203297,-0.959162,-0.177059,0.220585,-0.255289,0.206088,-0.944645,0.121798,-0.962381,-0.242873,-0.935927,0.220509,0.27462,0.309744,0.144238,0.939816,0.167627,0.964661,-0.203297,-79947.0,-25376.0,14138.0,-78112.0,25648.0,13563.0,18323.0,17343.0,-157769.0,0.0,-53981.0,-54039.0,-53675.0,-54190.0,-14998.0,-12619.0,155045.0,0.0,53523.0,53387.0,53706.0,53704.0,80.0,237.0,58.0,0.0,760.0,1078.0,572.0,-570.0,-54.0,-205.0,43.0,0.0,611.0,704.0,782.0,-941.0,-0.021756,-0.064203,-0.015832,0.0,0.027812,0.039461,-0.020949,-0.02088,-0.014665,-0.055714,0.011897,0.0,0.02238,0.025794,-0.028633,-0.034443,4076.460205,11514.870117,51295.230469,0.0,-17619.03125,-17614.349609,17882.460938,-17351.730469,4107.959961,11501.910156,51512.222656,0.0,17709.121094,17708.939453,-17443.351562,17982.269531,0.0,0.0,0.0,0.0,0.0,0.0,0.0,0.0,0.0,0.0,0.0,0.0,0.0,0.0,0.0,0.0,0.0,0.0,0.0,0.0,0.0,0.0,0.0,0.0,0.0,0.0,0.0,0.0,0.0,0.0,0.0,0.0,4074.61499,11510.977539,51284.578125,0.0,-17617.962891,-17616.630859,17878.933594,-17361.080078,4107.70752,11499.620117,51512.164062,0.0,17709.765625,17709.765625,-17453.302734,17966.859375,29.917233,90.371895,22.79512,0.0,3.17692,2.054453,26.089222,31.501581,30.16021,90.24308,22.8997,0.0,0.011677,0.006943,28.51074,28.601789,1.03,1.046,-63617.0,-145286.0,-412178.0,0.0,141786.0,141676.0,-145019.0,138607.0,-60642.0,-140418.0,-417313.0,0.0,-143245.0,-143379.0,140109.0,-146099.0,0.0,0.0,0.0,0.0,0.0,0.0,0.0,0.0,0.0,0.0,0.0,0.0,0.0,0.0,0.0,0.0,0.0,0.0,0.0,0.0,0.0,0.0,0.0,0.0
16,1.630856990814209,0.522391,1.577812,0.39793,0.0,-3.088007,0.040281,0.459978,0.569815,0.526427,1.575363,0.399673,0.0,-3.1418850000000003,-0.00148,0.517553,0.527787,3.0,1.0,111.0,0.0,1.0,-79947.0,-25376.0,14138.0,-78112.0,25648.0,13563.0,-0.959131,-0.177226,0.220585,-0.255325,0.206044,-0.944645,0.121966,-0.96236,-0.242873,-0.935966,0.220345,0.27462,0.309719,0.144292,0.939816,0.167459,0.964691,-0.203297,-0.959131,-0.177226,0.220585,-0.255325,0.206044,-0.944645,0.121966,-0.96236,-0.242873,-0.935966,0.220345,0.27462,0.309719,0.144292,0.939816,0.167459,0.964691,-0.203297,-79947.0,-25376.0,14138.0,-78112.0,25648.0,13563.0,18323.0,17343.0,-157769.0,0.0,-53981.0,-54039.0,-53675.0,-54192.0,-14998.0,-12619.0,155045.0,0.0,53523.0,53387.0,53707.0,53701.0,80.0,237.0,58.0,0.0,760.0,1077.0,574.0,-570.0,-54.0,-205.0,43.0,0.0,611.0,705.0,785.0,-942.0,-0.021756,-0.064203,-0.015832,0.0,0.027831,0.039421,-0.021011,-0.020884,-0.014665,-0.055714,0.011897,0.0,0.022392,0.025808,-0.028729,-0.034475,4076.460205,11514.870117,51295.230469,0.0,-17619.03125,-17614.349609,17882.460938,-17351.910156,4107.959961,11501.910156,51512.222656,0.0,17709.121094,17708.939453,-17443.439453,17982.001953,0.0,0.0,0.0,0.0,0.0,0.0,0.0,0.0,0.0,0.0,0.0,0.0,0.0,0.0,0.0,0.0,0.0,0.0,0.0,0.0,0.0,0.0,0.0,0.0,0.0,0.0,0.0,0.0,0.0,0.0,0.0,0.0,4074.61499,11510.977539,51284.578125,0.0,-17617.962891,-17616.630859,17878.933594,-17361.080078,4107.70752,11499.620117,51512.164062,0.0,17709.765625,17709.765625,-17453.302734,17966.859375,29.917233,90.371895,22.79512,0.0,3.17692,2.054453,26.089222,31.501581,30.16021,90.24308,22.8997,0.0,0.011677,0.006943,28.51074,28.601789,1.029,1.045,-63617.0,-145286.0,-412178.0,0.0,141786.0,141676.0,-145019.0,138607.0,-60642.0,-140418.0,-417313.0,0.0,-143245.0,-143379.0,140109.0,-146099.0,0.0,0.0,0.0,0.0,0.0,0.0,0.0,0.0,0.0,0.0,0.0,0.0,0.0,0.0,0.0,0.0,0.0,0.0,0.0,0.0,0.0,0.0,0.0,0.0
17,1.6519300937652588,0.522391,1.577812,0.39793,0.0,-3.087713,0.040281,0.459978,0.569639,0.526427,1.575363,0.399673,0.0,-3.1418850000000003,-0.00148,0.517377,0.527437,3.0,1.0,111.0,0.0,1.0,-79947.0,-25376.0,14138.0,-78112.0,25648.0,13563.0,-0.959117,-0.177387,0.220517,-0.255331,0.206295,-0.944589,0.122066,-0.962277,-0.243154,-0.935985,0.220264,0.27462,0.309706,0.144319,0.939816,0.167375,0.964705,-0.203297,-0.959117,-0.177387,0.220517,-0.255331,0.206295,-0.944589,0.122066,-0.962277,-0.243154,-0.935985,0.220264,0.27462,0.309706,0.144319,0.939816,0.167375,0.964705,-0.203297,-79947.0,-25376.0,14138.0,-78112.0,25648.0,13563.0,18323.0,17343.0,-157769.0,0.0,-53980.0,-54039.0,-53675.0,-54193.0,-14998.0,-12619.0,155045.0,0.0,53523.0,53387.0,53708.0,53699.0,80.0,237.0,58.0,0.0,757.0,1076.0,575.0,-573.0,-54.0,-205.0,43.0,0.0,612.0,705.0,787.0,-945.0,-0.021756,-0.064203,-0.015832,0.0,0.027707,0.039379,-0.021075,-0.020972,-0.014665,-0.055714,0.011897,0.0,0.022403,0.025824,-0.028829,-0.034594,4076.460205,11514.870117,51295.230469,0.0,-17618.939453,-17614.349609,17882.460938,-17352.0,4107.959961,11501.910156,51512.222656,0.0,17709.121094,17708.939453,-17443.53125,17981.820312,0.0,0.0,0.0,0.0,0.0,0.0,0.0,0.0,0.0,0.0,0.0,0.0,0.0,0.0,0.0,0.0,0.0,0.0,0.0,0.0,0.0,0.0,0.0,0.0,0.0,0.0,0.0,0.0,0.0,0.0,0.0,0.0,4074.61499,11510.977539,51284.578125,0.0,-17617.962891,-17616.630859,17878.933594,-17361.080078,4107.70752,11499.620117,51512.164062,0.0,17709.765625,17709.765625,-17453.302734,17966.859375,29.917233,90.371895,22.79512,0.0,3.17692,2.054453,26.089222,31.501581,30.16021,90.24308,22.8997,0.0,0.011677,0.006943,28.51074,28.601789,1.029,1.044,-63617.0,-145286.0,-412178.0,0.0,141786.0,141676.0,-145019.0,138607.0,-60642.0,-140418.0,-417313.0,0.0,-143245.0,-143379.0,140109.0,-146099.0,0.0,0.0,0.0,0.0,0.0,0.0,0.0,0.0,0.0,0.0,0.0,0.0,0.0,0.0,0.0,0.0,0.0,0.0,0.0,0.0,0.0,0.0,0.0,0.0
18,1.672919988632202,0.522391,1.577812,0.39793,0.0,-3.087713,0.040281,0.459978,0.569116,0.526427,1.575363,0.399673,0.0,-3.1418850000000003,-0.00148,0.517204,0.526911,3.0,1.0,111.0,0.0,1.0,-79947.0,-25376.0,14138.0,-78112.0,25648.0,13563.0,-0.959071,-0.177638,0.220517,-0.255385,0.206229,-0.944589,0.122317,-0.962245,-0.243154,-0.936024,0.220099,0.27462,0.309681,0.144373,0.939816,0.167205,0.964735,-0.203297,-0.959071,-0.177638,0.220517,-0.255385,0.206229,-0.944589,0.122317,-0.962245,-0.243154,-0.936024,0.220099,0.27462,0.309681,0.144373,0.939816,0.167205,0.964735,-0.203297,-79947.0,-25376.0,14138.0,-78112.0,25648.0,13563.0,18323.0,17343.0,-157769.0,0.0,-53980.0,-54039.0,-53675.0,-54196.0,-14998.0,-12619.0,155045.0,0.0,53523.0,53387.0,53709.0,53696.0,80.0,237.0,58.0,0.0,757.0,1075.0,577.0,-571.0,-54.0,-205.0,43.0,0.0,612.0,706.0,790.0,-946.0,-0.021756,-0.064203,-0.015832,0.0,0.027725,0.039337,-0.02114,-0.0209,-0.014665,-0.055714,0.011897,0.0,0.022415,0.025839,-0.02893,-0.034629,4076.460205,11514.870117,51295.230469,0.0,-17618.939453,-17614.349609,17882.460938,-17352.269531,4107.959961,11501.910156,51512.222656,0.0,17709.121094,17708.939453,-17443.621094,17981.550781,0.0,0.0,0.0,0.0,0.0,0.0,0.0,0.0,0.0,0.0,0.0,0.0,0.0,0.0,0.0,0.0,0.0,0.0,0.0,0.0,0.0,0.0,0.0,0.0,0.0,0.0,0.0,0.0,0.0,0.0,0.0,0.0,4074.61499,11510.977539,51284.578125,0.0,-17617.962891,-17616.630859,17878.933594,-17361.080078,4107.70752,11499.620117,51512.164062,0.0,17709.765625,17709.765625,-17453.302734,17966.859375,29.917233,90.371895,22.79512,0.0,3.17692,2.054453,26.089222,31.501581,30.16021,90.24308,22.8997,0.0,0.011677,0.006943,28.51074,28.601789,1.029,1.044,-63617.0,-145286.0,-412178.0,0.0,141786.0,141676.0,-145019.0,138607.0,-60642.0,-140418.0,-417313.0,0.0,-143245.0,-143379.0,140109.0,-146099.0,0.0,0.0,0.0,0.0,0.0,0.0,0.0,0.0,0.0,0.0,0.0,0.0,0.0,0.0,0.0,0.0,0.0,0.0,0.0,0.0,0.0,0.0,0.0,0.0
19,1.693908929824829,0.522391,1.577812,0.39793,0.0,-3.087713,0.040281,0.459978,0.568766,0.526427,1.575363,0.399673,0.0,-3.1418850000000003,-0.00148,0.516854,0.526212,3.0,1.0,111.0,0.0,1.0,-79947.0,-25376.0,14138.0,-78112.0,25648.0,13563.0,-0.95904,-0.177805,0.220517,-0.255421,0.206184,-0.944589,0.122486,-0.962223,-0.243154,-0.936062,0.219935,0.27462,0.309656,0.144428,0.939816,0.167036,0.964764,-0.203297,-0.95904,-0.177805,0.220517,-0.255421,0.206184,-0.944589,0.122486,-0.962223,-0.243154,-0.936062,0.219935,0.27462,0.309656,0.144428,0.939816,0.167036,0.964764,-0.203297,-79947.0,-25376.0,14138.0,-78112.0,25648.0,13563.0,18323.0,17343.0,-157769.0,0.0,-53980.0,-54039.0,-53675.0,-54198.0,-14998.0,-12619.0,155045.0,0.0,53523.0,53387.0,53711.0,53692.0,80.0,237.0,58.0,0.0,758.0,1073.0,579.0,-571.0,-54.0,-205.0,43.0,0.0,612.0,706.0,791.0,-945.0,-0.021756,-0.064203,-0.015832,0.0,0.027743,0.039295,-0.021205,-0.020903,-0.014665,-0.055714,0.011897,0.0,0.022427,0.025854,-0.028948,-0.03458,4076.460205,11514.870117,51295.230469,0.0,-17618.939453,-17614.349609,17882.460938,-17352.451172,4107.959961,11501.910156,51512.222656,0.0,17709.121094,17708.939453,-17443.800781,17981.189453,0.0,0.0,0.0,0.0,0.0,0.0,0.0,0.0,0.0,0.0,0.0,0.0,0.0,0.0,0.0,0.0,0.0,0.0,0.0,0.0,0.0,0.0,0.0,0.0,0.0,0.0,0.0,0.0,0.0,0.0,0.0,0.0,4074.61499,11510.977539,51284.578125,0.0,-17617.962891,-17616.630859,17878.933594,-17361.080078,4107.70752,11499.620117,51512.164062,0.0,17709.765625,17709.765625,-17453.302734,17966.859375,29.917233,90.371895,22.79512,0.0,3.17692,2.054453,26.089222,31.501581,30.16021,90.24308,22.8997,0.0,0.011677,0.006943,28.51074,28.601789,1.028,1.043,-63617.0,-145286.0,-412178.0,0.0,141786.0,141676.0,-145019.0,138607.0,-60642.0,-140418.0,-417313.0,0.0,-143245.0,-143379.0,140109.0,-146099.0,0.0,0.0,0.0,0.0,0.0,0.0,0.0,0.0,0.0,0.0,0.0,0.0,0.0,0.0,0.0,0.0,0.0,0.0,0.0,0.0,0.0,0.0,0.0,0.0
20,1.7149269580841064,0.522391,1.577812,0.39793,0.0,-3.087713,0.040281,0.459978,0.56824,0.526427,1.575363,0.399673,0.0,-3.1418850000000003,-0.001304,0.516593,0.525605,3.0,1.0,111.0,0.0,1.0,-79947.0,-25376.0,14138.0,-78113.0,25646.0,13563.0,-0.958993,-0.178057,0.220517,-0.255475,0.206117,-0.944589,0.122739,-0.962191,-0.243154,-0.936149,0.219774,0.274454,0.309465,0.144482,0.939871,0.166905,0.964792,-0.203269,-0.958993,-0.178057,0.220517,-0.255475,0.206117,-0.944589,0.122739,-0.962191,-0.243154,-0.936149,0.219774,0.274454,0.309465,0.144482,0.939871,0.166905,0.964792,-0.203269,-79947.0,-25376.0,14138.0,-78113.0,25646.0,13563.0,18323.0,17343.0,-157769.0,0.0,-53980.0,-54039.0,-53675.0,-54201.0,-14998.0,-12619.0,155045.0,0.0,53523.0,53388.0,53712.0,53688.0,80.0,237.0,58.0,0.0,758.0,1072.0,581.0,-569.0,-54.0,-205.0,43.0,0.0,613.0,704.0,793.0,-943.0,-0.021756,-0.064203,-0.015832,0.0,0.027761,0.039254,-0.021269,-0.020821,-0.014665,-0.055714,0.011897,0.0,0.022439,0.025789,-0.029044,-0.034527,4076.460205,11514.870117,51295.230469,0.0,-17618.939453,-17614.349609,17882.460938,-17352.720703,4107.959961,11501.910156,51512.222656,0.0,17709.121094,17709.03125,-17443.888672,17980.832031,0.0,0.0,0.0,0.0,0.0,0.0,0.0,0.0,0.0,0.0,0.0,0.0,0.0,0.0,0.0,0.0,0.0,0.0,0.0,0.0,0.0,0.0,0.0,0.0,0.0,0.0,0.0,0.0,0.0,0.0,0.0,0.0,4074.61499,11510.977539,51284.578125,0.0,-17617.962891,-17616.630859,17878.933594,-17361.080078,4107.70752,11499.620117,51512.164062,0.0,17709.765625,17709.765625,-17453.302734,17966.859375,29.917233,90.371895,22.79512,0.0,3.17692,2.054453,26.089222,31.501581,30.16021,90.24308,22.8997,0.0,0.011677,0.006943,28.51074,28.601789,1.028,1.042,-63617.0,-145286.0,-412178.0,0.0,141786.0,141676.0,-145019.0,138607.0,-60642.0,-140418.0,-417313.0,0.0,-143245.0,-143379.0,140109.0,-146099.0,0.0,0.0,0.0,0.0,0.0,0.0,0.0,0.0,0.0,0.0,0.0,0.0,0.0,0.0,0.0,0.0,0.0,0.0,0.0,0.0,0.0,0.0,0.0,0.0
21,1.734921932220459,0.522391,1.577812,0.39793,0.0,-3.087713,0.040281,0.459978,0.567894,0.526427,1.575363,0.399673,0.0,-3.1418850000000003,-0.001304,0.516416,0.524906,3.0,1.0,111.0,0.0,1.0,-79947.0,-25376.0,14138.0,-78113.0,25646.0,13563.0,-0.958962,-0.178223,0.220517,-0.255511,0.206073,-0.944589,0.122905,-0.96217,-0.243154,-0.936206,0.219529,0.274454,0.309427,0.144563,0.939871,0.166653,0.964836,-0.203269,-0.958962,-0.178223,0.220517,-0.255511,0.206073,-0.944589,0.122905,-0.96217,-0.243154,-0.936206,0.219529,0.274454,0.309427,0.144563,0.939871,0.166653,0.964836,-0.203269,-79947.0,-25376.0,14138.0,-78113.0,25646.0,13563.0,18323.0,17343.0,-157769.0,0.0,-53980.0,-54039.0,-53675.0,-54203.0,-14998.0,-12619.0,155045.0,0.0,53523.0,53388.0,53713.0,53684.0,80.0,237.0,58.0,0.0,759.0,1071.0,582.0,-568.0,-54.0,-205.0,43.0,0.0,613.0,705.0,796.0,-941.0,-0.021756,-0.064203,-0.015832,0.0,0.027778,0.039214,-0.021331,-0.02081,-0.014665,-0.055714,0.011897,0.0,0.02245,0.025802,-0.029128,-0.034452,4076.460205,11514.870117,51295.230469,0.0,-17618.939453,-17614.349609,17882.460938,-17352.900391,4107.959961,11501.910156,51512.222656,0.0,17709.121094,17709.03125,-17443.980469,17980.470703,0.0,0.0,0.0,0.0,0.0,0.0,0.0,0.0,0.0,0.0,0.0,0.0,0.0,0.0,0.0,0.0,0.0,0.0,0.0,0.0,0.0,0.0,0.0,0.0,0.0,0.0,0.0,0.0,0.0,0.0,0.0,0.0,4074.61499,11510.977539,51284.578125,0.0,-17617.962891,-17616.630859,17878.933594,-17361.080078,4107.70752,11499.620117,51512.164062,0.0,17709.765625,17709.765625,-17453.302734,17966.859375,29.917233,90.371895,22.79512,0.0,3.17692,2.054453,26.089222,31.501581,30.16021,90.24308,22.8997,0.0,0.011677,0.006943,28.51074,28.601789,1.027,1.041,-63617.0,-145286.0,-412178.0,0.0,141786.0,141676.0,-145019.0,138607.0,-60642.0,-140418.0,-417313.0,0.0,-143245.0,-143379.0,140109.0,-146099.0,0.0,0.0,0.0,0.0,0.0,0.0,0.0,0.0,0.0,0.0,0.0,0.0,0.0,0.0,0.0,0.0,0.0,0.0,0.0,0.0,0.0,0.0,0.0,0.0
22,1.7548880577087402,0.522391,1.577812,0.39793,0.0,-3.087424,0.040281,0.459978,0.567368,0.526427,1.575363,0.399673,0.0,-3.1418850000000003,-0.001304,0.516067,0.52403,3.0,1.0,111.0,0.0,1.0,-79947.0,-25376.0,14139.0,-78113.0,25646.0,13563.0,-0.958917,-0.17855,0.220451,-0.255553,0.206274,-0.944534,0.123173,-0.962066,-0.243429,-0.936264,0.219283,0.274454,0.309389,0.144644,0.939871,0.166399,0.96488,-0.203269,-0.958932,-0.178466,0.220451,-0.255535,0.206297,-0.944534,0.123088,-0.962077,-0.243429,-0.936264,0.219283,0.274454,0.309389,0.144644,0.939871,0.166399,0.96488,-0.203269,-79947.0,-25376.0,14139.0,-78113.0,25646.0,13563.0,18323.0,17343.0,-157769.0,0.0,-53979.0,-54039.0,-53675.0,-54206.0,-14998.0,-12619.0,155045.0,0.0,53523.0,53388.0,53715.0,53679.0,80.0,237.0,58.0,0.0,755.0,1070.0,584.0,-566.0,-54.0,-205.0,43.0,0.0,613.0,705.0,796.0,-937.0,-0.021756,-0.064203,-0.015832,0.0,0.027654,0.039174,-0.021392,-0.020714,-0.014665,-0.055714,0.011897,0.0,0.022461,0.025815,-0.029132,-0.034292,4076.460205,11514.870117,51295.230469,0.0,-17618.851562,-17614.349609,17882.460938,-17353.169922,4107.959961,11501.910156,51512.222656,0.0,17709.121094,17709.03125,-17444.160156,17980.019531,0.0,0.0,0.0,0.0,0.0,0.0,0.0,-90.92347,0.0,0.0,0.0,0.0,0.0,0.0,-90.92347,0.0,0.0,0.0,0.0,0.0,0.0,0.0,0.0,-0.176481,0.0,0.0,0.0,0.0,0.0,0.0,-0.176481,0.0,4074.61499,11510.977539,51284.578125,0.0,-17617.962891,-17616.630859,17878.933594,-17361.080078,4107.70752,11499.620117,51512.164062,0.0,17709.765625,17709.765625,-17453.302734,17966.859375,29.917233,90.371895,22.79512,0.0,3.17692,2.054453,26.089222,31.501581,30.16021,90.24308,22.8997,0.0,0.011677,0.006943,28.51074,28.601789,1.027,1.04,-63617.0,-145286.0,-412178.0,0.0,141786.0,141676.0,-145019.0,138607.0,-60642.0,-140418.0,-417313.0,0.0,-143245.0,-143379.0,140109.0,-146099.0,0.0,0.0,0.0,0.0,0.0,0.0,0.0,0.0,0.0,0.0,0.0,-0.176481,0.0,0.0,0.0,0.0,0.0,0.0,0.0,0.0,0.0,0.0,0.0,-0.176481
23,1.7748830318450928,0.522391,1.577812,0.39793,0.0,-3.087424,0.040281,0.459978,0.567195,0.526427,1.575363,0.399673,0.0,-3.1418850000000003,-0.001304,0.515894,0.523507,3.0,1.0,111.0,0.0,1.0,-79947.0,-25376.0,14139.0,-78113.0,25646.0,13563.0,-0.958901,-0.178633,0.220451,-0.255571,0.206252,-0.944534,0.123257,-0.962055,-0.243429,-0.936302,0.219119,0.274454,0.309364,0.144698,0.939871,0.166231,0.964909,-0.203269,-0.958901,-0.178633,0.220451,-0.255571,0.206252,-0.944534,0.123257,-0.962055,-0.243429,-0.936302,0.219119,0.274454,0.309364,0.144698,0.939871,0.166231,0.964909,-0.203269,-79947.0,-25376.0,14139.0,-78113.0,25646.0,13563.0,18323.0,17343.0,-157769.0,0.0,-53979.0,-54039.0,-53675.0,-54207.0,-14998.0,-12619.0,155045.0,0.0,53523.0,53388.0,53716.0,53676.0,80.0,237.0,58.0,0.0,756.0,1069.0,586.0,-567.0,-54.0,-205.0,43.0,0.0,614.0,705.0,798.0,-936.0,-0.021756,-0.064203,-0.015832,0.0,0.02767,0.039134,-0.021454,-0.020774,-0.014665,-0.055714,0.011897,0.0,0.022473,0.025827,-0.029213,-0.034284,4076.460205,11514.870117,51295.230469,0.0,-17618.851562,-17614.349609,17882.460938,-17353.259766,4107.959961,11501.910156,51512.222656,0.0,17709.121094,17709.03125,-17444.25,17979.75,0.0,0.0,0.0,0.0,0.0,0.0,0.0,0.0,0.0,0.0,0.0,0.0,0.0,0.0,0.0,0.0,0.0,0.0,0.0,0.0,0.0,0.0,0.0,0.0,0.0,0.0,0.0,0.0,0.0,0.0,0.0,0.0,4074.61499,11510.977539,51284.578125,0.0,-17617.962891,-17616.630859,17878.933594,-17361.080078,4107.70752,11499.620117,51512.164062,0.0,17709.765625,17709.765625,-17453.302734,17966.859375,29.917233,90.371895,22.79512,0.0,3.17692,2.054453,26.089222,31.501581,30.16021,90.24308,22.8997,0.0,0.011677,0.006943,28.51074,28.601789,1.027,1.039,-63617.0,-145286.0,-412178.0,0.0,141786.0,141676.0,-145019.0,138607.0,-60642.0,-140418.0,-417313.0,0.0,-143245.0,-143379.0,140109.0,-146099.0,0.0,0.0,0.0,0.0,0.0,0.0,0.0,0.0,0.0,0.0,0.0,0.0,0.0,0.0,0.0,0.0,0.0,0.0,0.0,0.0,0.0,0.0,0.0,0.0
24,1.796926975250244,0.522391,1.577812,0.39793,0.0,-3.087424,0.040281,0.459978,0.566845,0.526427,1.575363,0.399673,0.0,-3.1418850000000003,-0.001304,0.515544,0.523158,3.0,1.0,111.0,0.0,1.0,-79947.0,-25376.0,14139.0,-78113.0,25646.0,13563.0,-0.95887,-0.178801,0.220451,-0.255607,0.206208,-0.944534,0.123425,-0.962034,-0.243429,-0.936302,0.219119,0.274454,0.309364,0.144698,0.939871,0.166231,0.964909,-0.203269,-0.95887,-0.178801,0.220451,-0.255607,0.206208,-0.944534,0.123425,-0.962034,-0.243429,-0.936302,0.219119,0.274454,0.309364,0.144698,0.939871,0.166231,0.964909,-0.203269,-79947.0,-25376.0,14139.0,-78113.0,25646.0,13563.0,18323.0,17343.0,-157769.0,0.0,-53979.0,-54039.0,-53675.0,-54209.0,-14998.0,-12619.0,155045.0,0.0,53523.0,53388.0,53718.0,53674.0,80.0,237.0,58.0,0.0,756.0,1068.0,588.0,-567.0,-54.0,-205.0,43.0,0.0,614.0,706.0,798.0,-939.0,-0.021756,-0.064203,-0.015832,0.0,0.027687,0.03909,-0.021521,-0.020766,-0.014665,-0.055714,0.011897,0.0,0.022485,0.025842,-0.029228,-0.034372,4076.460205,11514.870117,51295.230469,0.0,-17618.851562,-17614.349609,17882.460938,-17353.439453,4107.959961,11501.910156,51512.222656,0.0,17709.121094,17709.03125,-17444.429688,17979.570312,0.0,0.0,0.0,0.0,0.0,0.0,0.0,-89.174942,0.0,0.0,0.0,0.0,0.0,0.0,0.0,0.0,0.0,0.0,0.0,0.0,0.0,0.0,0.0,-0.173088,0.0,0.0,0.0,0.0,0.0,0.0,0.0,0.0,4074.61499,11510.977539,51284.578125,0.0,-17617.962891,-17616.630859,17878.933594,-17361.080078,4107.70752,11499.620117,51512.164062,0.0,17709.765625,17709.765625,-17453.302734,17966.859375,29.917233,90.371895,22.79512,0.0,3.17692,2.054453,26.089222,31.501581,30.16021,90.24308,22.8997,0.0,0.011677,0.006943,28.51074,28.601789,1.026,1.038,-63617.0,-145286.0,-412178.0,0.0,141786.0,141676.0,-145019.0,138607.0,-60642.0,-140418.0,-417313.0,0.0,-143245.0,-143379.0,140109.0,-146099.0,0.0,0.0,0.0,0.0,0.0,0.0,0.0,0.0,0.0,0.0,0.0,0.0,0.0,0.0,0.0,0.0,0.0,0.0,0.0,0.0,0.0,0.0,0.0,0.0
25,1.8168540000915527,0.522391,1.577812,0.39793,0.0,-3.087424,0.040281,0.459978,0.566669,0.526427,1.575363,0.399673,0.0,-3.141591,-0.001304,0.515194,0.522635,3.0,1.0,111.0,0.0,1.0,-79947.0,-25376.0,14139.0,-78113.0,25646.0,13563.0,-0.958854,-0.178885,0.220451,-0.255625,0.206185,-0.944534,0.12351,-0.962023,-0.243429,-0.936321,0.218958,0.274518,0.30935,0.144448,0.939913,0.166148,0.964983,-0.202985,-0.958854,-0.178885,0.220451,-0.255625,0.206185,-0.944534,0.12351,-0.962023,-0.243429,-0.936321,0.218958,0.274518,0.30935,0.144448,0.939913,0.166148,0.964983,-0.202985,-79947.0,-25376.0,14139.0,-78113.0,25646.0,13563.0,18323.0,17343.0,-157769.0,0.0,-53979.0,-54039.0,-53675.0,-54210.0,-14998.0,-12619.0,155045.0,0.0,53524.0,53388.0,53720.0,53671.0,80.0,237.0,58.0,0.0,757.0,1067.0,589.0,-568.0,-54.0,-205.0,43.0,0.0,610.0,706.0,798.0,-938.0,-0.021756,-0.064203,-0.015832,0.0,0.027702,0.03905,-0.021583,-0.020819,-0.014665,-0.055714,0.011897,0.0,0.022353,0.025854,-0.029225,-0.034357,4076.460205,11514.870117,51295.230469,0.0,-17618.851562,-17614.349609,17882.460938,-17353.53125,4107.959961,11501.910156,51512.222656,0.0,17709.210938,17709.03125,-17444.609375,17979.300781,0.0,0.0,0.0,0.0,0.0,0.0,0.0,0.0,0.0,0.0,0.0,0.0,0.0,0.0,-89.174942,0.0,0.0,0.0,0.0,0.0,0.0,0.0,0.0,0.0,0.0,0.0,0.0,0.0,0.0,0.0,-0.173088,0.0,4074.61499,11510.977539,51284.578125,0.0,-17617.962891,-17616.630859,17878.933594,-17361.080078,4107.70752,11499.620117,51512.164062,0.0,17709.765625,17709.765625,-17453.302734,17966.859375,29.917233,90.371895,22.79512,0.0,3.17692,2.054453,26.089222,31.501581,30.16021,90.24308,22.8997,0.0,0.011677,0.006943,28.51074,28.601789,1.026,1.037,-63617.0,-145286.0,-412178.0,0.0,141786.0,141676.0,-145019.0,138607.0,-60642.0,-140418.0,-417313.0,0.0,-143245.0,-143379.0,140109.0,-146099.0,0.0,0.0,0.0,0.0,0.0,0.0,0.0,0.0,0.0,0.0,0.0,-0.173088,0.0,0.0,0.0,0.0,0.0,0.0,0.0,0.0,0.0,0.0,0.0,-0.173088
26,1.8378920555114744,0.522391,1.577812,0.39793,0.0,-3.087424,0.040281,0.459628,0.566319,0.526427,1.575363,0.399673,0.0,-3.141591,-0.001304,0.514845,0.522286,3.0,1.0,111.0,0.0,1.0,-79947.0,-25376.0,14139.0,-78113.0,25646.0,13563.0,-0.958854,-0.178885,0.220451,-0.255625,0.206185,-0.944534,0.12351,-0.962023,-0.243429,-0.936321,0.218958,0.274518,0.30935,0.144448,0.939913,0.166148,0.964983,-0.202985,-0.958854,-0.178885,0.220451,-0.255625,0.206185,-0.944534,0.12351,-0.962023,-0.243429,-0.936321,0.218958,0.274518,0.30935,0.144448,0.939913,0.166148,0.964983,-0.202985,-79947.0,-25376.0,14139.0,-78113.0,25646.0,13563.0,18323.0,17343.0,-157769.0,0.0,-53979.0,-54039.0,-53673.0,-54212.0,-14998.0,-12619.0,155045.0,0.0,53524.0,53388.0,53722.0,53669.0,80.0,237.0,58.0,0.0,757.0,1066.0,587.0,-568.0,-54.0,-205.0,43.0,0.0,611.0,706.0,798.0,-940.0,-0.021756,-0.064203,-0.015832,0.0,0.027719,0.039009,-0.021488,-0.020799,-0.014665,-0.055714,0.011897,0.0,0.022363,0.025868,-0.029226,-0.034425,4076.460205,11514.870117,51295.230469,0.0,-17618.851562,-17614.349609,17882.28125,-17353.710938,4107.959961,11501.910156,51512.222656,0.0,17709.210938,17709.03125,-17444.791016,17979.121094,0.0,0.0,0.0,0.0,0.0,0.0,0.0,0.0,0.0,0.0,0.0,0.0,0.0,0.0,-89.174942,0.0,0.0,0.0,0.0,0.0,0.0,0.0,0.0,0.0,0.0,0.0,0.0,0.0,0.0,0.0,-0.173088,0.0,4074.61499,11510.977539,51284.578125,0.0,-17617.962891,-17616.630859,17878.933594,-17361.080078,4107.70752,11499.620117,51512.164062,0.0,17709.765625,17709.765625,-17453.302734,17966.859375,29.917233,90.371895,22.79512,0.0,3.17692,2.054453,26.089222,31.501581,30.16021,90.24308,22.8997,0.0,0.011677,0.006943,28.51074,28.601789,1.025,1.037,-63617.0,-145286.0,-412178.0,0.0,141786.0,141676.0,-145019.0,138607.0,-60642.0,-140418.0,-417313.0,0.0,-143245.0,-143379.0,140109.0,-146099.0,0.0,0.0,0.0,0.0,0.0,0.0,0.0,0.0,0.0,0.0,0.0,-0.173088,0.0,0.0,0.0,0.0,0.0,0.0,0.0,0.0,0.0,0.0,0.0,-0.173088
27,1.85889196395874,0.522391,1.577812,0.39793,0.0,-3.087424,0.040281,0.459628,0.566146,0.526427,1.575363,0.399673,0.0,-3.141591,-0.001304,0.514668,0.522109,3.0,1.0,111.0,0.0,1.0,-79947.0,-25376.0,14139.0,-78113.0,25646.0,13563.0,-0.958839,-0.178968,0.220451,-0.255643,0.206163,-0.944534,0.123593,-0.962012,-0.243429,-0.936321,0.218958,0.274518,0.30935,0.144448,0.939913,0.166148,0.964983,-0.202985,-0.958839,-0.178968,0.220451,-0.255643,0.206163,-0.944534,0.123593,-0.962012,-0.243429,-0.936321,0.218958,0.274518,0.30935,0.144448,0.939913,0.166148,0.964983,-0.202985,-79947.0,-25376.0,14139.0,-78113.0,25646.0,13563.0,18323.0,17343.0,-157769.0,0.0,-53979.0,-54039.0,-53673.0,-54213.0,-14998.0,-12619.0,155045.0,0.0,53524.0,53388.0,53723.0,53668.0,80.0,237.0,58.0,0.0,757.0,1064.0,588.0,-569.0,-54.0,-205.0,43.0,0.0,611.0,707.0,800.0,-944.0,-0.021756,-0.064203,-0.015832,0.0,0.027735,0.038967,-0.02155,-0.020855,-0.014665,-0.055714,0.011897,0.0,0.022374,0.025881,-0.029302,-0.034569,4076.460205,11514.870117,51295.230469,0.0,-17618.851562,-17614.349609,17882.28125,-17353.800781,4107.959961,11501.910156,51512.222656,0.0,17709.210938,17709.03125,-17444.880859,17979.029297,0.0,0.0,0.0,0.0,0.0,0.0,0.0,0.0,0.0,0.0,0.0,0.0,0.0,0.0,0.0,0.0,0.0,0.0,0.0,0.0,0.0,0.0,0.0,0.0,0.0,0.0,0.0,0.0,0.0,0.0,0.0,0.0,4074.61499,11510.977539,51284.578125,0.0,-17617.962891,-17616.630859,17878.933594,-17361.080078,4107.70752,11499.620117,51512.164062,0.0,17709.765625,17709.765625,-17453.302734,17966.859375,29.917233,90.371895,22.79512,0.0,3.17692,2.054453,26.089222,31.501581,30.16021,90.24308,22.8997,0.0,0.011677,0.006943,28.51074,28.601789,1.025,1.036,-63617.0,-145286.0,-412178.0,0.0,141786.0,141676.0,-145019.0,138607.0,-60642.0,-140418.0,-417313.0,0.0,-143245.0,-143379.0,140109.0,-146099.0,0.0,0.0,0.0,0.0,0.0,0.0,0.0,0.0,0.0,0.0,0.0,0.0,0.0,0.0,0.0,0.0,0.0,0.0,0.0,0.0,0.0,0.0,0.0,0.0
28,1.8789269924163816,0.522391,1.577812,0.39793,0.0,-3.087424,0.040281,0.459628,0.56597,0.526427,1.575363,0.399673,0.0,-3.141591,-0.001304,0.514146,0.521936,3.0,1.0,111.0,0.0,1.0,-79947.0,-25376.0,14139.0,-78113.0,25646.0,13563.0,-0.958823,-0.179053,0.220451,-0.255661,0.20614,-0.944534,0.123678,-0.962001,-0.243429,-0.936283,0.219121,0.274518,0.309375,0.144394,0.939913,0.166316,0.964954,-0.202985,-0.958823,-0.179053,0.220451,-0.255661,0.20614,-0.944534,0.123678,-0.962001,-0.243429,-0.936283,0.219121,0.274518,0.309375,0.144394,0.939913,0.166316,0.964954,-0.202985,-79947.0,-25376.0,14139.0,-78113.0,25646.0,13563.0,18323.0,17343.0,-157769.0,0.0,-53979.0,-54039.0,-53673.0,-54214.0,-14998.0,-12619.0,155045.0,0.0,53524.0,53388.0,53726.0,53667.0,80.0,237.0,58.0,0.0,758.0,1063.0,590.0,-571.0,-54.0,-205.0,43.0,0.0,611.0,707.0,798.0,-948.0,-0.021756,-0.064203,-0.015832,0.0,0.02775,0.038927,-0.021608,-0.020902,-0.014665,-0.055714,0.011897,0.0,0.022383,0.025894,-0.029212,-0.034703,4076.460205,11514.870117,51295.230469,0.0,-17618.851562,-17614.349609,17882.28125,-17353.890625,4107.959961,11501.910156,51512.222656,0.0,17709.210938,17709.03125,-17445.150391,17978.941406,0.0,0.0,0.0,0.0,0.0,0.0,0.0,0.0,0.0,0.0,0.0,0.0,0.0,0.0,-89.174942,0.0,0.0,0.0,0.0,0.0,0.0,0.0,0.0,0.0,0.0,0.0,0.0,0.0,0.0,0.0,-0.173088,0.0,4074.61499,11510.977539,51284.578125,0.0,-17617.962891,-17616.630859,17878.933594,-17361.080078,4107.70752,11499.620117,51512.164062,0.0,17709.765625,17709.765625,-17453.302734,17966.859375,29.917233,90.371895,22.79512,0.0,3.17692,2.054453,26.089222,31.501581,30.16021,90.24308,22.8997,0.0,0.011677,0.006943,28.51074,28.601789,1.025,1.036,-63617.0,-145286.0,-412178.0,0.0,141786.0,141676.0,-145019.0,138607.0,-60642.0,-140418.0,-417313.0,0.0,-143245.0,-143379.0,140109.0,-146099.0,0.0,0.0,0.0,0.0,0.0,0.0,0.0,0.0,0.0,0.0,0.0,-0.173088,0.0,0.0,0.0,0.0,0.0,0.0,0.0,0.0,0.0,0.0,0.0,-0.173088
29,1.8988840579986572,0.522391,1.577812,0.39793,0.0,-3.08713,0.040281,0.459628,0.565797,0.526427,1.575363,0.399673,0.0,-3.141591,-0.001304,0.513796,0.521586,3.0,1.0,111.0,0.0,1.0,-79947.0,-25376.0,14139.0,-78113.0,25646.0,13563.0,-0.958809,-0.179212,0.220384,-0.255666,0.206392,-0.944477,0.123776,-0.961917,-0.243709,-0.936283,0.219121,0.274518,0.309375,0.144394,0.939913,0.166316,0.964954,-0.202985,-0.958809,-0.179212,0.220384,-0.255666,0.206392,-0.944477,0.123776,-0.961917,-0.243709,-0.936283,0.219121,0.274518,0.309375,0.144394,0.939913,0.166316,0.964954,-0.202985,-79947.0,-25376.0,14139.0,-78113.0,25646.0,13563.0,18323.0,17343.0,-157769.0,0.0,-53978.0,-54039.0,-53673.0,-54215.0,-14998.0,-12619.0,155045.0,0.0,53524.0,53388.0,53728.0,53665.0,80.0,237.0,58.0,0.0,754.0,1062.0,592.0,-572.0,-54.0,-205.0,43.0,0.0,611.0,707.0,797.0,-949.0,-0.021756,-0.064203,-0.015832,0.0,0.027622,0.038887,-0.021666,-0.020949,-0.014665,-0.055714,0.011897,0.0,0.022393,0.025907,-0.029195,-0.034755,4076.460205,11514.870117,51295.230469,0.0,-17618.759766,-17614.349609,17882.28125,-17353.980469,4107.959961,11501.910156,51512.222656,0.0,17709.210938,17709.03125,-17445.330078,17978.761719,0.0,0.0,0.0,0.0,0.0,0.0,0.0,0.0,0.0,0.0,0.0,0.0,0.0,0.0,0.0,0.0,0.0,0.0,0.0,0.0,0.0,0.0,0.0,0.0,0.0,0.0,0.0,0.0,0.0,0.0,0.0,0.0,4074.61499,11510.977539,51284.578125,0.0,-17617.962891,-17616.630859,17878.933594,-17361.080078,4107.70752,11499.620117,51512.164062,0.0,17709.765625,17709.765625,-17453.302734,17966.859375,29.917233,90.371895,22.79512,0.0,3.17692,2.054453,26.089222,31.501581,30.16021,90.24308,22.8997,0.0,0.011677,0.006943,28.51074,28.601789,1.025,1.035,-63617.0,-145286.0,-412178.0,0.0,141786.0,141676.0,-145019.0,138607.0,-60642.0,-140418.0,-417313.0,0.0,-143245.0,-143379.0,140109.0,-146099.0,0.0,0.0,0.0,0.0,0.0,0.0,0.0,0.0,0.0,0.0,0.0,0.0,0.0,0.0,0.0,0.0,0.0,0.0,0.0,0.0,0.0,0.0,0.0,0.0
30,1.9188830852508545,0.522391,1.577812,0.39793,0.0,-3.08713,0.040281,0.459628,0.56562,0.526427,1.575363,0.399673,0.0,-3.141591,-0.001304,0.513447,0.52141,3.0,1.0,111.0,0.0,1.0,-79947.0,-25376.0,14139.0,-78113.0,25646.0,13563.0,-0.958793,-0.179297,0.220384,-0.255685,0.20637,-0.944477,0.123861,-0.961907,-0.243709,-0.936264,0.219202,0.274518,0.309388,0.144368,0.939913,0.1664,0.96494,-0.202985,-0.958793,-0.179297,0.220384,-0.255685,0.20637,-0.944477,0.123861,-0.961907,-0.243709,-0.936264,0.219202,0.274518,0.309388,0.144368,0.939913,0.1664,0.96494,-0.202985,-79947.0,-25376.0,14139.0,-78113.0,25646.0,13563.0,18323.0,17343.0,-157769.0,0.0,-53978.0,-54039.0,-53673.0,-54216.0,-14998.0,-12619.0,155045.0,0.0,53524.0,53388.0,53730.0,53664.0,80.0,237.0,58.0,0.0,755.0,1061.0,593.0,-573.0,-54.0,-205.0,43.0,0.0,612.0,708.0,797.0,-953.0,-0.021756,-0.064203,-0.015832,0.0,0.027636,0.038847,-0.021725,-0.020992,-0.014665,-0.055714,0.011897,0.0,0.022403,0.02592,-0.029176,-0.034883,4076.460205,11514.870117,51295.230469,0.0,-17618.759766,-17614.349609,17882.28125,-17354.070312,4107.959961,11501.910156,51512.222656,0.0,17709.210938,17709.03125,-17445.509766,17978.669922,0.0,0.0,0.0,0.0,0.0,0.0,0.0,0.0,0.0,0.0,0.0,0.0,0.0,0.0,0.0,0.0,0.0,0.0,0.0,0.0,0.0,0.0,0.0,0.0,0.0,0.0,0.0,0.0,0.0,0.0,0.0,0.0,4074.61499,11510.977539,51284.578125,0.0,-17617.962891,-17616.630859,17878.933594,-17361.080078,4107.70752,11499.620117,51512.164062,0.0,17709.765625,17709.765625,-17453.302734,17966.859375,29.917233,90.371895,22.79512,0.0,3.17692,2.054453,26.089222,31.501581,30.16021,90.24308,22.8997,0.0,0.011677,0.006943,28.51074,28.601789,1.025,1.034,-63617.0,-145286.0,-412178.0,0.0,141786.0,141676.0,-145019.0,138607.0,-60642.0,-140418.0,-417313.0,0.0,-143245.0,-143379.0,140109.0,-146099.0,0.0,0.0,0.0,0.0,0.0,0.0,0.0,0.0,0.0,0.0,0.0,0.0,0.0,0.0,0.0,0.0,0.0,0.0,0.0,0.0,0.0,0.0,0.0,0.0
31,1.9409279823303225,0.522391,1.577812,0.39793,0.0,-3.08713,0.040281,0.459628,0.565271,0.526427,1.575363,0.399673,0.0,-3.141591,-0.001304,0.512924,0.521237,3.0,1.0,111.0,0.0,1.0,-79947.0,-25376.0,14139.0,-78113.0,25646.0,13563.0,-0.958762,-0.179464,0.220384,-0.255721,0.206325,-0.944477,0.124029,-0.961885,-0.243709,-0.936226,0.219366,0.274518,0.309413,0.144313,0.939913,0.166568,0.96491,-0.202985,-0.958762,-0.179464,0.220384,-0.255721,0.206325,-0.944477,0.124029,-0.961885,-0.243709,-0.936226,0.219366,0.274518,0.309413,0.144313,0.939913,0.166568,0.96491,-0.202985,-79947.0,-25376.0,14139.0,-78113.0,25646.0,13563.0,18323.0,17343.0,-157769.0,0.0,-53978.0,-54039.0,-53673.0,-54218.0,-14998.0,-12619.0,155045.0,0.0,53524.0,53388.0,53733.0,53663.0,80.0,237.0,58.0,0.0,755.0,1060.0,595.0,-573.0,-54.0,-205.0,43.0,0.0,612.0,708.0,794.0,-957.0,-0.021756,-0.064203,-0.015832,0.0,0.027651,0.038804,-0.021789,-0.020968,-0.014665,-0.055714,0.011897,0.0,0.022413,0.025934,-0.029088,-0.035031,4076.460205,11514.870117,51295.230469,0.0,-17618.759766,-17614.349609,17882.28125,-17354.251953,4107.959961,11501.910156,51512.222656,0.0,17709.210938,17709.03125,-17445.779297,17978.580078,0.0,0.0,0.0,0.0,0.0,0.0,0.0,-90.92347,0.0,0.0,0.0,0.0,0.0,0.0,0.0,0.0,0.0,0.0,0.0,0.0,0.0,0.0,0.0,-0.176481,0.0,0.0,0.0,0.0,0.0,0.0,0.0,0.0,4074.61499,11510.977539,51284.578125,0.0,-17617.962891,-17616.630859,17878.933594,-17361.080078,4107.70752,11499.620117,51512.164062,0.0,17709.765625,17709.765625,-17453.302734,17966.859375,29.917233,90.371895,22.79512,0.0,3.17692,2.054453,26.089222,31.501581,30.16021,90.24308,22.8997,0.0,0.011677,0.006943,28.51074,28.601789,1.024,1.034,-63617.0,-145286.0,-412178.0,0.0,141786.0,141676.0,-145019.0,138607.0,-60642.0,-140418.0,-417313.0,0.0,-143245.0,-143379.0,140109.0,-146099.0,0.0,0.0,0.0,0.0,0.0,0.0,0.0,0.0,0.0,0.0,0.0,0.0,0.0,0.0,0.0,0.0,0.0,0.0,0.0,0.0,0.0,0.0,0.0,0.0
32,1.9618899822235107,0.522391,1.577812,0.39793,0.0,-3.08713,0.040281,0.459452,0.565098,0.526427,1.575363,0.399673,0.0,-3.141591,-0.001304,0.512398,0.52106,3.0,1.0,111.0,0.0,1.0,-79947.0,-25376.0,14139.0,-78113.0,25646.0,13563.0,-0.958762,-0.179463,0.220384,-0.25572,0.206326,-0.944477,0.124028,-0.961885,-0.243709,-0.936187,0.21953,0.274518,0.309438,0.144259,0.939913,0.166737,0.964881,-0.202985,-0.958762,-0.179463,0.220384,-0.25572,0.206326,-0.944477,0.124028,-0.961885,-0.243709,-0.936187,0.21953,0.274518,0.309438,0.144259,0.939913,0.166737,0.964881,-0.202985,-79947.0,-25376.0,14139.0,-78113.0,25646.0,13563.0,18323.0,17343.0,-157769.0,0.0,-53978.0,-54039.0,-53672.0,-54219.0,-14998.0,-12619.0,155045.0,0.0,53524.0,53388.0,53736.0,53662.0,80.0,237.0,58.0,0.0,756.0,1059.0,594.0,-574.0,-54.0,-205.0,43.0,0.0,612.0,709.0,792.0,-961.0,-0.021756,-0.064203,-0.015832,0.0,0.027666,0.038762,-0.02177,-0.021015,-0.014665,-0.055714,0.011897,0.0,0.022423,0.025947,-0.028987,-0.035165,4076.460205,11514.870117,51295.230469,0.0,-17618.759766,-17614.349609,17882.189453,-17354.339844,4107.959961,11501.910156,51512.222656,0.0,17709.210938,17709.03125,-17446.050781,17978.490234,0.0,0.0,0.0,0.0,0.0,0.0,0.0,0.0,0.0,0.0,0.0,0.0,0.0,0.0,-90.92347,0.0,0.0,0.0,0.0,0.0,0.0,0.0,0.0,0.0,0.0,0.0,0.0,0.0,0.0,0.0,-0.176481,0.0,4074.61499,11510.977539,51284.578125,0.0,-17617.962891,-17616.630859,17878.933594,-17361.080078,4107.70752,11499.620117,51512.164062,0.0,17709.765625,17709.765625,-17453.302734,17966.859375,29.917233,90.371895,22.79512,0.0,3.17692,2.054453,26.089222,31.501581,30.16021,90.24308,22.8997,0.0,0.011677,0.006943,28.51074,28.601789,1.024,1.033,-63617.0,-145286.0,-412178.0,0.0,141786.0,141676.0,-145019.0,138607.0,-60642.0,-140418.0,-417313.0,0.0,-143245.0,-143379.0,140109.0,-146099.0,0.0,0.0,0.0,0.0,0.0,0.0,0.0,0.0,0.0,0.0,0.0,-0.176481,0.0,0.0,0.0,0.0,0.0,0.0,0.0,0.0,0.0,0.0,0.0,-0.176481
33,1.9818871021270752,0.522391,1.577812,0.39793,0.0,-3.08713,0.040281,0.459452,0.564925,0.526427,1.575363,0.399673,0.0,-3.141591,-0.001304,0.512048,0.520711,3.0,1.0,111.0,0.0,1.0,-79947.0,-25376.0,14139.0,-78113.0,25646.0,13563.0,-0.958746,-0.179546,0.220384,-0.255738,0.206303,-0.944477,0.124111,-0.961874,-0.243709,-0.936187,0.21953,0.274518,0.309438,0.144259,0.939913,0.166737,0.964881,-0.202985,-0.958746,-0.179546,0.220384,-0.255738,0.206303,-0.944477,0.124111,-0.961874,-0.243709,-0.936187,0.21953,0.274518,0.309438,0.144259,0.939913,0.166737,0.964881,-0.202985,-79947.0,-25376.0,14139.0,-78113.0,25646.0,13563.0,18323.0,17343.0,-157769.0,0.0,-53978.0,-54039.0,-53672.0,-54220.0,-14998.0,-12619.0,155045.0,0.0,53524.0,53388.0,53738.0,53660.0,80.0,237.0,58.0,0.0,756.0,1058.0,596.0,-575.0,-54.0,-205.0,43.0,0.0,613.0,709.0,791.0,-962.0,-0.021756,-0.064203,-0.015832,0.0,0.027679,0.038722,-0.021827,-0.021054,-0.014665,-0.055714,0.011897,0.0,0.022433,0.02596,-0.028956,-0.03521,4076.460205,11514.870117,51295.230469,0.0,-17618.759766,-17614.349609,17882.189453,-17354.429688,4107.959961,11501.910156,51512.222656,0.0,17709.210938,17709.03125,-17446.230469,17978.310547,0.0,0.0,0.0,0.0,0.0,0.0,0.0,0.0,0.0,0.0,0.0,0.0,0.0,0.0,0.0,0.0,0.0,0.0,0.0,0.0,0.0,0.0,0.0,0.0,0.0,0.0,0.0,0.0,0.0,0.0,0.0,0.0,4074.61499,11510.977539,51284.578125,0.0,-17617.962891,-17616.630859,17878.933594,-17361.080078,4107.70752,11499.620117,51512.164062,0.0,17709.765625,17709.765625,-17453.302734,17966.859375,29.917233,90.371895,22.79512,0.0,3.17692,2.054453,26.089222,31.501581,30.16021,90.24308,22.8997,0.0,0.011677,0.006943,28.51074,28.601789,1.024,1.032,-63617.0,-145286.0,-412178.0,0.0,141786.0,141676.0,-145019.0,138607.0,-60642.0,-140418.0,-417313.0,0.0,-143245.0,-143379.0,140109.0,-146099.0,0.0,0.0,0.0,0.0,0.0,0.0,0.0,0.0,0.0,0.0,0.0,0.0,0.0,0.0,0.0,0.0,0.0,0.0,0.0,0.0,0.0,0.0,0.0,0.0
34,2.0028879642486572,0.522391,1.577812,0.39793,0.0,-3.08713,0.040281,0.459452,0.564575,0.526427,1.575363,0.399673,0.0,-3.141591,-0.001131,0.511612,0.520448,3.0,1.0,111.0,0.0,1.0,-79947.0,-25376.0,14139.0,-78114.0,25644.0,13564.0,-0.958715,-0.179713,0.220384,-0.255774,0.206259,-0.944477,0.124279,-0.961853,-0.243709,-0.936216,0.219611,0.274356,0.309288,0.144233,0.939967,0.166856,0.964867,-0.202957,-0.958715,-0.179713,0.220384,-0.255774,0.206259,-0.944477,0.124279,-0.961853,-0.243709,-0.936216,0.219611,0.274356,0.309288,0.144233,0.939967,0.166856,0.964867,-0.202957,-79947.0,-25376.0,14139.0,-78114.0,25644.0,13564.0,18323.0,17343.0,-157769.0,0.0,-53978.0,-54039.0,-53672.0,-54222.0,-14998.0,-12619.0,155045.0,0.0,53524.0,53389.0,53740.0,53658.0,80.0,237.0,58.0,0.0,756.0,1057.0,598.0,-574.0,-54.0,-205.0,43.0,0.0,613.0,707.0,790.0,-963.0,-0.021756,-0.064203,-0.015832,0.0,0.027694,0.03868,-0.021887,-0.021017,-0.014665,-0.055714,0.011897,0.0,0.022443,0.025896,-0.028926,-0.035261,4076.460205,11514.870117,51295.230469,0.0,-17618.759766,-17614.349609,17882.189453,-17354.609375,4107.959961,11501.910156,51512.222656,0.0,17709.210938,17709.121094,-17446.410156,17978.128906,0.0,0.0,0.0,0.0,0.0,0.0,0.0,0.0,0.0,0.0,0.0,0.0,0.0,89.174942,0.0,0.0,0.0,0.0,0.0,0.0,0.0,0.0,0.0,0.0,0.0,0.0,0.0,0.0,0.0,0.173088,-0.086544,0.086544,4074.61499,11510.977539,51284.578125,0.0,-17617.962891,-17616.630859,17878.933594,-17361.080078,4107.70752,11499.620117,51512.164062,0.0,17709.765625,17709.765625,-17453.302734,17966.859375,29.917233,90.371895,22.79512,0.0,3.17692,2.054453,26.089222,31.501581,30.16021,90.24308,22.8997,0.0,0.011677,0.006943,28.51074,28.601789,1.024,1.032,-63617.0,-145286.0,-412178.0,0.0,141786.0,141676.0,-145019.0,138607.0,-60642.0,-140418.0,-417313.0,0.0,-143245.0,-143379.0,140109.0,-146099.0,0.0,0.0,0.0,0.0,0.0,0.0,0.0,0.173088,0.0,0.084741,0.150925,-0.086544,0.0,0.0,0.0,0.0,0.0,0.0,0.0,0.173088,0.0,0.084741,0.150925,-0.086544
35,2.022890090942383,0.522391,1.577812,0.39793,0.0,-3.08713,0.040281,0.459452,0.564225,0.526427,1.575363,0.399673,0.0,-3.141591,-0.001131,0.511263,0.520098,3.0,1.0,111.0,0.0,1.0,-79947.0,-25376.0,14139.0,-78114.0,25644.0,13564.0,-0.958683,-0.179881,0.220384,-0.25581,0.206214,-0.944477,0.124447,-0.961831,-0.243709,-0.936216,0.219611,0.274356,0.309288,0.144233,0.939967,0.166856,0.964867,-0.202957,-0.958683,-0.179881,0.220384,-0.25581,0.206214,-0.944477,0.124447,-0.961831,-0.243709,-0.936216,0.219611,0.274356,0.309288,0.144233,0.939967,0.166856,0.964867,-0.202957,-79947.0,-25376.0,14139.0,-78114.0,25644.0,13564.0,18323.0,17343.0,-157769.0,0.0,-53978.0,-54039.0,-53672.0,-54224.0,-14998.0,-12619.0,155045.0,0.0,53524.0,53389.0,53742.0,53656.0,80.0,237.0,58.0,0.0,757.0,1055.0,599.0,-573.0,-54.0,-205.0,43.0,0.0,613.0,707.0,789.0,-964.0,-0.021756,-0.064203,-0.015832,0.0,0.027708,0.03864,-0.021944,-0.020971,-0.014665,-0.055714,0.011897,0.0,0.022453,0.025907,-0.028887,-0.035298,4076.460205,11514.870117,51295.230469,0.0,-17618.759766,-17614.349609,17882.189453,-17354.789062,4107.959961,11501.910156,51512.222656,0.0,17709.210938,17709.121094,-17446.591797,17977.949219,0.0,0.0,0.0,0.0,0.0,0.0,0.0,0.0,0.0,0.0,0.0,0.0,0.0,0.0,0.0,0.0,0.0,0.0,0.0,0.0,0.0,0.0,0.0,0.0,0.0,0.0,0.0,0.0,0.0,0.0,0.0,0.0,4074.61499,11510.977539,51284.578125,0.0,-17617.962891,-17616.630859,17878.933594,-17361.080078,4107.70752,11499.620117,51512.164062,0.0,17709.765625,17709.765625,-17453.302734,17966.859375,29.917233,90.371895,22.79512,0.0,3.17692,2.054453,26.089222,31.501581,30.16021,90.24308,22.8997,0.0,0.011677,0.006943,28.51074,28.601789,1.023,1.031,-63617.0,-145286.0,-412178.0,0.0,141786.0,141676.0,-145019.0,138607.0,-60642.0,-140418.0,-417313.0,0.0,-143245.0,-143379.0,140109.0,-146099.0,0.0,0.0,0.0,0.0,0.0,0.0,0.0,0.0,0.0,0.0,0.0,0.0,0.0,0.0,0.0,0.0,0.0,0.0,0.0,0.0,0.0,0.0,0.0,0.0
36,2.042882919311523,0.522391,1.577812,0.39793,0.0,-3.0868420000000003,0.040281,0.459279,0.563876,0.526427,1.575363,0.399673,0.0,-3.141591,-0.001131,0.510913,0.519752,3.0,1.0,111.0,0.0,1.0,-79947.0,-25376.0,14139.0,-78114.0,25644.0,13564.0,-0.958669,-0.18004,0.220317,-0.255817,0.20646,-0.944422,0.124547,-0.961748,-0.243984,-0.936215,0.219612,0.274356,0.309288,0.144233,0.939967,0.166857,0.964866,-0.202957,-0.958669,-0.18004,0.220317,-0.255817,0.20646,-0.944422,0.124547,-0.961748,-0.243984,-0.936215,0.219612,0.274356,0.309288,0.144233,0.939967,0.166857,0.964866,-0.202957,-79947.0,-25376.0,14139.0,-78114.0,25644.0,13564.0,18323.0,17343.0,-157769.0,0.0,-53977.0,-54039.0,-53671.0,-54226.0,-14998.0,-12619.0,155045.0,0.0,53524.0,53389.0,53744.0,53654.0,80.0,237.0,58.0,0.0,753.0,1054.0,599.0,-571.0,-54.0,-205.0,43.0,0.0,613.0,708.0,788.0,-965.0,-0.021756,-0.064203,-0.015832,0.0,0.027582,0.038601,-0.021923,-0.020922,-0.014665,-0.055714,0.011897,0.0,0.022463,0.025918,-0.028845,-0.035335,4076.460205,11514.870117,51295.230469,0.0,-17618.669922,-17614.349609,17882.099609,-17354.970703,4107.959961,11501.910156,51512.222656,0.0,17709.210938,17709.121094,-17446.771484,17977.771484,0.0,0.0,0.0,0.0,0.0,0.0,0.0,0.0,0.0,0.0,0.0,0.0,0.0,0.0,0.0,0.0,0.0,0.0,0.0,0.0,0.0,0.0,0.0,0.0,0.0,0.0,0.0,0.0,0.0,0.0,0.0,0.0,4074.61499,11510.977539,51284.578125,0.0,-17617.962891,-17616.630859,17878.933594,-17361.080078,4107.70752,11499.620117,51512.164062,0.0,17709.765625,17709.765625,-17453.302734,17966.859375,29.917233,90.371895,22.79512,0.0,3.17692,2.054453,26.089222,31.501581,30.16021,90.24308,22.8997,0.0,0.011677,0.006943,28.51074,28.601789,1.023,1.03,-63617.0,-145286.0,-412178.0,0.0,141786.0,141676.0,-145019.0,138607.0,-60642.0,-140418.0,-417313.0,0.0,-143245.0,-143379.0,140109.0,-146099.0,0.0,0.0,0.0,0.0,0.0,0.0,0.0,0.0,0.0,0.0,0.0,0.0,0.0,0.0,0.0,0.0,0.0,0.0,0.0,0.0,0.0,0.0,0.0,0.0
37,2.064927101135254,0.522391,1.577812,0.39793,0.0,-3.0868420000000003,0.040281,0.459279,0.563699,0.526427,1.575363,0.399673,0.0,-3.141591,-0.001131,0.51039,0.519576,3.0,1.0,111.0,0.0,1.0,-79947.0,-25376.0,14139.0,-78114.0,25644.0,13564.0,-0.958653,-0.180124,0.220317,-0.255835,0.206438,-0.944422,0.124632,-0.961737,-0.243984,-0.936177,0.219775,0.274356,0.309313,0.144179,0.939967,0.167024,0.964838,-0.202957,-0.958653,-0.180124,0.220317,-0.255835,0.206438,-0.944422,0.124632,-0.961737,-0.243984,-0.936177,0.219775,0.274356,0.309313,0.144179,0.939967,0.167024,0.964838,-0.202957,-79947.0,-25376.0,14139.0,-78114.0,25644.0,13564.0,18323.0,17343.0,-157769.0,0.0,-53977.0,-54039.0,-53671.0,-54227.0,-14998.0,-12619.0,155045.0,0.0,53524.0,53389.0,53747.0,53653.0,80.0,237.0,58.0,0.0,754.0,1053.0,600.0,-572.0,-54.0,-205.0,43.0,0.0,614.0,708.0,785.0,-969.0,-0.021756,-0.064203,-0.015832,0.0,0.027595,0.038557,-0.021983,-0.020959,-0.014665,-0.055714,0.011897,0.0,0.022473,0.025931,-0.028733,-0.035464,4076.460205,11514.870117,51295.230469,0.0,-17618.669922,-17614.349609,17882.099609,-17355.060547,4107.959961,11501.910156,51512.222656,0.0,17709.210938,17709.121094,-17447.041016,17977.679688,0.0,0.0,0.0,0.0,0.0,0.0,0.0,0.0,0.0,0.0,0.0,0.0,0.0,0.0,0.0,0.0,0.0,0.0,0.0,0.0,0.0,0.0,0.0,0.0,0.0,0.0,0.0,0.0,0.0,0.0,0.0,0.0,4074.61499,11510.977539,51284.578125,0.0,-17617.962891,-17616.630859,17878.933594,-17361.080078,4107.70752,11499.620117,51512.164062,0.0,17709.765625,17709.765625,-17453.302734,17966.859375,29.917233,90.371895,22.79512,0.0,3.17692,2.054453,26.089222,31.501581,30.16021,90.24308,22.8997,0.0,0.011677,0.006943,28.51074,28.601789,1.022,1.029,-63617.0,-145286.0,-412178.0,0.0,141786.0,141676.0,-145019.0,138607.0,-60642.0,-140418.0,-417313.0,0.0,-143245.0,-143379.0,140109.0,-146099.0,0.0,0.0,0.0,0.0,0.0,0.0,0.0,0.0,0.0,0.0,0.0,0.0,0.0,0.0,0.0,0.0,0.0,0.0,0.0,0.0,0.0,0.0,0.0,0.0
38,2.084929943084717,0.522391,1.577812,0.39793,0.0,-3.0868420000000003,0.040281,0.459279,0.56335,0.526427,1.575363,0.399673,0.0,-3.141591,-0.001131,0.510041,0.519402,3.0,1.0,111.0,0.0,1.0,-79947.0,-25376.0,14139.0,-78114.0,25644.0,13564.0,-0.958621,-0.180292,0.220317,-0.255871,0.206393,-0.944422,0.1248,-0.961716,-0.243984,-0.936158,0.219857,0.274356,0.309326,0.144152,0.939967,0.16711,0.964823,-0.202957,-0.958621,-0.180292,0.220317,-0.255871,0.206393,-0.944422,0.1248,-0.961716,-0.243984,-0.936158,0.219857,0.274356,0.309326,0.144152,0.939967,0.16711,0.964823,-0.202957,-79947.0,-25376.0,14139.0,-78114.0,25644.0,13564.0,18323.0,17343.0,-157769.0,0.0,-53977.0,-54039.0,-53671.0,-54229.0,-14998.0,-12619.0,155045.0,0.0,53524.0,53389.0,53749.0,53652.0,80.0,237.0,58.0,0.0,754.0,1052.0,602.0,-571.0,-54.0,-205.0,43.0,0.0,614.0,708.0,783.0,-972.0,-0.021756,-0.064203,-0.015832,0.0,0.027607,0.038517,-0.022039,-0.020905,-0.014665,-0.055714,0.011897,0.0,0.022483,0.025942,-0.028684,-0.035573,4076.460205,11514.870117,51295.230469,0.0,-17618.669922,-17614.349609,17882.099609,-17355.240234,4107.959961,11501.910156,51512.222656,0.0,17709.210938,17709.121094,-17447.220703,17977.591797,0.0,0.0,0.0,0.0,0.0,0.0,0.0,-90.92347,0.0,0.0,0.0,0.0,0.0,0.0,0.0,0.0,0.0,0.0,0.0,0.0,0.0,0.0,0.0,-0.176481,0.0,0.0,0.0,0.0,0.0,0.0,0.0,0.0,4074.61499,11510.977539,51284.578125,0.0,-17617.962891,-17616.630859,17878.933594,-17361.080078,4107.70752,11499.620117,51512.164062,0.0,17709.765625,17709.765625,-17453.302734,17966.859375,29.917233,90.371895,22.79512,0.0,3.17692,2.054453,26.089222,31.501581,30.16021,90.24308,22.8997,0.0,0.011677,0.006943,28.51074,28.601789,1.022,1.029,-63617.0,-145286.0,-412178.0,0.0,141786.0,141676.0,-145019.0,138607.0,-60642.0,-140418.0,-417313.0,0.0,-143245.0,-143379.0,140109.0,-146099.0,0.0,0.0,0.0,0.0,0.0,0.0,0.0,0.0,0.0,0.0,0.0,0.0,0.0,0.0,0.0,0.0,0.0,0.0,0.0,0.0,0.0,0.0,0.0,0.0
39,2.1058859825134277,0.522391,1.577812,0.39793,0.0,-3.0868420000000003,0.040281,0.459279,0.563177,0.526427,1.575363,0.399673,0.0,-3.141302,-0.001131,0.509691,0.519053,3.0,1.0,111.0,0.0,1.0,-79947.0,-25376.0,14139.0,-78114.0,25644.0,13564.0,-0.958606,-0.180375,0.220317,-0.255889,0.206371,-0.944422,0.124883,-0.961705,-0.243984,-0.936158,0.219778,0.274418,0.309325,0.143881,0.940009,0.16711,0.964881,-0.202678,-0.958606,-0.180375,0.220317,-0.255889,0.206371,-0.944422,0.124883,-0.961705,-0.243984,-0.936158,0.219778,0.274418,0.309325,0.143881,0.940009,0.16711,0.964881,-0.202678,-79947.0,-25376.0,14139.0,-78114.0,25644.0,13564.0,18323.0,17343.0,-157769.0,0.0,-53977.0,-54039.0,-53671.0,-54230.0,-14998.0,-12619.0,155045.0,0.0,53525.0,53389.0,53751.0,53650.0,80.0,237.0,58.0,0.0,754.0,1051.0,603.0,-572.0,-54.0,-205.0,43.0,0.0,610.0,709.0,782.0,-973.0,-0.021756,-0.064203,-0.015832,0.0,0.02762,0.038475,-0.022097,-0.020934,-0.014665,-0.055714,0.011897,0.0,0.022352,0.025954,-0.028636,-0.035611,4076.460205,11514.870117,51295.230469,0.0,-17618.669922,-17614.349609,17882.099609,-17355.330078,4107.959961,11501.910156,51512.222656,0.0,17709.300781,17709.121094,-17447.400391,17977.410156,0.0,0.0,0.0,0.0,0.0,0.0,0.0,0.0,0.0,0.0,0.0,0.0,0.0,0.0,0.0,0.0,0.0,0.0,0.0,0.0,0.0,0.0,0.0,0.0,0.0,0.0,0.0,0.0,0.0,0.0,0.0,0.0,4074.61499,11510.977539,51284.578125,0.0,-17617.962891,-17616.630859,17878.933594,-17361.080078,4107.70752,11499.620117,51512.164062,0.0,17709.765625,17709.765625,-17453.302734,17966.859375,29.917233,90.371895,22.79512,0.0,3.17692,2.054453,26.089222,31.501581,30.16021,90.24308,22.8997,0.0,0.011677,0.006943,28.51074,28.601789,1.022,1.028,-63617.0,-145286.0,-412178.0,0.0,141786.0,141676.0,-145019.0,138607.0,-60642.0,-140418.0,-417313.0,0.0,-143245.0,-143379.0,140109.0,-146099.0,0.0,0.0,0.0,0.0,0.0,0.0,0.0,0.0,0.0,0.0,0.0,0.0,0.0,0.0,0.0,0.0,0.0,0.0,0.0,0.0,0.0,0.0,0.0,0.0
40,2.1269218921661377,0.522391,1.577812,0.39793,0.0,-3.0868420000000003,0.040281,0.459102,0.563,0.526427,1.575363,0.399673,0.0,-3.141302,-0.001131,0.509342,0.518876,3.0,1.0,111.0,0.0,1.0,-79947.0,-25376.0,14139.0,-78114.0,25644.0,13564.0,-0.958606,-0.180375,0.220317,-0.255889,0.206371,-0.944422,0.124883,-0.961705,-0.243984,-0.936139,0.219859,0.274418,0.309337,0.143854,0.940009,0.167194,0.964867,-0.202678,-0.958606,-0.180375,0.220317,-0.255889,0.206371,-0.944422,0.124883,-0.961705,-0.243984,-0.936139,0.219859,0.274418,0.309337,0.143854,0.940009,0.167194,0.964867,-0.202678,-79947.0,-25376.0,14139.0,-78114.0,25644.0,13564.0,18323.0,17343.0,-157769.0,0.0,-53977.0,-54039.0,-53670.0,-54231.0,-14998.0,-12619.0,155045.0,0.0,53525.0,53389.0,53753.0,53649.0,80.0,237.0,58.0,0.0,755.0,1050.0,603.0,-572.0,-54.0,-205.0,43.0,0.0,611.0,709.0,781.0,-976.0,-0.021756,-0.064203,-0.015832,0.0,0.027633,0.038433,-0.022074,-0.020959,-0.014665,-0.055714,0.011897,0.0,0.02236,0.025966,-0.028586,-0.035724,4076.460205,11514.870117,51295.230469,0.0,-17618.669922,-17614.349609,17882.009766,-17355.421875,4107.959961,11501.910156,51512.222656,0.0,17709.300781,17709.121094,-17447.580078,17977.320312,0.0,0.0,0.0,0.0,0.0,0.0,0.0,0.0,0.0,0.0,0.0,0.0,0.0,0.0,0.0,0.0,0.0,0.0,0.0,0.0,0.0,0.0,0.0,0.0,0.0,0.0,0.0,0.0,0.0,0.0,0.0,0.0,4074.61499,11510.977539,51284.578125,0.0,-17617.962891,-17616.630859,17878.933594,-17361.080078,4107.70752,11499.620117,51512.164062,0.0,17709.765625,17709.765625,-17453.302734,17966.859375,29.917233,90.371895,22.79512,0.0,3.17692,2.054453,26.089222,31.501581,30.16021,90.24308,22.8997,0.0,0.011677,0.006943,28.51074,28.601789,1.022,1.028,-63617.0,-145286.0,-412178.0,0.0,141786.0,141676.0,-145019.0,138607.0,-60642.0,-140418.0,-417313.0,0.0,-143245.0,-143379.0,140109.0,-146099.0,0.0,0.0,0.0,0.0,0.0,0.0,0.0,0.0,0.0,0.0,0.0,0.0,0.0,0.0,0.0,0.0,0.0,0.0,0.0,0.0,0.0,0.0,0.0,0.0
41,2.1468889713287354,0.522391,1.577812,0.39793,0.0,-3.0868420000000003,0.040281,0.459102,0.562651,0.526427,1.575363,0.399673,0.0,-3.141302,-0.001131,0.508992,0.518703,3.0,1.0,111.0,0.0,1.0,-79947.0,-25376.0,14139.0,-78114.0,25644.0,13564.0,-0.958574,-0.180543,0.220317,-0.255925,0.206326,-0.944422,0.125051,-0.961683,-0.243984,-0.93612,0.219942,0.274418,0.30935,0.143827,0.940009,0.167279,0.964852,-0.202678,-0.958574,-0.180543,0.220317,-0.255925,0.206326,-0.944422,0.125051,-0.961683,-0.243984,-0.93612,0.219942,0.274418,0.30935,0.143827,0.940009,0.167279,0.964852,-0.202678,-79947.0,-25376.0,14139.0,-78114.0,25644.0,13564.0,18323.0,17343.0,-157769.0,0.0,-53977.0,-54039.0,-53670.0,-54233.0,-14998.0,-12619.0,155045.0,0.0,53525.0,53389.0,53755.0,53648.0,80.0,237.0,58.0,0.0,755.0,1049.0,604.0,-571.0,-54.0,-205.0,43.0,0.0,611.0,709.0,779.0,-979.0,-0.021756,-0.064203,-0.015832,0.0,0.027646,0.038393,-0.022128,-0.020899,-0.014665,-0.055714,0.011897,0.0,0.022368,0.025977,-0.028526,-0.035828,4076.460205,11514.870117,51295.230469,0.0,-17618.669922,-17614.349609,17882.009766,-17355.601562,4107.959961,11501.910156,51512.222656,0.0,17709.300781,17709.121094,-17447.761719,17977.230469,0.0,0.0,0.0,0.0,0.0,0.0,0.0,-90.92347,0.0,0.0,0.0,0.0,0.0,0.0,0.0,0.0,0.0,0.0,0.0,0.0,0.0,0.0,0.0,-0.176481,0.0,0.0,0.0,0.0,0.0,0.0,0.0,0.0,4074.61499,11510.977539,51284.578125,0.0,-17617.962891,-17616.630859,17878.933594,-17361.080078,4107.70752,11499.620117,51512.164062,0.0,17709.765625,17709.765625,-17453.302734,17966.859375,29.917233,90.371895,22.79512,0.0,3.17692,2.054453,26.089222,31.501581,30.16021,90.24308,22.8997,0.0,0.011677,0.006943,28.51074,28.601789,1.021,1.027,-63617.0,-145286.0,-412178.0,0.0,141786.0,141676.0,-145019.0,138607.0,-60642.0,-140418.0,-417313.0,0.0,-143245.0,-143379.0,140109.0,-146099.0,0.0,0.0,0.0,0.0,0.0,0.0,0.0,0.0,0.0,0.0,0.0,0.0,0.0,0.0,0.0,0.0,0.0,0.0,0.0,0.0,0.0,0.0,0.0,0.0
42,2.1669209003448486,0.522391,1.577812,0.39793,0.0,-3.0868420000000003,0.040281,0.459102,0.562478,0.526427,1.575363,0.399673,0.0,-3.141302,-0.001131,0.508643,0.518527,3.0,1.0,111.0,0.0,1.0,-79947.0,-25376.0,14139.0,-78114.0,25644.0,13564.0,-0.958559,-0.180625,0.220317,-0.255943,0.206304,-0.944422,0.125134,-0.961672,-0.243984,-0.936101,0.220023,0.274418,0.309362,0.1438,0.940009,0.167362,0.964838,-0.202678,-0.958559,-0.180625,0.220317,-0.255943,0.206304,-0.944422,0.125134,-0.961672,-0.243984,-0.93612,0.21994,0.274418,0.30935,0.143827,0.940009,0.167277,0.964852,-0.202678,-79947.0,-25376.0,14139.0,-78114.0,25644.0,13564.0,18323.0,17343.0,-157769.0,0.0,-53977.0,-54039.0,-53670.0,-54234.0,-14998.0,-12619.0,155045.0,0.0,53525.0,53389.0,53757.0,53647.0,80.0,237.0,58.0,0.0,755.0,1048.0,606.0,-571.0,-54.0,-205.0,43.0,0.0,611.0,710.0,777.0,-981.0,-0.021756,-0.064203,-0.015832,0.0,0.027658,0.038354,-0.022181,-0.020916,-0.014665,-0.055714,0.011897,0.0,0.022376,0.025988,-0.028465,-0.035928,4076.460205,11514.870117,51295.230469,0.0,-17618.669922,-17614.349609,17882.009766,-17355.689453,4107.959961,11501.910156,51512.222656,0.0,17709.300781,17709.121094,-17447.941406,17977.140625,0.0,0.0,0.0,0.0,0.0,0.0,0.0,0.0,0.0,0.0,0.0,0.0,0.0,0.0,-90.92347,0.0,0.0,0.0,0.0,0.0,0.0,0.0,0.0,0.0,0.0,0.0,0.0,0.0,0.0,0.0,-0.176481,0.0,4074.61499,11510.977539,51284.578125,0.0,-17617.962891,-17616.630859,17878.933594,-17361.080078,4107.70752,11499.620117,51512.164062,0.0,17709.765625,17709.765625,-17453.302734,17966.859375,29.917233,90.371895,22.79512,0.0,3.17692,2.054453,26.089222,31.501581,30.16021,90.24308,22.8997,0.0,0.011677,0.006943,28.51074,28.601789,1.021,1.027,-63617.0,-145286.0,-412178.0,0.0,141786.0,141676.0,-145019.0,138607.0,-60642.0,-140418.0,-417313.0,0.0,-143245.0,-143379.0,140109.0,-146099.0,0.0,0.0,0.0,0.0,0.0,0.0,0.0,0.0,0.0,0.0,0.0,-0.176481,0.0,0.0,0.0,0.0,0.0,0.0,0.0,0.0,0.0,0.0,0.0,-0.176481
43,2.1869280338287354,0.522391,1.577812,0.39793,0.0,-3.0868420000000003,0.040281,0.458929,0.562128,0.526427,1.575363,0.399673,0.0,-3.141302,-0.001131,0.50847,0.518177,3.0,1.0,111.0,0.0,1.0,-79947.0,-25376.0,14139.0,-78114.0,25644.0,13564.0,-0.958543,-0.18071,0.220317,-0.255961,0.206281,-0.944422,0.125219,-0.961661,-0.243984,-0.93612,0.21994,0.274418,0.30935,0.143827,0.940009,0.167277,0.964852,-0.202678,-0.958558,-0.180627,0.220317,-0.255943,0.206304,-0.944422,0.125136,-0.961672,-0.243984,-0.93612,0.21994,0.274418,0.30935,0.143827,0.940009,0.167277,0.964852,-0.202678,-79947.0,-25376.0,14139.0,-78114.0,25644.0,13564.0,18323.0,17343.0,-157769.0,0.0,-53977.0,-54039.0,-53669.0,-54236.0,-14998.0,-12619.0,155045.0,0.0,53525.0,53389.0,53758.0,53645.0,80.0,237.0,58.0,0.0,756.0,1047.0,605.0,-569.0,-54.0,-205.0,43.0,0.0,611.0,710.0,778.0,-982.0,-0.021756,-0.064203,-0.015832,0.0,0.02767,0.038314,-0.022156,-0.020852,-0.014665,-0.055714,0.011897,0.0,0.022384,0.025999,-0.02848,-0.035949,4076.460205,11514.870117,51295.230469,0.0,-17618.669922,-17614.349609,17881.919922,-17355.871094,4107.959961,11501.910156,51512.222656,0.0,17709.300781,17709.121094,-17448.029297,17976.960938,0.0,0.0,0.0,0.0,0.0,0.0,0.0,-89.174942,0.0,0.0,0.0,0.0,0.0,0.0,0.0,0.0,0.0,0.0,0.0,0.0,0.0,0.0,0.0,-0.173088,0.0,0.0,0.0,0.0,0.0,0.0,0.0,0.0,4074.61499,11510.977539,51284.578125,0.0,-17617.962891,-17616.630859,17878.933594,-17361.080078,4107.70752,11499.620117,51512.164062,0.0,17709.765625,17709.765625,-17453.302734,17966.859375,29.917233,90.371895,22.79512,0.0,3.17692,2.054453,26.089222,31.501581,30.16021,90.24308,22.8997,0.0,0.011677,0.006943,28.51074,28.601789,1.021,1.026,-63617.0,-145286.0,-412178.0,0.0,141786.0,141676.0,-145019.0,138607.0,-60642.0,-140418.0,-417313.0,0.0,-143245.0,-143379.0,140109.0,-146099.0,0.0,0.0,0.0,0.0,0.0,0.0,0.0,0.0,0.0,0.0,0.0,0.0,0.0,0.0,0.0,0.0,0.0,0.0,0.0,0.0,0.0,0.0,0.0,0.0
44,2.2089269161224365,0.522391,1.577812,0.39793,0.0,-3.0868420000000003,0.040281,0.458929,0.561955,0.526427,1.575363,0.399673,0.0,-3.141302,-0.001131,0.508293,0.518004,3.0,1.0,111.0,0.0,1.0,-79947.0,-25376.0,14139.0,-78114.0,25644.0,13564.0,-0.958527,-0.180793,0.220317,-0.255979,0.206259,-0.944422,0.125302,-0.96165,-0.243984,-0.93612,0.219942,0.274418,0.30935,0.143827,0.940009,0.167279,0.964852,-0.202678,-0.958527,-0.180793,0.220317,-0.255979,0.206259,-0.944422,0.125302,-0.96165,-0.243984,-0.93612,0.219942,0.274418,0.30935,0.143827,0.940009,0.167279,0.964852,-0.202678,-79947.0,-25376.0,14139.0,-78114.0,25644.0,13564.0,18323.0,17343.0,-157769.0,0.0,-53977.0,-54039.0,-53669.0,-54237.0,-14998.0,-12619.0,155045.0,0.0,53525.0,53389.0,53759.0,53644.0,80.0,237.0,58.0,0.0,756.0,1045.0,607.0,-570.0,-54.0,-205.0,43.0,0.0,611.0,710.0,778.0,-985.0,-0.021756,-0.064203,-0.015832,0.0,0.027684,0.03827,-0.022214,-0.020873,-0.014665,-0.055714,0.011897,0.0,0.022393,0.026012,-0.028501,-0.036064,4076.460205,11514.870117,51295.230469,0.0,-17618.669922,-17614.349609,17881.919922,-17355.958984,4107.959961,11501.910156,51512.222656,0.0,17709.300781,17709.121094,-17448.121094,17976.871094,0.0,0.0,0.0,0.0,0.0,0.0,0.0,0.0,0.0,0.0,0.0,0.0,0.0,0.0,0.0,0.0,0.0,0.0,0.0,0.0,0.0,0.0,0.0,0.0,0.0,0.0,0.0,0.0,0.0,0.0,0.0,0.0,4074.61499,11510.977539,51284.578125,0.0,-17617.962891,-17616.630859,17878.933594,-17361.080078,4107.70752,11499.620117,51512.164062,0.0,17709.765625,17709.765625,-17453.302734,17966.859375,29.917233,90.371895,22.79512,0.0,3.17692,2.054453,26.089222,31.501581,30.16021,90.24308,22.8997,0.0,0.011677,0.006943,28.51074,28.601789,1.02,1.026,-63617.0,-145286.0,-412178.0,0.0,141786.0,141676.0,-145019.0,138607.0,-60642.0,-140418.0,-417313.0,0.0,-143245.0,-143379.0,140109.0,-146099.0,0.0,0.0,0.0,0.0,0.0,0.0,0.0,0.0,0.0,0.0,0.0,0.0,0.0,0.0,0.0,0.0,0.0,0.0,0.0,0.0,0.0,0.0,0.0,0.0
45,2.229887008666992,0.522391,1.577812,0.39793,0.0,-3.0868420000000003,0.040281,0.458756,0.561778,0.526427,1.575363,0.399673,0.0,-3.141302,-0.001131,0.50812,0.517655,3.0,1.0,111.0,0.0,1.0,-79947.0,-25376.0,14139.0,-78114.0,25644.0,13564.0,-0.958527,-0.180795,0.220317,-0.255979,0.206259,-0.944422,0.125304,-0.96165,-0.243984,-0.936139,0.219859,0.274418,0.309337,0.143854,0.940009,0.167194,0.964867,-0.202678,-0.958527,-0.180795,0.220317,-0.255979,0.206259,-0.944422,0.125304,-0.96165,-0.243984,-0.936139,0.219859,0.274418,0.309337,0.143854,0.940009,0.167194,0.964867,-0.202678,-79947.0,-25376.0,14139.0,-78114.0,25644.0,13564.0,18323.0,17343.0,-157769.0,0.0,-53977.0,-54039.0,-53668.0,-54238.0,-14998.0,-12619.0,155045.0,0.0,53525.0,53389.0,53760.0,53642.0,80.0,237.0,58.0,0.0,756.0,1044.0,606.0,-570.0,-54.0,-205.0,43.0,0.0,612.0,711.0,779.0,-986.0,-0.021756,-0.064203,-0.015832,0.0,0.027697,0.038228,-0.02219,-0.020887,-0.014665,-0.055714,0.011897,0.0,0.022402,0.026024,-0.028516,-0.036089,4076.460205,11514.870117,51295.230469,0.0,-17618.669922,-17614.349609,17881.832031,-17356.050781,4107.959961,11501.910156,51512.222656,0.0,17709.300781,17709.121094,-17448.210938,17976.691406,0.0,0.0,0.0,0.0,0.0,0.0,0.0,0.0,0.0,0.0,0.0,0.0,0.0,0.0,0.0,-89.174942,0.0,0.0,0.0,0.0,0.0,0.0,0.0,0.0,0.0,0.0,0.0,0.0,0.0,0.0,0.0,-0.173088,4074.61499,11510.977539,51284.578125,0.0,-17617.962891,-17616.630859,17878.933594,-17361.080078,4107.70752,11499.620117,51512.164062,0.0,17709.765625,17709.765625,-17453.302734,17966.859375,29.917233,90.371895,22.79512,0.0,3.17692,2.054453,26.089222,31.501581,30.16021,90.24308,22.8997,0.0,0.011677,0.006943,28.51074,28.601789,1.02,1.025,-63617.0,-145286.0,-412178.0,0.0,141786.0,141676.0,-145019.0,138607.0,-60642.0,-140418.0,-417313.0,0.0,-143245.0,-143379.0,140109.0,-146099.0,0.0,0.0,0.0,0.0,0.0,0.0,0.0,0.0,0.0,0.0,0.0,0.0,0.0,0.0,0.0,0.0,0.0,0.0,0.0,0.0,0.0,0.0,0.0,0.0
46,2.2499260902404785,0.522391,1.577812,0.39793,0.0,-3.0868420000000003,0.040281,0.458756,0.561605,0.526427,1.575363,0.399673,0.0,-3.141302,-0.001131,0.50777,0.517478,3.0,1.0,111.0,0.0,1.0,-79947.0,-25376.0,14139.0,-78114.0,25644.0,13564.0,-0.958511,-0.180878,0.220317,-0.255997,0.206237,-0.944422,0.125387,-0.961639,-0.243984,-0.93612,0.21994,0.274418,0.30935,0.143827,0.940009,0.167277,0.964852,-0.202678,-0.958511,-0.180878,0.220317,-0.255997,0.206237,-0.944422,0.125387,-0.961639,-0.243984,-0.93612,0.21994,0.274418,0.30935,0.143827,0.940009,0.167277,0.964852,-0.202678,-79947.0,-25376.0,14139.0,-78114.0,25644.0,13564.0,18323.0,17343.0,-157769.0,0.0,-53977.0,-54039.0,-53668.0,-54239.0,-14998.0,-12619.0,155045.0,0.0,53525.0,53389.0,53762.0,53641.0,80.0,237.0,58.0,0.0,757.0,1043.0,607.0,-571.0,-54.0,-205.0,43.0,0.0,612.0,711.0,777.0,-988.0,-0.021756,-0.064203,-0.015832,0.0,0.027709,0.038188,-0.022241,-0.020895,-0.014665,-0.055714,0.011897,0.0,0.02241,0.026035,-0.028446,-0.036181,4076.460205,11514.870117,51295.230469,0.0,-17618.669922,-17614.349609,17881.832031,-17356.140625,4107.959961,11501.910156,51512.222656,0.0,17709.300781,17709.121094,-17448.390625,17976.599609,0.0,0.0,0.0,0.0,0.0,0.0,0.0,0.0,0.0,0.0,0.0,0.0,0.0,0.0,0.0,0.0,0.0,0.0,0.0,0.0,0.0,0.0,0.0,0.0,0.0,0.0,0.0,0.0,0.0,0.0,0.0,0.0,4074.61499,11510.977539,51284.578125,0.0,-17617.962891,-17616.630859,17878.933594,-17361.080078,4107.70752,11499.620117,51512.164062,0.0,17709.765625,17709.765625,-17453.302734,17966.859375,29.917233,90.371895,22.79512,0.0,3.17692,2.054453,26.089222,31.501581,30.16021,90.24308,22.8997,0.0,0.011677,0.006943,28.51074,28.601789,1.02,1.025,-63617.0,-145286.0,-412178.0,0.0,141786.0,141676.0,-145019.0,138607.0,-60642.0,-140418.0,-417313.0,0.0,-143245.0,-143379.0,140109.0,-146099.0,0.0,0.0,0.0,0.0,0.0,0.0,0.0,0.0,0.0,0.0,0.0,0.0,0.0,0.0,0.0,0.0,0.0,0.0,0.0,0.0,0.0,0.0,0.0,0.0
47,2.270888090133667,0.522391,1.577812,0.39793,0.0,-3.086548,0.040281,0.458756,0.561429,0.526427,1.575363,0.399673,0.0,-3.141302,-0.001131,0.507594,0.517129,3.0,1.0,111.0,0.0,1.0,-79946.0,-25376.0,14139.0,-78114.0,25644.0,13564.0,-0.958496,-0.181038,0.22025,-0.256003,0.206488,-0.944365,0.125487,-0.961555,-0.244265,-0.936139,0.219859,0.274418,0.309337,0.143854,0.940009,0.167194,0.964867,-0.202678,-0.958496,-0.181038,0.22025,-0.256003,0.206488,-0.944365,0.125487,-0.961555,-0.244265,-0.936139,0.219859,0.274418,0.309337,0.143854,0.940009,0.167194,0.964867,-0.202678,-79946.0,-25376.0,14139.0,-78114.0,25644.0,13564.0,18323.0,17343.0,-157769.0,0.0,-53976.0,-54039.0,-53668.0,-54240.0,-14998.0,-12619.0,155045.0,0.0,53525.0,53389.0,53763.0,53639.0,80.0,237.0,58.0,0.0,753.0,1042.0,609.0,-571.0,-54.0,-205.0,43.0,0.0,612.0,711.0,777.0,-989.0,-0.021756,-0.064203,-0.015832,0.0,0.027578,0.038147,-0.022294,-0.020905,-0.014665,-0.055714,0.011897,0.0,0.022418,0.026047,-0.028456,-0.036201,4076.460205,11514.870117,51295.230469,0.0,-17618.580078,-17614.349609,17881.832031,-17356.230469,4107.959961,11501.910156,51512.222656,0.0,17709.300781,17709.121094,-17448.480469,17976.419922,0.0,0.0,0.0,0.0,0.0,0.0,0.0,0.0,0.0,0.0,0.0,0.0,0.0,0.0,0.0,0.0,0.0,0.0,0.0,0.0,0.0,0.0,0.0,0.0,0.0,0.0,0.0,0.0,0.0,0.0,0.0,0.0,4074.61499,11510.977539,51284.578125,0.0,-17617.962891,-17616.630859,17878.933594,-17361.080078,4107.70752,11499.620117,51512.164062,0.0,17709.765625,17709.765625,-17453.302734,17966.859375,29.917233,90.371895,22.79512,0.0,3.17692,2.054453,26.089222,31.501581,30.16021,90.24308,22.8997,0.0,0.011677,0.006943,28.51074,28.601789,1.02,1.024,-63617.0,-145286.0,-412178.0,0.0,141786.0,141676.0,-145019.0,138607.0,-60642.0,-140418.0,-417313.0,0.0,-143245.0,-143379.0,140109.0,-146099.0,0.0,0.0,0.0,0.0,0.0,0.0,0.0,0.0,0.0,0.0,0.0,0.0,0.0,0.0,0.0,0.0,0.0,0.0,0.0,0.0,0.0,0.0,0.0,0.0
48,2.290900945663452,0.522391,1.577812,0.39793,0.0,-3.086548,0.040281,0.458756,0.561256,0.526427,1.575363,0.399673,0.0,-3.141302,-0.001131,0.507421,0.516782,3.0,1.0,111.0,0.0,1.0,-79946.0,-25376.0,14139.0,-78114.0,25644.0,13564.0,-0.958481,-0.181121,0.22025,-0.256021,0.206466,-0.944365,0.12557,-0.961544,-0.244265,-0.936158,0.219778,0.274418,0.309325,0.143881,0.940009,0.16711,0.964881,-0.202678,-0.958481,-0.181121,0.22025,-0.256021,0.206466,-0.944365,0.12557,-0.961544,-0.244265,-0.936158,0.219778,0.274418,0.309325,0.143881,0.940009,0.16711,0.964881,-0.202678,-79946.0,-25376.0,14139.0,-78114.0,25644.0,13564.0,18323.0,17343.0,-157769.0,0.0,-53976.0,-54039.0,-53668.0,-54241.0,-14998.0,-12619.0,155045.0,0.0,53525.0,53389.0,53764.0,53637.0,80.0,237.0,58.0,0.0,753.0,1041.0,610.0,-571.0,-54.0,-205.0,43.0,0.0,612.0,712.0,777.0,-989.0,-0.021756,-0.064203,-0.015832,0.0,0.027589,0.038107,-0.022345,-0.020911,-0.014665,-0.055714,0.011897,0.0,0.022427,0.026058,-0.028462,-0.03621,4076.460205,11514.870117,51295.230469,0.0,-17618.580078,-17614.349609,17881.832031,-17356.320312,4107.959961,11501.910156,51512.222656,0.0,17709.300781,17709.121094,-17448.570312,17976.242188,0.0,0.0,0.0,0.0,0.0,0.0,0.0,0.0,0.0,0.0,0.0,0.0,0.0,0.0,0.0,0.0,0.0,0.0,0.0,0.0,0.0,0.0,0.0,0.0,0.0,0.0,0.0,0.0,0.0,0.0,0.0,0.0,4074.61499,11510.977539,51284.578125,0.0,-17617.962891,-17616.630859,17878.933594,-17361.080078,4107.70752,11499.620117,51512.164062,0.0,17709.765625,17709.765625,-17453.302734,17966.859375,29.917233,90.371895,22.79512,0.0,3.17692,2.054453,26.089222,31.501581,30.16021,90.24308,22.8997,0.0,0.011677,0.006943,28.51074,28.601789,1.02,1.024,-63617.0,-145286.0,-412178.0,0.0,141786.0,141676.0,-145019.0,138607.0,-60642.0,-140418.0,-417313.0,0.0,-143245.0,-143379.0,140109.0,-146099.0,0.0,0.0,0.0,0.0,0.0,0.0,0.0,0.0,0.0,0.0,0.0,0.0,0.0,0.0,0.0,0.0,0.0,0.0,0.0,0.0,0.0,0.0,0.0,0.0
49,2.3109219074249268,0.522391,1.577812,0.39793,0.0,-3.086548,0.040281,0.45858,0.561079,0.526427,1.575363,0.399673,0.0,-3.141302,-0.001131,0.507244,0.516433,3.0,1.0,111.0,0.0,1.0,-79946.0,-25376.0,14139.0,-78114.0,25644.0,13564.0,-0.958481,-0.181121,0.22025,-0.256021,0.206466,-0.944365,0.12557,-0.961544,-0.244265,-0.936177,0.219697,0.274418,0.309312,0.143908,0.940009,0.167027,0.964896,-0.202678,-0.958481,-0.181121,0.22025,-0.256021,0.206466,-0.944365,0.12557,-0.961544,-0.244265,-0.936177,0.219697,0.274418,0.309312,0.143908,0.940009,0.167027,0.964896,-0.202678,-79946.0,-25376.0,14139.0,-78114.0,25644.0,13564.0,18323.0,17343.0,-157769.0,0.0,-53976.0,-54039.0,-53667.0,-54242.0,-14998.0,-12619.0,155045.0,0.0,53525.0,53389.0,53765.0,53635.0,80.0,237.0,58.0,0.0,754.0,1040.0,609.0,-571.0,-54.0,-205.0,43.0,0.0,613.0,712.0,777.0,-989.0,-0.021756,-0.064203,-0.015832,0.0,0.0276,0.038067,-0.022315,-0.020913,-0.014665,-0.055714,0.011897,0.0,0.022435,0.026069,-0.028464,-0.036215,4076.460205,11514.870117,51295.230469,0.0,-17618.580078,-17614.349609,17881.740234,-17356.410156,4107.959961,11501.910156,51512.222656,0.0,17709.300781,17709.121094,-17448.662109,17976.060547,0.0,0.0,0.0,0.0,0.0,0.0,0.0,0.0,0.0,0.0,0.0,0.0,0.0,0.0,0.0,0.0,0.0,0.0,0.0,0.0,0.0,0.0,0.0,0.0,0.0,0.0,0.0,0.0,0.0,0.0,0.0,0.0,4074.61499,11510.977539,51284.578125,0.0,-17617.962891,-17616.630859,17878.933594,-17361.080078,4107.70752,11499.620117,51512.164062,0.0,17709.765625,17709.765625,-17453.302734,17966.859375,29.917233,90.371895,22.79512,0.0,3.17692,2.054453,26.089222,31.501581,30.16021,90.24308,22.8997,0.0,0.011677,0.006943,28.51074,28.601789,1.019,1.023,-63617.0,-145286.0,-412178.0,0.0,141786.0,141676.0,-145019.0,138607.0,-60642.0,-140418.0,-417313.0,0.0,-143245.0,-143379.0,140109.0,-146099.0,0.0,0.0,0.0,0.0,0.0,0.0,0.0,0.0,0.0,0.0,0.0,0.0,0.0,0.0,0.0,0.0,0.0,0.0,0.0,0.0,0.0,0.0,0.0,0.0
50,2.332926988601685,0.522391,1.577812,0.39793,0.0,-3.086548,0.040281,0.45858,0.560906,0.526427,1.575363,0.399673,0.0,-3.141302,-0.001131,0.507071,0.516083,3.0,1.0,111.0,0.0,1.0,-79946.0,-25376.0,14139.0,-78114.0,25644.0,13564.0,-0.958465,-0.181204,0.22025,-0.256039,0.206444,-0.944365,0.125654,-0.961533,-0.244265,-0.936197,0.219615,0.274418,0.3093,0.143935,0.940009,0.166941,0.96491,-0.202678,-0.958465,-0.181204,0.22025,-0.256039,0.206444,-0.944365,0.125654,-0.961533,-0.244265,-0.936197,0.219615,0.274418,0.3093,0.143935,0.940009,0.166941,0.96491,-0.202678,-79946.0,-25376.0,14139.0,-78114.0,25644.0,13564.0,18323.0,17343.0,-157769.0,0.0,-53976.0,-54039.0,-53667.0,-54243.0,-14998.0,-12619.0,155045.0,0.0,53525.0,53389.0,53766.0,53633.0,80.0,237.0,58.0,0.0,754.0,1039.0,611.0,-571.0,-54.0,-205.0,43.0,0.0,613.0,712.0,778.0,-990.0,-0.021756,-0.064203,-0.015832,0.0,0.027612,0.038023,-0.022369,-0.020925,-0.014665,-0.055714,0.011897,0.0,0.022444,0.026082,-0.028475,-0.036232,4076.460205,11514.870117,51295.230469,0.0,-17618.580078,-17614.349609,17881.740234,-17356.5,4107.959961,11501.910156,51512.222656,0.0,17709.300781,17709.121094,-17448.75,17975.880859,0.0,0.0,0.0,0.0,0.0,0.0,0.0,0.0,0.0,0.0,0.0,0.0,0.0,0.0,0.0,0.0,0.0,0.0,0.0,0.0,0.0,0.0,0.0,0.0,0.0,0.0,0.0,0.0,0.0,0.0,0.0,0.0,4074.61499,11510.977539,51284.578125,0.0,-17617.962891,-17616.630859,17878.933594,-17361.080078,4107.70752,11499.620117,51512.164062,0.0,17709.765625,17709.765625,-17453.302734,17966.859375,29.917233,90.371895,22.79512,0.0,3.17692,2.054453,26.089222,31.501581,30.16021,90.24308,22.8997,0.0,0.011677,0.006943,28.51074,28.601789,1.019,1.023,-63617.0,-145286.0,-412178.0,0.0,141786.0,141676.0,-145019.0,138607.0,-60642.0,-140418.0,-417313.0,0.0,-143245.0,-143379.0,140109.0,-146099.0,0.0,0.0,0.0,0.0,0.0,0.0,0.0,0.0,0.0,0.0,0.0,0.0,0.0,0.0,0.0,0.0,0.0,0.0,0.0,0.0,0.0,0.0,0.0,0.0
