MHC-RobotSimulators-Research/Data_Analysis_MotionReplication/mai_plotter/offset_fixed/1arm__p2.csv
Unnamed: 0,time,jpos0,jpos1,jpos2,jpos3,jpos4,jpos5,jpos6,jpos7,jpos8,jpos9,jpos10,jpos11,jpos12,jpos13,jpos14,jpos15,runlevel,sublevel,last_seq,type0,type1,pos0,pos1,pos2,pos3,pos4,pos5,ori0,ori1,ori2,ori3,ori4,ori5,ori6,ori7,ori8,ori9,ori10,ori11,ori12,ori13,ori14,ori15,ori16,ori17,ori_d0,ori_d1,ori_d2,ori_d3,ori_d4,ori_d5,ori_d6,ori_d7,ori_d8,ori_d9,ori_d10,ori_d11,ori_d12,ori_d13,ori_d14,ori_d15,ori_d16,ori_d17,pos_d0,pos_d1,pos_d2,pos_d3,pos_d4,pos_d5,encVals0,encVals1,encVals2,encVals3,encVals4,encVals5,encVals6,encVals7,encVals8,encVals9,encVals10,encVals11,encVals12,encVals13,encVals14,encVals15,dac_vals0,dac_vals1,dac_vals2,dac_vals3,dac_vals4,dac_vals5,dac_vals6,dac_vals7,dac_vals8,dac_vals9,dac_vals10,dac_vals11,dac_vals12,dac_vals13,dac_vals14,dac_vals15,Tau0,Tau1,Tau2,Tau3,Tau4,Tau5,Tau6,Tau7,Tau8,Tau9,Tau10,Tau11,Tau12,Tau13,Tau14,Tau15,mpos0,mpos1,mpos2,mpos3,mpos4,mpos5,mpos6,mpos7,mpos8,mpos9,mpos10,mpos11,mpos12,mpos13,mpos14,mpos15,mvel0,mvel1,mvel2,mvel3,mvel4,mvel5,mvel6,mvel7,mvel8,mvel9,mvel10,mvel11,mvel12,mvel13,mvel14,mvel15,jvel0,jvel1,jvel2,jvel3,jvel4,jvel5,jvel6,jvel7,jvel8,jvel9,jvel10,jvel11,jvel12,jvel13,jvel14,jvel15,mpos_d0,mpos_d1,mpos_d2,mpos_d3,mpos_d4,mpos_d5,mpos_d6,mpos_d7,mpos_d8,mpos_d9,mpos_d10,mpos_d11,mpos_d12,mpos_d13,mpos_d14,mpos_d15,jpos_d0,jpos_d1,jpos_d2,jpos_d3,jpos_d4,jpos_d5,jpos_d6,jpos_d7,jpos_d8,jpos_d9,jpos_d10,jpos_d11,jpos_d12,jpos_d13,jpos_d14,jpos_d15,grasp_d0,grasp_d1,encoffsets0,encoffsets1,encoffsets2,encoffsets3,encoffsets4,encoffsets5,encoffsets6,encoffsets7,encoffsets8,encoffsets9,encoffsets10,encoffsets11,encoffsets12,encoffsets13,encoffsets14,encoffsets15,jac_vel0,jac_vel1,jac_vel2,jac_vel3,jac_vel4,jac_vel5,jac_vel6,jac_vel7,jac_vel8,jac_vel9,jac_vel10,jac_vel11,jac_f0,jac_f1,jac_f2,jac_f3,jac_f4,jac_f5,jac_f6,jac_f7,jac_f8,jac_f9,jac_f10,jac_f11
0,0.0,0.522391,1.576855,0.399544,0.0,-3.124177,0.004077,0.778588,0.783483,0.521191,1.576745,0.398482,0.0,-3.141728,0.00438,0.781277,0.79459,3.0,1.0,111.0,0.0,1.0,-78335.0,-25318.0,13694.0,-79364.0,25540.0,13861.0,-0.940081,-0.217256,0.262767,-0.299746,0.159364,-0.940614,0.162478,-0.963018,-0.214937,-0.938562,0.221791,0.264405,0.299664,0.143731,0.943156,0.17118,0.964443,-0.201363,-0.94007,-0.217054,0.262974,-0.299832,0.158911,-0.940664,0.162386,-0.963138,-0.214467,-0.938704,0.221577,0.264079,0.299293,0.143741,0.943272,0.171048,0.964491,-0.201247,-78308.0,-25305.0,13664.0,-79526.0,25569.0,13866.0,18323.0,17417.0,-159976.0,0.0,-54864.0,-55005.0,-56154.0,-53624.0,-15452.0,-12571.0,153368.0,0.0,52947.0,52844.0,51604.0,54635.0,45.0,214.0,-81.0,0.0,122.0,169.0,-57.0,484.0,-71.0,-212.0,-152.0,0.0,-510.0,-305.0,-543.0,-733.0,-0.01231,-0.057949,0.022182,0.0,0.00447,0.006209,0.002114,0.017727,-0.01939,-0.057381,-0.041295,0.0,-0.018693,-0.011162,0.01989,-0.026851,4076.460205,11508.209961,51493.863281,0.0,-17698.5,-17701.291016,18105.570312,-17300.791016,4067.100342,11506.230469,51361.292969,0.0,17657.279297,17660.070312,-17254.169922,18066.060547,0.0,0.0,0.0,0.0,0.0,0.0,0.0,0.0,0.0,0.0,0.0,0.0,0.0,0.0,0.0,0.0,0.0,0.0,0.0,0.0,0.0,0.0,0.0,0.0,0.0,0.0,0.0,0.0,0.0,0.0,0.0,0.0,4076.433105,11505.501953,51497.730469,0.0,-17698.728516,-17701.34375,18105.648438,-17300.904297,4065.639404,11503.614258,51340.910156,0.0,17657.375,17660.164062,-17254.140625,18066.099609,29.930578,90.32489,22.894142,0.0,0.86402,0.227833,44.621304,44.874706,29.851328,90.320877,22.822144,0.0,-0.081494,0.261296,44.761909,45.536236,1.562,1.576,-63617.0,-145286.0,-412178.0,0.0,141786.0,141676.0,-145019.0,138607.0,-60642.0,-140418.0,-417313.0,0.0,-143245.0,-143379.0,140109.0,-146099.0,0.0,0.0,0.0,0.0,0.0,0.0,0.0,0.0,0.0,0.0,0.0,0.0,0.0,0.0,0.0,0.0,0.0,0.0,0.0,0.0,0.0,0.0,0.0,0.0
1,1.376957893371582,0.522391,1.576855,0.399544,0.0,-3.124177,0.004077,0.522494,0.53088,0.521191,1.576745,0.398482,0.0,-3.1871430000000003,-0.025666,0.582133,0.459016,3.0,1.0,111.0,0.0,1.0,-78335.0,-25318.0,13694.0,-79259.0,25904.0,13767.0,-0.940459,-0.215614,0.262767,-0.299467,0.159887,-0.940614,0.160796,-0.9633,-0.214937,-0.944139,0.169745,0.282467,0.3145,0.208074,0.926172,0.09844,0.963271,-0.249836,-0.940459,-0.215614,0.262767,-0.299467,0.159887,-0.940614,0.160796,-0.9633,-0.214937,-0.944139,0.169745,0.282467,0.3145,0.208074,0.926172,0.09844,0.963271,-0.249836,-78335.0,-25318.0,13694.0,-79259.0,25904.0,13767.0,18323.0,17417.0,-159976.0,0.0,-54864.0,-55005.0,-54688.0,-55070.0,-15452.0,-12571.0,153368.0,0.0,52791.0,52672.0,52830.0,52800.0,45.0,214.0,-81.0,0.0,-121.0,123.0,682.0,-589.0,-71.0,-212.0,-152.0,0.0,-731.0,-612.0,823.0,-960.0,-0.01231,-0.057949,0.022182,0.0,-0.004435,0.004524,-0.024989,-0.021574,-0.01939,-0.057381,-0.041295,0.0,-0.026772,-0.022418,-0.030119,-0.035147,4076.460205,11508.209961,51493.863281,0.0,-17698.5,-17701.291016,17973.630859,-17430.931641,4067.100342,11506.230469,51361.292969,0.0,17643.240234,17644.591797,-17364.509766,17900.912109,0.0,0.0,0.0,0.0,0.0,0.0,-180.098419,-180.098419,0.0,0.0,0.0,0.0,0.0,-89.174942,-269.273376,-89.174942,0.0,0.0,0.0,0.0,0.0,0.0,-0.349569,-0.349569,0.0,0.0,0.0,0.0,0.0,-0.173088,-0.436113,-0.259631,4076.433105,11505.501953,51497.730469,0.0,-17702.708984,-17702.445312,17959.761719,-17445.505859,4065.639404,11503.614258,51340.910156,0.0,17640.503906,17638.986328,-17386.558594,17898.861328,29.930578,90.32489,22.894142,0.0,0.126422,0.105053,28.458467,28.732199,29.851328,90.320877,22.822144,0.0,-3.208301,-2.093817,31.213343,25.760136,1.053,1.041,-63617.0,-145286.0,-412178.0,0.0,141786.0,141676.0,-145019.0,138607.0,-60642.0,-140418.0,-417313.0,0.0,-143245.0,-143379.0,140109.0,-146099.0,0.0,0.0,0.0,0.0,0.0,-0.349569,0.0,-0.173088,0.0,-0.095165,-0.144579,-0.436113,0.0,0.0,0.0,0.0,0.0,-0.349569,0.0,-0.173088,0.0,-0.095165,-0.144579,-0.436113
2,1.3989338874816897,0.522391,1.576855,0.399544,0.0,-3.124177,0.004077,0.516904,0.526689,0.521191,1.576745,0.398482,0.0,-3.1880200000000003,-0.026015,0.573222,0.457616,3.0,1.0,111.0,0.0,1.0,-78335.0,-25318.0,13694.0,-79258.0,25909.0,13766.0,-0.94061,-0.214956,0.262767,-0.299355,0.160097,-0.940614,0.160123,-0.963412,-0.214937,-0.943415,0.173521,0.282593,0.315551,0.207727,0.925892,0.10196,0.962673,-0.250728,-0.94061,-0.214956,0.262767,-0.299355,0.160097,-0.940614,0.160123,-0.963412,-0.214937,-0.943415,0.173521,0.282593,0.315551,0.207727,0.925892,0.10196,0.962673,-0.250728,-78335.0,-25318.0,13694.0,-79258.0,25909.0,13766.0,18323.0,17417.0,-159976.0,0.0,-54864.0,-55005.0,-54656.0,-55094.0,-15452.0,-12571.0,153368.0,0.0,52788.0,52670.0,52882.0,52793.0,45.0,214.0,-81.0,0.0,-123.0,122.0,626.0,-550.0,-71.0,-212.0,-152.0,0.0,-721.0,-611.0,721.0,-946.0,-0.01231,-0.057949,0.022182,0.0,-0.004527,0.0045,-0.022909,-0.020142,-0.01939,-0.057381,-0.041295,0.0,-0.026397,-0.022367,-0.026406,-0.034626,4076.460205,11508.209961,51493.863281,0.0,-17698.5,-17701.291016,17970.75,-17433.089844,4067.100342,11506.230469,51361.292969,0.0,17642.970703,17644.410156,-17369.191406,17900.279297,0.0,0.0,0.0,0.0,0.0,0.0,-89.174942,-90.92347,0.0,0.0,0.0,0.0,0.0,0.0,-90.92347,0.0,0.0,0.0,0.0,0.0,0.0,0.0,-0.173088,-0.176481,0.0,0.0,0.0,0.0,0.0,0.0,-0.176481,0.0,4076.433105,11505.501953,51497.730469,0.0,-17702.714844,-17702.447266,17959.539062,-17445.724609,4065.639404,11503.614258,51340.910156,0.0,17640.503906,17638.986328,-17386.558594,17898.861328,29.930578,90.32489,22.894142,0.0,0.125306,0.104867,28.434015,28.707777,29.851328,90.320877,22.822144,0.0,-3.208301,-2.093817,31.213343,25.760136,1.043,1.03,-63617.0,-145286.0,-412178.0,0.0,141786.0,141676.0,-145019.0,138607.0,-60642.0,-140418.0,-417313.0,0.0,-143245.0,-143379.0,140109.0,-146099.0,0.0,0.0,0.0,0.0,0.0,-0.173088,0.0,0.0,0.0,0.0,0.0,-0.176481,0.0,0.0,0.0,0.0,0.0,-0.173088,0.0,0.0,0.0,0.0,0.0,-0.176481
3,1.418949842453003,0.522391,1.576855,0.399544,0.0,-3.124177,0.004077,0.515506,0.524591,0.521191,1.576745,0.398482,0.0,-3.188603,-0.026365,0.572348,0.457268,3.0,1.0,111.0,0.0,1.0,-78335.0,-25318.0,13694.0,-79257.0,25913.0,13764.0,-0.940535,-0.215285,0.262767,-0.299411,0.159992,-0.940614,0.16046,-0.963356,-0.214937,-0.943283,0.173925,0.282786,0.315895,0.208206,0.925668,0.102119,0.962497,-0.251339,-0.940535,-0.215285,0.262767,-0.299411,0.159992,-0.940614,0.16046,-0.963356,-0.214937,-0.943316,0.174004,0.282625,0.315753,0.208169,0.925724,0.102246,0.962491,-0.251312,-78335.0,-25318.0,13694.0,-79257.0,25911.0,13765.0,18323.0,17417.0,-159976.0,0.0,-54864.0,-55005.0,-54648.0,-55106.0,-15452.0,-12571.0,153368.0,0.0,52786.0,52668.0,52888.0,52792.0,45.0,214.0,-81.0,0.0,-125.0,122.0,613.0,-530.0,-71.0,-212.0,-152.0,0.0,-714.0,-609.0,716.0,-944.0,-0.01231,-0.057949,0.022182,0.0,-0.004601,0.00448,-0.022467,-0.019408,-0.01939,-0.057381,-0.041295,0.0,-0.026155,-0.022303,-0.026229,-0.034571,4076.460205,11508.209961,51493.863281,0.0,-17698.5,-17701.291016,17970.03125,-17434.171875,4067.100342,11506.230469,51361.292969,0.0,17642.789062,17644.230469,-17369.730469,17900.191406,0.0,0.0,0.0,0.0,0.0,0.0,0.0,0.0,0.0,0.0,0.0,0.0,0.0,-89.174942,0.0,0.0,0.0,0.0,0.0,0.0,0.0,0.0,0.0,0.0,0.0,0.0,0.0,0.0,0.0,-0.173088,0.086544,-0.086544,4076.433105,11505.501953,51497.730469,0.0,-17702.714844,-17702.447266,17959.539062,-17445.724609,4065.639404,11503.614258,51340.910156,0.0,17640.503906,17638.986328,-17386.558594,17898.861328,29.930578,90.32489,22.894142,0.0,0.125306,0.104867,28.434015,28.707777,29.851328,90.320877,22.822144,0.0,-3.208301,-2.093817,31.213343,25.760136,1.04,1.029,-63617.0,-145286.0,-412178.0,0.0,141786.0,141676.0,-145019.0,138607.0,-60642.0,-140418.0,-417313.0,0.0,-143245.0,-143379.0,140109.0,-146099.0,0.0,0.0,0.0,0.0,0.0,0.0,0.0,-0.173088,0.0,-0.093746,-0.145503,0.086544,0.0,0.0,0.0,0.0,0.0,0.0,0.0,-0.173088,0.0,-0.093746,-0.145503,0.086544
4,1.439945936203003,0.522391,1.576855,0.399544,0.0,-3.124177,0.004077,0.515506,0.524245,0.521191,1.576745,0.398482,0.0,-3.188891,-0.026542,0.572437,0.45683,3.0,1.0,111.0,0.0,1.0,-78335.0,-25318.0,13694.0,-79256.0,25915.0,13764.0,-0.940497,-0.215448,0.262767,-0.299439,0.15994,-0.940614,0.160626,-0.963328,-0.214937,-0.943285,0.173754,0.282885,0.315986,0.208567,0.925555,0.101819,0.96245,-0.251642,-0.940497,-0.215448,0.262767,-0.299439,0.15994,-0.940614,0.160626,-0.963328,-0.214937,-0.943285,0.173754,0.282885,0.315986,0.208567,0.925555,0.101819,0.96245,-0.251642,-78335.0,-25318.0,13694.0,-79256.0,25915.0,13764.0,18323.0,17417.0,-159976.0,0.0,-54864.0,-55005.0,-54648.0,-55108.0,-15452.0,-12571.0,153368.0,0.0,52785.0,52667.0,52888.0,52790.0,45.0,214.0,-81.0,0.0,-127.0,121.0,619.0,-531.0,-71.0,-212.0,-152.0,0.0,-712.0,-609.0,725.0,-941.0,-0.01231,-0.057949,0.022182,0.0,-0.004678,0.004459,-0.022659,-0.019461,-0.01939,-0.057381,-0.041295,0.0,-0.026056,-0.02232,-0.026538,-0.034436,4076.460205,11508.209961,51493.863281,0.0,-17698.5,-17701.291016,17970.03125,-17434.349609,4067.100342,11506.230469,51361.292969,0.0,17642.701172,17644.140625,-17369.730469,17900.009766,0.0,0.0,0.0,0.0,0.0,0.0,0.0,0.0,0.0,0.0,0.0,0.0,0.0,0.0,0.0,0.0,0.0,0.0,0.0,0.0,0.0,0.0,0.0,0.0,0.0,0.0,0.0,0.0,0.0,0.0,0.0,0.0,4076.433105,11505.501953,51497.730469,0.0,-17702.714844,-17702.447266,17959.539062,-17445.724609,4065.639404,11503.614258,51340.910156,0.0,17640.503906,17638.986328,-17386.558594,17898.861328,29.930578,90.32489,22.894142,0.0,0.125306,0.104867,28.434015,28.707777,29.851328,90.320877,22.822144,0.0,-3.208301,-2.093817,31.213343,25.760136,1.039,1.029,-63617.0,-145286.0,-412178.0,0.0,141786.0,141676.0,-145019.0,138607.0,-60642.0,-140418.0,-417313.0,0.0,-143245.0,-143379.0,140109.0,-146099.0,0.0,0.0,0.0,0.0,0.0,0.0,0.0,0.0,0.0,0.0,0.0,0.0,0.0,0.0,0.0,0.0,0.0,0.0,0.0,0.0,0.0,0.0,0.0,0.0
5,1.46091890335083,0.522391,1.576855,0.399544,0.0,-3.124177,0.004077,0.515329,0.524245,0.521191,1.576745,0.398482,0.0,-3.189185,-0.026715,0.572523,0.456567,3.0,1.0,111.0,0.0,1.0,-78335.0,-25318.0,13694.0,-79255.0,25917.0,13763.0,-0.940516,-0.215365,0.262767,-0.299425,0.159967,-0.940614,0.160541,-0.963342,-0.214937,-0.943272,0.173668,0.282979,0.316092,0.208906,0.925443,0.101604,0.962392,-0.25195,-0.940516,-0.215365,0.262767,-0.299425,0.159967,-0.940614,0.160541,-0.963342,-0.214937,-0.943272,0.173668,0.282979,0.316092,0.208906,0.925443,0.101604,0.962392,-0.25195,-78335.0,-25318.0,13694.0,-79255.0,25917.0,13763.0,18323.0,17417.0,-159976.0,0.0,-54864.0,-55005.0,-54647.0,-55108.0,-15452.0,-12571.0,153368.0,0.0,52784.0,52666.0,52888.0,52789.0,45.0,214.0,-81.0,0.0,-129.0,121.0,622.0,-537.0,-71.0,-212.0,-152.0,0.0,-709.0,-610.0,733.0,-939.0,-0.01231,-0.057949,0.022182,0.0,-0.004755,0.004437,-0.022771,-0.01967,-0.01939,-0.057381,-0.041295,0.0,-0.025953,-0.022336,-0.026846,-0.034377,4076.460205,11508.209961,51493.863281,0.0,-17698.5,-17701.291016,17969.939453,-17434.349609,4067.100342,11506.230469,51361.292969,0.0,17642.609375,17644.050781,-17369.730469,17899.919922,0.0,0.0,0.0,0.0,0.0,0.0,0.0,0.0,0.0,0.0,0.0,0.0,0.0,0.0,0.0,0.0,0.0,0.0,0.0,0.0,0.0,0.0,0.0,0.0,0.0,0.0,0.0,0.0,0.0,0.0,0.0,0.0,4076.433105,11505.501953,51497.730469,0.0,-17702.714844,-17702.447266,17959.539062,-17445.724609,4065.639404,11503.614258,51340.910156,0.0,17640.503906,17638.986328,-17386.558594,17898.861328,29.930578,90.32489,22.894142,0.0,0.125306,0.104867,28.434015,28.707777,29.851328,90.320877,22.822144,0.0,-3.208301,-2.093817,31.213343,25.760136,1.039,1.029,-63617.0,-145286.0,-412178.0,0.0,141786.0,141676.0,-145019.0,138607.0,-60642.0,-140418.0,-417313.0,0.0,-143245.0,-143379.0,140109.0,-146099.0,0.0,0.0,0.0,0.0,0.0,0.0,0.0,0.0,0.0,0.0,0.0,0.0,0.0,0.0,0.0,0.0,0.0,0.0,0.0,0.0,0.0,0.0,0.0,0.0
6,1.48191499710083,0.522391,1.576855,0.399544,0.0,-3.124177,0.004077,0.514983,0.524068,0.521191,1.576745,0.398482,0.0,-3.189185,-0.026891,0.572438,0.456306,3.0,1.0,111.0,0.0,1.0,-78335.0,-25318.0,13694.0,-79255.0,25919.0,13762.0,-0.940535,-0.215285,0.262767,-0.299411,0.159992,-0.940614,0.16046,-0.963356,-0.214937,-0.943238,0.173587,0.283143,0.316237,0.208943,0.925385,0.101474,0.962398,-0.251978,-0.940535,-0.215285,0.262767,-0.299411,0.159992,-0.940614,0.16046,-0.963356,-0.214937,-0.943238,0.173587,0.283143,0.316237,0.208943,0.925385,0.101474,0.962398,-0.251978,-78335.0,-25318.0,13694.0,-79255.0,25919.0,13762.0,18323.0,17417.0,-159976.0,0.0,-54864.0,-55005.0,-54645.0,-55109.0,-15452.0,-12571.0,153368.0,0.0,52784.0,52665.0,52889.0,52788.0,45.0,214.0,-81.0,0.0,-132.0,120.0,623.0,-541.0,-71.0,-212.0,-152.0,0.0,-710.0,-610.0,739.0,-937.0,-0.01231,-0.057949,0.022182,0.0,-0.004832,0.004416,-0.022805,-0.019797,-0.01939,-0.057381,-0.041295,0.0,-0.025991,-0.022349,-0.027076,-0.034318,4076.460205,11508.209961,51493.863281,0.0,-17698.5,-17701.291016,17969.761719,-17434.441406,4067.100342,11506.230469,51361.292969,0.0,17642.609375,17643.958984,-17369.820312,17899.830078,0.0,0.0,0.0,0.0,0.0,0.0,0.0,0.0,0.0,0.0,0.0,0.0,0.0,0.0,0.0,0.0,0.0,0.0,0.0,0.0,0.0,0.0,0.0,0.0,0.0,0.0,0.0,0.0,0.0,0.0,0.0,0.0,4076.433105,11505.501953,51497.730469,0.0,-17702.714844,-17702.447266,17959.539062,-17445.724609,4065.639404,11503.614258,51340.910156,0.0,17640.503906,17638.986328,-17386.558594,17898.861328,29.930578,90.32489,22.894142,0.0,0.125306,0.104867,28.434015,28.707777,29.851328,90.320877,22.822144,0.0,-3.208301,-2.093817,31.213343,25.760136,1.039,1.028,-63617.0,-145286.0,-412178.0,0.0,141786.0,141676.0,-145019.0,138607.0,-60642.0,-140418.0,-417313.0,0.0,-143245.0,-143379.0,140109.0,-146099.0,0.0,0.0,0.0,0.0,0.0,0.0,0.0,0.0,0.0,0.0,0.0,0.0,0.0,0.0,0.0,0.0,0.0,0.0,0.0,0.0,0.0,0.0,0.0,0.0
7,1.5019259452819824,0.522391,1.576855,0.399544,0.0,-3.124177,0.004077,0.514806,0.523895,0.521191,1.576745,0.398482,0.0,-3.189474,-0.027064,0.571999,0.456043,3.0,1.0,111.0,0.0,1.0,-78335.0,-25318.0,13694.0,-79254.0,25921.0,13762.0,-0.940535,-0.215284,0.262767,-0.299411,0.159993,-0.940614,0.160458,-0.963356,-0.214937,-0.94318,0.173748,0.283239,0.316398,0.209194,0.925273,0.101512,0.962315,-0.252281,-0.940535,-0.215284,0.262767,-0.299411,0.159993,-0.940614,0.160458,-0.963356,-0.214937,-0.94318,0.173748,0.283239,0.316398,0.209194,0.925273,0.101512,0.962315,-0.252281,-78335.0,-25318.0,13694.0,-79254.0,25921.0,13762.0,18323.0,17417.0,-159976.0,0.0,-54864.0,-55005.0,-54644.0,-55110.0,-15452.0,-12571.0,153368.0,0.0,52783.0,52664.0,52892.0,52787.0,45.0,214.0,-81.0,0.0,-134.0,120.0,625.0,-544.0,-71.0,-212.0,-152.0,0.0,-707.0,-610.0,741.0,-936.0,-0.01231,-0.057949,0.022182,0.0,-0.004906,0.004396,-0.022903,-0.019915,-0.01939,-0.057381,-0.041295,0.0,-0.025887,-0.022357,-0.02713,-0.034254,4076.460205,11508.209961,51493.863281,0.0,-17698.5,-17701.291016,17969.669922,-17434.529297,4067.100342,11506.230469,51361.292969,0.0,17642.521484,17643.871094,-17370.091797,17899.740234,0.0,0.0,0.0,0.0,0.0,0.0,0.0,0.0,0.0,0.0,0.0,0.0,0.0,0.0,-90.92347,0.0,0.0,0.0,0.0,0.0,0.0,0.0,0.0,0.0,0.0,0.0,0.0,0.0,0.0,0.0,-0.176481,0.0,4076.433105,11505.501953,51497.730469,0.0,-17702.714844,-17702.447266,17959.539062,-17445.724609,4065.639404,11503.614258,51340.910156,0.0,17640.503906,17638.986328,-17386.558594,17898.861328,29.930578,90.32489,22.894142,0.0,0.125306,0.104867,28.434015,28.707777,29.851328,90.320877,22.822144,0.0,-3.208301,-2.093817,31.213343,25.760136,1.038,1.028,-63617.0,-145286.0,-412178.0,0.0,141786.0,141676.0,-145019.0,138607.0,-60642.0,-140418.0,-417313.0,0.0,-143245.0,-143379.0,140109.0,-146099.0,0.0,0.0,0.0,0.0,0.0,0.0,0.0,0.0,0.0,0.0,0.0,-0.176481,0.0,0.0,0.0,0.0,0.0,0.0,0.0,0.0,0.0,0.0,0.0,-0.176481
8,1.5229508876800537,0.522391,1.576855,0.399544,0.0,-3.124177,0.004077,0.514457,0.523546,0.521191,1.576745,0.398482,0.0,-3.189474,-0.027241,0.571914,0.455782,3.0,1.0,111.0,0.0,1.0,-78335.0,-25318.0,13694.0,-79253.0,25923.0,13761.0,-0.940535,-0.215284,0.262767,-0.299411,0.159993,-0.940614,0.160458,-0.963356,-0.214937,-0.943145,0.173667,0.283403,0.316542,0.209231,0.925215,0.101383,0.962321,-0.252308,-0.940535,-0.215284,0.262767,-0.299411,0.159993,-0.940614,0.160458,-0.963356,-0.214937,-0.943145,0.173667,0.283403,0.316542,0.209231,0.925215,0.101383,0.962321,-0.252308,-78335.0,-25318.0,13694.0,-79253.0,25923.0,13761.0,18323.0,17417.0,-159976.0,0.0,-54864.0,-55005.0,-54642.0,-55112.0,-15452.0,-12571.0,153368.0,0.0,52783.0,52663.0,52893.0,52786.0,45.0,214.0,-81.0,0.0,-136.0,119.0,626.0,-545.0,-71.0,-212.0,-152.0,0.0,-708.0,-611.0,747.0,-934.0,-0.01231,-0.057949,0.022182,0.0,-0.004983,0.004375,-0.02293,-0.019961,-0.01939,-0.057381,-0.041295,0.0,-0.025924,-0.022366,-0.027354,-0.034192,4076.460205,11508.209961,51493.863281,0.0,-17698.5,-17701.291016,17969.490234,-17434.708984,4067.100342,11506.230469,51361.292969,0.0,17642.521484,17643.779297,-17370.179688,17899.650391,0.0,0.0,0.0,0.0,0.0,0.0,0.0,0.0,0.0,0.0,0.0,0.0,0.0,0.0,-89.174942,0.0,0.0,0.0,0.0,0.0,0.0,0.0,0.0,0.0,0.0,0.0,0.0,0.0,0.0,0.0,-0.173088,0.0,4076.433105,11505.501953,51497.730469,0.0,-17702.714844,-17702.447266,17959.539062,-17445.724609,4065.639404,11503.614258,51340.910156,0.0,17640.503906,17638.986328,-17386.558594,17898.861328,29.930578,90.32489,22.894142,0.0,0.125306,0.104867,28.434015,28.707777,29.851328,90.320877,22.822144,0.0,-3.208301,-2.093817,31.213343,25.760136,1.038,1.027,-63617.0,-145286.0,-412178.0,0.0,141786.0,141676.0,-145019.0,138607.0,-60642.0,-140418.0,-417313.0,0.0,-143245.0,-143379.0,140109.0,-146099.0,0.0,0.0,0.0,0.0,0.0,0.0,0.0,0.0,0.0,0.0,0.0,-0.173088,0.0,0.0,0.0,0.0,0.0,0.0,0.0,0.0,0.0,0.0,0.0,-0.173088
9,1.5429210662841797,0.522391,1.576855,0.399544,0.0,-3.124177,0.004077,0.514284,0.523196,0.521191,1.576745,0.398482,0.0,-3.189474,-0.027414,0.571651,0.455695,3.0,1.0,111.0,0.0,1.0,-78335.0,-25318.0,13694.0,-79253.0,25925.0,13761.0,-0.940516,-0.215367,0.262767,-0.299425,0.159966,-0.940614,0.160543,-0.963342,-0.214937,-0.943081,0.173753,0.283564,0.316721,0.209212,0.925158,0.101424,0.96231,-0.252336,-0.940516,-0.215367,0.262767,-0.299425,0.159966,-0.940614,0.160543,-0.963342,-0.214937,-0.943081,0.173753,0.283564,0.316721,0.209212,0.925158,0.101424,0.96231,-0.252336,-78335.0,-25318.0,13694.0,-79253.0,25925.0,13761.0,18323.0,17417.0,-159976.0,0.0,-54864.0,-55005.0,-54641.0,-55114.0,-15452.0,-12571.0,153368.0,0.0,52783.0,52662.0,52895.0,52786.0,45.0,214.0,-81.0,0.0,-138.0,119.0,629.0,-546.0,-71.0,-212.0,-152.0,0.0,-709.0,-611.0,751.0,-934.0,-0.01231,-0.057949,0.022182,0.0,-0.005057,0.004355,-0.023025,-0.019994,-0.01939,-0.057381,-0.041295,0.0,-0.02596,-0.022371,-0.027481,-0.034206,4076.460205,11508.209961,51493.863281,0.0,-17698.5,-17701.291016,17969.400391,-17434.890625,4067.100342,11506.230469,51361.292969,0.0,17642.521484,17643.691406,-17370.361328,17899.650391,0.0,0.0,0.0,0.0,0.0,0.0,0.0,0.0,0.0,0.0,0.0,0.0,0.0,0.0,0.0,0.0,0.0,0.0,0.0,0.0,0.0,0.0,0.0,0.0,0.0,0.0,0.0,0.0,0.0,0.0,0.0,0.0,4076.433105,11505.501953,51497.730469,0.0,-17702.714844,-17702.447266,17959.539062,-17445.724609,4065.639404,11503.614258,51340.910156,0.0,17640.503906,17638.986328,-17386.558594,17898.861328,29.930578,90.32489,22.894142,0.0,0.125306,0.104867,28.434015,28.707777,29.851328,90.320877,22.822144,0.0,-3.208301,-2.093817,31.213343,25.760136,1.037,1.027,-63617.0,-145286.0,-412178.0,0.0,141786.0,141676.0,-145019.0,138607.0,-60642.0,-140418.0,-417313.0,0.0,-143245.0,-143379.0,140109.0,-146099.0,0.0,0.0,0.0,0.0,0.0,0.0,0.0,0.0,0.0,0.0,0.0,0.0,0.0,0.0,0.0,0.0,0.0,0.0,0.0,0.0,0.0,0.0,0.0,0.0
10,1.5629119873046875,0.522391,1.576855,0.399544,0.0,-3.124177,0.004077,0.514107,0.522847,0.521191,1.576745,0.398482,0.0,-3.189768,-0.027587,0.571388,0.455435,3.0,1.0,111.0,0.0,1.0,-78335.0,-25318.0,13694.0,-79252.0,25927.0,13760.0,-0.940497,-0.215448,0.262767,-0.299439,0.15994,-0.940614,0.160626,-0.963328,-0.214937,-0.943038,0.173834,0.283658,0.316864,0.209495,0.925046,0.101379,0.962234,-0.252643,-0.940497,-0.215448,0.262767,-0.299439,0.15994,-0.940614,0.160626,-0.963328,-0.214937,-0.943038,0.173834,0.283658,0.316864,0.209495,0.925046,0.101379,0.962234,-0.252643,-78335.0,-25318.0,13694.0,-79252.0,25927.0,13760.0,18323.0,17417.0,-159976.0,0.0,-54864.0,-55005.0,-54640.0,-55116.0,-15452.0,-12571.0,153368.0,0.0,52782.0,52661.0,52897.0,52785.0,45.0,214.0,-81.0,0.0,-140.0,118.0,631.0,-547.0,-71.0,-212.0,-152.0,0.0,-706.0,-611.0,754.0,-933.0,-0.01231,-0.057949,0.022182,0.0,-0.00513,0.004334,-0.023116,-0.020024,-0.01939,-0.057381,-0.041295,0.0,-0.025851,-0.022374,-0.027605,-0.034141,4076.460205,11508.209961,51493.863281,0.0,-17698.5,-17701.291016,17969.310547,-17435.070312,4067.100342,11506.230469,51361.292969,0.0,17642.429688,17643.601562,-17370.541016,17899.560547,0.0,0.0,0.0,0.0,0.0,0.0,0.0,0.0,0.0,0.0,0.0,0.0,0.0,0.0,0.0,0.0,0.0,0.0,0.0,0.0,0.0,0.0,0.0,0.0,0.0,0.0,0.0,0.0,0.0,0.0,0.0,0.0,4076.433105,11505.501953,51497.730469,0.0,-17702.714844,-17702.447266,17959.539062,-17445.724609,4065.639404,11503.614258,51340.910156,0.0,17640.503906,17638.986328,-17386.558594,17898.861328,29.930578,90.32489,22.894142,0.0,0.125306,0.104867,28.434015,28.707777,29.851328,90.320877,22.822144,0.0,-3.208301,-2.093817,31.213343,25.760136,1.036,1.026,-63617.0,-145286.0,-412178.0,0.0,141786.0,141676.0,-145019.0,138607.0,-60642.0,-140418.0,-417313.0,0.0,-143245.0,-143379.0,140109.0,-146099.0,0.0,0.0,0.0,0.0,0.0,0.0,0.0,0.0,0.0,0.0,0.0,0.0,0.0,0.0,0.0,0.0,0.0,0.0,0.0,0.0,0.0,0.0,0.0,0.0
11,1.584920883178711,0.522391,1.576855,0.399544,0.0,-3.124177,0.004077,0.513758,0.522321,0.521191,1.576745,0.398482,0.0,-3.189768,-0.027763,0.571127,0.455347,3.0,1.0,111.0,0.0,1.0,-78335.0,-25318.0,13694.0,-79251.0,25929.0,13759.0,-0.940478,-0.215531,0.262767,-0.299453,0.159914,-0.940614,0.160711,-0.963314,-0.214937,-0.942973,0.173918,0.283823,0.317045,0.209477,0.924988,0.101418,0.962222,-0.252671,-0.940478,-0.215531,0.262767,-0.299453,0.159914,-0.940614,0.160711,-0.963314,-0.214937,-0.942973,0.173918,0.283823,0.317045,0.209477,0.924988,0.101418,0.962222,-0.252671,-78335.0,-25318.0,13694.0,-79251.0,25929.0,13759.0,18323.0,17417.0,-159976.0,0.0,-54864.0,-55005.0,-54638.0,-55119.0,-15452.0,-12571.0,153368.0,0.0,52782.0,52660.0,52899.0,52785.0,45.0,214.0,-81.0,0.0,-142.0,117.0,632.0,-546.0,-71.0,-212.0,-152.0,0.0,-707.0,-611.0,758.0,-933.0,-0.01231,-0.057949,0.022182,0.0,-0.005211,0.004312,-0.023145,-0.019989,-0.01939,-0.057381,-0.041295,0.0,-0.025888,-0.022381,-0.027754,-0.034155,4076.460205,11508.209961,51493.863281,0.0,-17698.5,-17701.291016,17969.130859,-17435.341797,4067.100342,11506.230469,51361.292969,0.0,17642.429688,17643.509766,-17370.720703,17899.560547,0.0,0.0,0.0,0.0,0.0,0.0,0.0,0.0,0.0,0.0,0.0,0.0,0.0,0.0,0.0,0.0,0.0,0.0,0.0,0.0,0.0,0.0,0.0,0.0,0.0,0.0,0.0,0.0,0.0,0.0,0.0,0.0,4076.433105,11505.501953,51497.730469,0.0,-17702.714844,-17702.447266,17959.539062,-17445.724609,4065.639404,11503.614258,51340.910156,0.0,17640.503906,17638.986328,-17386.558594,17898.861328,29.930578,90.32489,22.894142,0.0,0.125306,0.104867,28.434015,28.707777,29.851328,90.320877,22.822144,0.0,-3.208301,-2.093817,31.213343,25.760136,1.036,1.026,-63617.0,-145286.0,-412178.0,0.0,141786.0,141676.0,-145019.0,138607.0,-60642.0,-140418.0,-417313.0,0.0,-143245.0,-143379.0,140109.0,-146099.0,0.0,0.0,0.0,0.0,0.0,0.0,0.0,0.0,0.0,0.0,0.0,0.0,0.0,0.0,0.0,0.0,0.0,0.0,0.0,0.0,0.0,0.0,0.0,0.0
12,1.6059138774871826,0.522391,1.576855,0.399544,0.0,-3.124177,0.004077,0.513585,0.521971,0.521191,1.576745,0.398482,0.0,-3.1900560000000002,-0.027936,0.570864,0.455084,3.0,1.0,111.0,0.0,1.0,-78335.0,-25318.0,13694.0,-79251.0,25932.0,13759.0,-0.940459,-0.215614,0.262767,-0.299467,0.159887,-0.940614,0.160796,-0.9633,-0.214937,-0.94293,0.173995,0.283918,0.317187,0.209755,0.924876,0.10137,0.962148,-0.252974,-0.940459,-0.215614,0.262767,-0.299467,0.159887,-0.940614,0.160796,-0.9633,-0.214937,-0.94293,0.173995,0.283918,0.317187,0.209755,0.924876,0.10137,0.962148,-0.252974,-78335.0,-25318.0,13694.0,-79251.0,25932.0,13759.0,18323.0,17417.0,-159976.0,0.0,-54864.0,-55005.0,-54637.0,-55121.0,-15452.0,-12571.0,153368.0,0.0,52781.0,52659.0,52901.0,52784.0,45.0,214.0,-81.0,0.0,-144.0,117.0,635.0,-547.0,-71.0,-212.0,-152.0,0.0,-704.0,-611.0,762.0,-931.0,-0.01231,-0.057949,0.022182,0.0,-0.005288,0.004291,-0.023242,-0.020021,-0.01939,-0.057381,-0.041295,0.0,-0.025782,-0.022385,-0.027886,-0.034087,4076.460205,11508.209961,51493.863281,0.0,-17698.5,-17701.291016,17969.041016,-17435.521484,4067.100342,11506.230469,51361.292969,0.0,17642.339844,17643.421875,-17370.900391,17899.470703,0.0,0.0,0.0,0.0,0.0,0.0,0.0,0.0,0.0,0.0,0.0,0.0,0.0,0.0,0.0,0.0,0.0,0.0,0.0,0.0,0.0,0.0,0.0,0.0,0.0,0.0,0.0,0.0,0.0,0.0,0.0,0.0,4076.433105,11505.501953,51497.730469,0.0,-17702.714844,-17702.447266,17959.539062,-17445.724609,4065.639404,11503.614258,51340.910156,0.0,17640.503906,17638.986328,-17386.558594,17898.861328,29.930578,90.32489,22.894142,0.0,0.125306,0.104867,28.434015,28.707777,29.851328,90.320877,22.822144,0.0,-3.208301,-2.093817,31.213343,25.760136,1.035,1.025,-63617.0,-145286.0,-412178.0,0.0,141786.0,141676.0,-145019.0,138607.0,-60642.0,-140418.0,-417313.0,0.0,-143245.0,-143379.0,140109.0,-146099.0,0.0,0.0,0.0,0.0,0.0,0.0,0.0,0.0,0.0,0.0,0.0,0.0,0.0,0.0,0.0,0.0,0.0,0.0,0.0,0.0,0.0,0.0,0.0,0.0
13,1.6258840560913086,0.522391,1.576855,0.399544,0.0,-3.124177,0.004077,0.513235,0.521622,0.521191,1.576745,0.398482,0.0,-3.1900560000000002,-0.028113,0.570602,0.454996,3.0,1.0,111.0,0.0,1.0,-78335.0,-25318.0,13694.0,-79250.0,25934.0,13758.0,-0.940459,-0.215614,0.262767,-0.299467,0.159887,-0.940614,0.160796,-0.9633,-0.214937,-0.942865,0.174079,0.284082,0.317368,0.209737,0.924818,0.101409,0.962136,-0.253001,-0.940459,-0.215614,0.262767,-0.299467,0.159887,-0.940614,0.160796,-0.9633,-0.214937,-0.942865,0.174079,0.284082,0.317368,0.209737,0.924818,0.101409,0.962136,-0.253001,-78335.0,-25318.0,13694.0,-79250.0,25934.0,13758.0,18323.0,17417.0,-159976.0,0.0,-54864.0,-55005.0,-54635.0,-55123.0,-15452.0,-12571.0,153368.0,0.0,52781.0,52658.0,52903.0,52784.0,45.0,214.0,-81.0,0.0,-146.0,116.0,635.0,-547.0,-71.0,-212.0,-152.0,0.0,-705.0,-611.0,765.0,-931.0,-0.01231,-0.057949,0.022182,0.0,-0.005362,0.004271,-0.023249,-0.020041,-0.01939,-0.057381,-0.041295,0.0,-0.025814,-0.022382,-0.028,-0.034098,4076.460205,11508.209961,51493.863281,0.0,-17698.5,-17701.291016,17968.861328,-17435.701172,4067.100342,11506.230469,51361.292969,0.0,17642.339844,17643.330078,-17371.080078,17899.470703,0.0,0.0,0.0,0.0,0.0,0.0,0.0,0.0,0.0,0.0,0.0,0.0,0.0,0.0,0.0,0.0,0.0,0.0,0.0,0.0,0.0,0.0,0.0,0.0,0.0,0.0,0.0,0.0,0.0,0.0,0.0,0.0,4076.433105,11505.501953,51497.730469,0.0,-17702.714844,-17702.447266,17959.539062,-17445.724609,4065.639404,11503.614258,51340.910156,0.0,17640.503906,17638.986328,-17386.558594,17898.861328,29.930578,90.32489,22.894142,0.0,0.125306,0.104867,28.434015,28.707777,29.851328,90.320877,22.822144,0.0,-3.208301,-2.093817,31.213343,25.760136,1.034,1.025,-63617.0,-145286.0,-412178.0,0.0,141786.0,141676.0,-145019.0,138607.0,-60642.0,-140418.0,-417313.0,0.0,-143245.0,-143379.0,140109.0,-146099.0,0.0,0.0,0.0,0.0,0.0,0.0,0.0,0.0,0.0,0.0,0.0,0.0,0.0,0.0,0.0,0.0,0.0,0.0,0.0,0.0,0.0,0.0,0.0,0.0
14,1.646949052810669,0.522391,1.576855,0.399544,0.0,-3.124177,0.004077,0.513059,0.521272,0.521191,1.576745,0.398482,0.0,-3.1900560000000002,-0.028113,0.57008,0.454823,3.0,1.0,111.0,0.0,1.0,-78335.0,-25318.0,13694.0,-79250.0,25934.0,13758.0,-0.940441,-0.215695,0.262767,-0.299481,0.159861,-0.940614,0.16088,-0.963286,-0.214937,-0.942834,0.174244,0.284082,0.317405,0.209682,0.924818,0.101577,0.962119,-0.253001,-0.940441,-0.215695,0.262767,-0.299481,0.159861,-0.940614,0.16088,-0.963286,-0.214937,-0.942834,0.174244,0.284082,0.317405,0.209682,0.924818,0.101577,0.962119,-0.253001,-78335.0,-25318.0,13694.0,-79250.0,25934.0,13758.0,18323.0,17417.0,-159976.0,0.0,-54864.0,-55005.0,-54634.0,-55125.0,-15452.0,-12571.0,153368.0,0.0,52781.0,52658.0,52906.0,52783.0,45.0,214.0,-81.0,0.0,-148.0,116.0,637.0,-548.0,-71.0,-212.0,-152.0,0.0,-706.0,-613.0,766.0,-929.0,-0.01231,-0.057949,0.022182,0.0,-0.005439,0.004249,-0.02334,-0.020066,-0.01939,-0.057381,-0.041295,0.0,-0.025848,-0.022461,-0.028046,-0.03403,4076.460205,11508.209961,51493.863281,0.0,-17698.5,-17701.291016,17968.769531,-17435.880859,4067.100342,11506.230469,51361.292969,0.0,17642.339844,17643.330078,-17371.349609,17899.380859,0.0,0.0,0.0,0.0,0.0,0.0,0.0,0.0,0.0,0.0,0.0,0.0,0.0,0.0,0.0,0.0,0.0,0.0,0.0,0.0,0.0,0.0,0.0,0.0,0.0,0.0,0.0,0.0,0.0,0.0,0.0,0.0,4076.433105,11505.501953,51497.730469,0.0,-17702.714844,-17702.447266,17959.539062,-17445.724609,4065.639404,11503.614258,51340.910156,0.0,17640.503906,17638.986328,-17386.558594,17898.861328,29.930578,90.32489,22.894142,0.0,0.125306,0.104867,28.434015,28.707777,29.851328,90.320877,22.822144,0.0,-3.208301,-2.093817,31.213343,25.760136,1.034,1.024,-63617.0,-145286.0,-412178.0,0.0,141786.0,141676.0,-145019.0,138607.0,-60642.0,-140418.0,-417313.0,0.0,-143245.0,-143379.0,140109.0,-146099.0,0.0,0.0,0.0,0.0,0.0,0.0,0.0,0.0,0.0,0.0,0.0,0.0,0.0,0.0,0.0,0.0,0.0,0.0,0.0,0.0,0.0,0.0,0.0,0.0
15,1.6669199466705322,0.522391,1.576855,0.399544,0.0,-3.124177,0.004077,0.512709,0.520926,0.521191,1.576745,0.398482,0.0,-3.19035,-0.028286,0.569817,0.454736,3.0,1.0,111.0,0.0,1.0,-78335.0,-25318.0,13694.0,-79250.0,25936.0,13757.0,-0.940441,-0.215694,0.262767,-0.299481,0.159862,-0.940614,0.160878,-0.963286,-0.214937,-0.942776,0.174406,0.284177,0.317566,0.209937,0.924704,0.101615,0.962034,-0.253309,-0.940441,-0.215694,0.262767,-0.299481,0.159862,-0.940614,0.160878,-0.963286,-0.214937,-0.942776,0.174406,0.284177,0.317566,0.209937,0.924704,0.101615,0.962034,-0.253309,-78335.0,-25318.0,13694.0,-79250.0,25936.0,13757.0,18323.0,17417.0,-159976.0,0.0,-54864.0,-55005.0,-54632.0,-55127.0,-15452.0,-12571.0,153368.0,0.0,52780.0,52657.0,52908.0,52783.0,45.0,214.0,-81.0,0.0,-150.0,115.0,637.0,-548.0,-71.0,-212.0,-152.0,0.0,-703.0,-613.0,769.0,-930.0,-0.01231,-0.057949,0.022182,0.0,-0.005513,0.004229,-0.023342,-0.02008,-0.01939,-0.057381,-0.041295,0.0,-0.025736,-0.022458,-0.028153,-0.03404,4076.460205,11508.209961,51493.863281,0.0,-17698.5,-17701.291016,17968.589844,-17436.060547,4067.100342,11506.230469,51361.292969,0.0,17642.25,17643.240234,-17371.529297,17899.380859,0.0,0.0,0.0,0.0,0.0,0.0,-90.92347,-89.174942,0.0,0.0,0.0,0.0,0.0,0.0,0.0,0.0,0.0,0.0,0.0,0.0,0.0,0.0,-0.176481,-0.173088,0.0,0.0,0.0,0.0,0.0,0.0,0.0,0.0,4076.433105,11505.501953,51497.730469,0.0,-17702.714844,-17702.447266,17959.539062,-17445.724609,4065.639404,11503.614258,51340.910156,0.0,17640.503906,17638.986328,-17386.558594,17898.861328,29.930578,90.32489,22.894142,0.0,0.125306,0.104867,28.434015,28.707777,29.851328,90.320877,22.822144,0.0,-3.208301,-2.093817,31.213343,25.760136,1.033,1.024,-63617.0,-145286.0,-412178.0,0.0,141786.0,141676.0,-145019.0,138607.0,-60642.0,-140418.0,-417313.0,0.0,-143245.0,-143379.0,140109.0,-146099.0,0.0,0.0,0.0,0.0,0.0,-0.176481,0.0,0.0,0.0,0.0,0.0,0.0,0.0,0.0,0.0,0.0,0.0,-0.176481,0.0,0.0,0.0,0.0,0.0,0.0
16,1.6869149208068848,0.522391,1.576855,0.399544,0.0,-3.124177,0.004077,0.512536,0.520749,0.521191,1.576745,0.398482,0.0,-3.19035,-0.028286,0.569117,0.45456,3.0,1.0,111.0,0.0,1.0,-78335.0,-25318.0,13694.0,-79250.0,25936.0,13757.0,-0.940441,-0.215695,0.262767,-0.299481,0.159861,-0.940614,0.16088,-0.963286,-0.214937,-0.94273,0.174652,0.284177,0.317621,0.209854,0.924704,0.101866,0.962007,-0.253309,-0.940441,-0.215695,0.262767,-0.299481,0.159861,-0.940614,0.16088,-0.963286,-0.214937,-0.94273,0.174652,0.284177,0.317621,0.209854,0.924704,0.101866,0.962007,-0.253309,-78335.0,-25318.0,13694.0,-79250.0,25936.0,13757.0,18323.0,17417.0,-159976.0,0.0,-54864.0,-55005.0,-54631.0,-55128.0,-15452.0,-12571.0,153368.0,0.0,52780.0,52657.0,52912.0,52782.0,45.0,214.0,-81.0,0.0,-152.0,115.0,640.0,-551.0,-71.0,-212.0,-152.0,0.0,-704.0,-615.0,767.0,-928.0,-0.01231,-0.057949,0.022182,0.0,-0.005586,0.004209,-0.023422,-0.020169,-0.01939,-0.057381,-0.041295,0.0,-0.025767,-0.022532,-0.028097,-0.033969,4076.460205,11508.209961,51493.863281,0.0,-17698.5,-17701.291016,17968.5,-17436.150391,4067.100342,11506.230469,51361.292969,0.0,17642.25,17643.240234,-17371.890625,17899.291016,0.0,0.0,0.0,0.0,0.0,0.0,0.0,0.0,0.0,0.0,0.0,0.0,0.0,0.0,0.0,0.0,0.0,0.0,0.0,0.0,0.0,0.0,0.0,0.0,0.0,0.0,0.0,0.0,0.0,0.0,0.0,0.0,4076.433105,11505.501953,51497.730469,0.0,-17702.714844,-17702.447266,17959.539062,-17445.724609,4065.639404,11503.614258,51340.910156,0.0,17640.503906,17638.986328,-17386.558594,17898.861328,29.930578,90.32489,22.894142,0.0,0.125306,0.104867,28.434015,28.707777,29.851328,90.320877,22.822144,0.0,-3.208301,-2.093817,31.213343,25.760136,1.033,1.023,-63617.0,-145286.0,-412178.0,0.0,141786.0,141676.0,-145019.0,138607.0,-60642.0,-140418.0,-417313.0,0.0,-143245.0,-143379.0,140109.0,-146099.0,0.0,0.0,0.0,0.0,0.0,0.0,0.0,0.0,0.0,0.0,0.0,0.0,0.0,0.0,0.0,0.0,0.0,0.0,0.0,0.0,0.0,0.0,0.0,0.0
17,1.706908941268921,0.522391,1.576855,0.399544,0.0,-3.124177,0.004077,0.512186,0.520576,0.521191,1.576745,0.398482,0.0,-3.19035,-0.028462,0.568507,0.454472,3.0,1.0,111.0,0.0,1.0,-78335.0,-25318.0,13694.0,-79249.0,25938.0,13757.0,-0.94046,-0.215612,0.262767,-0.299467,0.159888,-0.940614,0.160795,-0.9633,-0.214937,-0.942634,0.174901,0.284341,0.317839,0.20978,0.924646,0.102073,0.961978,-0.253337,-0.94046,-0.215612,0.262767,-0.299467,0.159888,-0.940614,0.160795,-0.9633,-0.214937,-0.942634,0.174901,0.284341,0.317839,0.20978,0.924646,0.102073,0.961978,-0.253337,-78335.0,-25318.0,13694.0,-79249.0,25938.0,13757.0,18323.0,17417.0,-159976.0,0.0,-54864.0,-55005.0,-54629.0,-55129.0,-15452.0,-12571.0,153368.0,0.0,52780.0,52656.0,52916.0,52782.0,45.0,214.0,-81.0,0.0,-154.0,114.0,640.0,-553.0,-71.0,-212.0,-152.0,0.0,-705.0,-615.0,766.0,-928.0,-0.01231,-0.057949,0.022182,0.0,-0.00566,0.004189,-0.023419,-0.020258,-0.01939,-0.057381,-0.041295,0.0,-0.025797,-0.022526,-0.028036,-0.033976,4076.460205,11508.209961,51493.863281,0.0,-17698.5,-17701.291016,17968.320312,-17436.240234,4067.100342,11506.230469,51361.292969,0.0,17642.25,17643.150391,-17372.25,17899.291016,0.0,0.0,0.0,0.0,0.0,0.0,0.0,0.0,0.0,0.0,0.0,0.0,0.0,0.0,0.0,0.0,0.0,0.0,0.0,0.0,0.0,0.0,0.0,0.0,0.0,0.0,0.0,0.0,0.0,0.0,0.0,0.0,4076.433105,11505.501953,51497.730469,0.0,-17702.714844,-17702.447266,17959.539062,-17445.724609,4065.639404,11503.614258,51340.910156,0.0,17640.503906,17638.986328,-17386.558594,17898.861328,29.930578,90.32489,22.894142,0.0,0.125306,0.104867,28.434015,28.707777,29.851328,90.320877,22.822144,0.0,-3.208301,-2.093817,31.213343,25.760136,1.032,1.022,-63617.0,-145286.0,-412178.0,0.0,141786.0,141676.0,-145019.0,138607.0,-60642.0,-140418.0,-417313.0,0.0,-143245.0,-143379.0,140109.0,-146099.0,0.0,0.0,0.0,0.0,0.0,0.0,0.0,0.0,0.0,0.0,0.0,0.0,0.0,0.0,0.0,0.0,0.0,0.0,0.0,0.0,0.0,0.0,0.0,0.0
18,1.7289488315582275,0.522391,1.576855,0.399544,0.0,-3.124177,0.004077,0.511837,0.5204,0.521191,1.576745,0.398482,0.0,-3.190639,-0.028462,0.567984,0.454472,3.0,1.0,111.0,0.0,1.0,-78335.0,-25318.0,13694.0,-79249.0,25938.0,13757.0,-0.940478,-0.215531,0.262767,-0.299453,0.159914,-0.940614,0.160711,-0.963314,-0.214937,-0.942595,0.175222,0.284275,0.317877,0.209966,0.924591,0.10232,0.961879,-0.253612,-0.940478,-0.215531,0.262767,-0.299453,0.159914,-0.940614,0.160711,-0.963314,-0.214937,-0.942595,0.175222,0.284275,0.317877,0.209966,0.924591,0.10232,0.961879,-0.253612,-78335.0,-25318.0,13694.0,-79249.0,25938.0,13757.0,18323.0,17417.0,-159976.0,0.0,-54864.0,-55005.0,-54627.0,-55130.0,-15452.0,-12571.0,153368.0,0.0,52779.0,52656.0,52919.0,52782.0,45.0,214.0,-81.0,0.0,-156.0,113.0,640.0,-556.0,-71.0,-212.0,-152.0,0.0,-702.0,-617.0,767.0,-928.0,-0.01231,-0.057949,0.022182,0.0,-0.005741,0.004167,-0.023429,-0.020359,-0.01939,-0.057381,-0.041295,0.0,-0.02569,-0.022606,-0.028072,-0.033984,4076.460205,11508.209961,51493.863281,0.0,-17698.5,-17701.291016,17968.140625,-17436.330078,4067.100342,11506.230469,51361.292969,0.0,17642.160156,17643.150391,-17372.519531,17899.291016,0.0,0.0,0.0,0.0,0.0,0.0,0.0,0.0,0.0,0.0,0.0,0.0,0.0,0.0,0.0,0.0,0.0,0.0,0.0,0.0,0.0,0.0,0.0,0.0,0.0,0.0,0.0,0.0,0.0,0.0,0.0,0.0,4076.433105,11505.501953,51497.730469,0.0,-17702.714844,-17702.447266,17959.539062,-17445.724609,4065.639404,11503.614258,51340.910156,0.0,17640.503906,17638.986328,-17386.558594,17898.861328,29.930578,90.32489,22.894142,0.0,0.125306,0.104867,28.434015,28.707777,29.851328,90.320877,22.822144,0.0,-3.208301,-2.093817,31.213343,25.760136,1.032,1.022,-63617.0,-145286.0,-412178.0,0.0,141786.0,141676.0,-145019.0,138607.0,-60642.0,-140418.0,-417313.0,0.0,-143245.0,-143379.0,140109.0,-146099.0,0.0,0.0,0.0,0.0,0.0,0.0,0.0,0.0,0.0,0.0,0.0,0.0,0.0,0.0,0.0,0.0,0.0,0.0,0.0,0.0,0.0,0.0,0.0,0.0
19,1.7489140033721924,0.522391,1.576855,0.399544,0.0,-3.124177,0.004077,0.511664,0.52005,0.521191,1.576745,0.398482,0.0,-3.190639,-0.028636,0.567721,0.454212,3.0,1.0,111.0,0.0,1.0,-78335.0,-25318.0,13694.0,-79248.0,25940.0,13756.0,-0.940459,-0.215614,0.262767,-0.299467,0.159887,-0.940614,0.160796,-0.9633,-0.214937,-0.942545,0.175226,0.284436,0.318037,0.209975,0.924534,0.102278,0.961876,-0.253639,-0.940478,-0.215531,0.262767,-0.299453,0.159914,-0.940614,0.160711,-0.963314,-0.214937,-0.942545,0.175226,0.284436,0.318037,0.209975,0.924534,0.102278,0.961876,-0.253639,-78335.0,-25318.0,13694.0,-79248.0,25940.0,13756.0,18323.0,17417.0,-159976.0,0.0,-54864.0,-55005.0,-54626.0,-55132.0,-15452.0,-12571.0,153368.0,0.0,52779.0,52655.0,52921.0,52781.0,45.0,214.0,-81.0,0.0,-158.0,113.0,642.0,-556.0,-71.0,-212.0,-152.0,0.0,-702.0,-617.0,769.0,-926.0,-0.01231,-0.057949,0.022182,0.0,-0.005815,0.004146,-0.023501,-0.020365,-0.01939,-0.057381,-0.041295,0.0,-0.025719,-0.0226,-0.028158,-0.033912,4076.460205,11508.209961,51493.863281,0.0,-17698.5,-17701.291016,17968.050781,-17436.511719,4067.100342,11506.230469,51361.292969,0.0,17642.160156,17643.060547,-17372.699219,17899.201172,0.0,0.0,0.0,0.0,0.0,0.0,0.0,-90.92347,0.0,0.0,0.0,0.0,0.0,0.0,0.0,0.0,0.0,0.0,0.0,0.0,0.0,0.0,0.0,-0.176481,0.0,0.0,0.0,0.0,0.0,0.0,0.0,0.0,4076.433105,11505.501953,51497.730469,0.0,-17702.714844,-17702.447266,17959.539062,-17445.724609,4065.639404,11503.614258,51340.910156,0.0,17640.503906,17638.986328,-17386.558594,17898.861328,29.930578,90.32489,22.894142,0.0,0.125306,0.104867,28.434015,28.707777,29.851328,90.320877,22.822144,0.0,-3.208301,-2.093817,31.213343,25.760136,1.031,1.021,-63617.0,-145286.0,-412178.0,0.0,141786.0,141676.0,-145019.0,138607.0,-60642.0,-140418.0,-417313.0,0.0,-143245.0,-143379.0,140109.0,-146099.0,0.0,0.0,0.0,0.0,0.0,0.0,0.0,0.0,0.0,0.0,0.0,0.0,0.0,0.0,0.0,0.0,0.0,0.0,0.0,0.0,0.0,0.0,0.0,0.0
20,1.7689509391784668,0.522391,1.576855,0.399544,0.0,-3.124177,0.004077,0.511314,0.519877,0.521191,1.576745,0.398482,0.0,-3.190639,-0.028636,0.567022,0.454212,3.0,1.0,111.0,0.0,1.0,-78335.0,-25318.0,13694.0,-79248.0,25940.0,13756.0,-0.940478,-0.215531,0.262767,-0.299453,0.159914,-0.940614,0.160711,-0.963314,-0.214937,-0.942484,0.175556,0.284436,0.31811,0.209864,0.924534,0.102615,0.961841,-0.253639,-0.940478,-0.215531,0.262767,-0.299453,0.159914,-0.940614,0.160711,-0.963314,-0.214937,-0.942499,0.175474,0.284436,0.318092,0.209891,0.924534,0.102531,0.96185,-0.253639,-78335.0,-25318.0,13694.0,-79248.0,25940.0,13756.0,18323.0,17417.0,-159976.0,0.0,-54864.0,-55005.0,-54624.0,-55133.0,-15452.0,-12571.0,153368.0,0.0,52779.0,52655.0,52925.0,52781.0,45.0,214.0,-81.0,0.0,-160.0,112.0,641.0,-558.0,-71.0,-212.0,-152.0,0.0,-703.0,-619.0,767.0,-926.0,-0.01231,-0.057949,0.022182,0.0,-0.005888,0.004126,-0.023491,-0.020447,-0.01939,-0.057381,-0.041295,0.0,-0.025748,-0.022671,-0.028083,-0.033918,4076.460205,11508.209961,51493.863281,0.0,-17698.5,-17701.291016,17967.871094,-17436.599609,4067.100342,11506.230469,51361.292969,0.0,17642.160156,17643.060547,-17373.060547,17899.201172,0.0,0.0,0.0,0.0,0.0,0.0,0.0,0.0,0.0,0.0,0.0,0.0,0.0,0.0,-89.174942,0.0,0.0,0.0,0.0,0.0,0.0,0.0,0.0,0.0,0.0,0.0,0.0,0.0,0.0,0.0,-0.173088,0.0,4076.433105,11505.501953,51497.730469,0.0,-17702.714844,-17702.447266,17959.539062,-17445.724609,4065.639404,11503.614258,51340.910156,0.0,17640.503906,17638.986328,-17386.558594,17898.861328,29.930578,90.32489,22.894142,0.0,0.125306,0.104867,28.434015,28.707777,29.851328,90.320877,22.822144,0.0,-3.208301,-2.093817,31.213343,25.760136,1.031,1.021,-63617.0,-145286.0,-412178.0,0.0,141786.0,141676.0,-145019.0,138607.0,-60642.0,-140418.0,-417313.0,0.0,-143245.0,-143379.0,140109.0,-146099.0,0.0,0.0,0.0,0.0,0.0,0.0,0.0,0.0,0.0,0.0,0.0,-0.173088,0.0,0.0,0.0,0.0,0.0,0.0,0.0,0.0,0.0,0.0,0.0,-0.173088
21,1.7909159660339355,0.522391,1.576855,0.399544,0.0,-3.124177,0.004077,0.511138,0.519701,0.521191,1.576745,0.398482,0.0,-3.1909270000000003,-0.028812,0.566411,0.453947,3.0,1.0,111.0,0.0,1.0,-78335.0,-25318.0,13694.0,-79248.0,25942.0,13755.0,-0.940478,-0.215531,0.262767,-0.299453,0.159914,-0.940614,0.160711,-0.963314,-0.214937,-0.94241,0.175796,0.284535,0.318293,0.210086,0.924421,0.102732,0.961748,-0.253942,-0.940478,-0.215531,0.262767,-0.299453,0.159914,-0.940614,0.160711,-0.963314,-0.214937,-0.94241,0.175796,0.284535,0.318293,0.210086,0.924421,0.102732,0.961748,-0.253942,-78335.0,-25318.0,13694.0,-79248.0,25942.0,13755.0,18323.0,17417.0,-159976.0,0.0,-54864.0,-55005.0,-54623.0,-55134.0,-15452.0,-12571.0,153368.0,0.0,52778.0,52654.0,52929.0,52780.0,45.0,214.0,-81.0,0.0,-163.0,112.0,644.0,-561.0,-71.0,-212.0,-152.0,0.0,-658.0,-619.0,765.0,-924.0,-0.01231,-0.057949,0.022182,0.0,-0.005969,0.004104,-0.023571,-0.020542,-0.01939,-0.057381,-0.041295,0.0,-0.024083,-0.022668,-0.028025,-0.033845,4076.460205,11508.209961,51493.863281,0.0,-17698.5,-17701.291016,17967.779297,-17436.691406,4067.100342,11506.230469,51361.292969,0.0,17642.072266,17642.970703,-17373.419922,17899.109375,0.0,0.0,0.0,0.0,0.0,0.0,0.0,0.0,0.0,0.0,0.0,0.0,-89.174942,0.0,-89.174942,0.0,0.0,0.0,0.0,0.0,0.0,0.0,0.0,0.0,0.0,0.0,0.0,0.0,-0.288479,0.0,-0.173088,0.0,4076.433105,11505.501953,51497.730469,0.0,-17702.714844,-17702.447266,17959.539062,-17445.724609,4065.639404,11503.614258,51340.910156,0.0,17640.503906,17638.986328,-17386.558594,17898.861328,29.930578,90.32489,22.894142,0.0,0.125306,0.104867,28.434015,28.707777,29.851328,90.320877,22.822144,0.0,-3.208301,-2.093817,31.213343,25.760136,1.03,1.02,-63617.0,-145286.0,-412178.0,0.0,141786.0,141676.0,-145019.0,138607.0,-60642.0,-140418.0,-417313.0,0.0,-143245.0,-143379.0,140109.0,-146099.0,0.0,0.0,0.0,0.0,0.0,0.0,0.0,0.0,0.0,0.007013,-0.004459,0.115272,0.0,0.0,0.0,0.0,0.0,0.0,0.0,0.0,0.0,0.007013,-0.004459,0.115272
22,1.8119208812713623,0.522391,1.576855,0.399544,0.0,-3.124177,0.004077,0.510965,0.519351,0.521191,1.576745,0.398482,0.0,-3.1909270000000003,-0.028985,0.565975,0.453861,3.0,1.0,111.0,0.0,1.0,-78335.0,-25318.0,13694.0,-79247.0,25944.0,13755.0,-0.940459,-0.215614,0.262767,-0.299467,0.159887,-0.940614,0.160796,-0.9633,-0.214937,-0.94233,0.175963,0.284696,0.318489,0.21004,0.924364,0.102857,0.961728,-0.253969,-0.940459,-0.215614,0.262767,-0.299467,0.159887,-0.940614,0.160796,-0.9633,-0.214937,-0.94233,0.175963,0.284696,0.318489,0.21004,0.924364,0.102857,0.961728,-0.253969,-78335.0,-25318.0,13694.0,-79247.0,25944.0,13755.0,18323.0,17417.0,-159976.0,0.0,-54864.0,-55005.0,-54622.0,-55136.0,-15452.0,-12571.0,153368.0,0.0,52778.0,52653.0,52932.0,52780.0,45.0,214.0,-81.0,0.0,-165.0,111.0,646.0,-561.0,-71.0,-212.0,-152.0,0.0,-701.0,-619.0,765.0,-925.0,-0.01231,-0.057949,0.022182,0.0,-0.006046,0.004083,-0.023642,-0.020549,-0.01939,-0.057381,-0.041295,0.0,-0.025668,-0.022662,-0.028028,-0.033849,4076.460205,11508.209961,51493.863281,0.0,-17698.5,-17701.291016,17967.691406,-17436.871094,4067.100342,11506.230469,51361.292969,0.0,17642.072266,17642.880859,-17373.689453,17899.109375,0.0,0.0,0.0,0.0,0.0,0.0,0.0,0.0,0.0,0.0,0.0,0.0,0.0,0.0,0.0,0.0,0.0,0.0,0.0,0.0,0.0,0.0,0.0,0.0,0.0,0.0,0.0,0.0,0.0,0.0,0.0,0.0,4076.433105,11505.501953,51497.730469,0.0,-17702.714844,-17702.447266,17959.539062,-17445.724609,4065.639404,11503.614258,51340.910156,0.0,17640.503906,17638.986328,-17386.558594,17898.861328,29.930578,90.32489,22.894142,0.0,0.125306,0.104867,28.434015,28.707777,29.851328,90.320877,22.822144,0.0,-3.208301,-2.093817,31.213343,25.760136,1.03,1.019,-63617.0,-145286.0,-412178.0,0.0,141786.0,141676.0,-145019.0,138607.0,-60642.0,-140418.0,-417313.0,0.0,-143245.0,-143379.0,140109.0,-146099.0,0.0,0.0,0.0,0.0,0.0,0.0,0.0,0.0,0.0,0.0,0.0,0.0,0.0,0.0,0.0,0.0,0.0,0.0,0.0,0.0,0.0,0.0,0.0,0.0
23,1.8319499492645264,0.522391,1.576855,0.399544,0.0,-3.124177,0.004077,0.510788,0.519001,0.521191,1.576745,0.398482,0.0,-3.1909270000000003,-0.029162,0.565537,0.453772,3.0,1.0,111.0,0.0,1.0,-78335.0,-25318.0,13694.0,-79246.0,25946.0,13754.0,-0.940441,-0.215695,0.262767,-0.299481,0.159861,-0.940614,0.16088,-0.963286,-0.214937,-0.942249,0.176131,0.28486,0.318689,0.209993,0.924305,0.10298,0.961707,-0.253997,-0.940441,-0.215695,0.262767,-0.299481,0.159861,-0.940614,0.16088,-0.963286,-0.214937,-0.942249,0.176131,0.28486,0.318689,0.209993,0.924305,0.10298,0.961707,-0.253997,-78335.0,-25318.0,13694.0,-79246.0,25946.0,13754.0,18323.0,17417.0,-159976.0,0.0,-54864.0,-55005.0,-54621.0,-55138.0,-15452.0,-12571.0,153368.0,0.0,52778.0,52652.0,52935.0,52780.0,45.0,214.0,-81.0,0.0,-167.0,111.0,647.0,-561.0,-71.0,-212.0,-152.0,0.0,-702.0,-619.0,765.0,-925.0,-0.01231,-0.057949,0.022182,0.0,-0.00612,0.004063,-0.023703,-0.020545,-0.01939,-0.057381,-0.041295,0.0,-0.025696,-0.022651,-0.028014,-0.033854,4076.460205,11508.209961,51493.863281,0.0,-17698.5,-17701.291016,17967.599609,-17437.050781,4067.100342,11506.230469,51361.292969,0.0,17642.072266,17642.789062,-17373.960938,17899.109375,0.0,0.0,0.0,0.0,0.0,0.0,0.0,0.0,0.0,0.0,0.0,0.0,0.0,0.0,0.0,0.0,0.0,0.0,0.0,0.0,0.0,0.0,0.0,0.0,0.0,0.0,0.0,0.0,0.0,0.0,0.0,0.0,4076.433105,11505.501953,51497.730469,0.0,-17702.714844,-17702.447266,17959.539062,-17445.724609,4065.639404,11503.614258,51340.910156,0.0,17640.503906,17638.986328,-17386.558594,17898.861328,29.930578,90.32489,22.894142,0.0,0.125306,0.104867,28.434015,28.707777,29.851328,90.320877,22.822144,0.0,-3.208301,-2.093817,31.213343,25.760136,1.029,1.019,-63617.0,-145286.0,-412178.0,0.0,141786.0,141676.0,-145019.0,138607.0,-60642.0,-140418.0,-417313.0,0.0,-143245.0,-143379.0,140109.0,-146099.0,0.0,0.0,0.0,0.0,0.0,0.0,0.0,0.0,0.0,0.0,0.0,0.0,0.0,0.0,0.0,0.0,0.0,0.0,0.0,0.0,0.0,0.0,0.0,0.0
24,1.8528869152069092,0.522391,1.576855,0.399544,0.0,-3.124177,0.004077,0.510438,0.518652,0.521191,1.576745,0.398482,0.0,-3.1909270000000003,-0.029162,0.565014,0.453599,3.0,1.0,111.0,0.0,1.0,-78335.0,-25318.0,13694.0,-79246.0,25946.0,13754.0,-0.940441,-0.215695,0.262767,-0.299481,0.159861,-0.940614,0.16088,-0.963286,-0.214937,-0.942218,0.176296,0.28486,0.318725,0.209938,0.924305,0.103148,0.961689,-0.253997,-0.940441,-0.215695,0.262767,-0.299481,0.159861,-0.940614,0.16088,-0.963286,-0.214937,-0.942218,0.176296,0.28486,0.318725,0.209938,0.924305,0.103148,0.961689,-0.253997,-78335.0,-25318.0,13694.0,-79246.0,25946.0,13754.0,18323.0,17417.0,-159976.0,0.0,-54864.0,-55005.0,-54619.0,-55140.0,-15452.0,-12571.0,153368.0,0.0,52778.0,52652.0,52938.0,52779.0,45.0,214.0,-81.0,0.0,-169.0,110.0,647.0,-561.0,-71.0,-212.0,-152.0,0.0,-703.0,-620.0,765.0,-923.0,-0.01231,-0.057949,0.022182,0.0,-0.006197,0.004041,-0.023692,-0.020545,-0.01939,-0.057381,-0.041295,0.0,-0.025725,-0.02272,-0.028007,-0.033779,4076.460205,11508.209961,51493.863281,0.0,-17698.5,-17701.291016,17967.419922,-17437.230469,4067.100342,11506.230469,51361.292969,0.0,17642.072266,17642.789062,-17374.230469,17899.021484,0.0,0.0,0.0,0.0,0.0,0.0,0.0,0.0,0.0,0.0,0.0,0.0,0.0,0.0,0.0,0.0,0.0,0.0,0.0,0.0,0.0,0.0,0.0,0.0,0.0,0.0,0.0,0.0,0.0,0.0,0.0,0.0,4076.433105,11505.501953,51497.730469,0.0,-17702.714844,-17702.447266,17959.539062,-17445.724609,4065.639404,11503.614258,51340.910156,0.0,17640.503906,17638.986328,-17386.558594,17898.861328,29.930578,90.32489,22.894142,0.0,0.125306,0.104867,28.434015,28.707777,29.851328,90.320877,22.822144,0.0,-3.208301,-2.093817,31.213343,25.760136,1.029,1.018,-63617.0,-145286.0,-412178.0,0.0,141786.0,141676.0,-145019.0,138607.0,-60642.0,-140418.0,-417313.0,0.0,-143245.0,-143379.0,140109.0,-146099.0,0.0,0.0,0.0,0.0,0.0,0.0,0.0,0.0,0.0,0.0,0.0,0.0,0.0,0.0,0.0,0.0,0.0,0.0,0.0,0.0,0.0,0.0,0.0,0.0
25,1.872917890548706,0.522391,1.576855,0.399544,0.0,-3.124471,0.004077,0.510089,0.518479,0.521191,1.576745,0.398482,0.0,-3.1912220000000002,-0.029335,0.564575,0.453513,3.0,1.0,111.0,0.0,1.0,-78335.0,-25318.0,13694.0,-79246.0,25948.0,13754.0,-0.94046,-0.215534,0.262832,-0.299468,0.159612,-0.940661,0.160793,-0.963364,-0.214654,-0.942144,0.17654,0.284954,0.318905,0.210164,0.924192,0.10327,0.961595,-0.254304,-0.940441,-0.215617,0.262832,-0.299482,0.159585,-0.940661,0.160878,-0.963349,-0.214654,-0.942144,0.17654,0.284954,0.318905,0.210164,0.924192,0.10327,0.961595,-0.254304,-78335.0,-25318.0,13694.0,-79246.0,25948.0,13754.0,18323.0,17417.0,-159976.0,0.0,-54865.0,-55005.0,-54617.0,-55141.0,-15452.0,-12571.0,153368.0,0.0,52777.0,52651.0,52941.0,52779.0,45.0,214.0,-81.0,0.0,-167.0,109.0,646.0,-563.0,-71.0,-212.0,-152.0,0.0,-699.0,-620.0,764.0,-923.0,-0.01231,-0.057949,0.022182,0.0,-0.006127,0.004021,-0.023671,-0.020615,-0.01939,-0.057381,-0.041295,0.0,-0.025608,-0.022708,-0.027983,-0.033781,4076.460205,11508.209961,51493.863281,0.0,-17698.589844,-17701.291016,17967.240234,-17437.320312,4067.100342,11506.230469,51361.292969,0.0,17641.980469,17642.701172,-17374.501953,17899.021484,0.0,0.0,0.0,0.0,0.0,0.0,-90.92347,0.0,0.0,0.0,0.0,0.0,0.0,0.0,0.0,0.0,0.0,0.0,0.0,0.0,0.0,0.0,-0.176481,0.0,0.0,0.0,0.0,0.0,0.0,0.0,0.0,0.0,4076.433105,11505.501953,51497.730469,0.0,-17702.714844,-17702.447266,17959.539062,-17445.724609,4065.639404,11503.614258,51340.910156,0.0,17640.503906,17638.986328,-17386.558594,17898.861328,29.930578,90.32489,22.894142,0.0,0.125306,0.104867,28.434015,28.707777,29.851328,90.320877,22.822144,0.0,-3.208301,-2.093817,31.213343,25.760136,1.028,1.018,-63617.0,-145286.0,-412178.0,0.0,141786.0,141676.0,-145019.0,138607.0,-60642.0,-140418.0,-417313.0,0.0,-143245.0,-143379.0,140109.0,-146099.0,0.0,0.0,0.0,0.0,0.0,-0.176481,0.0,0.0,0.0,0.0,0.0,0.0,0.0,0.0,0.0,0.0,0.0,-0.176481,0.0,0.0,0.0,0.0,0.0,0.0
26,1.892953872680664,0.522391,1.576855,0.399544,0.0,-3.124471,0.004077,0.509916,0.518302,0.521191,1.576745,0.398482,0.0,-3.1912220000000002,-0.029511,0.564313,0.453424,3.0,1.0,111.0,0.0,1.0,-78335.0,-25318.0,13694.0,-79245.0,25950.0,13753.0,-0.940459,-0.215535,0.262832,-0.299468,0.159611,-0.940661,0.160795,-0.963363,-0.214654,-0.942078,0.176624,0.285118,0.319086,0.210146,0.924134,0.103308,0.961583,-0.254332,-0.940459,-0.215535,0.262832,-0.299468,0.159611,-0.940661,0.160795,-0.963363,-0.214654,-0.942078,0.176624,0.285118,0.319086,0.210146,0.924134,0.103308,0.961583,-0.254332,-78335.0,-25318.0,13694.0,-79245.0,25950.0,13753.0,18323.0,17417.0,-159976.0,0.0,-54865.0,-55005.0,-54616.0,-55142.0,-15452.0,-12571.0,153368.0,0.0,52777.0,52650.0,52943.0,52779.0,45.0,214.0,-81.0,0.0,-169.0,109.0,648.0,-565.0,-71.0,-212.0,-152.0,0.0,-700.0,-620.0,766.0,-923.0,-0.01231,-0.057949,0.022182,0.0,-0.006199,0.004001,-0.023728,-0.020682,-0.01939,-0.057381,-0.041295,0.0,-0.025634,-0.022693,-0.028035,-0.033784,4076.460205,11508.209961,51493.863281,0.0,-17698.589844,-17701.291016,17967.150391,-17437.412109,4067.100342,11506.230469,51361.292969,0.0,17641.980469,17642.609375,-17374.681641,17899.021484,0.0,0.0,0.0,0.0,0.0,0.0,0.0,0.0,0.0,0.0,0.0,0.0,0.0,0.0,0.0,0.0,0.0,0.0,0.0,0.0,0.0,0.0,0.0,0.0,0.0,0.0,0.0,0.0,0.0,0.0,0.0,0.0,4076.433105,11505.501953,51497.730469,0.0,-17702.714844,-17702.447266,17959.539062,-17445.724609,4065.639404,11503.614258,51340.910156,0.0,17640.503906,17638.986328,-17386.558594,17898.861328,29.930578,90.32489,22.894142,0.0,0.125306,0.104867,28.434015,28.707777,29.851328,90.320877,22.822144,0.0,-3.208301,-2.093817,31.213343,25.760136,1.028,1.017,-63617.0,-145286.0,-412178.0,0.0,141786.0,141676.0,-145019.0,138607.0,-60642.0,-140418.0,-417313.0,0.0,-143245.0,-143379.0,140109.0,-146099.0,0.0,0.0,0.0,0.0,0.0,0.0,0.0,0.0,0.0,0.0,0.0,0.0,0.0,0.0,0.0,0.0,0.0,0.0,0.0,0.0,0.0,0.0,0.0,0.0
27,1.914952039718628,0.522391,1.576855,0.399544,0.0,-3.124471,0.004077,0.509739,0.518129,0.521191,1.576745,0.398482,0.0,-3.1912220000000002,-0.029684,0.56405,0.453161,3.0,1.0,111.0,0.0,1.0,-78335.0,-25318.0,13694.0,-79244.0,25952.0,13752.0,-0.94046,-0.215534,0.262832,-0.299468,0.159612,-0.940661,0.160793,-0.963364,-0.214654,-0.942029,0.176627,0.285279,0.319246,0.210155,0.924076,0.103264,0.961581,-0.254359,-0.94046,-0.215534,0.262832,-0.299468,0.159612,-0.940661,0.160793,-0.963364,-0.214654,-0.942029,0.176627,0.285279,0.319246,0.210155,0.924076,0.103264,0.961581,-0.254359,-78335.0,-25318.0,13694.0,-79244.0,25952.0,13752.0,18323.0,17417.0,-159976.0,0.0,-54865.0,-55005.0,-54615.0,-55143.0,-15452.0,-12571.0,153368.0,0.0,52777.0,52649.0,52945.0,52778.0,45.0,214.0,-81.0,0.0,-171.0,108.0,650.0,-567.0,-71.0,-212.0,-152.0,0.0,-701.0,-619.0,768.0,-921.0,-0.01231,-0.057949,0.022182,0.0,-0.006278,0.003979,-0.023794,-0.020763,-0.01939,-0.057381,-0.041295,0.0,-0.025662,-0.022684,-0.028104,-0.033706,4076.460205,11508.209961,51493.863281,0.0,-17698.589844,-17701.291016,17967.060547,-17437.5,4067.100342,11506.230469,51361.292969,0.0,17641.980469,17642.521484,-17374.861328,17898.929688,0.0,0.0,0.0,0.0,0.0,0.0,0.0,0.0,0.0,0.0,0.0,0.0,0.0,0.0,0.0,0.0,0.0,0.0,0.0,0.0,0.0,0.0,0.0,0.0,0.0,0.0,0.0,0.0,0.0,0.0,0.0,0.0,4076.433105,11505.501953,51497.730469,0.0,-17702.714844,-17702.447266,17959.539062,-17445.724609,4065.639404,11503.614258,51340.910156,0.0,17640.503906,17638.986328,-17386.558594,17898.861328,29.930578,90.32489,22.894142,0.0,0.125306,0.104867,28.434015,28.707777,29.851328,90.320877,22.822144,0.0,-3.208301,-2.093817,31.213343,25.760136,1.027,1.017,-63617.0,-145286.0,-412178.0,0.0,141786.0,141676.0,-145019.0,138607.0,-60642.0,-140418.0,-417313.0,0.0,-143245.0,-143379.0,140109.0,-146099.0,0.0,0.0,0.0,0.0,0.0,0.0,0.0,0.0,0.0,0.0,0.0,0.0,0.0,0.0,0.0,0.0,0.0,0.0,0.0,0.0,0.0,0.0,0.0,0.0
28,1.9359099864959717,0.522391,1.576855,0.399544,0.0,-3.124471,0.004077,0.509566,0.517956,0.521191,1.576745,0.398482,0.0,-3.19151,-0.029861,0.563616,0.453073,3.0,1.0,111.0,0.0,1.0,-78335.0,-25318.0,13694.0,-79244.0,25955.0,13752.0,-0.94046,-0.215534,0.262832,-0.299468,0.159612,-0.940661,0.160793,-0.963364,-0.214654,-0.941954,0.176867,0.285378,0.319429,0.210377,0.923963,0.103382,0.961488,-0.254662,-0.94046,-0.215534,0.262832,-0.299468,0.159612,-0.940661,0.160793,-0.963364,-0.214654,-0.941954,0.176867,0.285378,0.319429,0.210377,0.923963,0.103382,0.961488,-0.254662,-78335.0,-25318.0,13694.0,-79244.0,25955.0,13752.0,18323.0,17417.0,-159976.0,0.0,-54865.0,-55005.0,-54614.0,-55144.0,-15452.0,-12571.0,153368.0,0.0,52776.0,52648.0,52948.0,52778.0,45.0,214.0,-81.0,0.0,-173.0,108.0,651.0,-569.0,-71.0,-212.0,-152.0,0.0,-698.0,-619.0,767.0,-921.0,-0.01231,-0.057949,0.022182,0.0,-0.006354,0.003957,-0.023853,-0.020836,-0.01939,-0.057381,-0.041295,0.0,-0.025549,-0.022669,-0.028082,-0.033708,4076.460205,11508.209961,51493.863281,0.0,-17698.589844,-17701.291016,17966.970703,-17437.589844,4067.100342,11506.230469,51361.292969,0.0,17641.890625,17642.429688,-17375.130859,17898.929688,0.0,0.0,0.0,0.0,0.0,0.0,0.0,0.0,0.0,0.0,0.0,0.0,0.0,0.0,0.0,0.0,0.0,0.0,0.0,0.0,0.0,0.0,0.0,0.0,0.0,0.0,0.0,0.0,0.0,0.0,0.0,0.0,4076.433105,11505.501953,51497.730469,0.0,-17702.714844,-17702.447266,17959.539062,-17445.724609,4065.639404,11503.614258,51340.910156,0.0,17640.503906,17638.986328,-17386.558594,17898.861328,29.930578,90.32489,22.894142,0.0,0.125306,0.104867,28.434015,28.707777,29.851328,90.320877,22.822144,0.0,-3.208301,-2.093817,31.213343,25.760136,1.027,1.016,-63617.0,-145286.0,-412178.0,0.0,141786.0,141676.0,-145019.0,138607.0,-60642.0,-140418.0,-417313.0,0.0,-143245.0,-143379.0,140109.0,-146099.0,0.0,0.0,0.0,0.0,0.0,0.0,0.0,0.0,0.0,0.0,0.0,0.0,0.0,0.0,0.0,0.0,0.0,0.0,0.0,0.0,0.0,0.0,0.0,0.0
29,1.95585298538208,0.522391,1.576855,0.399544,0.0,-3.124471,0.004077,0.50939,0.51778,0.521191,1.576745,0.398482,0.0,-3.19151,-0.029861,0.563093,0.453073,3.0,1.0,111.0,0.0,1.0,-78335.0,-25318.0,13694.0,-79244.0,25955.0,13752.0,-0.94046,-0.215534,0.262832,-0.299468,0.159612,-0.940661,0.160793,-0.963364,-0.214654,-0.941908,0.177113,0.285378,0.319484,0.210294,0.923963,0.103633,0.961461,-0.254662,-0.94046,-0.215534,0.262832,-0.299468,0.159612,-0.940661,0.160793,-0.963364,-0.214654,-0.941908,0.177113,0.285378,0.319484,0.210294,0.923963,0.103633,0.961461,-0.254662,-78335.0,-25318.0,13694.0,-79244.0,25955.0,13752.0,18323.0,17417.0,-159976.0,0.0,-54865.0,-55005.0,-54613.0,-55145.0,-15452.0,-12571.0,153368.0,0.0,52776.0,52648.0,52951.0,52778.0,45.0,214.0,-81.0,0.0,-175.0,107.0,653.0,-571.0,-71.0,-212.0,-152.0,0.0,-698.0,-621.0,766.0,-921.0,-0.01231,-0.057949,0.022182,0.0,-0.006426,0.003937,-0.023903,-0.020898,-0.01939,-0.057381,-0.041295,0.0,-0.025573,-0.022729,-0.028044,-0.033709,4076.460205,11508.209961,51493.863281,0.0,-17698.589844,-17701.291016,17966.878906,-17437.679688,4067.100342,11506.230469,51361.292969,0.0,17641.890625,17642.429688,-17375.400391,17898.929688,0.0,0.0,0.0,0.0,0.0,0.0,0.0,0.0,0.0,0.0,0.0,0.0,0.0,0.0,-89.174942,0.0,0.0,0.0,0.0,0.0,0.0,0.0,0.0,0.0,0.0,0.0,0.0,0.0,0.0,0.0,-0.173088,0.0,4076.433105,11505.501953,51497.730469,0.0,-17702.714844,-17702.447266,17959.539062,-17445.724609,4065.639404,11503.614258,51340.910156,0.0,17640.503906,17638.986328,-17386.558594,17898.861328,29.930578,90.32489,22.894142,0.0,0.125306,0.104867,28.434015,28.707777,29.851328,90.320877,22.822144,0.0,-3.208301,-2.093817,31.213343,25.760136,1.027,1.016,-63617.0,-145286.0,-412178.0,0.0,141786.0,141676.0,-145019.0,138607.0,-60642.0,-140418.0,-417313.0,0.0,-143245.0,-143379.0,140109.0,-146099.0,0.0,0.0,0.0,0.0,0.0,0.0,0.0,0.0,0.0,0.0,0.0,-0.173088,0.0,0.0,0.0,0.0,0.0,0.0,0.0,0.0,0.0,0.0,0.0,-0.173088
30,1.9768829345703125,0.522391,1.576855,0.399544,0.0,-3.124471,0.004077,0.509217,0.517607,0.521191,1.576745,0.398482,0.0,-3.19151,-0.030034,0.56283,0.452814,3.0,1.0,111.0,0.0,1.0,-78335.0,-25318.0,13694.0,-79243.0,25957.0,13751.0,-0.94046,-0.215534,0.262832,-0.299468,0.159612,-0.940661,0.160793,-0.963364,-0.214654,-0.941858,0.177117,0.285539,0.319644,0.210302,0.923905,0.10359,0.961459,-0.254689,-0.94046,-0.215534,0.262832,-0.299468,0.159612,-0.940661,0.160793,-0.963364,-0.214654,-0.941858,0.177117,0.285539,0.319644,0.210302,0.923905,0.10359,0.961459,-0.254689,-78335.0,-25318.0,13694.0,-79243.0,25957.0,13751.0,18323.0,17417.0,-159976.0,0.0,-54865.0,-55005.0,-54612.0,-55146.0,-15452.0,-12571.0,153368.0,0.0,52776.0,52647.0,52953.0,52777.0,45.0,214.0,-81.0,0.0,-177.0,107.0,654.0,-572.0,-71.0,-212.0,-152.0,0.0,-699.0,-620.0,767.0,-919.0,-0.01231,-0.057949,0.022182,0.0,-0.006501,0.003916,-0.023959,-0.020967,-0.01939,-0.057381,-0.041295,0.0,-0.025598,-0.022714,-0.02809,-0.033632,4076.460205,11508.209961,51493.863281,0.0,-17698.589844,-17701.291016,17966.791016,-17437.769531,4067.100342,11506.230469,51361.292969,0.0,17641.890625,17642.339844,-17375.580078,17898.841797,0.0,0.0,0.0,0.0,0.0,0.0,0.0,0.0,0.0,0.0,0.0,0.0,0.0,0.0,0.0,0.0,0.0,0.0,0.0,0.0,0.0,0.0,0.0,0.0,0.0,0.0,0.0,0.0,0.0,0.0,0.0,0.0,4076.433105,11505.501953,51497.730469,0.0,-17702.714844,-17702.447266,17959.539062,-17445.724609,4065.639404,11503.614258,51340.910156,0.0,17640.503906,17638.986328,-17386.558594,17898.861328,29.930578,90.32489,22.894142,0.0,0.125306,0.104867,28.434015,28.707777,29.851328,90.320877,22.822144,0.0,-3.208301,-2.093817,31.213343,25.760136,1.026,1.015,-63617.0,-145286.0,-412178.0,0.0,141786.0,141676.0,-145019.0,138607.0,-60642.0,-140418.0,-417313.0,0.0,-143245.0,-143379.0,140109.0,-146099.0,0.0,0.0,0.0,0.0,0.0,0.0,0.0,0.0,0.0,0.0,0.0,0.0,0.0,0.0,0.0,0.0,0.0,0.0,0.0,0.0,0.0,0.0,0.0,0.0
31,1.9969539642333984,0.522391,1.576855,0.399544,0.0,-3.124471,0.004077,0.509044,0.51743,0.521191,1.576745,0.398482,0.0,-3.19151,-0.03021,0.562392,0.452725,3.0,1.0,111.0,0.0,1.0,-78335.0,-25318.0,13694.0,-79243.0,25959.0,13751.0,-0.940459,-0.215535,0.262832,-0.299468,0.159611,-0.940661,0.160795,-0.963363,-0.214654,-0.941777,0.177285,0.285703,0.319843,0.210255,0.923847,0.103714,0.961438,-0.254717,-0.940459,-0.215535,0.262832,-0.299468,0.159611,-0.940661,0.160795,-0.963363,-0.214654,-0.941777,0.177285,0.285703,0.319843,0.210255,0.923847,0.103714,0.961438,-0.254717,-78335.0,-25318.0,13694.0,-79243.0,25959.0,13751.0,18323.0,17417.0,-159976.0,0.0,-54865.0,-55005.0,-54611.0,-55147.0,-15452.0,-12571.0,153368.0,0.0,52776.0,52646.0,52956.0,52777.0,45.0,214.0,-81.0,0.0,-179.0,106.0,656.0,-574.0,-71.0,-212.0,-152.0,0.0,-700.0,-620.0,766.0,-919.0,-0.01231,-0.057949,0.022182,0.0,-0.006573,0.003896,-0.024007,-0.021025,-0.01939,-0.057381,-0.041295,0.0,-0.025623,-0.022692,-0.028043,-0.033631,4076.460205,11508.209961,51493.863281,0.0,-17698.589844,-17701.291016,17966.701172,-17437.861328,4067.100342,11506.230469,51361.292969,0.0,17641.890625,17642.25,-17375.851562,17898.841797,0.0,0.0,0.0,0.0,0.0,0.0,0.0,0.0,0.0,0.0,0.0,0.0,0.0,0.0,0.0,0.0,0.0,0.0,0.0,0.0,0.0,0.0,0.0,0.0,0.0,0.0,0.0,0.0,0.0,0.0,0.0,0.0,4076.433105,11505.501953,51497.730469,0.0,-17702.714844,-17702.447266,17959.539062,-17445.724609,4065.639404,11503.614258,51340.910156,0.0,17640.503906,17638.986328,-17386.558594,17898.861328,29.930578,90.32489,22.894142,0.0,0.125306,0.104867,28.434015,28.707777,29.851328,90.320877,22.822144,0.0,-3.208301,-2.093817,31.213343,25.760136,1.026,1.015,-63617.0,-145286.0,-412178.0,0.0,141786.0,141676.0,-145019.0,138607.0,-60642.0,-140418.0,-417313.0,0.0,-143245.0,-143379.0,140109.0,-146099.0,0.0,0.0,0.0,0.0,0.0,0.0,0.0,0.0,0.0,0.0,0.0,0.0,0.0,0.0,0.0,0.0,0.0,0.0,0.0,0.0,0.0,0.0,0.0,0.0
32,2.0169148445129395,0.522391,1.576855,0.399544,0.0,-3.124471,0.004077,0.508694,0.517257,0.521191,1.576745,0.398482,0.0,-3.1918040000000003,-0.03021,0.56187,0.452725,3.0,1.0,111.0,0.0,1.0,-78335.0,-25318.0,13694.0,-79243.0,25959.0,13751.0,-0.940478,-0.215453,0.262832,-0.299454,0.159637,-0.940661,0.16071,-0.963377,-0.214654,-0.941737,0.177606,0.285636,0.319881,0.210445,0.92379,0.10396,0.961337,-0.254997,-0.940478,-0.215453,0.262832,-0.299454,0.159637,-0.940661,0.16071,-0.963377,-0.214654,-0.941737,0.177606,0.285636,0.319881,0.210445,0.92379,0.10396,0.961337,-0.254997,-78335.0,-25318.0,13694.0,-79243.0,25959.0,13751.0,18323.0,17417.0,-159976.0,0.0,-54865.0,-55005.0,-54609.0,-55148.0,-15452.0,-12571.0,153368.0,0.0,52775.0,52646.0,52959.0,52777.0,45.0,214.0,-81.0,0.0,-181.0,105.0,655.0,-576.0,-71.0,-212.0,-152.0,0.0,-696.0,-621.0,764.0,-919.0,-0.01231,-0.057949,0.022182,0.0,-0.006645,0.003876,-0.023973,-0.021084,-0.01939,-0.057381,-0.041295,0.0,-0.025503,-0.022749,-0.027992,-0.033631,4076.460205,11508.209961,51493.863281,0.0,-17698.589844,-17701.291016,17966.521484,-17437.949219,4067.100342,11506.230469,51361.292969,0.0,17641.800781,17642.25,-17376.121094,17898.841797,0.0,0.0,0.0,0.0,0.0,0.0,0.0,0.0,0.0,0.0,0.0,0.0,0.0,0.0,0.0,0.0,0.0,0.0,0.0,0.0,0.0,0.0,0.0,0.0,0.0,0.0,0.0,0.0,0.0,0.0,0.0,0.0,4076.433105,11505.501953,51497.730469,0.0,-17702.714844,-17702.447266,17959.539062,-17445.724609,4065.639404,11503.614258,51340.910156,0.0,17640.503906,17638.986328,-17386.558594,17898.861328,29.930578,90.32489,22.894142,0.0,0.125306,0.104867,28.434015,28.707777,29.851328,90.320877,22.822144,0.0,-3.208301,-2.093817,31.213343,25.760136,1.025,1.014,-63617.0,-145286.0,-412178.0,0.0,141786.0,141676.0,-145019.0,138607.0,-60642.0,-140418.0,-417313.0,0.0,-143245.0,-143379.0,140109.0,-146099.0,0.0,0.0,0.0,0.0,0.0,0.0,0.0,0.0,0.0,0.0,0.0,0.0,0.0,0.0,0.0,0.0,0.0,0.0,0.0,0.0,0.0,0.0,0.0,0.0
33,2.036947965621948,0.522391,1.576855,0.399544,0.0,-3.124471,0.004077,0.508518,0.51708,0.521191,1.576745,0.398482,0.0,-3.1918040000000003,-0.030383,0.561607,0.452639,3.0,1.0,111.0,0.0,1.0,-78335.0,-25318.0,13694.0,-79242.0,25961.0,13750.0,-0.940478,-0.215453,0.262832,-0.299454,0.159637,-0.940661,0.16071,-0.963377,-0.214654,-0.941672,0.177692,0.285797,0.32006,0.210426,0.923733,0.104001,0.961325,-0.255024,-0.940478,-0.215453,0.262832,-0.299454,0.159637,-0.940661,0.16071,-0.963377,-0.214654,-0.941672,0.177692,0.285797,0.32006,0.210426,0.923733,0.104001,0.961325,-0.255024,-78335.0,-25318.0,13694.0,-79242.0,25961.0,13750.0,18323.0,17417.0,-159976.0,0.0,-54865.0,-55005.0,-54608.0,-55149.0,-15452.0,-12571.0,153368.0,0.0,52775.0,52645.0,52961.0,52777.0,45.0,214.0,-81.0,0.0,-183.0,105.0,656.0,-577.0,-71.0,-212.0,-152.0,0.0,-697.0,-621.0,765.0,-919.0,-0.01231,-0.057949,0.022182,0.0,-0.006717,0.003855,-0.024016,-0.021139,-0.01939,-0.057381,-0.041295,0.0,-0.025526,-0.022728,-0.028015,-0.033631,4076.460205,11508.209961,51493.863281,0.0,-17698.589844,-17701.291016,17966.429688,-17438.041016,4067.100342,11506.230469,51361.292969,0.0,17641.800781,17642.160156,-17376.300781,17898.841797,0.0,0.0,0.0,0.0,0.0,0.0,0.0,0.0,0.0,0.0,0.0,0.0,0.0,0.0,0.0,0.0,0.0,0.0,0.0,0.0,0.0,0.0,0.0,0.0,0.0,0.0,0.0,0.0,0.0,0.0,0.0,0.0,4076.433105,11505.501953,51497.730469,0.0,-17702.714844,-17702.447266,17959.539062,-17445.724609,4065.639404,11503.614258,51340.910156,0.0,17640.503906,17638.986328,-17386.558594,17898.861328,29.930578,90.32489,22.894142,0.0,0.125306,0.104867,28.434015,28.707777,29.851328,90.320877,22.822144,0.0,-3.208301,-2.093817,31.213343,25.760136,1.025,1.014,-63617.0,-145286.0,-412178.0,0.0,141786.0,141676.0,-145019.0,138607.0,-60642.0,-140418.0,-417313.0,0.0,-143245.0,-143379.0,140109.0,-146099.0,0.0,0.0,0.0,0.0,0.0,0.0,0.0,0.0,0.0,0.0,0.0,0.0,0.0,0.0,0.0,0.0,0.0,0.0,0.0,0.0,0.0,0.0,0.0,0.0
34,2.058948040008545,0.522391,1.576855,0.399544,0.0,-3.124471,0.004077,0.508344,0.516731,0.521191,1.576745,0.398482,0.0,-3.1918040000000003,-0.030383,0.561081,0.452639,3.0,1.0,111.0,0.0,1.0,-78335.0,-25318.0,13694.0,-79242.0,25961.0,13750.0,-0.940459,-0.215535,0.262832,-0.299468,0.159611,-0.940661,0.160795,-0.963363,-0.214654,-0.941625,0.17794,0.285797,0.320115,0.210342,0.923733,0.104254,0.961298,-0.255024,-0.940459,-0.215535,0.262832,-0.299468,0.159611,-0.940661,0.160795,-0.963363,-0.214654,-0.941625,0.17794,0.285797,0.320115,0.210342,0.923733,0.104254,0.961298,-0.255024,-78335.0,-25318.0,13694.0,-79242.0,25961.0,13750.0,18323.0,17417.0,-159976.0,0.0,-54865.0,-55005.0,-54607.0,-55151.0,-15452.0,-12571.0,153368.0,0.0,52775.0,52645.0,52964.0,52777.0,45.0,214.0,-81.0,0.0,-185.0,104.0,657.0,-577.0,-71.0,-212.0,-152.0,0.0,-698.0,-622.0,764.0,-919.0,-0.01231,-0.057949,0.022182,0.0,-0.006797,0.003833,-0.02407,-0.021128,-0.01939,-0.057381,-0.041295,0.0,-0.025551,-0.022789,-0.027973,-0.03363,4076.460205,11508.209961,51493.863281,0.0,-17698.589844,-17701.291016,17966.341797,-17438.220703,4067.100342,11506.230469,51361.292969,0.0,17641.800781,17642.160156,-17376.570312,17898.841797,0.0,0.0,0.0,0.0,0.0,0.0,-89.174942,0.0,0.0,0.0,0.0,0.0,0.0,0.0,0.0,0.0,0.0,0.0,0.0,0.0,0.0,0.0,-0.173088,0.0,0.0,0.0,0.0,0.0,0.0,0.0,0.0,0.0,4076.433105,11505.501953,51497.730469,0.0,-17702.714844,-17702.447266,17959.539062,-17445.724609,4065.639404,11503.614258,51340.910156,0.0,17640.503906,17638.986328,-17386.558594,17898.861328,29.930578,90.32489,22.894142,0.0,0.125306,0.104867,28.434015,28.707777,29.851328,90.320877,22.822144,0.0,-3.208301,-2.093817,31.213343,25.760136,1.025,1.013,-63617.0,-145286.0,-412178.0,0.0,141786.0,141676.0,-145019.0,138607.0,-60642.0,-140418.0,-417313.0,0.0,-143245.0,-143379.0,140109.0,-146099.0,0.0,0.0,0.0,0.0,0.0,-0.173088,0.0,0.0,0.0,0.0,0.0,0.0,0.0,0.0,0.0,0.0,0.0,-0.173088,0.0,0.0,0.0,0.0,0.0,0.0
35,2.079922914505005,0.522391,1.576855,0.399544,0.0,-3.124471,0.004077,0.508168,0.516558,0.521191,1.576745,0.398482,0.0,-3.1918040000000003,-0.030556,0.560645,0.452376,3.0,1.0,111.0,0.0,1.0,-78335.0,-25318.0,13694.0,-79241.0,25963.0,13749.0,-0.94046,-0.215534,0.262832,-0.299468,0.159612,-0.940661,0.160793,-0.963364,-0.214654,-0.94156,0.178024,0.285958,0.320293,0.210323,0.923676,0.104293,0.961287,-0.255051,-0.94046,-0.215534,0.262832,-0.299468,0.159612,-0.940661,0.160793,-0.963364,-0.214654,-0.94156,0.178024,0.285958,0.320293,0.210323,0.923676,0.104293,0.961287,-0.255051,-78335.0,-25318.0,13694.0,-79241.0,25963.0,13749.0,18323.0,17417.0,-159976.0,0.0,-54865.0,-55005.0,-54606.0,-55152.0,-15452.0,-12571.0,153368.0,0.0,52775.0,52644.0,52967.0,52776.0,45.0,214.0,-81.0,0.0,-187.0,104.0,659.0,-578.0,-71.0,-212.0,-152.0,0.0,-698.0,-622.0,762.0,-916.0,-0.01231,-0.057949,0.022182,0.0,-0.006872,0.003812,-0.024115,-0.021187,-0.01939,-0.057381,-0.041295,0.0,-0.025575,-0.022768,-0.027918,-0.03355,4076.460205,11508.209961,51493.863281,0.0,-17698.589844,-17701.291016,17966.25,-17438.310547,4067.100342,11506.230469,51361.292969,0.0,17641.800781,17642.072266,-17376.839844,17898.75,0.0,0.0,0.0,0.0,0.0,0.0,0.0,0.0,0.0,0.0,0.0,0.0,0.0,0.0,0.0,0.0,0.0,0.0,0.0,0.0,0.0,0.0,0.0,0.0,0.0,0.0,0.0,0.0,0.0,0.0,0.0,0.0,4076.433105,11505.501953,51497.730469,0.0,-17702.714844,-17702.447266,17959.539062,-17445.724609,4065.639404,11503.614258,51340.910156,0.0,17640.503906,17638.986328,-17386.558594,17898.861328,29.930578,90.32489,22.894142,0.0,0.125306,0.104867,28.434015,28.707777,29.851328,90.320877,22.822144,0.0,-3.208301,-2.093817,31.213343,25.760136,1.024,1.013,-63617.0,-145286.0,-412178.0,0.0,141786.0,141676.0,-145019.0,138607.0,-60642.0,-140418.0,-417313.0,0.0,-143245.0,-143379.0,140109.0,-146099.0,0.0,0.0,0.0,0.0,0.0,0.0,0.0,0.0,0.0,0.0,0.0,0.0,0.0,0.0,0.0,0.0,0.0,0.0,0.0,0.0,0.0,0.0,0.0,0.0
36,2.099947929382324,0.522391,1.576855,0.399544,0.0,-3.124471,0.004077,0.508168,0.516381,0.521191,1.576745,0.398482,0.0,-3.1920930000000003,-0.030733,0.56021,0.452288,3.0,1.0,111.0,0.0,1.0,-78335.0,-25318.0,13694.0,-79241.0,25965.0,13749.0,-0.940441,-0.215617,0.262832,-0.299482,0.159585,-0.940661,0.160878,-0.963349,-0.214654,-0.941485,0.178264,0.286056,0.320476,0.210545,0.923562,0.10441,0.961194,-0.255354,-0.940441,-0.215617,0.262832,-0.299482,0.159585,-0.940661,0.160878,-0.963349,-0.214654,-0.941485,0.178264,0.286056,0.320476,0.210545,0.923562,0.10441,0.961194,-0.255354,-78335.0,-25318.0,13694.0,-79241.0,25965.0,13749.0,18323.0,17417.0,-159976.0,0.0,-54865.0,-55005.0,-54606.0,-55153.0,-15452.0,-12571.0,153368.0,0.0,52774.0,52643.0,52970.0,52776.0,45.0,214.0,-81.0,0.0,-189.0,103.0,662.0,-580.0,-71.0,-212.0,-152.0,0.0,-695.0,-621.0,761.0,-916.0,-0.01231,-0.057949,0.022182,0.0,-0.006944,0.003792,-0.024232,-0.021236,-0.01939,-0.057381,-0.041295,0.0,-0.025456,-0.022742,-0.02785,-0.033548,4076.460205,11508.209961,51493.863281,0.0,-17698.589844,-17701.291016,17966.25,-17438.400391,4067.100342,11506.230469,51361.292969,0.0,17641.710938,17641.980469,-17377.109375,17898.75,0.0,0.0,0.0,0.0,0.0,0.0,0.0,0.0,0.0,0.0,0.0,0.0,0.0,0.0,0.0,0.0,0.0,0.0,0.0,0.0,0.0,0.0,0.0,0.0,0.0,0.0,0.0,0.0,0.0,0.0,0.0,0.0,4076.433105,11505.501953,51497.730469,0.0,-17702.714844,-17702.447266,17959.539062,-17445.724609,4065.639404,11503.614258,51340.910156,0.0,17640.503906,17638.986328,-17386.558594,17898.861328,29.930578,90.32489,22.894142,0.0,0.125306,0.104867,28.434015,28.707777,29.851328,90.320877,22.822144,0.0,-3.208301,-2.093817,31.213343,25.760136,1.024,1.012,-63617.0,-145286.0,-412178.0,0.0,141786.0,141676.0,-145019.0,138607.0,-60642.0,-140418.0,-417313.0,0.0,-143245.0,-143379.0,140109.0,-146099.0,0.0,0.0,0.0,0.0,0.0,0.0,0.0,0.0,0.0,0.0,0.0,0.0,0.0,0.0,0.0,0.0,0.0,0.0,0.0,0.0,0.0,0.0,0.0,0.0
37,2.1209700107574463,0.522391,1.576855,0.399544,0.0,-3.124471,0.004077,0.507995,0.516032,0.521191,1.576745,0.398482,0.0,-3.1920930000000003,-0.030906,0.559771,0.452201,3.0,1.0,111.0,0.0,1.0,-78335.0,-25318.0,13694.0,-79240.0,25967.0,13748.0,-0.940422,-0.2157,0.262832,-0.299496,0.159559,-0.940661,0.160963,-0.963335,-0.214654,-0.941404,0.178433,0.286217,0.320673,0.210497,0.923504,0.104536,0.961173,-0.255381,-0.940422,-0.2157,0.262832,-0.299496,0.159559,-0.940661,0.160963,-0.963335,-0.214654,-0.941404,0.178433,0.286217,0.320673,0.210497,0.923504,0.104536,0.961173,-0.255381,-78335.0,-25318.0,13694.0,-79240.0,25967.0,13748.0,18323.0,17417.0,-159976.0,0.0,-54865.0,-55005.0,-54605.0,-55155.0,-15452.0,-12571.0,153368.0,0.0,52774.0,52642.0,52973.0,52776.0,45.0,214.0,-81.0,0.0,-191.0,103.0,663.0,-579.0,-71.0,-212.0,-152.0,0.0,-696.0,-620.0,759.0,-916.0,-0.01231,-0.057949,0.022182,0.0,-0.00702,0.003771,-0.024276,-0.021211,-0.01939,-0.057381,-0.041295,0.0,-0.025478,-0.022719,-0.027784,-0.033546,4076.460205,11508.209961,51493.863281,0.0,-17698.589844,-17701.291016,17966.160156,-17438.582031,4067.100342,11506.230469,51361.292969,0.0,17641.710938,17641.890625,-17377.380859,17898.75,0.0,0.0,0.0,0.0,0.0,0.0,0.0,0.0,0.0,0.0,0.0,0.0,0.0,-89.174942,0.0,0.0,0.0,0.0,0.0,0.0,0.0,0.0,0.0,0.0,0.0,0.0,0.0,0.0,0.0,-0.173088,0.086544,-0.086544,4076.433105,11505.501953,51497.730469,0.0,-17702.714844,-17702.447266,17959.539062,-17445.724609,4065.639404,11503.614258,51340.910156,0.0,17640.503906,17638.986328,-17386.558594,17898.861328,29.930578,90.32489,22.894142,0.0,0.125306,0.104867,28.434015,28.707777,29.851328,90.320877,22.822144,0.0,-3.208301,-2.093817,31.213343,25.760136,1.024,1.011,-63617.0,-145286.0,-412178.0,0.0,141786.0,141676.0,-145019.0,138607.0,-60642.0,-140418.0,-417313.0,0.0,-143245.0,-143379.0,140109.0,-146099.0,0.0,0.0,0.0,0.0,0.0,0.0,0.0,-0.173088,0.0,-0.091908,-0.14667,0.086544,0.0,0.0,0.0,0.0,0.0,0.0,0.0,-0.173088,0.0,-0.091908,-0.14667,0.086544
38,2.140918016433716,0.522391,1.576855,0.399544,0.0,-3.124471,0.004077,0.507818,0.515859,0.521191,1.576745,0.398482,0.0,-3.1920930000000003,-0.030906,0.559248,0.452201,3.0,1.0,111.0,0.0,1.0,-78335.0,-25318.0,13694.0,-79240.0,25967.0,13748.0,-0.940422,-0.215698,0.262832,-0.299496,0.159559,-0.940661,0.160962,-0.963335,-0.214654,-0.941357,0.178679,0.286217,0.320728,0.210413,0.923504,0.104787,0.961145,-0.255381,-0.940422,-0.215698,0.262832,-0.299496,0.159559,-0.940661,0.160962,-0.963335,-0.214654,-0.941357,0.178679,0.286217,0.320728,0.210413,0.923504,0.104787,0.961145,-0.255381,-78335.0,-25318.0,13694.0,-79240.0,25967.0,13748.0,18323.0,17417.0,-159976.0,0.0,-54865.0,-55005.0,-54604.0,-55156.0,-15452.0,-12571.0,153368.0,0.0,52774.0,52642.0,52976.0,52776.0,45.0,214.0,-81.0,0.0,-193.0,102.0,664.0,-580.0,-71.0,-212.0,-152.0,0.0,-696.0,-622.0,757.0,-916.0,-0.01231,-0.057949,0.022182,0.0,-0.007092,0.00375,-0.024312,-0.021257,-0.01939,-0.057381,-0.041295,0.0,-0.025499,-0.02277,-0.027707,-0.033544,4076.460205,11508.209961,51493.863281,0.0,-17698.589844,-17701.291016,17966.070312,-17438.669922,4067.100342,11506.230469,51361.292969,0.0,17641.710938,17641.890625,-17377.650391,17898.75,0.0,0.0,0.0,0.0,0.0,0.0,0.0,0.0,0.0,0.0,0.0,0.0,0.0,0.0,0.0,0.0,0.0,0.0,0.0,0.0,0.0,0.0,0.0,0.0,0.0,0.0,0.0,0.0,0.0,0.0,0.0,0.0,4076.433105,11505.501953,51497.730469,0.0,-17702.714844,-17702.447266,17959.539062,-17445.724609,4065.639404,11503.614258,51340.910156,0.0,17640.503906,17638.986328,-17386.558594,17898.861328,29.930578,90.32489,22.894142,0.0,0.125306,0.104867,28.434015,28.707777,29.851328,90.320877,22.822144,0.0,-3.208301,-2.093817,31.213343,25.760136,1.023,1.011,-63617.0,-145286.0,-412178.0,0.0,141786.0,141676.0,-145019.0,138607.0,-60642.0,-140418.0,-417313.0,0.0,-143245.0,-143379.0,140109.0,-146099.0,0.0,0.0,0.0,0.0,0.0,0.0,0.0,0.0,0.0,0.0,0.0,0.0,0.0,0.0,0.0,0.0,0.0,0.0,0.0,0.0,0.0,0.0,0.0,0.0
39,2.1609480381011963,0.522391,1.576855,0.399544,0.0,-3.124471,0.004077,0.507818,0.515682,0.521191,1.576745,0.398482,0.0,-3.1920930000000003,-0.031083,0.55881,0.452113,3.0,1.0,111.0,0.0,1.0,-78335.0,-25318.0,13694.0,-79239.0,25969.0,13748.0,-0.940403,-0.215781,0.262832,-0.29951,0.159533,-0.940661,0.161047,-0.963321,-0.214654,-0.941276,0.178846,0.286382,0.320927,0.210366,0.923446,0.10491,0.961125,-0.255408,-0.940403,-0.215781,0.262832,-0.29951,0.159533,-0.940661,0.161047,-0.963321,-0.214654,-0.941276,0.178846,0.286382,0.320927,0.210366,0.923446,0.10491,0.961125,-0.255408,-78335.0,-25318.0,13694.0,-79239.0,25969.0,13748.0,18323.0,17417.0,-159976.0,0.0,-54865.0,-55005.0,-54604.0,-55157.0,-15452.0,-12571.0,153368.0,0.0,52774.0,52641.0,52979.0,52776.0,45.0,214.0,-81.0,0.0,-195.0,101.0,667.0,-582.0,-71.0,-212.0,-152.0,0.0,-697.0,-621.0,754.0,-916.0,-0.01231,-0.057949,0.022182,0.0,-0.007164,0.00373,-0.024426,-0.021301,-0.01939,-0.057381,-0.041295,0.0,-0.02552,-0.02274,-0.027623,-0.033542,4076.460205,11508.209961,51493.863281,0.0,-17698.589844,-17701.291016,17966.070312,-17438.761719,4067.100342,11506.230469,51361.292969,0.0,17641.710938,17641.800781,-17377.921875,17898.75,0.0,0.0,0.0,0.0,0.0,0.0,0.0,0.0,0.0,0.0,0.0,0.0,0.0,0.0,0.0,0.0,0.0,0.0,0.0,0.0,0.0,0.0,0.0,0.0,0.0,0.0,0.0,0.0,0.0,0.0,0.0,0.0,4076.433105,11505.501953,51497.730469,0.0,-17702.714844,-17702.447266,17959.539062,-17445.724609,4065.639404,11503.614258,51340.910156,0.0,17640.503906,17638.986328,-17386.558594,17898.861328,29.930578,90.32489,22.894142,0.0,0.125306,0.104867,28.434015,28.707777,29.851328,90.320877,22.822144,0.0,-3.208301,-2.093817,31.213343,25.760136,1.023,1.01,-63617.0,-145286.0,-412178.0,0.0,141786.0,141676.0,-145019.0,138607.0,-60642.0,-140418.0,-417313.0,0.0,-143245.0,-143379.0,140109.0,-146099.0,0.0,0.0,0.0,0.0,0.0,0.0,0.0,0.0,0.0,0.0,0.0,0.0,0.0,0.0,0.0,0.0,0.0,0.0,0.0,0.0,0.0,0.0,0.0,0.0
40,2.182955026626587,0.522391,1.576855,0.399544,0.0,-3.124471,0.004077,0.507645,0.515682,0.521191,1.576745,0.398482,0.0,-3.192387,-0.031083,0.558288,0.452113,3.0,1.0,111.0,0.0,1.0,-78335.0,-25318.0,13694.0,-79239.0,25969.0,13747.0,-0.940422,-0.2157,0.262832,-0.299496,0.159559,-0.940661,0.160963,-0.963335,-0.214654,-0.941235,0.179167,0.286314,0.320966,0.210556,0.923389,0.105156,0.961023,-0.255689,-0.940422,-0.2157,0.262832,-0.299496,0.159559,-0.940661,0.160963,-0.963335,-0.214654,-0.941235,0.179167,0.286314,0.320966,0.210556,0.923389,0.105156,0.961023,-0.255689,-78335.0,-25318.0,13694.0,-79239.0,25969.0,13747.0,18323.0,17417.0,-159976.0,0.0,-54865.0,-55005.0,-54603.0,-55157.0,-15452.0,-12571.0,153368.0,0.0,52773.0,52641.0,52982.0,52776.0,45.0,214.0,-81.0,0.0,-197.0,101.0,668.0,-585.0,-71.0,-212.0,-152.0,0.0,-694.0,-622.0,752.0,-916.0,-0.01231,-0.057949,0.022182,0.0,-0.007243,0.003708,-0.024472,-0.021435,-0.01939,-0.057381,-0.041295,0.0,-0.025399,-0.022794,-0.027551,-0.03354,4076.460205,11508.209961,51493.863281,0.0,-17698.589844,-17701.291016,17965.980469,-17438.761719,4067.100342,11506.230469,51361.292969,0.0,17641.621094,17641.800781,-17378.189453,17898.75,0.0,0.0,0.0,0.0,0.0,0.0,0.0,0.0,0.0,0.0,0.0,0.0,0.0,0.0,0.0,0.0,0.0,0.0,0.0,0.0,0.0,0.0,0.0,0.0,0.0,0.0,0.0,0.0,0.0,0.0,0.0,0.0,4076.433105,11505.501953,51497.730469,0.0,-17702.714844,-17702.447266,17959.539062,-17445.724609,4065.639404,11503.614258,51340.910156,0.0,17640.503906,17638.986328,-17386.558594,17898.861328,29.930578,90.32489,22.894142,0.0,0.125306,0.104867,28.434015,28.707777,29.851328,90.320877,22.822144,0.0,-3.208301,-2.093817,31.213343,25.760136,1.023,1.01,-63617.0,-145286.0,-412178.0,0.0,141786.0,141676.0,-145019.0,138607.0,-60642.0,-140418.0,-417313.0,0.0,-143245.0,-143379.0,140109.0,-146099.0,0.0,0.0,0.0,0.0,0.0,0.0,0.0,0.0,0.0,0.0,0.0,0.0,0.0,0.0,0.0,0.0,0.0,0.0,0.0,0.0,0.0,0.0,0.0,0.0
41,2.203943967819214,0.522391,1.576855,0.399544,0.0,-3.124471,0.004077,0.507469,0.515509,0.521191,1.576745,0.398482,0.0,-3.192387,-0.031256,0.558025,0.452026,3.0,1.0,111.0,0.0,1.0,-78335.0,-25318.0,13694.0,-79239.0,25971.0,13747.0,-0.940422,-0.215698,0.262832,-0.299496,0.159559,-0.940661,0.160962,-0.963335,-0.214654,-0.94117,0.179253,0.286475,0.321144,0.210536,0.923332,0.105197,0.961011,-0.255716,-0.940422,-0.215698,0.262832,-0.299496,0.159559,-0.940661,0.160962,-0.963335,-0.214654,-0.94117,0.179253,0.286475,0.321144,0.210536,0.923332,0.105197,0.961011,-0.255716,-78335.0,-25318.0,13694.0,-79239.0,25971.0,13747.0,18323.0,17417.0,-159976.0,0.0,-54865.0,-55005.0,-54602.0,-55158.0,-15452.0,-12571.0,153368.0,0.0,52773.0,52640.0,52984.0,52776.0,45.0,214.0,-81.0,0.0,-200.0,100.0,669.0,-587.0,-71.0,-212.0,-152.0,0.0,-694.0,-622.0,752.0,-916.0,-0.01231,-0.057949,0.022182,0.0,-0.007319,0.003687,-0.02451,-0.021483,-0.01939,-0.057381,-0.041295,0.0,-0.02542,-0.022767,-0.027545,-0.033538,4076.460205,11508.209961,51493.863281,0.0,-17698.589844,-17701.291016,17965.890625,-17438.849609,4067.100342,11506.230469,51361.292969,0.0,17641.621094,17641.710938,-17378.371094,17898.75,0.0,0.0,0.0,0.0,0.0,0.0,0.0,0.0,0.0,0.0,0.0,0.0,0.0,0.0,0.0,0.0,0.0,0.0,0.0,0.0,0.0,0.0,0.0,0.0,0.0,0.0,0.0,0.0,0.0,0.0,0.0,0.0,4076.433105,11505.501953,51497.730469,0.0,-17702.714844,-17702.447266,17959.539062,-17445.724609,4065.639404,11503.614258,51340.910156,0.0,17640.503906,17638.986328,-17386.558594,17898.861328,29.930578,90.32489,22.894142,0.0,0.125306,0.104867,28.434015,28.707777,29.851328,90.320877,22.822144,0.0,-3.208301,-2.093817,31.213343,25.760136,1.022,1.01,-63617.0,-145286.0,-412178.0,0.0,141786.0,141676.0,-145019.0,138607.0,-60642.0,-140418.0,-417313.0,0.0,-143245.0,-143379.0,140109.0,-146099.0,0.0,0.0,0.0,0.0,0.0,0.0,0.0,0.0,0.0,0.0,0.0,0.0,0.0,0.0,0.0,0.0,0.0,0.0,0.0,0.0,0.0,0.0,0.0,0.0
42,2.223918914794922,0.522391,1.576855,0.399544,0.0,-3.124471,0.004077,0.507296,0.515333,0.521191,1.576745,0.398482,0.0,-3.192387,-0.031256,0.557851,0.451853,3.0,1.0,111.0,0.0,1.0,-78335.0,-25318.0,13694.0,-79239.0,25971.0,13747.0,-0.940422,-0.2157,0.262832,-0.299496,0.159559,-0.940661,0.160963,-0.963335,-0.214654,-0.94117,0.179253,0.286475,0.321144,0.210536,0.923332,0.105197,0.961011,-0.255716,-0.940422,-0.2157,0.262832,-0.299496,0.159559,-0.940661,0.160963,-0.963335,-0.214654,-0.94117,0.179253,0.286475,0.321144,0.210536,0.923332,0.105197,0.961011,-0.255716,-78335.0,-25318.0,13694.0,-79239.0,25971.0,13747.0,18323.0,17417.0,-159976.0,0.0,-54865.0,-55005.0,-54601.0,-55159.0,-15452.0,-12571.0,153368.0,0.0,52773.0,52640.0,52985.0,52775.0,45.0,214.0,-81.0,0.0,-201.0,100.0,670.0,-588.0,-71.0,-212.0,-152.0,0.0,-695.0,-623.0,754.0,-914.0,-0.01231,-0.057949,0.022182,0.0,-0.007391,0.003666,-0.024543,-0.021522,-0.01939,-0.057381,-0.041295,0.0,-0.025439,-0.022814,-0.02761,-0.033457,4076.460205,11508.209961,51493.863281,0.0,-17698.589844,-17701.291016,17965.800781,-17438.941406,4067.100342,11506.230469,51361.292969,0.0,17641.621094,17641.710938,-17378.458984,17898.660156,0.0,0.0,0.0,0.0,0.0,0.0,-89.174942,0.0,0.0,0.0,0.0,0.0,0.0,0.0,0.0,0.0,0.0,0.0,0.0,0.0,0.0,0.0,-0.173088,0.0,0.0,0.0,0.0,0.0,0.0,0.0,0.0,0.0,4076.433105,11505.501953,51497.730469,0.0,-17702.714844,-17702.447266,17959.539062,-17445.724609,4065.639404,11503.614258,51340.910156,0.0,17640.503906,17638.986328,-17386.558594,17898.861328,29.930578,90.32489,22.894142,0.0,0.125306,0.104867,28.434015,28.707777,29.851328,90.320877,22.822144,0.0,-3.208301,-2.093817,31.213343,25.760136,1.022,1.009,-63617.0,-145286.0,-412178.0,0.0,141786.0,141676.0,-145019.0,138607.0,-60642.0,-140418.0,-417313.0,0.0,-143245.0,-143379.0,140109.0,-146099.0,0.0,0.0,0.0,0.0,0.0,-0.173088,0.0,0.0,0.0,0.0,0.0,0.0,0.0,0.0,0.0,0.0,0.0,-0.173088,0.0,0.0,0.0,0.0,0.0,0.0
43,2.2449519634246826,0.522391,1.576855,0.399544,0.0,-3.124471,0.004077,0.507296,0.51516,0.521191,1.576745,0.398482,0.0,-3.192387,-0.031432,0.55759,0.451765,3.0,1.0,111.0,0.0,1.0,-78335.0,-25318.0,13694.0,-79238.0,25973.0,13746.0,-0.940403,-0.215781,0.262832,-0.29951,0.159533,-0.940661,0.161047,-0.963321,-0.214654,-0.941104,0.179337,0.286639,0.321325,0.210517,0.923273,0.105235,0.961,-0.255743,-0.940403,-0.215781,0.262832,-0.29951,0.159533,-0.940661,0.161047,-0.963321,-0.214654,-0.941104,0.179337,0.286639,0.321325,0.210517,0.923273,0.105235,0.961,-0.255743,-78335.0,-25318.0,13694.0,-79238.0,25973.0,13746.0,18323.0,17417.0,-159976.0,0.0,-54865.0,-55005.0,-54601.0,-55160.0,-15452.0,-12571.0,153368.0,0.0,52773.0,52639.0,52987.0,52775.0,45.0,214.0,-81.0,0.0,-204.0,99.0,673.0,-589.0,-71.0,-212.0,-152.0,0.0,-695.0,-622.0,754.0,-914.0,-0.01231,-0.057949,0.022182,0.0,-0.007466,0.003645,-0.024658,-0.021568,-0.01939,-0.057381,-0.041295,0.0,-0.02546,-0.022783,-0.027599,-0.033453,4076.460205,11508.209961,51493.863281,0.0,-17698.589844,-17701.291016,17965.800781,-17439.03125,4067.100342,11506.230469,51361.292969,0.0,17641.621094,17641.621094,-17378.640625,17898.660156,0.0,0.0,0.0,0.0,0.0,0.0,0.0,0.0,0.0,0.0,0.0,0.0,0.0,0.0,0.0,0.0,0.0,0.0,0.0,0.0,0.0,0.0,0.0,0.0,0.0,0.0,0.0,0.0,0.0,0.0,0.0,0.0,4076.433105,11505.501953,51497.730469,0.0,-17702.714844,-17702.447266,17959.539062,-17445.724609,4065.639404,11503.614258,51340.910156,0.0,17640.503906,17638.986328,-17386.558594,17898.861328,29.930578,90.32489,22.894142,0.0,0.125306,0.104867,28.434015,28.707777,29.851328,90.320877,22.822144,0.0,-3.208301,-2.093817,31.213343,25.760136,1.022,1.009,-63617.0,-145286.0,-412178.0,0.0,141786.0,141676.0,-145019.0,138607.0,-60642.0,-140418.0,-417313.0,0.0,-143245.0,-143379.0,140109.0,-146099.0,0.0,0.0,0.0,0.0,0.0,0.0,0.0,0.0,0.0,0.0,0.0,0.0,0.0,0.0,0.0,0.0,0.0,0.0,0.0,0.0,0.0,0.0,0.0,0.0
44,2.2649168968200684,0.522391,1.576855,0.399544,0.0,-3.124471,0.004077,0.507119,0.514987,0.521191,1.576745,0.398482,0.0,-3.192675,-0.031605,0.5575,0.451678,3.0,1.0,111.0,0.0,1.0,-78335.0,-25318.0,13694.0,-79237.0,25975.0,13746.0,-0.940403,-0.21578,0.262832,-0.29951,0.159533,-0.940661,0.161045,-0.963322,-0.214654,-0.94106,0.179415,0.286734,0.321469,0.210793,0.92316,0.105187,0.960925,-0.256045,-0.940403,-0.21578,0.262832,-0.29951,0.159533,-0.940661,0.161045,-0.963322,-0.214654,-0.94106,0.179415,0.286734,0.321469,0.210793,0.92316,0.105187,0.960925,-0.256045,-78335.0,-25318.0,13694.0,-79237.0,25975.0,13746.0,18323.0,17417.0,-159976.0,0.0,-54865.0,-55005.0,-54600.0,-55161.0,-15452.0,-12571.0,153368.0,0.0,52772.0,52638.0,52988.0,52775.0,45.0,214.0,-81.0,0.0,-206.0,99.0,674.0,-590.0,-71.0,-212.0,-152.0,0.0,-692.0,-621.0,755.0,-914.0,-0.01231,-0.057949,0.022182,0.0,-0.007538,0.003625,-0.024686,-0.021606,-0.01939,-0.057381,-0.041295,0.0,-0.025338,-0.022751,-0.027657,-0.03345,4076.460205,11508.209961,51493.863281,0.0,-17698.589844,-17701.291016,17965.708984,-17439.119141,4067.100342,11506.230469,51361.292969,0.0,17641.53125,17641.53125,-17378.730469,17898.660156,0.0,0.0,0.0,0.0,0.0,0.0,0.0,0.0,0.0,0.0,0.0,0.0,0.0,0.0,0.0,0.0,0.0,0.0,0.0,0.0,0.0,0.0,0.0,0.0,0.0,0.0,0.0,0.0,0.0,0.0,0.0,0.0,4076.433105,11505.501953,51497.730469,0.0,-17702.714844,-17702.447266,17959.539062,-17445.724609,4065.639404,11503.614258,51340.910156,0.0,17640.503906,17638.986328,-17386.558594,17898.861328,29.930578,90.32489,22.894142,0.0,0.125306,0.104867,28.434015,28.707777,29.851328,90.320877,22.822144,0.0,-3.208301,-2.093817,31.213343,25.760136,1.022,1.009,-63617.0,-145286.0,-412178.0,0.0,141786.0,141676.0,-145019.0,138607.0,-60642.0,-140418.0,-417313.0,0.0,-143245.0,-143379.0,140109.0,-146099.0,0.0,0.0,0.0,0.0,0.0,0.0,0.0,0.0,0.0,0.0,0.0,0.0,0.0,0.0,0.0,0.0,0.0,0.0,0.0,0.0,0.0,0.0,0.0,0.0
45,2.2849130630493164,0.522391,1.576855,0.399544,0.0,-3.124471,0.004077,0.506946,0.514987,0.521191,1.576745,0.398482,0.0,-3.192675,-0.031605,0.557151,0.451678,3.0,1.0,111.0,0.0,1.0,-78335.0,-25318.0,13694.0,-79237.0,25975.0,13746.0,-0.940422,-0.215698,0.262832,-0.299496,0.159559,-0.940661,0.160962,-0.963335,-0.214654,-0.941028,0.17958,0.286734,0.321506,0.210737,0.92316,0.105355,0.960906,-0.256045,-0.940422,-0.215698,0.262832,-0.299496,0.159559,-0.940661,0.160962,-0.963335,-0.214654,-0.941028,0.17958,0.286734,0.321506,0.210737,0.92316,0.105355,0.960906,-0.256045,-78335.0,-25318.0,13694.0,-79237.0,25975.0,13746.0,18323.0,17417.0,-159976.0,0.0,-54865.0,-55005.0,-54599.0,-55161.0,-15452.0,-12571.0,153368.0,0.0,52772.0,52638.0,52990.0,52775.0,45.0,214.0,-81.0,0.0,-207.0,98.0,675.0,-593.0,-71.0,-212.0,-152.0,0.0,-692.0,-622.0,755.0,-914.0,-0.01231,-0.057949,0.022182,0.0,-0.00761,0.003605,-0.024715,-0.021722,-0.01939,-0.057381,-0.041295,0.0,-0.025356,-0.022795,-0.027634,-0.033446,4076.460205,11508.209961,51493.863281,0.0,-17698.589844,-17701.291016,17965.621094,-17439.119141,4067.100342,11506.230469,51361.292969,0.0,17641.53125,17641.53125,-17378.910156,17898.660156,0.0,0.0,0.0,0.0,0.0,0.0,0.0,0.0,0.0,0.0,0.0,0.0,0.0,0.0,0.0,0.0,0.0,0.0,0.0,0.0,0.0,0.0,0.0,0.0,0.0,0.0,0.0,0.0,0.0,0.0,0.0,0.0,4076.433105,11505.501953,51497.730469,0.0,-17702.714844,-17702.447266,17959.539062,-17445.724609,4065.639404,11503.614258,51340.910156,0.0,17640.503906,17638.986328,-17386.558594,17898.861328,29.930578,90.32489,22.894142,0.0,0.125306,0.104867,28.434015,28.707777,29.851328,90.320877,22.822144,0.0,-3.208301,-2.093817,31.213343,25.760136,1.021,1.008,-63617.0,-145286.0,-412178.0,0.0,141786.0,141676.0,-145019.0,138607.0,-60642.0,-140418.0,-417313.0,0.0,-143245.0,-143379.0,140109.0,-146099.0,0.0,0.0,0.0,0.0,0.0,0.0,0.0,0.0,0.0,0.0,0.0,0.0,0.0,0.0,0.0,0.0,0.0,0.0,0.0,0.0,0.0,0.0,0.0,0.0
46,2.3069539070129395,0.522391,1.576855,0.399544,0.0,-3.124471,0.004077,0.50677,0.51481,0.521191,1.576745,0.398482,0.0,-3.192675,-0.031782,0.556889,0.45159,3.0,1.0,111.0,0.0,1.0,-78335.0,-25318.0,13694.0,-79237.0,25978.0,13745.0,-0.940422,-0.215698,0.262832,-0.299496,0.159559,-0.940661,0.160962,-0.963335,-0.214654,-0.940962,0.179664,0.286899,0.321687,0.210718,0.923101,0.105393,0.960895,-0.256073,-0.940422,-0.215698,0.262832,-0.299496,0.159559,-0.940661,0.160962,-0.963335,-0.214654,-0.940962,0.179664,0.286899,0.321687,0.210718,0.923101,0.105393,0.960895,-0.256073,-78335.0,-25318.0,13694.0,-79237.0,25978.0,13745.0,18323.0,17417.0,-159976.0,0.0,-54865.0,-55005.0,-54598.0,-55162.0,-15452.0,-12571.0,153368.0,0.0,52772.0,52637.0,52992.0,52775.0,45.0,214.0,-81.0,0.0,-210.0,97.0,676.0,-594.0,-71.0,-212.0,-152.0,0.0,-693.0,-622.0,754.0,-913.0,-0.01231,-0.057949,0.022182,0.0,-0.007689,0.003583,-0.024753,-0.021768,-0.01939,-0.057381,-0.041295,0.0,-0.025376,-0.022764,-0.027623,-0.033442,4076.460205,11508.209961,51493.863281,0.0,-17698.589844,-17701.291016,17965.529297,-17439.210938,4067.100342,11506.230469,51361.292969,0.0,17641.53125,17641.439453,-17379.091797,17898.660156,0.0,0.0,0.0,0.0,0.0,0.0,0.0,0.0,0.0,0.0,0.0,0.0,0.0,0.0,-90.92347,0.0,0.0,0.0,0.0,0.0,0.0,0.0,0.0,0.0,0.0,0.0,0.0,0.0,0.0,0.0,-0.176481,0.0,4076.433105,11505.501953,51497.730469,0.0,-17702.714844,-17702.447266,17959.539062,-17445.724609,4065.639404,11503.614258,51340.910156,0.0,17640.503906,17638.986328,-17386.558594,17898.861328,29.930578,90.32489,22.894142,0.0,0.125306,0.104867,28.434015,28.707777,29.851328,90.320877,22.822144,0.0,-3.208301,-2.093817,31.213343,25.760136,1.021,1.008,-63617.0,-145286.0,-412178.0,0.0,141786.0,141676.0,-145019.0,138607.0,-60642.0,-140418.0,-417313.0,0.0,-143245.0,-143379.0,140109.0,-146099.0,0.0,0.0,0.0,0.0,0.0,0.0,0.0,0.0,0.0,0.0,0.0,-0.176481,0.0,0.0,0.0,0.0,0.0,0.0,0.0,0.0,0.0,0.0,0.0,-0.176481
47,2.3268868923187256,0.522391,1.576855,0.399544,0.0,-3.124471,0.004077,0.506597,0.514637,0.521191,1.576745,0.398482,0.0,-3.192675,-0.031782,0.55654,0.45159,3.0,1.0,111.0,0.0,1.0,-78335.0,-25318.0,13694.0,-79237.0,25978.0,13745.0,-0.940422,-0.215698,0.262832,-0.299496,0.159559,-0.940661,0.160962,-0.963335,-0.214654,-0.940931,0.179828,0.286899,0.321723,0.210662,0.923101,0.105561,0.960876,-0.256073,-0.940422,-0.215698,0.262832,-0.299496,0.159559,-0.940661,0.160962,-0.963335,-0.214654,-0.940931,0.179828,0.286899,0.321723,0.210662,0.923101,0.105561,0.960876,-0.256073,-78335.0,-25318.0,13694.0,-79237.0,25978.0,13745.0,18323.0,17417.0,-159976.0,0.0,-54865.0,-55005.0,-54597.0,-55163.0,-15452.0,-12571.0,153368.0,0.0,52772.0,52637.0,52994.0,52775.0,45.0,214.0,-81.0,0.0,-212.0,97.0,677.0,-595.0,-71.0,-212.0,-152.0,0.0,-693.0,-623.0,754.0,-913.0,-0.01231,-0.057949,0.022182,0.0,-0.007761,0.003562,-0.024779,-0.021803,-0.01939,-0.057381,-0.041295,0.0,-0.025394,-0.022807,-0.027595,-0.033439,4076.460205,11508.209961,51493.863281,0.0,-17698.589844,-17701.291016,17965.441406,-17439.298828,4067.100342,11506.230469,51361.292969,0.0,17641.53125,17641.439453,-17379.271484,17898.660156,0.0,0.0,0.0,0.0,0.0,0.0,-89.174942,0.0,0.0,0.0,0.0,0.0,0.0,0.0,0.0,0.0,0.0,0.0,0.0,0.0,0.0,0.0,-0.173088,0.0,0.0,0.0,0.0,0.0,0.0,0.0,0.0,0.0,4076.433105,11505.501953,51497.730469,0.0,-17702.714844,-17702.447266,17959.539062,-17445.724609,4065.639404,11503.614258,51340.910156,0.0,17640.503906,17638.986328,-17386.558594,17898.861328,29.930578,90.32489,22.894142,0.0,0.125306,0.104867,28.434015,28.707777,29.851328,90.320877,22.822144,0.0,-3.208301,-2.093817,31.213343,25.760136,1.021,1.008,-63617.0,-145286.0,-412178.0,0.0,141786.0,141676.0,-145019.0,138607.0,-60642.0,-140418.0,-417313.0,0.0,-143245.0,-143379.0,140109.0,-146099.0,0.0,0.0,0.0,0.0,0.0,-0.173088,0.0,0.0,0.0,0.0,0.0,0.0,0.0,0.0,0.0,0.0,0.0,-0.173088,0.0,0.0,0.0,0.0,0.0,0.0
48,2.3479199409484863,0.522391,1.576855,0.399544,0.0,-3.124471,0.004077,0.50642,0.51446,0.521191,1.576745,0.398482,0.0,-3.192969,-0.031955,0.556277,0.451504,3.0,1.0,111.0,0.0,1.0,-78335.0,-25318.0,13694.0,-79236.0,25980.0,13744.0,-0.940422,-0.215698,0.262832,-0.299496,0.159559,-0.940661,0.160962,-0.963335,-0.214654,-0.940872,0.179989,0.286992,0.321885,0.210916,0.922987,0.105597,0.960791,-0.25638,-0.940422,-0.215698,0.262832,-0.299496,0.159559,-0.940661,0.160962,-0.963335,-0.214654,-0.940872,0.179989,0.286992,0.321885,0.210916,0.922987,0.105597,0.960791,-0.25638,-78335.0,-25318.0,13694.0,-79236.0,25980.0,13744.0,18323.0,17417.0,-159976.0,0.0,-54865.0,-55005.0,-54596.0,-55164.0,-15452.0,-12571.0,153368.0,0.0,52771.0,52636.0,52996.0,52775.0,45.0,214.0,-81.0,0.0,-214.0,96.0,677.0,-596.0,-71.0,-212.0,-152.0,0.0,-690.0,-622.0,753.0,-913.0,-0.01231,-0.057949,0.022182,0.0,-0.007837,0.003541,-0.024808,-0.02184,-0.01939,-0.057381,-0.041295,0.0,-0.025269,-0.022774,-0.02757,-0.033435,4076.460205,11508.209961,51493.863281,0.0,-17698.589844,-17701.291016,17965.349609,-17439.390625,4067.100342,11506.230469,51361.292969,0.0,17641.439453,17641.351562,-17379.451172,17898.660156,0.0,0.0,0.0,0.0,0.0,0.0,0.0,0.0,0.0,0.0,0.0,0.0,0.0,0.0,0.0,0.0,0.0,0.0,0.0,0.0,0.0,0.0,0.0,0.0,0.0,0.0,0.0,0.0,0.0,0.0,0.0,0.0,4076.433105,11505.501953,51497.730469,0.0,-17702.714844,-17702.447266,17959.539062,-17445.724609,4065.639404,11503.614258,51340.910156,0.0,17640.503906,17638.986328,-17386.558594,17898.861328,29.930578,90.32489,22.894142,0.0,0.125306,0.104867,28.434015,28.707777,29.851328,90.320877,22.822144,0.0,-3.208301,-2.093817,31.213343,25.760136,1.02,1.007,-63617.0,-145286.0,-412178.0,0.0,141786.0,141676.0,-145019.0,138607.0,-60642.0,-140418.0,-417313.0,0.0,-143245.0,-143379.0,140109.0,-146099.0,0.0,0.0,0.0,0.0,0.0,0.0,0.0,0.0,0.0,0.0,0.0,0.0,0.0,0.0,0.0,0.0,0.0,0.0,0.0,0.0,0.0,0.0,0.0,0.0
49,2.3689589500427246,0.522391,1.576855,0.399544,0.0,-3.124471,0.004077,0.50642,0.514287,0.521191,1.576745,0.398482,0.0,-3.192969,-0.031955,0.556104,0.451504,3.0,1.0,111.0,0.0,1.0,-78335.0,-25318.0,13694.0,-79236.0,25980.0,13744.0,-0.940403,-0.21578,0.262832,-0.29951,0.159533,-0.940661,0.161045,-0.963322,-0.214654,-0.940856,0.180071,0.286992,0.321904,0.210888,0.922987,0.10568,0.960781,-0.25638,-0.940403,-0.21578,0.262832,-0.29951,0.159533,-0.940661,0.161045,-0.963322,-0.214654,-0.940856,0.180071,0.286992,0.321904,0.210888,0.922987,0.10568,0.960781,-0.25638,-78335.0,-25318.0,13694.0,-79236.0,25980.0,13744.0,18323.0,17417.0,-159976.0,0.0,-54865.0,-55005.0,-54596.0,-55165.0,-15452.0,-12571.0,153368.0,0.0,52771.0,52636.0,52997.0,52775.0,45.0,214.0,-81.0,0.0,-216.0,96.0,680.0,-597.0,-71.0,-212.0,-152.0,0.0,-691.0,-623.0,754.0,-913.0,-0.01231,-0.057949,0.022182,0.0,-0.007913,0.00352,-0.024914,-0.021878,-0.01939,-0.057381,-0.041295,0.0,-0.025286,-0.022817,-0.027621,-0.033431,4076.460205,11508.209961,51493.863281,0.0,-17698.589844,-17701.291016,17965.349609,-17439.480469,4067.100342,11506.230469,51361.292969,0.0,17641.439453,17641.351562,-17379.541016,17898.660156,0.0,0.0,0.0,0.0,0.0,0.0,0.0,0.0,0.0,0.0,0.0,0.0,0.0,0.0,0.0,0.0,0.0,0.0,0.0,0.0,0.0,0.0,0.0,0.0,0.0,0.0,0.0,0.0,0.0,0.0,0.0,0.0,4076.433105,11505.501953,51497.730469,0.0,-17702.714844,-17702.447266,17959.539062,-17445.724609,4065.639404,11503.614258,51340.910156,0.0,17640.503906,17638.986328,-17386.558594,17898.861328,29.930578,90.32489,22.894142,0.0,0.125306,0.104867,28.434015,28.707777,29.851328,90.320877,22.822144,0.0,-3.208301,-2.093817,31.213343,25.760136,1.02,1.007,-63617.0,-145286.0,-412178.0,0.0,141786.0,141676.0,-145019.0,138607.0,-60642.0,-140418.0,-417313.0,0.0,-143245.0,-143379.0,140109.0,-146099.0,0.0,0.0,0.0,0.0,0.0,0.0,0.0,0.0,0.0,0.0,0.0,0.0,0.0,0.0,0.0,0.0,0.0,0.0,0.0,0.0,0.0,0.0,0.0,0.0
50,2.3889548778533936,0.522391,1.576855,0.399544,0.0,-3.124471,0.004077,0.506247,0.514111,0.521191,1.576745,0.398482,0.0,-3.192969,-0.032131,0.556015,0.451239,3.0,1.0,111.0,0.0,1.0,-78335.0,-25318.0,13694.0,-79236.0,25982.0,13744.0,-0.940403,-0.215781,0.262832,-0.29951,0.159533,-0.940661,0.161047,-0.963321,-0.214654,-0.940821,0.17999,0.287156,0.322048,0.210925,0.922928,0.10555,0.960788,-0.256408,-0.940403,-0.215781,0.262832,-0.29951,0.159533,-0.940661,0.161047,-0.963321,-0.214654,-0.940821,0.17999,0.287156,0.322048,0.210925,0.922928,0.10555,0.960788,-0.256408,-78335.0,-25318.0,13694.0,-79236.0,25982.0,13744.0,18323.0,17417.0,-159976.0,0.0,-54865.0,-55005.0,-54595.0,-55166.0,-15452.0,-12571.0,153368.0,0.0,52771.0,52635.0,52998.0,52774.0,45.0,214.0,-81.0,0.0,-218.0,95.0,681.0,-598.0,-71.0,-212.0,-152.0,0.0,-691.0,-622.0,755.0,-911.0,-0.01231,-0.057949,0.022182,0.0,-0.007985,0.0035,-0.024937,-0.021908,-0.01939,-0.057381,-0.041295,0.0,-0.025302,-0.022779,-0.027663,-0.033347,4076.460205,11508.209961,51493.863281,0.0,-17698.589844,-17701.291016,17965.259766,-17439.570312,4067.100342,11506.230469,51361.292969,0.0,17641.439453,17641.259766,-17379.630859,17898.570312,0.0,0.0,0.0,0.0,0.0,0.0,0.0,0.0,0.0,0.0,0.0,0.0,0.0,0.0,0.0,0.0,0.0,0.0,0.0,0.0,0.0,0.0,0.0,0.0,0.0,0.0,0.0,0.0,0.0,0.0,0.0,0.0,4076.433105,11505.501953,51497.730469,0.0,-17702.714844,-17702.447266,17959.539062,-17445.724609,4065.639404,11503.614258,51340.910156,0.0,17640.503906,17638.986328,-17386.558594,17898.861328,29.930578,90.32489,22.894142,0.0,0.125306,0.104867,28.434015,28.707777,29.851328,90.320877,22.822144,0.0,-3.208301,-2.093817,31.213343,25.760136,1.02,1.007,-63617.0,-145286.0,-412178.0,0.0,141786.0,141676.0,-145019.0,138607.0,-60642.0,-140418.0,-417313.0,0.0,-143245.0,-143379.0,140109.0,-146099.0,0.0,0.0,0.0,0.0,0.0,0.0,0.0,0.0,0.0,0.0,0.0,0.0,0.0,0.0,0.0,0.0,0.0,0.0,0.0,0.0,0.0,0.0,0.0,0.0
