MHC-RobotSimulators-Research/Data_Analysis_MotionReplication/mai_plotter/offset_fixed/1arm__p3.csv
Unnamed: 0,time,jpos0,jpos1,jpos2,jpos3,jpos4,jpos5,jpos6,jpos7,jpos8,jpos9,jpos10,jpos11,jpos12,jpos13,jpos14,jpos15,runlevel,sublevel,last_seq,type0,type1,pos0,pos1,pos2,pos3,pos4,pos5,ori0,ori1,ori2,ori3,ori4,ori5,ori6,ori7,ori8,ori9,ori10,ori11,ori12,ori13,ori14,ori15,ori16,ori17,ori_d0,ori_d1,ori_d2,ori_d3,ori_d4,ori_d5,ori_d6,ori_d7,ori_d8,ori_d9,ori_d10,ori_d11,ori_d12,ori_d13,ori_d14,ori_d15,ori_d16,ori_d17,pos_d0,pos_d1,pos_d2,pos_d3,pos_d4,pos_d5,encVals0,encVals1,encVals2,encVals3,encVals4,encVals5,encVals6,encVals7,encVals8,encVals9,encVals10,encVals11,encVals12,encVals13,encVals14,encVals15,dac_vals0,dac_vals1,dac_vals2,dac_vals3,dac_vals4,dac_vals5,dac_vals6,dac_vals7,dac_vals8,dac_vals9,dac_vals10,dac_vals11,dac_vals12,dac_vals13,dac_vals14,dac_vals15,Tau0,Tau1,Tau2,Tau3,Tau4,Tau5,Tau6,Tau7,Tau8,Tau9,Tau10,Tau11,Tau12,Tau13,Tau14,Tau15,mpos0,mpos1,mpos2,mpos3,mpos4,mpos5,mpos6,mpos7,mpos8,mpos9,mpos10,mpos11,mpos12,mpos13,mpos14,mpos15,mvel0,mvel1,mvel2,mvel3,mvel4,mvel5,mvel6,mvel7,mvel8,mvel9,mvel10,mvel11,mvel12,mvel13,mvel14,mvel15,jvel0,jvel1,jvel2,jvel3,jvel4,jvel5,jvel6,jvel7,jvel8,jvel9,jvel10,jvel11,jvel12,jvel13,jvel14,jvel15,mpos_d0,mpos_d1,mpos_d2,mpos_d3,mpos_d4,mpos_d5,mpos_d6,mpos_d7,mpos_d8,mpos_d9,mpos_d10,mpos_d11,mpos_d12,mpos_d13,mpos_d14,mpos_d15,jpos_d0,jpos_d1,jpos_d2,jpos_d3,jpos_d4,jpos_d5,jpos_d6,jpos_d7,jpos_d8,jpos_d9,jpos_d10,jpos_d11,jpos_d12,jpos_d13,jpos_d14,jpos_d15,grasp_d0,grasp_d1,encoffsets0,encoffsets1,encoffsets2,encoffsets3,encoffsets4,encoffsets5,encoffsets6,encoffsets7,encoffsets8,encoffsets9,encoffsets10,encoffsets11,encoffsets12,encoffsets13,encoffsets14,encoffsets15,jac_vel0,jac_vel1,jac_vel2,jac_vel3,jac_vel4,jac_vel5,jac_vel6,jac_vel7,jac_vel8,jac_vel9,jac_vel10,jac_vel11,jac_f0,jac_f1,jac_f2,jac_f3,jac_f4,jac_f5,jac_f6,jac_f7,jac_f8,jac_f9,jac_f10,jac_f11
0,0.0,0.522391,1.576855,0.399574,0.0,-3.134339,0.004442,0.779087,0.788747,0.521295,1.576588,0.39857,0.0,-3.1429620000000003,0.002937,0.786585,0.790158,3.0,1.0,111.0,0.0,1.0,-78308.0,-25304.0,13690.0,-79277.0,25538.0,13833.0,-0.940689,-0.212294,0.264642,-0.299062,0.150522,-0.942287,0.160207,-0.965544,-0.205083,-0.939243,0.217473,0.265573,0.300404,0.146455,0.942501,0.166074,0.965016,-0.202887,-0.941211,-0.21197,0.263041,-0.297815,0.153099,-0.942267,0.159461,-0.96521,-0.207226,-0.939112,0.218086,0.265532,0.300421,0.146039,0.94256,0.166781,0.964941,-0.202664,-78299.0,-25281.0,13668.0,-79450.0,25575.0,13839.0,18323.0,17417.0,-160017.0,0.0,-54913.0,-55017.0,-56172.0,-53609.0,-15443.0,-12582.0,153488.0,0.0,52984.0,52877.0,51619.0,54655.0,45.0,208.0,-64.0,0.0,-138.0,-32.0,-358.0,-196.0,-70.0,-212.0,-169.0,0.0,-525.0,-380.0,-544.0,-663.0,-0.01234,-0.056536,0.017476,0.0,-0.005055,-0.001179,0.013107,-0.0072,-0.018976,-0.057507,-0.045736,0.0,-0.019232,-0.013935,0.019927,-0.024267,4076.460205,11508.209961,51497.550781,0.0,-17702.910156,-17702.371094,18107.189453,-17299.439453,4067.9104,11505.240234,51372.089844,0.0,17660.611328,17663.039062,-17255.521484,18067.861328,0.0,0.0,0.0,0.0,0.0,0.0,0.0,0.0,0.0,0.0,0.0,0.0,0.0,0.0,0.0,0.0,0.0,0.0,0.0,0.0,0.0,0.0,0.0,0.0,0.0,0.0,0.0,0.0,0.0,0.0,0.0,0.0,4076.427734,11505.772461,51499.621094,0.0,-17702.228516,-17701.78125,18106.107422,-17300.332031,4066.534668,11502.597656,51350.011719,0.0,17660.753906,17663.0,-17255.746094,18068.734375,29.930542,90.327118,22.895,0.0,0.450418,0.320026,44.485218,45.125381,29.857903,90.311554,22.826385,0.0,-0.143273,0.163831,45.045101,45.367641,1.564,1.578,-63617.0,-145286.0,-412178.0,0.0,141786.0,141676.0,-145019.0,138607.0,-60642.0,-140418.0,-417313.0,0.0,-143245.0,-143379.0,140109.0,-146099.0,0.0,0.0,0.0,0.0,0.0,0.0,0.0,0.0,0.0,0.0,0.0,0.0,0.0,0.0,0.0,0.0,0.0,0.0,0.0,0.0,0.0,0.0,0.0,0.0
1,1.3716042041778564,0.522391,1.576855,0.399574,0.0,-3.134339,0.004442,0.528409,0.509418,0.521295,1.576588,0.39857,0.0,-3.1878010000000003,-0.02938,0.581761,0.460606,3.0,1.0,111.0,0.0,1.0,-78308.0,-25304.0,13690.0,-79162.0,25929.0,13730.0,-0.937551,-0.225748,0.264642,-0.301187,0.146223,-0.942287,0.174022,-0.963149,-0.205083,-0.942922,0.170834,0.285856,0.318166,0.208695,0.924779,0.098327,0.962945,-0.251137,-0.937551,-0.225748,0.264642,-0.301187,0.146223,-0.942287,0.174022,-0.963149,-0.205083,-0.942922,0.170834,0.285856,0.318166,0.208695,0.924779,0.098327,0.962945,-0.251137,-78308.0,-25304.0,13690.0,-79162.0,25929.0,13730.0,18323.0,17417.0,-160017.0,0.0,-54913.0,-55017.0,-54737.0,-55208.0,-15443.0,-12582.0,153488.0,0.0,52830.0,52692.0,52884.0,52861.0,45.0,208.0,-64.0,0.0,-233.0,-110.0,611.0,-612.0,-70.0,-212.0,-169.0,0.0,-736.0,-642.0,768.0,-999.0,-0.01234,-0.056536,0.017476,0.0,-0.008561,-0.004061,-0.022385,-0.022429,-0.018976,-0.057507,-0.045736,0.0,-0.026958,-0.023503,-0.028131,-0.036587,4076.460205,11508.209961,51497.550781,0.0,-17702.910156,-17702.371094,17978.041016,-17443.351562,4067.9104,11505.240234,51372.089844,0.0,17646.75,17646.390625,-17369.371094,17906.400391,0.0,0.0,0.0,0.0,0.0,0.0,-180.098419,-180.098419,0.0,0.0,0.0,0.0,0.0,0.0,-90.92347,0.0,0.0,0.0,0.0,0.0,0.0,0.0,-0.349569,-0.349569,0.0,0.0,0.0,0.0,0.0,0.0,-0.176481,0.0,4076.427734,11505.772461,51499.621094,0.0,-17704.220703,-17704.220703,17961.859375,-17450.003906,4066.534668,11502.597656,51350.011719,0.0,17644.009766,17640.962891,-17389.28125,17901.902344,29.930542,90.327118,22.895,0.0,0.081296,0.048724,28.579004,28.344654,29.857903,90.311554,22.826385,0.0,-3.246555,-2.286916,31.419899,25.588943,1.037,1.042,-63617.0,-145286.0,-412178.0,0.0,141786.0,141676.0,-145019.0,138607.0,-60642.0,-140418.0,-417313.0,0.0,-143245.0,-143379.0,140109.0,-146099.0,0.0,0.0,0.0,0.0,0.0,-0.349569,0.0,0.0,0.0,0.0,0.0,-0.176481,0.0,0.0,0.0,0.0,0.0,-0.349569,0.0,0.0,0.0,0.0,0.0,-0.176481
2,1.393562078475952,0.522391,1.576855,0.399574,0.0,-3.134339,0.004442,0.525263,0.503478,0.521295,1.576588,0.39857,0.0,-3.188384,-0.030079,0.57984,0.453968,3.0,1.0,111.0,0.0,1.0,-78308.0,-25304.0,13690.0,-79160.0,25938.0,13728.0,-0.937235,-0.227057,0.264642,-0.301391,0.145802,-0.942287,0.175367,-0.962906,-0.205083,-0.943136,0.168772,0.286374,0.318281,0.210029,0.924438,0.095872,0.963018,-0.251802,-0.937275,-0.226893,0.264642,-0.301366,0.145854,-0.942287,0.175199,-0.962936,-0.205083,-0.943107,0.168937,0.286374,0.318318,0.209973,0.924438,0.096041,0.963001,-0.251802,-78308.0,-25304.0,13690.0,-79160.0,25938.0,13728.0,18323.0,17417.0,-160017.0,0.0,-54913.0,-55017.0,-54719.0,-55242.0,-15443.0,-12582.0,153488.0,0.0,52828.0,52688.0,52897.0,52825.0,45.0,208.0,-64.0,0.0,-234.0,-112.0,586.0,-548.0,-70.0,-212.0,-169.0,0.0,-730.0,-636.0,750.0,-924.0,-0.01234,-0.056536,0.017476,0.0,-0.008591,-0.004099,-0.021453,-0.020058,-0.018976,-0.057507,-0.045736,0.0,-0.026725,-0.023289,-0.027474,-0.033818,4076.460205,11508.209961,51497.550781,0.0,-17702.910156,-17702.371094,17976.419922,-17446.410156,4067.9104,11505.240234,51372.089844,0.0,17646.570312,17646.029297,-17370.541016,17903.160156,0.0,0.0,0.0,0.0,0.0,0.0,0.0,-180.098419,0.0,0.0,0.0,0.0,0.0,0.0,0.0,-180.098419,0.0,0.0,0.0,0.0,0.0,0.0,0.0,-0.349569,0.0,0.0,0.0,0.0,0.0,0.0,0.0,-0.349569,4076.427734,11505.772461,51499.621094,0.0,-17704.224609,-17704.224609,17961.640625,-17450.232422,4066.534668,11502.597656,51350.011719,0.0,17644.009766,17640.962891,-17389.28125,17901.902344,29.930542,90.327118,22.895,0.0,0.080737,0.048313,28.554903,28.319229,29.857903,90.311554,22.826385,0.0,-3.246555,-2.286916,31.419899,25.588943,1.029,1.034,-63617.0,-145286.0,-412178.0,0.0,141786.0,141676.0,-145019.0,138607.0,-60642.0,-140418.0,-417313.0,0.0,-143245.0,-143379.0,140109.0,-146099.0,0.0,0.0,0.0,0.0,0.0,0.0,0.0,0.0,0.0,0.0,0.0,0.0,0.0,0.0,0.0,0.0,0.0,0.0,0.0,0.0,0.0,0.0,0.0,0.0
3,1.4137589931488037,0.522391,1.576855,0.399574,0.0,-3.134339,0.004442,0.525263,0.501384,0.521295,1.576588,0.39857,0.0,-3.188966,-0.030428,0.579842,0.45065,3.0,1.0,111.0,0.0,1.0,-78308.0,-25304.0,13690.0,-79159.0,25942.0,13726.0,-0.936997,-0.228038,0.264642,-0.301544,0.145486,-0.942287,0.176375,-0.962721,-0.205083,-0.943329,0.167363,0.286567,0.318216,0.21112,0.924212,0.094178,0.963025,-0.252413,-0.936997,-0.228038,0.264642,-0.301544,0.145486,-0.942287,0.176375,-0.962721,-0.205083,-0.943329,0.167363,0.286567,0.318216,0.21112,0.924212,0.094178,0.963025,-0.252413,-78308.0,-25304.0,13690.0,-79159.0,25942.0,13726.0,18323.0,17417.0,-160017.0,0.0,-54913.0,-55017.0,-54719.0,-55254.0,-15443.0,-12582.0,153488.0,0.0,52826.0,52686.0,52898.0,52807.0,45.0,208.0,-64.0,0.0,-235.0,-112.0,593.0,-523.0,-70.0,-212.0,-169.0,0.0,-723.0,-634.0,757.0,-885.0,-0.01234,-0.056536,0.017476,0.0,-0.008614,-0.004132,-0.021711,-0.01917,-0.018976,-0.057507,-0.045736,0.0,-0.026485,-0.023218,-0.027723,-0.032407,4076.460205,11508.209961,51497.550781,0.0,-17702.910156,-17702.371094,17976.419922,-17447.490234,4067.9104,11505.240234,51372.089844,0.0,17646.390625,17645.849609,-17370.628906,17901.541016,0.0,0.0,0.0,0.0,0.0,0.0,0.0,0.0,0.0,0.0,0.0,0.0,0.0,0.0,0.0,0.0,0.0,0.0,0.0,0.0,0.0,0.0,0.0,0.0,0.0,0.0,0.0,0.0,0.0,0.0,0.0,0.0,4076.427734,11505.772461,51499.621094,0.0,-17704.224609,-17704.224609,17961.640625,-17450.232422,4066.534668,11502.597656,51350.011719,0.0,17644.009766,17640.962891,-17389.28125,17901.902344,29.930542,90.327118,22.895,0.0,0.080737,0.048313,28.554903,28.319229,29.857903,90.311554,22.826385,0.0,-3.246555,-2.286916,31.419899,25.588943,1.026,1.03,-63617.0,-145286.0,-412178.0,0.0,141786.0,141676.0,-145019.0,138607.0,-60642.0,-140418.0,-417313.0,0.0,-143245.0,-143379.0,140109.0,-146099.0,0.0,0.0,0.0,0.0,0.0,0.0,0.0,0.0,0.0,0.0,0.0,0.0,0.0,0.0,0.0,0.0,0.0,0.0,0.0,0.0,0.0,0.0,0.0,0.0
4,1.4356091022491455,0.522391,1.576855,0.399574,0.0,-3.134339,0.004442,0.525263,0.501384,0.521295,1.576588,0.39857,0.0,-3.189255,-0.030778,0.57984,0.450475,3.0,1.0,111.0,0.0,1.0,-78308.0,-25304.0,13690.0,-79157.0,25946.0,13725.0,-0.936997,-0.228038,0.264642,-0.301544,0.145486,-0.942287,0.176375,-0.962721,-0.205083,-0.94325,0.167362,0.286827,0.318501,0.211437,0.924041,0.094003,0.962956,-0.252743,-0.936997,-0.228038,0.264642,-0.301544,0.145486,-0.942287,0.176375,-0.962721,-0.205083,-0.94325,0.167362,0.286827,0.318501,0.211437,0.924041,0.094003,0.962956,-0.252743,-78308.0,-25304.0,13690.0,-79157.0,25946.0,13725.0,18323.0,17417.0,-160017.0,0.0,-54913.0,-55017.0,-54719.0,-55254.0,-15443.0,-12582.0,153488.0,0.0,52825.0,52684.0,52899.0,52807.0,45.0,208.0,-64.0,0.0,-236.0,-113.0,601.0,-525.0,-70.0,-212.0,-169.0,0.0,-721.0,-632.0,765.0,-885.0,-0.01234,-0.056536,0.017476,0.0,-0.008639,-0.004167,-0.021995,-0.019223,-0.018976,-0.057507,-0.045736,0.0,-0.02639,-0.023152,-0.028001,-0.0324,4076.460205,11508.209961,51497.550781,0.0,-17702.910156,-17702.371094,17976.419922,-17447.490234,4067.9104,11505.240234,51372.089844,0.0,17646.300781,17645.669922,-17370.720703,17901.541016,0.0,0.0,0.0,0.0,0.0,0.0,0.0,0.0,0.0,0.0,0.0,0.0,0.0,0.0,0.0,0.0,0.0,0.0,0.0,0.0,0.0,0.0,0.0,0.0,0.0,0.0,0.0,0.0,0.0,0.0,0.0,0.0,4076.427734,11505.772461,51499.621094,0.0,-17704.224609,-17704.224609,17961.640625,-17450.232422,4066.534668,11502.597656,51350.011719,0.0,17644.009766,17640.962891,-17389.28125,17901.902344,29.930542,90.327118,22.895,0.0,0.080737,0.048313,28.554903,28.319229,29.857903,90.311554,22.826385,0.0,-3.246555,-2.286916,31.419899,25.588943,1.026,1.03,-63617.0,-145286.0,-412178.0,0.0,141786.0,141676.0,-145019.0,138607.0,-60642.0,-140418.0,-417313.0,0.0,-143245.0,-143379.0,140109.0,-146099.0,0.0,0.0,0.0,0.0,0.0,0.0,0.0,0.0,0.0,0.0,0.0,0.0,0.0,0.0,0.0,0.0,0.0,0.0,0.0,0.0,0.0,0.0,0.0,0.0
5,1.4565651416778564,0.522391,1.576855,0.399574,0.0,-3.134339,0.004442,0.525263,0.501384,0.521295,1.576588,0.39857,0.0,-3.189549,-0.031128,0.579492,0.450301,3.0,1.0,111.0,0.0,1.0,-78308.0,-25304.0,13690.0,-79156.0,25950.0,13724.0,-0.936997,-0.228038,0.264642,-0.301544,0.145486,-0.942287,0.176375,-0.962721,-0.205083,-0.943142,0.167525,0.287085,0.318822,0.211705,0.923869,0.093994,0.962869,-0.253078,-0.936997,-0.228038,0.264642,-0.301544,0.145486,-0.942287,0.176375,-0.962721,-0.205083,-0.943142,0.167525,0.287085,0.318822,0.211705,0.923869,0.093994,0.962869,-0.253078,-78308.0,-25304.0,13690.0,-79156.0,25950.0,13724.0,18323.0,17417.0,-160017.0,0.0,-54913.0,-55017.0,-54719.0,-55254.0,-15443.0,-12582.0,153488.0,0.0,52824.0,52682.0,52902.0,52807.0,45.0,208.0,-64.0,0.0,-236.0,-114.0,608.0,-526.0,-70.0,-212.0,-169.0,0.0,-718.0,-630.0,768.0,-885.0,-0.01234,-0.056536,0.017476,0.0,-0.008664,-0.004201,-0.022266,-0.019273,-0.018976,-0.057507,-0.045736,0.0,-0.026288,-0.023079,-0.028104,-0.032393,4076.460205,11508.209961,51497.550781,0.0,-17702.910156,-17702.371094,17976.419922,-17447.490234,4067.9104,11505.240234,51372.089844,0.0,17646.210938,17645.490234,-17370.990234,17901.541016,0.0,0.0,0.0,0.0,0.0,0.0,0.0,0.0,0.0,0.0,0.0,0.0,0.0,0.0,0.0,0.0,0.0,0.0,0.0,0.0,0.0,0.0,0.0,0.0,0.0,0.0,0.0,0.0,0.0,0.0,0.0,0.0,4076.427734,11505.772461,51499.621094,0.0,-17704.224609,-17704.224609,17961.640625,-17450.232422,4066.534668,11502.597656,51350.011719,0.0,17644.009766,17640.962891,-17389.28125,17901.902344,29.930542,90.327118,22.895,0.0,0.080737,0.048313,28.554903,28.319229,29.857903,90.311554,22.826385,0.0,-3.246555,-2.286916,31.419899,25.588943,1.026,1.029,-63617.0,-145286.0,-412178.0,0.0,141786.0,141676.0,-145019.0,138607.0,-60642.0,-140418.0,-417313.0,0.0,-143245.0,-143379.0,140109.0,-146099.0,0.0,0.0,0.0,0.0,0.0,0.0,0.0,0.0,0.0,0.0,0.0,0.0,0.0,0.0,0.0,0.0,0.0,0.0,0.0,0.0,0.0,0.0,0.0,0.0
6,1.4765920639038086,0.522391,1.576855,0.399574,0.0,-3.134339,0.004442,0.525263,0.501384,0.521295,1.576588,0.39857,0.0,-3.1898370000000003,-0.031474,0.579139,0.450128,3.0,1.0,111.0,0.0,1.0,-78308.0,-25304.0,13690.0,-79155.0,25954.0,13723.0,-0.936997,-0.228038,0.264642,-0.301544,0.145486,-0.942287,0.176375,-0.962721,-0.205083,-0.943035,0.167691,0.287341,0.319141,0.211965,0.923699,0.093989,0.962783,-0.253408,-0.936997,-0.228038,0.264642,-0.301544,0.145486,-0.942287,0.176375,-0.962721,-0.205083,-0.943035,0.167691,0.287341,0.319141,0.211965,0.923699,0.093989,0.962783,-0.253408,-78308.0,-25304.0,13690.0,-79155.0,25954.0,13723.0,18323.0,17417.0,-160017.0,0.0,-54913.0,-55017.0,-54719.0,-55254.0,-15443.0,-12582.0,153488.0,0.0,52823.0,52680.0,52905.0,52807.0,45.0,208.0,-64.0,0.0,-237.0,-115.0,615.0,-528.0,-70.0,-212.0,-169.0,0.0,-715.0,-628.0,770.0,-885.0,-0.01234,-0.056536,0.017476,0.0,-0.008687,-0.004234,-0.022524,-0.019321,-0.018976,-0.057507,-0.045736,0.0,-0.026185,-0.023001,-0.028184,-0.032387,4076.460205,11508.209961,51497.550781,0.0,-17702.910156,-17702.371094,17976.419922,-17447.490234,4067.9104,11505.240234,51372.089844,0.0,17646.121094,17645.310547,-17371.261719,17901.541016,0.0,0.0,0.0,0.0,0.0,0.0,0.0,0.0,0.0,0.0,0.0,0.0,0.0,0.0,-90.92347,0.0,0.0,0.0,0.0,0.0,0.0,0.0,0.0,0.0,0.0,0.0,0.0,0.0,0.0,0.0,-0.176481,0.0,4076.427734,11505.772461,51499.621094,0.0,-17704.224609,-17704.224609,17961.640625,-17450.232422,4066.534668,11502.597656,51350.011719,0.0,17644.009766,17640.962891,-17389.28125,17901.902344,29.930542,90.327118,22.895,0.0,0.080737,0.048313,28.554903,28.319229,29.857903,90.311554,22.826385,0.0,-3.246555,-2.286916,31.419899,25.588943,1.026,1.029,-63617.0,-145286.0,-412178.0,0.0,141786.0,141676.0,-145019.0,138607.0,-60642.0,-140418.0,-417313.0,0.0,-143245.0,-143379.0,140109.0,-146099.0,0.0,0.0,0.0,0.0,0.0,0.0,0.0,0.0,0.0,0.0,0.0,-0.176481,0.0,0.0,0.0,0.0,0.0,0.0,0.0,0.0,0.0,0.0,0.0,-0.176481
7,1.4976000785827637,0.522391,1.576855,0.399574,0.0,-3.134339,0.004442,0.525089,0.501208,0.521295,1.576588,0.39857,0.0,-3.1898370000000003,-0.03165,0.579054,0.450039,3.0,1.0,111.0,0.0,1.0,-78308.0,-25304.0,13690.0,-79154.0,25956.0,13722.0,-0.936996,-0.22804,0.264642,-0.301544,0.145486,-0.942287,0.176377,-0.962721,-0.205083,-0.942985,0.167692,0.287505,0.319303,0.211976,0.92364,0.093943,0.96278,-0.253435,-0.936996,-0.22804,0.264642,-0.301544,0.145486,-0.942287,0.176377,-0.962721,-0.205083,-0.942985,0.167692,0.287505,0.319303,0.211976,0.92364,0.093943,0.96278,-0.253435,-78308.0,-25304.0,13690.0,-79154.0,25956.0,13722.0,18323.0,17417.0,-160017.0,0.0,-54913.0,-55017.0,-54718.0,-55255.0,-15443.0,-12582.0,153488.0,0.0,52823.0,52679.0,52906.0,52807.0,45.0,208.0,-64.0,0.0,-238.0,-116.0,620.0,-527.0,-70.0,-212.0,-169.0,0.0,-716.0,-628.0,777.0,-884.0,-0.01234,-0.056536,0.017476,0.0,-0.008711,-0.004268,-0.022716,-0.019291,-0.018976,-0.057507,-0.045736,0.0,-0.026224,-0.023001,-0.028436,-0.03238,4076.460205,11508.209961,51497.550781,0.0,-17702.910156,-17702.371094,17976.330078,-17447.580078,4067.9104,11505.240234,51372.089844,0.0,17646.121094,17645.220703,-17371.349609,17901.541016,0.0,0.0,0.0,0.0,0.0,0.0,0.0,0.0,0.0,0.0,0.0,0.0,0.0,0.0,0.0,0.0,0.0,0.0,0.0,0.0,0.0,0.0,0.0,0.0,0.0,0.0,0.0,0.0,0.0,0.0,0.0,0.0,4076.427734,11505.772461,51499.621094,0.0,-17704.224609,-17704.224609,17961.640625,-17450.232422,4066.534668,11502.597656,51350.011719,0.0,17644.009766,17640.962891,-17389.28125,17901.902344,29.930542,90.327118,22.895,0.0,0.080737,0.048313,28.554903,28.319229,29.857903,90.311554,22.826385,0.0,-3.246555,-2.286916,31.419899,25.588943,1.026,1.029,-63617.0,-145286.0,-412178.0,0.0,141786.0,141676.0,-145019.0,138607.0,-60642.0,-140418.0,-417313.0,0.0,-143245.0,-143379.0,140109.0,-146099.0,0.0,0.0,0.0,0.0,0.0,0.0,0.0,0.0,0.0,0.0,0.0,0.0,0.0,0.0,0.0,0.0,0.0,0.0,0.0,0.0,0.0,0.0,0.0,0.0
8,1.5175740718841553,0.522391,1.576855,0.399574,0.0,-3.134339,0.004442,0.524916,0.501208,0.521295,1.576588,0.39857,0.0,-3.190131,-0.032,0.578703,0.449688,3.0,1.0,111.0,0.0,1.0,-78308.0,-25304.0,13690.0,-79153.0,25960.0,13721.0,-0.937016,-0.227958,0.264642,-0.301531,0.145512,-0.942287,0.176294,-0.962736,-0.205083,-0.942891,0.167774,0.287763,0.319606,0.212271,0.923468,0.093851,0.962701,-0.25377,-0.937016,-0.227958,0.264642,-0.301531,0.145512,-0.942287,0.176294,-0.962736,-0.205083,-0.942891,0.167774,0.287763,0.319606,0.212271,0.923468,0.093851,0.962701,-0.25377,-78308.0,-25304.0,13690.0,-79153.0,25960.0,13721.0,18323.0,17417.0,-160017.0,0.0,-54913.0,-55017.0,-54717.0,-55255.0,-15443.0,-12582.0,153488.0,0.0,52822.0,52677.0,52909.0,52806.0,45.0,208.0,-64.0,0.0,-238.0,-117.0,625.0,-528.0,-70.0,-212.0,-169.0,0.0,-713.0,-626.0,779.0,-882.0,-0.01234,-0.056536,0.017476,0.0,-0.008734,-0.0043,-0.022894,-0.019337,-0.018976,-0.057507,-0.045736,0.0,-0.026117,-0.022917,-0.028509,-0.032294,4076.460205,11508.209961,51497.550781,0.0,-17702.910156,-17702.371094,17976.242188,-17447.580078,4067.9104,11505.240234,51372.089844,0.0,17646.029297,17645.041016,-17371.621094,17901.449219,0.0,0.0,0.0,0.0,0.0,0.0,0.0,0.0,0.0,0.0,0.0,0.0,0.0,-90.92347,0.0,0.0,0.0,0.0,0.0,0.0,0.0,0.0,0.0,0.0,0.0,0.0,0.0,0.0,0.0,-0.176481,0.088241,-0.088241,4076.427734,11505.772461,51499.621094,0.0,-17704.224609,-17704.224609,17961.640625,-17450.232422,4066.534668,11502.597656,51350.011719,0.0,17644.009766,17640.962891,-17389.28125,17901.902344,29.930542,90.327118,22.895,0.0,0.080737,0.048313,28.554903,28.319229,29.857903,90.311554,22.826385,0.0,-3.246555,-2.286916,31.419899,25.588943,1.026,1.028,-63617.0,-145286.0,-412178.0,0.0,141786.0,141676.0,-145019.0,138607.0,-60642.0,-140418.0,-417313.0,0.0,-143245.0,-143379.0,140109.0,-146099.0,0.0,0.0,0.0,0.0,0.0,0.0,0.0,-0.176481,0.0,-0.096525,-0.147745,0.088241,0.0,0.0,0.0,0.0,0.0,0.0,0.0,-0.176481,0.0,-0.096525,-0.147745,0.088241
9,1.537562131881714,0.522391,1.576855,0.399574,0.0,-3.134339,0.004442,0.52474,0.501208,0.521295,1.576588,0.39857,0.0,-3.190131,-0.032,0.57818,0.449688,3.0,1.0,111.0,0.0,1.0,-78308.0,-25304.0,13690.0,-79153.0,25960.0,13721.0,-0.937036,-0.227876,0.264642,-0.301518,0.145538,-0.942287,0.176209,-0.962752,-0.205083,-0.942847,0.168021,0.287763,0.319662,0.212187,0.923468,0.094102,0.962676,-0.25377,-0.937036,-0.227876,0.264642,-0.301518,0.145538,-0.942287,0.176209,-0.962752,-0.205083,-0.942847,0.168021,0.287763,0.319662,0.212187,0.923468,0.094102,0.962676,-0.25377,-78308.0,-25304.0,13690.0,-79153.0,25960.0,13721.0,18323.0,17417.0,-160017.0,0.0,-54913.0,-55017.0,-54716.0,-55255.0,-15443.0,-12582.0,153488.0,0.0,52822.0,52677.0,52912.0,52806.0,45.0,208.0,-64.0,0.0,-239.0,-118.0,630.0,-529.0,-70.0,-212.0,-169.0,0.0,-714.0,-628.0,781.0,-882.0,-0.01234,-0.056536,0.017476,0.0,-0.008757,-0.004332,-0.023068,-0.019383,-0.018976,-0.057507,-0.045736,0.0,-0.026152,-0.022988,-0.02858,-0.032286,4076.460205,11508.209961,51497.550781,0.0,-17702.910156,-17702.371094,17976.150391,-17447.580078,4067.9104,11505.240234,51372.089844,0.0,17646.029297,17645.041016,-17371.890625,17901.449219,0.0,0.0,0.0,0.0,0.0,0.0,0.0,0.0,0.0,0.0,0.0,0.0,0.0,0.0,0.0,0.0,0.0,0.0,0.0,0.0,0.0,0.0,0.0,0.0,0.0,0.0,0.0,0.0,0.0,0.0,0.0,0.0,4076.427734,11505.772461,51499.621094,0.0,-17704.224609,-17704.224609,17961.640625,-17450.232422,4066.534668,11502.597656,51350.011719,0.0,17644.009766,17640.962891,-17389.28125,17901.902344,29.930542,90.327118,22.895,0.0,0.080737,0.048313,28.554903,28.319229,29.857903,90.311554,22.826385,0.0,-3.246555,-2.286916,31.419899,25.588943,1.025,1.027,-63617.0,-145286.0,-412178.0,0.0,141786.0,141676.0,-145019.0,138607.0,-60642.0,-140418.0,-417313.0,0.0,-143245.0,-143379.0,140109.0,-146099.0,0.0,0.0,0.0,0.0,0.0,0.0,0.0,0.0,0.0,0.0,0.0,0.0,0.0,0.0,0.0,0.0,0.0,0.0,0.0,0.0,0.0,0.0,0.0,0.0
10,1.558560132980347,0.522391,1.576855,0.399574,0.0,-3.134339,0.004442,0.52439,0.501035,0.521295,1.576588,0.39857,0.0,-3.19042,-0.032349,0.577656,0.449513,3.0,1.0,111.0,0.0,1.0,-78308.0,-25304.0,13690.0,-79152.0,25965.0,13719.0,-0.937056,-0.227793,0.264642,-0.301506,0.145565,-0.942287,0.176124,-0.962767,-0.205083,-0.942724,0.168266,0.288023,0.320002,0.212421,0.923296,0.094178,0.962582,-0.2541,-0.937056,-0.227793,0.264642,-0.301506,0.145565,-0.942287,0.176124,-0.962767,-0.205083,-0.942775,0.168263,0.287858,0.319839,0.21241,0.923355,0.094222,0.962585,-0.254072,-78308.0,-25304.0,13690.0,-79152.0,25963.0,13720.0,18323.0,17417.0,-160017.0,0.0,-54913.0,-55017.0,-54714.0,-55256.0,-15443.0,-12582.0,153488.0,0.0,52821.0,52675.0,52916.0,52806.0,45.0,208.0,-64.0,0.0,-239.0,-119.0,633.0,-528.0,-70.0,-212.0,-169.0,0.0,-711.0,-625.0,781.0,-882.0,-0.01234,-0.056536,0.017476,0.0,-0.008781,-0.004366,-0.023174,-0.019353,-0.018976,-0.057507,-0.045736,0.0,-0.026048,-0.022904,-0.028581,-0.032277,4076.460205,11508.209961,51497.550781,0.0,-17702.910156,-17702.371094,17975.970703,-17447.669922,4067.9104,11505.240234,51372.089844,0.0,17645.941406,17644.859375,-17372.25,17901.449219,0.0,0.0,0.0,0.0,0.0,0.0,0.0,0.0,0.0,0.0,0.0,0.0,0.0,0.0,0.0,0.0,0.0,0.0,0.0,0.0,0.0,0.0,0.0,0.0,0.0,0.0,0.0,0.0,0.0,0.0,0.0,0.0,4076.427734,11505.772461,51499.621094,0.0,-17704.224609,-17704.224609,17961.640625,-17450.232422,4066.534668,11502.597656,51350.011719,0.0,17644.009766,17640.962891,-17389.28125,17901.902344,29.930542,90.327118,22.895,0.0,0.080737,0.048313,28.554903,28.319229,29.857903,90.311554,22.826385,0.0,-3.246555,-2.286916,31.419899,25.588943,1.025,1.027,-63617.0,-145286.0,-412178.0,0.0,141786.0,141676.0,-145019.0,138607.0,-60642.0,-140418.0,-417313.0,0.0,-143245.0,-143379.0,140109.0,-146099.0,0.0,0.0,0.0,0.0,0.0,0.0,0.0,0.0,0.0,0.0,0.0,0.0,0.0,0.0,0.0,0.0,0.0,0.0,0.0,0.0,0.0,0.0,0.0,0.0
11,1.5797760486602783,0.522391,1.576855,0.399574,0.0,-3.134339,0.004442,0.524041,0.501035,0.521295,1.576588,0.39857,0.0,-3.1907140000000003,-0.032349,0.577134,0.449513,3.0,1.0,111.0,0.0,1.0,-78308.0,-25304.0,13690.0,-79152.0,25965.0,13719.0,-0.937096,-0.227629,0.264642,-0.30148,0.145618,-0.942287,0.175956,-0.962798,-0.205083,-0.942688,0.168588,0.287955,0.320038,0.212611,0.92324,0.094425,0.962484,-0.25438,-0.937096,-0.227629,0.264642,-0.30148,0.145618,-0.942287,0.175956,-0.962798,-0.205083,-0.942688,0.168588,0.287955,0.320038,0.212611,0.92324,0.094425,0.962484,-0.25438,-78308.0,-25304.0,13690.0,-79152.0,25965.0,13719.0,18323.0,17417.0,-160017.0,0.0,-54913.0,-55017.0,-54712.0,-55256.0,-15443.0,-12582.0,153488.0,0.0,52820.0,52675.0,52919.0,52806.0,45.0,208.0,-64.0,0.0,-240.0,-120.0,636.0,-530.0,-70.0,-212.0,-169.0,0.0,-708.0,-627.0,783.0,-881.0,-0.01234,-0.056536,0.017476,0.0,-0.008805,-0.0044,-0.023277,-0.0194,-0.018976,-0.057507,-0.045736,0.0,-0.02594,-0.022975,-0.028655,-0.032269,4076.460205,11508.209961,51497.550781,0.0,-17702.910156,-17702.371094,17975.791016,-17447.669922,4067.9104,11505.240234,51372.089844,0.0,17645.849609,17644.859375,-17372.519531,17901.449219,0.0,0.0,0.0,0.0,0.0,0.0,0.0,0.0,0.0,0.0,0.0,0.0,0.0,0.0,0.0,0.0,0.0,0.0,0.0,0.0,0.0,0.0,0.0,0.0,0.0,0.0,0.0,0.0,0.0,0.0,0.0,0.0,4076.427734,11505.772461,51499.621094,0.0,-17704.224609,-17704.224609,17961.640625,-17450.232422,4066.534668,11502.597656,51350.011719,0.0,17644.009766,17640.962891,-17389.28125,17901.902344,29.930542,90.327118,22.895,0.0,0.080737,0.048313,28.554903,28.319229,29.857903,90.311554,22.826385,0.0,-3.246555,-2.286916,31.419899,25.588943,1.025,1.026,-63617.0,-145286.0,-412178.0,0.0,141786.0,141676.0,-145019.0,138607.0,-60642.0,-140418.0,-417313.0,0.0,-143245.0,-143379.0,140109.0,-146099.0,0.0,0.0,0.0,0.0,0.0,0.0,0.0,0.0,0.0,0.0,0.0,0.0,0.0,0.0,0.0,0.0,0.0,0.0,0.0,0.0,0.0,0.0,0.0,0.0
12,1.6005890369415283,0.522391,1.576855,0.399574,0.0,-3.134339,0.004442,0.523691,0.500858,0.521295,1.576588,0.39857,0.0,-3.1907140000000003,-0.032522,0.576694,0.449254,3.0,1.0,111.0,0.0,1.0,-78308.0,-25304.0,13690.0,-79151.0,25967.0,13719.0,-0.937116,-0.227548,0.264642,-0.301468,0.145644,-0.942287,0.175872,-0.962813,-0.205083,-0.942623,0.168676,0.288116,0.320217,0.212593,0.923182,0.094467,0.962472,-0.254407,-0.937116,-0.227548,0.264642,-0.301468,0.145644,-0.942287,0.175872,-0.962813,-0.205083,-0.942623,0.168676,0.288116,0.320217,0.212593,0.923182,0.094467,0.962472,-0.254407,-78308.0,-25304.0,13690.0,-79151.0,25967.0,13719.0,18323.0,17417.0,-160017.0,0.0,-54913.0,-55017.0,-54710.0,-55257.0,-15443.0,-12582.0,153488.0,0.0,52820.0,52674.0,52922.0,52805.0,45.0,208.0,-64.0,0.0,-241.0,-121.0,638.0,-529.0,-70.0,-212.0,-169.0,0.0,-709.0,-627.0,784.0,-879.0,-0.01234,-0.056536,0.017476,0.0,-0.008829,-0.004434,-0.023377,-0.019367,-0.018976,-0.057507,-0.045736,0.0,-0.025973,-0.022967,-0.028724,-0.032183,4076.460205,11508.209961,51497.550781,0.0,-17702.910156,-17702.371094,17975.609375,-17447.761719,4067.9104,11505.240234,51372.089844,0.0,17645.849609,17644.771484,-17372.791016,17901.361328,0.0,0.0,0.0,0.0,0.0,0.0,0.0,0.0,0.0,0.0,0.0,0.0,0.0,0.0,-90.92347,0.0,0.0,0.0,0.0,0.0,0.0,0.0,0.0,0.0,0.0,0.0,0.0,0.0,0.0,0.0,-0.176481,0.0,4076.427734,11505.772461,51499.621094,0.0,-17704.224609,-17704.224609,17961.640625,-17450.232422,4066.534668,11502.597656,51350.011719,0.0,17644.009766,17640.962891,-17389.28125,17901.902344,29.930542,90.327118,22.895,0.0,0.080737,0.048313,28.554903,28.319229,29.857903,90.311554,22.826385,0.0,-3.246555,-2.286916,31.419899,25.588943,1.024,1.025,-63617.0,-145286.0,-412178.0,0.0,141786.0,141676.0,-145019.0,138607.0,-60642.0,-140418.0,-417313.0,0.0,-143245.0,-143379.0,140109.0,-146099.0,0.0,0.0,0.0,0.0,0.0,0.0,0.0,0.0,0.0,0.0,0.0,-0.176481,0.0,0.0,0.0,0.0,0.0,0.0,0.0,0.0,0.0,0.0,0.0,-0.176481
13,1.6216061115264893,0.522391,1.576855,0.399574,0.0,-3.134339,0.004442,0.523342,0.500858,0.521295,1.576588,0.39857,0.0,-3.1910030000000003,-0.032699,0.57626,0.449165,3.0,1.0,111.0,0.0,1.0,-78308.0,-25304.0,13690.0,-79150.0,25969.0,13718.0,-0.937156,-0.227384,0.264642,-0.301442,0.145696,-0.942287,0.175704,-0.962844,-0.205083,-0.942549,0.168916,0.288215,0.320397,0.212816,0.923068,0.094585,0.962381,-0.25471,-0.937156,-0.227384,0.264642,-0.301442,0.145696,-0.942287,0.175704,-0.962844,-0.205083,-0.942549,0.168916,0.288215,0.320397,0.212816,0.923068,0.094585,0.962381,-0.25471,-78308.0,-25304.0,13690.0,-79150.0,25969.0,13718.0,18323.0,17417.0,-160017.0,0.0,-54913.0,-55017.0,-54708.0,-55257.0,-15443.0,-12582.0,153488.0,0.0,52819.0,52673.0,52925.0,52805.0,45.0,208.0,-64.0,0.0,-241.0,-122.0,641.0,-530.0,-70.0,-212.0,-169.0,0.0,-706.0,-627.0,786.0,-879.0,-0.01234,-0.056536,0.017476,0.0,-0.008853,-0.004468,-0.023474,-0.019412,-0.018976,-0.057507,-0.045736,0.0,-0.025866,-0.022957,-0.028789,-0.032173,4076.460205,11508.209961,51497.550781,0.0,-17702.910156,-17702.371094,17975.429688,-17447.761719,4067.9104,11505.240234,51372.089844,0.0,17645.759766,17644.679688,-17373.060547,17901.361328,0.0,0.0,0.0,0.0,0.0,0.0,0.0,0.0,0.0,0.0,0.0,0.0,0.0,0.0,0.0,0.0,0.0,0.0,0.0,0.0,0.0,0.0,0.0,0.0,0.0,0.0,0.0,0.0,0.0,0.0,0.0,0.0,4076.427734,11505.772461,51499.621094,0.0,-17704.224609,-17704.224609,17961.640625,-17450.232422,4066.534668,11502.597656,51350.011719,0.0,17644.009766,17640.962891,-17389.28125,17901.902344,29.930542,90.327118,22.895,0.0,0.080737,0.048313,28.554903,28.319229,29.857903,90.311554,22.826385,0.0,-3.246555,-2.286916,31.419899,25.588943,1.024,1.025,-63617.0,-145286.0,-412178.0,0.0,141786.0,141676.0,-145019.0,138607.0,-60642.0,-140418.0,-417313.0,0.0,-143245.0,-143379.0,140109.0,-146099.0,0.0,0.0,0.0,0.0,0.0,0.0,0.0,0.0,0.0,0.0,0.0,0.0,0.0,0.0,0.0,0.0,0.0,0.0,0.0,0.0,0.0,0.0,0.0,0.0
14,1.6416079998016355,0.522391,1.576855,0.399574,0.0,-3.134339,0.004442,0.522819,0.500858,0.521295,1.576588,0.39857,0.0,-3.1910030000000003,-0.032872,0.57547,0.449079,3.0,1.0,111.0,0.0,1.0,-78308.0,-25304.0,13690.0,-79150.0,25971.0,13717.0,-0.937215,-0.22714,0.264642,-0.301404,0.145775,-0.942287,0.175452,-0.96289,-0.205083,-0.94244,0.169251,0.288376,0.320631,0.212714,0.923011,0.094879,0.962345,-0.254737,-0.937215,-0.22714,0.264642,-0.301404,0.145775,-0.942287,0.175452,-0.96289,-0.205083,-0.94244,0.169251,0.288376,0.320631,0.212714,0.923011,0.094879,0.962345,-0.254737,-78308.0,-25304.0,13690.0,-79150.0,25971.0,13717.0,18323.0,17417.0,-160017.0,0.0,-54913.0,-55017.0,-54705.0,-55257.0,-15443.0,-12582.0,153488.0,0.0,52819.0,52672.0,52930.0,52805.0,45.0,208.0,-64.0,0.0,-242.0,-122.0,641.0,-531.0,-70.0,-212.0,-169.0,0.0,-707.0,-627.0,783.0,-878.0,-0.01234,-0.056536,0.017476,0.0,-0.008876,-0.0045,-0.023477,-0.019455,-0.018976,-0.057507,-0.045736,0.0,-0.025897,-0.022943,-0.028674,-0.032163,4076.460205,11508.209961,51497.550781,0.0,-17702.910156,-17702.371094,17975.160156,-17447.761719,4067.9104,11505.240234,51372.089844,0.0,17645.759766,17644.591797,-17373.511719,17901.361328,0.0,0.0,0.0,0.0,0.0,0.0,0.0,0.0,0.0,0.0,0.0,0.0,0.0,0.0,-90.92347,0.0,0.0,0.0,0.0,0.0,0.0,0.0,0.0,0.0,0.0,0.0,0.0,0.0,0.0,0.0,-0.176481,0.0,4076.427734,11505.772461,51499.621094,0.0,-17704.224609,-17704.224609,17961.640625,-17450.232422,4066.534668,11502.597656,51350.011719,0.0,17644.009766,17640.962891,-17389.28125,17901.902344,29.930542,90.327118,22.895,0.0,0.080737,0.048313,28.554903,28.319229,29.857903,90.311554,22.826385,0.0,-3.246555,-2.286916,31.419899,25.588943,1.023,1.024,-63617.0,-145286.0,-412178.0,0.0,141786.0,141676.0,-145019.0,138607.0,-60642.0,-140418.0,-417313.0,0.0,-143245.0,-143379.0,140109.0,-146099.0,0.0,0.0,0.0,0.0,0.0,0.0,0.0,0.0,0.0,0.0,0.0,-0.176481,0.0,0.0,0.0,0.0,0.0,0.0,0.0,0.0,0.0,0.0,0.0,-0.176481
15,1.6615681648254397,0.522391,1.576855,0.399574,0.0,-3.134339,0.004442,0.522643,0.500858,0.521295,1.576588,0.39857,0.0,-3.191297,-0.033049,0.575036,0.448991,3.0,1.0,111.0,0.0,1.0,-78308.0,-25304.0,13690.0,-79149.0,25973.0,13717.0,-0.937235,-0.227057,0.264642,-0.301391,0.145802,-0.942287,0.175367,-0.962906,-0.205083,-0.942367,0.169493,0.288473,0.320811,0.212942,0.922895,0.094996,0.962251,-0.255045,-0.937235,-0.227057,0.264642,-0.301391,0.145802,-0.942287,0.175367,-0.962906,-0.205083,-0.942367,0.169493,0.288473,0.320811,0.212942,0.922895,0.094996,0.962251,-0.255045,-78308.0,-25304.0,13690.0,-79149.0,25973.0,13717.0,18323.0,17417.0,-160017.0,0.0,-54913.0,-55017.0,-54704.0,-55257.0,-15443.0,-12582.0,153488.0,0.0,52818.0,52671.0,52933.0,52805.0,45.0,208.0,-64.0,0.0,-243.0,-123.0,645.0,-532.0,-70.0,-212.0,-169.0,0.0,-704.0,-626.0,784.0,-878.0,-0.01234,-0.056536,0.017476,0.0,-0.008899,-0.004533,-0.023633,-0.019498,-0.018976,-0.057507,-0.045736,0.0,-0.025783,-0.022927,-0.028712,-0.032154,4076.460205,11508.209961,51497.550781,0.0,-17702.910156,-17702.371094,17975.070312,-17447.761719,4067.9104,11505.240234,51372.089844,0.0,17645.669922,17644.5,-17373.78125,17901.361328,0.0,0.0,0.0,0.0,0.0,0.0,0.0,0.0,0.0,0.0,0.0,0.0,0.0,0.0,0.0,0.0,0.0,0.0,0.0,0.0,0.0,0.0,0.0,0.0,0.0,0.0,0.0,0.0,0.0,0.0,0.0,0.0,4076.427734,11505.772461,51499.621094,0.0,-17704.224609,-17704.224609,17961.640625,-17450.232422,4066.534668,11502.597656,51350.011719,0.0,17644.009766,17640.962891,-17389.28125,17901.902344,29.930542,90.327118,22.895,0.0,0.080737,0.048313,28.554903,28.319229,29.857903,90.311554,22.826385,0.0,-3.246555,-2.286916,31.419899,25.588943,1.023,1.024,-63617.0,-145286.0,-412178.0,0.0,141786.0,141676.0,-145019.0,138607.0,-60642.0,-140418.0,-417313.0,0.0,-143245.0,-143379.0,140109.0,-146099.0,0.0,0.0,0.0,0.0,0.0,0.0,0.0,0.0,0.0,0.0,0.0,0.0,0.0,0.0,0.0,0.0,0.0,0.0,0.0,0.0,0.0,0.0,0.0,0.0
16,1.6815640926361084,0.522391,1.576855,0.399574,0.0,-3.134339,0.004442,0.522293,0.500685,0.521295,1.576588,0.39857,0.0,-3.191297,-0.033049,0.574164,0.448991,3.0,1.0,111.0,0.0,1.0,-78308.0,-25304.0,13690.0,-79149.0,25973.0,13717.0,-0.937255,-0.226974,0.264642,-0.301378,0.145828,-0.942287,0.175282,-0.962921,-0.205083,-0.942293,0.169903,0.288473,0.320904,0.212802,0.922895,0.095415,0.96221,-0.255045,-0.937255,-0.226974,0.264642,-0.301378,0.145828,-0.942287,0.175282,-0.962921,-0.205083,-0.942293,0.169903,0.288473,0.320904,0.212802,0.922895,0.095415,0.96221,-0.255045,-78308.0,-25304.0,13690.0,-79149.0,25973.0,13717.0,18323.0,17417.0,-160017.0,0.0,-54913.0,-55017.0,-54702.0,-55258.0,-15443.0,-12582.0,153488.0,0.0,52818.0,52671.0,52938.0,52805.0,45.0,208.0,-64.0,0.0,-243.0,-124.0,647.0,-531.0,-70.0,-212.0,-169.0,0.0,-705.0,-628.0,781.0,-878.0,-0.01234,-0.056536,0.017476,0.0,-0.008922,-0.004565,-0.023708,-0.019463,-0.018976,-0.057507,-0.045736,0.0,-0.025812,-0.022989,-0.028586,-0.032144,4076.460205,11508.209961,51497.550781,0.0,-17702.910156,-17702.371094,17974.890625,-17447.849609,4067.9104,11505.240234,51372.089844,0.0,17645.669922,17644.5,-17374.230469,17901.361328,0.0,0.0,0.0,0.0,0.0,0.0,0.0,0.0,0.0,0.0,0.0,0.0,0.0,0.0,0.0,0.0,0.0,0.0,0.0,0.0,0.0,0.0,0.0,0.0,0.0,0.0,0.0,0.0,0.0,0.0,0.0,0.0,4076.427734,11505.772461,51499.621094,0.0,-17704.224609,-17704.224609,17961.640625,-17450.232422,4066.534668,11502.597656,51350.011719,0.0,17644.009766,17640.962891,-17389.28125,17901.902344,29.930542,90.327118,22.895,0.0,0.080737,0.048313,28.554903,28.319229,29.857903,90.311554,22.826385,0.0,-3.246555,-2.286916,31.419899,25.588943,1.022,1.023,-63617.0,-145286.0,-412178.0,0.0,141786.0,141676.0,-145019.0,138607.0,-60642.0,-140418.0,-417313.0,0.0,-143245.0,-143379.0,140109.0,-146099.0,0.0,0.0,0.0,0.0,0.0,0.0,0.0,0.0,0.0,0.0,0.0,0.0,0.0,0.0,0.0,0.0,0.0,0.0,0.0,0.0,0.0,0.0,0.0,0.0
17,1.703794002532959,0.522391,1.576855,0.399574,0.0,-3.134339,0.004442,0.521947,0.500685,0.521295,1.576588,0.39857,0.0,-3.1915850000000003,-0.033222,0.573551,0.448904,3.0,1.0,111.0,0.0,1.0,-78308.0,-25304.0,13690.0,-79148.0,25975.0,13716.0,-0.937294,-0.226812,0.264642,-0.301353,0.145881,-0.942287,0.175116,-0.962951,-0.205083,-0.942205,0.170228,0.288568,0.321101,0.212997,0.922782,0.09562,0.96211,-0.255347,-0.937294,-0.226812,0.264642,-0.301353,0.145881,-0.942287,0.175116,-0.962951,-0.205083,-0.942205,0.170228,0.288568,0.321101,0.212997,0.922782,0.09562,0.96211,-0.255347,-78308.0,-25304.0,13690.0,-79148.0,25975.0,13716.0,18323.0,17417.0,-160017.0,0.0,-54913.0,-55017.0,-54700.0,-55258.0,-15443.0,-12582.0,153488.0,0.0,52817.0,52670.0,52942.0,52805.0,45.0,208.0,-64.0,0.0,-244.0,-125.0,650.0,-533.0,-70.0,-212.0,-169.0,0.0,-702.0,-627.0,780.0,-878.0,-0.01234,-0.056536,0.017476,0.0,-0.008947,-0.004601,-0.023805,-0.019509,-0.018976,-0.057507,-0.045736,0.0,-0.025704,-0.022978,-0.028557,-0.032134,4076.460205,11508.209961,51497.550781,0.0,-17702.910156,-17702.371094,17974.710938,-17447.849609,4067.9104,11505.240234,51372.089844,0.0,17645.580078,17644.410156,-17374.589844,17901.361328,0.0,0.0,0.0,0.0,0.0,0.0,0.0,0.0,0.0,0.0,0.0,0.0,0.0,0.0,0.0,0.0,0.0,0.0,0.0,0.0,0.0,0.0,0.0,0.0,0.0,0.0,0.0,0.0,0.0,0.0,0.0,0.0,4076.427734,11505.772461,51499.621094,0.0,-17704.224609,-17704.224609,17961.640625,-17450.232422,4066.534668,11502.597656,51350.011719,0.0,17644.009766,17640.962891,-17389.28125,17901.902344,29.930542,90.327118,22.895,0.0,0.080737,0.048313,28.554903,28.319229,29.857903,90.311554,22.826385,0.0,-3.246555,-2.286916,31.419899,25.588943,1.022,1.022,-63617.0,-145286.0,-412178.0,0.0,141786.0,141676.0,-145019.0,138607.0,-60642.0,-140418.0,-417313.0,0.0,-143245.0,-143379.0,140109.0,-146099.0,0.0,0.0,0.0,0.0,0.0,0.0,0.0,0.0,0.0,0.0,0.0,0.0,0.0,0.0,0.0,0.0,0.0,0.0,0.0,0.0,0.0,0.0,0.0,0.0
18,1.724586009979248,0.522391,1.576855,0.399574,0.0,-3.134339,0.004442,0.521421,0.500685,0.521295,1.576588,0.39857,0.0,-3.1915850000000003,-0.033398,0.573113,0.448816,3.0,1.0,111.0,0.0,1.0,-78308.0,-25304.0,13690.0,-79148.0,25977.0,13715.0,-0.937354,-0.226565,0.264642,-0.301315,0.14596,-0.942287,0.174862,-0.962997,-0.205083,-0.942125,0.170396,0.288732,0.321301,0.212951,0.922723,0.095743,0.96209,-0.255374,-0.937354,-0.226565,0.264642,-0.301315,0.14596,-0.942287,0.174862,-0.962997,-0.205083,-0.942125,0.170396,0.288732,0.321301,0.212951,0.922723,0.095743,0.96209,-0.255374,-78308.0,-25304.0,13690.0,-79148.0,25977.0,13715.0,18323.0,17417.0,-160017.0,0.0,-54913.0,-55017.0,-54697.0,-55258.0,-15443.0,-12582.0,153488.0,0.0,52817.0,52669.0,52945.0,52805.0,45.0,208.0,-64.0,0.0,-245.0,-126.0,650.0,-534.0,-70.0,-212.0,-169.0,0.0,-703.0,-627.0,781.0,-877.0,-0.01234,-0.056536,0.017476,0.0,-0.008971,-0.004635,-0.023805,-0.019552,-0.018976,-0.057507,-0.045736,0.0,-0.025732,-0.022961,-0.028588,-0.032124,4076.460205,11508.209961,51497.550781,0.0,-17702.910156,-17702.371094,17974.439453,-17447.849609,4067.9104,11505.240234,51372.089844,0.0,17645.580078,17644.320312,-17374.861328,17901.361328,0.0,0.0,0.0,0.0,0.0,0.0,0.0,0.0,0.0,0.0,0.0,0.0,0.0,0.0,0.0,0.0,0.0,0.0,0.0,0.0,0.0,0.0,0.0,0.0,0.0,0.0,0.0,0.0,0.0,0.0,0.0,0.0,4076.427734,11505.772461,51499.621094,0.0,-17704.224609,-17704.224609,17961.640625,-17450.232422,4066.534668,11502.597656,51350.011719,0.0,17644.009766,17640.962891,-17389.28125,17901.902344,29.930542,90.327118,22.895,0.0,0.080737,0.048313,28.554903,28.319229,29.857903,90.311554,22.826385,0.0,-3.246555,-2.286916,31.419899,25.588943,1.022,1.021,-63617.0,-145286.0,-412178.0,0.0,141786.0,141676.0,-145019.0,138607.0,-60642.0,-140418.0,-417313.0,0.0,-143245.0,-143379.0,140109.0,-146099.0,0.0,0.0,0.0,0.0,0.0,0.0,0.0,0.0,0.0,0.0,0.0,0.0,0.0,0.0,0.0,0.0,0.0,0.0,0.0,0.0,0.0,0.0,0.0,0.0
19,1.744779109954834,0.522391,1.576855,0.399574,0.0,-3.134339,0.004442,0.521071,0.500685,0.521295,1.576588,0.39857,0.0,-3.191879,-0.033571,0.572328,0.448553,3.0,1.0,111.0,0.0,1.0,-78308.0,-25304.0,13690.0,-79147.0,25979.0,13715.0,-0.937394,-0.226402,0.264642,-0.301289,0.146012,-0.942287,0.174694,-0.963028,-0.205083,-0.942037,0.170721,0.288825,0.321497,0.21315,0.922609,0.095945,0.961988,-0.255682,-0.937394,-0.226402,0.264642,-0.301289,0.146012,-0.942287,0.174694,-0.963028,-0.205083,-0.942037,0.170721,0.288825,0.321497,0.21315,0.922609,0.095945,0.961988,-0.255682,-78308.0,-25304.0,13690.0,-79147.0,25979.0,13715.0,18323.0,17417.0,-160017.0,0.0,-54913.0,-55017.0,-54695.0,-55258.0,-15443.0,-12582.0,153488.0,0.0,52816.0,52668.0,52950.0,52804.0,45.0,208.0,-64.0,0.0,-245.0,-127.0,652.0,-535.0,-70.0,-212.0,-169.0,0.0,-700.0,-626.0,777.0,-875.0,-0.01234,-0.056536,0.017476,0.0,-0.008994,-0.004667,-0.02387,-0.019594,-0.018976,-0.057507,-0.045736,0.0,-0.025616,-0.022941,-0.028444,-0.032035,4076.460205,11508.209961,51497.550781,0.0,-17702.910156,-17702.371094,17974.259766,-17447.849609,4067.9104,11505.240234,51372.089844,0.0,17645.490234,17644.230469,-17375.310547,17901.269531,0.0,0.0,0.0,0.0,0.0,0.0,0.0,0.0,0.0,0.0,0.0,0.0,0.0,-89.174942,-90.92347,0.0,0.0,0.0,0.0,0.0,0.0,0.0,0.0,0.0,0.0,0.0,0.0,0.0,0.0,-0.173088,-0.089938,-0.086544,4076.427734,11505.772461,51499.621094,0.0,-17704.224609,-17704.224609,17961.640625,-17450.232422,4066.534668,11502.597656,51350.011719,0.0,17644.009766,17640.962891,-17389.28125,17901.902344,29.930542,90.327118,22.895,0.0,0.080737,0.048313,28.554903,28.319229,29.857903,90.311554,22.826385,0.0,-3.246555,-2.286916,31.419899,25.588943,1.021,1.02,-63617.0,-145286.0,-412178.0,0.0,141786.0,141676.0,-145019.0,138607.0,-60642.0,-140418.0,-417313.0,0.0,-143245.0,-143379.0,140109.0,-146099.0,0.0,0.0,0.0,0.0,0.0,0.0,0.0,-0.173088,0.0,-0.093743,-0.145505,-0.089938,0.0,0.0,0.0,0.0,0.0,0.0,0.0,-0.173088,0.0,-0.093743,-0.145505,-0.089938
20,1.7655401229858398,0.522391,1.576855,0.399574,0.0,-3.134339,0.004442,0.520722,0.500509,0.521295,1.576588,0.39857,0.0,-3.191879,-0.033571,0.571456,0.448553,3.0,1.0,111.0,0.0,1.0,-78308.0,-25304.0,13690.0,-79147.0,25979.0,13715.0,-0.937413,-0.22632,0.264642,-0.301276,0.146039,-0.942287,0.174611,-0.963043,-0.205083,-0.941963,0.171132,0.288825,0.32159,0.21301,0.922609,0.096365,0.961946,-0.255682,-0.937413,-0.22632,0.264642,-0.301276,0.146039,-0.942287,0.174611,-0.963043,-0.205083,-0.941963,0.171132,0.288825,0.32159,0.21301,0.922609,0.096365,0.961946,-0.255682,-78308.0,-25304.0,13690.0,-79147.0,25979.0,13715.0,18323.0,17417.0,-160017.0,0.0,-54913.0,-55017.0,-54693.0,-55259.0,-15443.0,-12582.0,153488.0,0.0,52816.0,52668.0,52955.0,52804.0,45.0,208.0,-64.0,0.0,-246.0,-128.0,654.0,-534.0,-70.0,-212.0,-169.0,0.0,-700.0,-628.0,773.0,-875.0,-0.01234,-0.056536,0.017476,0.0,-0.009018,-0.004701,-0.023942,-0.019558,-0.018976,-0.057507,-0.045736,0.0,-0.025643,-0.023001,-0.028304,-0.032023,4076.460205,11508.209961,51497.550781,0.0,-17702.910156,-17702.371094,17974.080078,-17447.941406,4067.9104,11505.240234,51372.089844,0.0,17645.490234,17644.230469,-17375.759766,17901.269531,0.0,0.0,0.0,0.0,0.0,0.0,0.0,0.0,0.0,0.0,0.0,0.0,0.0,0.0,-89.174942,0.0,0.0,0.0,0.0,0.0,0.0,0.0,0.0,0.0,0.0,0.0,0.0,0.0,0.0,0.0,-0.173088,0.0,4076.427734,11505.772461,51499.621094,0.0,-17704.224609,-17704.224609,17961.640625,-17450.232422,4066.534668,11502.597656,51350.011719,0.0,17644.009766,17640.962891,-17389.28125,17901.902344,29.930542,90.327118,22.895,0.0,0.080737,0.048313,28.554903,28.319229,29.857903,90.311554,22.826385,0.0,-3.246555,-2.286916,31.419899,25.588943,1.021,1.02,-63617.0,-145286.0,-412178.0,0.0,141786.0,141676.0,-145019.0,138607.0,-60642.0,-140418.0,-417313.0,0.0,-143245.0,-143379.0,140109.0,-146099.0,0.0,0.0,0.0,0.0,0.0,0.0,0.0,0.0,0.0,0.0,0.0,-0.173088,0.0,0.0,0.0,0.0,0.0,0.0,0.0,0.0,0.0,0.0,0.0,-0.173088
21,1.7855892181396484,0.522391,1.576855,0.399574,0.0,-3.134339,0.004442,0.520372,0.500509,0.521295,1.576588,0.39857,0.0,-3.192168,-0.033748,0.570845,0.448465,3.0,1.0,111.0,0.0,1.0,-78308.0,-25304.0,13690.0,-79147.0,25981.0,13714.0,-0.937453,-0.226157,0.264642,-0.301251,0.146091,-0.942287,0.174442,-0.963073,-0.205083,-0.941874,0.171455,0.288924,0.32179,0.213205,0.922494,0.096566,0.961846,-0.255984,-0.937453,-0.226157,0.264642,-0.301251,0.146091,-0.942287,0.174442,-0.963073,-0.205083,-0.941874,0.171455,0.288924,0.32179,0.213205,0.922494,0.096566,0.961846,-0.255984,-78308.0,-25304.0,13690.0,-79147.0,25981.0,13714.0,18323.0,17417.0,-160017.0,0.0,-54913.0,-55017.0,-54691.0,-55259.0,-15443.0,-12582.0,153488.0,0.0,52815.0,52667.0,52959.0,52804.0,45.0,208.0,-64.0,0.0,-247.0,-129.0,655.0,-535.0,-70.0,-212.0,-169.0,0.0,-697.0,-627.0,771.0,-874.0,-0.01234,-0.056536,0.017476,0.0,-0.009041,-0.004733,-0.024,-0.019598,-0.018976,-0.057507,-0.045736,0.0,-0.025529,-0.022978,-0.028222,-0.032012,4076.460205,11508.209961,51497.550781,0.0,-17702.910156,-17702.371094,17973.900391,-17447.941406,4067.9104,11505.240234,51372.089844,0.0,17645.400391,17644.140625,-17376.121094,17901.269531,0.0,0.0,0.0,0.0,0.0,0.0,0.0,0.0,0.0,0.0,0.0,0.0,0.0,0.0,0.0,0.0,0.0,0.0,0.0,0.0,0.0,0.0,0.0,0.0,0.0,0.0,0.0,0.0,0.0,0.0,0.0,0.0,4076.427734,11505.772461,51499.621094,0.0,-17704.224609,-17704.224609,17961.640625,-17450.232422,4066.534668,11502.597656,51350.011719,0.0,17644.009766,17640.962891,-17389.28125,17901.902344,29.930542,90.327118,22.895,0.0,0.080737,0.048313,28.554903,28.319229,29.857903,90.311554,22.826385,0.0,-3.246555,-2.286916,31.419899,25.588943,1.02,1.019,-63617.0,-145286.0,-412178.0,0.0,141786.0,141676.0,-145019.0,138607.0,-60642.0,-140418.0,-417313.0,0.0,-143245.0,-143379.0,140109.0,-146099.0,0.0,0.0,0.0,0.0,0.0,0.0,0.0,0.0,0.0,0.0,0.0,0.0,0.0,0.0,0.0,0.0,0.0,0.0,0.0,0.0,0.0,0.0,0.0,0.0
22,1.80556321144104,0.522391,1.576855,0.399574,0.0,-3.134339,0.004442,0.520022,0.500509,0.521295,1.576588,0.39857,0.0,-3.192168,-0.033748,0.570146,0.448465,3.0,1.0,111.0,0.0,1.0,-78308.0,-25304.0,13690.0,-79147.0,25981.0,13714.0,-0.937492,-0.225993,0.264642,-0.301225,0.146144,-0.942287,0.174274,-0.963104,-0.205083,-0.941814,0.171784,0.288924,0.321864,0.213092,0.922494,0.096903,0.961812,-0.255984,-0.937492,-0.225993,0.264642,-0.301225,0.146144,-0.942287,0.174274,-0.963104,-0.205083,-0.941814,0.171784,0.288924,0.321864,0.213092,0.922494,0.096903,0.961812,-0.255984,-78308.0,-25304.0,13690.0,-79147.0,25981.0,13714.0,18323.0,17417.0,-160017.0,0.0,-54913.0,-55017.0,-54689.0,-55259.0,-15443.0,-12582.0,153488.0,0.0,52815.0,52667.0,52963.0,52804.0,45.0,208.0,-64.0,0.0,-247.0,-130.0,657.0,-536.0,-70.0,-212.0,-169.0,0.0,-698.0,-629.0,768.0,-874.0,-0.01234,-0.056536,0.017476,0.0,-0.009064,-0.004766,-0.024055,-0.019638,-0.018976,-0.057507,-0.045736,0.0,-0.025553,-0.023034,-0.028134,-0.032001,4076.460205,11508.209961,51497.550781,0.0,-17702.910156,-17702.371094,17973.720703,-17447.941406,4067.9104,11505.240234,51372.089844,0.0,17645.400391,17644.140625,-17376.480469,17901.269531,0.0,0.0,0.0,0.0,0.0,0.0,0.0,0.0,0.0,0.0,0.0,0.0,0.0,0.0,0.0,0.0,0.0,0.0,0.0,0.0,0.0,0.0,0.0,0.0,0.0,0.0,0.0,0.0,0.0,0.0,0.0,0.0,4076.427734,11505.772461,51499.621094,0.0,-17704.224609,-17704.224609,17961.640625,-17450.232422,4066.534668,11502.597656,51350.011719,0.0,17644.009766,17640.962891,-17389.28125,17901.902344,29.930542,90.327118,22.895,0.0,0.080737,0.048313,28.554903,28.319229,29.857903,90.311554,22.826385,0.0,-3.246555,-2.286916,31.419899,25.588943,1.02,1.018,-63617.0,-145286.0,-412178.0,0.0,141786.0,141676.0,-145019.0,138607.0,-60642.0,-140418.0,-417313.0,0.0,-143245.0,-143379.0,140109.0,-146099.0,0.0,0.0,0.0,0.0,0.0,0.0,0.0,0.0,0.0,0.0,0.0,0.0,0.0,0.0,0.0,0.0,0.0,0.0,0.0,0.0,0.0,0.0,0.0,0.0
23,1.826606035232544,0.522391,1.576855,0.399574,0.0,-3.134339,0.004442,0.519673,0.500509,0.521295,1.576588,0.39857,0.0,-3.192168,-0.033921,0.569533,0.448378,3.0,1.0,111.0,0.0,1.0,-78308.0,-25304.0,13690.0,-79146.0,25983.0,13713.0,-0.937532,-0.225829,0.264642,-0.3012,0.146196,-0.942287,0.174106,-0.963134,-0.205083,-0.941719,0.172035,0.289084,0.32208,0.213017,0.922436,0.097111,0.961784,-0.256011,-0.937532,-0.225829,0.264642,-0.3012,0.146196,-0.942287,0.174106,-0.963134,-0.205083,-0.941719,0.172035,0.289084,0.32208,0.213017,0.922436,0.097111,0.961784,-0.256011,-78308.0,-25304.0,13690.0,-79146.0,25983.0,13713.0,18323.0,17417.0,-160017.0,0.0,-54913.0,-55017.0,-54687.0,-55259.0,-15443.0,-12582.0,153488.0,0.0,52815.0,52666.0,52967.0,52804.0,45.0,208.0,-64.0,0.0,-248.0,-131.0,659.0,-537.0,-70.0,-212.0,-169.0,0.0,-699.0,-628.0,766.0,-874.0,-0.01234,-0.056536,0.017476,0.0,-0.009088,-0.0048,-0.024118,-0.01968,-0.018976,-0.057507,-0.045736,0.0,-0.025579,-0.023013,-0.028051,-0.03199,4076.460205,11508.209961,51497.550781,0.0,-17702.910156,-17702.371094,17973.539062,-17447.941406,4067.9104,11505.240234,51372.089844,0.0,17645.400391,17644.050781,-17376.839844,17901.269531,0.0,0.0,0.0,0.0,0.0,0.0,0.0,0.0,0.0,0.0,0.0,0.0,0.0,0.0,0.0,0.0,0.0,0.0,0.0,0.0,0.0,0.0,0.0,0.0,0.0,0.0,0.0,0.0,0.0,0.0,0.0,0.0,4076.427734,11505.772461,51499.621094,0.0,-17704.224609,-17704.224609,17961.640625,-17450.232422,4066.534668,11502.597656,51350.011719,0.0,17644.009766,17640.962891,-17389.28125,17901.902344,29.930542,90.327118,22.895,0.0,0.080737,0.048313,28.554903,28.319229,29.857903,90.311554,22.826385,0.0,-3.246555,-2.286916,31.419899,25.588943,1.02,1.017,-63617.0,-145286.0,-412178.0,0.0,141786.0,141676.0,-145019.0,138607.0,-60642.0,-140418.0,-417313.0,0.0,-143245.0,-143379.0,140109.0,-146099.0,0.0,0.0,0.0,0.0,0.0,0.0,0.0,0.0,0.0,0.0,0.0,0.0,0.0,0.0,0.0,0.0,0.0,0.0,0.0,0.0,0.0,0.0,0.0,0.0
24,1.84774112701416,0.522391,1.576855,0.399574,0.0,-3.134339,0.004442,0.5195,0.500336,0.521295,1.576588,0.39857,0.0,-3.192456,-0.034097,0.568749,0.44829,3.0,1.0,111.0,0.0,1.0,-78308.0,-25304.0,13690.0,-79145.0,25985.0,13713.0,-0.937532,-0.225829,0.264642,-0.3012,0.146196,-0.942287,0.174106,-0.963134,-0.205083,-0.941615,0.17244,0.289183,0.322298,0.213184,0.922321,0.097396,0.961674,-0.256314,-0.937532,-0.225829,0.264642,-0.3012,0.146196,-0.942287,0.174106,-0.963134,-0.205083,-0.941615,0.17244,0.289183,0.322298,0.213184,0.922321,0.097396,0.961674,-0.256314,-78308.0,-25304.0,13690.0,-79145.0,25985.0,13713.0,18323.0,17417.0,-160017.0,0.0,-54913.0,-55017.0,-54686.0,-55260.0,-15443.0,-12582.0,153488.0,0.0,52814.0,52665.0,52972.0,52804.0,45.0,208.0,-64.0,0.0,-249.0,-132.0,662.0,-536.0,-70.0,-212.0,-169.0,0.0,-695.0,-628.0,761.0,-873.0,-0.01234,-0.056536,0.017476,0.0,-0.009112,-0.004834,-0.024257,-0.019644,-0.018976,-0.057507,-0.045736,0.0,-0.025463,-0.02299,-0.027882,-0.031978,4076.460205,11508.209961,51497.550781,0.0,-17702.910156,-17702.371094,17973.451172,-17448.029297,4067.9104,11505.240234,51372.089844,0.0,17645.310547,17643.958984,-17377.289062,17901.269531,0.0,0.0,0.0,0.0,0.0,0.0,0.0,0.0,0.0,0.0,0.0,0.0,0.0,0.0,0.0,0.0,0.0,0.0,0.0,0.0,0.0,0.0,0.0,0.0,0.0,0.0,0.0,0.0,0.0,0.0,0.0,0.0,4076.427734,11505.772461,51499.621094,0.0,-17704.224609,-17704.224609,17961.640625,-17450.232422,4066.534668,11502.597656,51350.011719,0.0,17644.009766,17640.962891,-17389.28125,17901.902344,29.930542,90.327118,22.895,0.0,0.080737,0.048313,28.554903,28.319229,29.857903,90.311554,22.826385,0.0,-3.246555,-2.286916,31.419899,25.588943,1.019,1.017,-63617.0,-145286.0,-412178.0,0.0,141786.0,141676.0,-145019.0,138607.0,-60642.0,-140418.0,-417313.0,0.0,-143245.0,-143379.0,140109.0,-146099.0,0.0,0.0,0.0,0.0,0.0,0.0,0.0,0.0,0.0,0.0,0.0,0.0,0.0,0.0,0.0,0.0,0.0,0.0,0.0,0.0,0.0,0.0,0.0,0.0
25,1.868648052215576,0.522391,1.576855,0.399574,0.0,-3.134339,0.004442,0.519323,0.500336,0.521295,1.576588,0.39857,0.0,-3.192456,-0.034097,0.5677,0.44829,3.0,1.0,111.0,0.0,1.0,-78308.0,-25304.0,13690.0,-79145.0,25985.0,13713.0,-0.937552,-0.225746,0.264642,-0.301187,0.146223,-0.942287,0.174021,-0.96315,-0.205083,-0.941524,0.172933,0.289183,0.32241,0.213014,0.922321,0.0979,0.961623,-0.256314,-0.937552,-0.225746,0.264642,-0.301187,0.146223,-0.942287,0.174021,-0.96315,-0.205083,-0.941524,0.172933,0.289183,0.32241,0.213014,0.922321,0.0979,0.961623,-0.256314,-78308.0,-25304.0,13690.0,-79145.0,25985.0,13713.0,18323.0,17417.0,-160017.0,0.0,-54913.0,-55017.0,-54685.0,-55260.0,-15443.0,-12582.0,153488.0,0.0,52814.0,52665.0,52978.0,52804.0,45.0,208.0,-64.0,0.0,-249.0,-133.0,666.0,-537.0,-70.0,-212.0,-169.0,0.0,-696.0,-629.0,754.0,-873.0,-0.01234,-0.056536,0.017476,0.0,-0.009136,-0.004868,-0.024393,-0.019684,-0.018976,-0.057507,-0.045736,0.0,-0.025487,-0.023045,-0.027625,-0.031967,4076.460205,11508.209961,51497.550781,0.0,-17702.910156,-17702.371094,17973.359375,-17448.029297,4067.9104,11505.240234,51372.089844,0.0,17645.310547,17643.958984,-17377.830078,17901.269531,0.0,0.0,0.0,0.0,0.0,0.0,0.0,0.0,0.0,0.0,0.0,0.0,0.0,0.0,0.0,0.0,0.0,0.0,0.0,0.0,0.0,0.0,0.0,0.0,0.0,0.0,0.0,0.0,0.0,0.0,0.0,0.0,4076.427734,11505.772461,51499.621094,0.0,-17704.224609,-17704.224609,17961.640625,-17450.232422,4066.534668,11502.597656,51350.011719,0.0,17644.009766,17640.962891,-17389.28125,17901.902344,29.930542,90.327118,22.895,0.0,0.080737,0.048313,28.554903,28.319229,29.857903,90.311554,22.826385,0.0,-3.246555,-2.286916,31.419899,25.588943,1.019,1.015,-63617.0,-145286.0,-412178.0,0.0,141786.0,141676.0,-145019.0,138607.0,-60642.0,-140418.0,-417313.0,0.0,-143245.0,-143379.0,140109.0,-146099.0,0.0,0.0,0.0,0.0,0.0,0.0,0.0,0.0,0.0,0.0,0.0,0.0,0.0,0.0,0.0,0.0,0.0,0.0,0.0,0.0,0.0,0.0,0.0,0.0
26,1.8895390033721924,0.522391,1.576855,0.399574,0.0,-3.134339,0.004442,0.518974,0.500336,0.521295,1.576588,0.39857,0.0,-3.19275,-0.03427,0.567088,0.448203,3.0,1.0,111.0,0.0,1.0,-78308.0,-25304.0,13690.0,-79145.0,25987.0,13712.0,-0.937591,-0.225582,0.264642,-0.301161,0.146276,-0.942287,0.173853,-0.96318,-0.205083,-0.941435,0.173259,0.289276,0.322607,0.213213,0.922207,0.098104,0.96152,-0.256621,-0.937571,-0.225665,0.264642,-0.301174,0.146249,-0.942287,0.173937,-0.963165,-0.205083,-0.941435,0.173259,0.289276,0.322607,0.213213,0.922207,0.098104,0.96152,-0.256621,-78308.0,-25304.0,13690.0,-79145.0,25987.0,13712.0,18323.0,17417.0,-160017.0,0.0,-54913.0,-55017.0,-54683.0,-55260.0,-15443.0,-12582.0,153488.0,0.0,52813.0,52664.0,52982.0,52804.0,45.0,208.0,-64.0,0.0,-250.0,-133.0,668.0,-539.0,-70.0,-212.0,-169.0,0.0,-693.0,-629.0,751.0,-873.0,-0.01234,-0.056536,0.017476,0.0,-0.00916,-0.004902,-0.024449,-0.019724,-0.018976,-0.057507,-0.045736,0.0,-0.025367,-0.023021,-0.027516,-0.031955,4076.460205,11508.209961,51497.550781,0.0,-17702.910156,-17702.371094,17973.179688,-17448.029297,4067.9104,11505.240234,51372.089844,0.0,17645.220703,17643.871094,-17378.189453,17901.269531,0.0,0.0,0.0,0.0,0.0,0.0,-90.92347,0.0,0.0,0.0,0.0,0.0,0.0,0.0,0.0,0.0,0.0,0.0,0.0,0.0,0.0,0.0,-0.176481,0.0,0.0,0.0,0.0,0.0,0.0,0.0,0.0,0.0,4076.427734,11505.772461,51499.621094,0.0,-17704.224609,-17704.224609,17961.640625,-17450.232422,4066.534668,11502.597656,51350.011719,0.0,17644.009766,17640.962891,-17389.28125,17901.902344,29.930542,90.327118,22.895,0.0,0.080737,0.048313,28.554903,28.319229,29.857903,90.311554,22.826385,0.0,-3.246555,-2.286916,31.419899,25.588943,1.019,1.015,-63617.0,-145286.0,-412178.0,0.0,141786.0,141676.0,-145019.0,138607.0,-60642.0,-140418.0,-417313.0,0.0,-143245.0,-143379.0,140109.0,-146099.0,0.0,0.0,0.0,0.0,0.0,-0.176481,0.0,0.0,0.0,0.0,0.0,0.0,0.0,0.0,0.0,0.0,0.0,-0.176481,0.0,0.0,0.0,0.0,0.0,0.0
27,1.9097800254821775,0.522391,1.576855,0.399574,0.0,-3.134339,0.004442,0.518801,0.500336,0.521295,1.576588,0.39857,0.0,-3.19275,-0.034447,0.566653,0.448115,3.0,1.0,111.0,0.0,1.0,-78308.0,-25304.0,13690.0,-79144.0,25990.0,13711.0,-0.937611,-0.225501,0.264642,-0.301149,0.146302,-0.942287,0.173769,-0.963195,-0.205083,-0.941354,0.173425,0.28944,0.322806,0.213167,0.922148,0.098225,0.961501,-0.256648,-0.937611,-0.225501,0.264642,-0.301149,0.146302,-0.942287,0.173769,-0.963195,-0.205083,-0.941354,0.173425,0.28944,0.322806,0.213167,0.922148,0.098225,0.961501,-0.256648,-78308.0,-25304.0,13690.0,-79144.0,25990.0,13711.0,18323.0,17417.0,-160017.0,0.0,-54913.0,-55017.0,-54682.0,-55260.0,-15443.0,-12582.0,153488.0,0.0,52813.0,52663.0,52985.0,52804.0,45.0,208.0,-64.0,0.0,-250.0,-134.0,671.0,-540.0,-70.0,-212.0,-169.0,0.0,-693.0,-628.0,750.0,-872.0,-0.01234,-0.056536,0.017476,0.0,-0.009183,-0.004934,-0.024572,-0.019763,-0.018976,-0.057507,-0.045736,0.0,-0.025389,-0.022992,-0.027472,-0.031944,4076.460205,11508.209961,51497.550781,0.0,-17702.910156,-17702.371094,17973.089844,-17448.029297,4067.9104,11505.240234,51372.089844,0.0,17645.220703,17643.779297,-17378.458984,17901.269531,0.0,0.0,0.0,0.0,0.0,0.0,0.0,0.0,0.0,0.0,0.0,0.0,0.0,0.0,-89.174942,0.0,0.0,0.0,0.0,0.0,0.0,0.0,0.0,0.0,0.0,0.0,0.0,0.0,0.0,0.0,-0.173088,0.0,4076.427734,11505.772461,51499.621094,0.0,-17704.224609,-17704.224609,17961.640625,-17450.232422,4066.534668,11502.597656,51350.011719,0.0,17644.009766,17640.962891,-17389.28125,17901.902344,29.930542,90.327118,22.895,0.0,0.080737,0.048313,28.554903,28.319229,29.857903,90.311554,22.826385,0.0,-3.246555,-2.286916,31.419899,25.588943,1.019,1.014,-63617.0,-145286.0,-412178.0,0.0,141786.0,141676.0,-145019.0,138607.0,-60642.0,-140418.0,-417313.0,0.0,-143245.0,-143379.0,140109.0,-146099.0,0.0,0.0,0.0,0.0,0.0,0.0,0.0,0.0,0.0,0.0,0.0,-0.173088,0.0,0.0,0.0,0.0,0.0,0.0,0.0,0.0,0.0,0.0,0.0,-0.173088
28,1.929664134979248,0.522391,1.576855,0.399574,0.0,-3.134339,0.004442,0.518628,0.500159,0.521295,1.576588,0.39857,0.0,-3.19275,-0.034447,0.566304,0.448115,3.0,1.0,111.0,0.0,1.0,-78308.0,-25304.0,13690.0,-79144.0,25990.0,13711.0,-0.93761,-0.225503,0.264642,-0.301149,0.146301,-0.942287,0.173771,-0.963195,-0.205083,-0.941324,0.17359,0.28944,0.322844,0.21311,0.922148,0.098393,0.961483,-0.256648,-0.93761,-0.225503,0.264642,-0.301149,0.146301,-0.942287,0.173771,-0.963195,-0.205083,-0.941324,0.17359,0.28944,0.322844,0.21311,0.922148,0.098393,0.961483,-0.256648,-78308.0,-25304.0,13690.0,-79144.0,25990.0,13711.0,18323.0,17417.0,-160017.0,0.0,-54913.0,-55017.0,-54681.0,-55261.0,-15443.0,-12582.0,153488.0,0.0,52813.0,52663.0,52987.0,52804.0,45.0,208.0,-64.0,0.0,-251.0,-135.0,674.0,-538.0,-70.0,-212.0,-169.0,0.0,-694.0,-629.0,751.0,-872.0,-0.01234,-0.056536,0.017476,0.0,-0.009206,-0.004966,-0.024693,-0.019721,-0.018976,-0.057507,-0.045736,0.0,-0.02541,-0.023041,-0.027503,-0.031933,4076.460205,11508.209961,51497.550781,0.0,-17702.910156,-17702.371094,17973.001953,-17448.121094,4067.9104,11505.240234,51372.089844,0.0,17645.220703,17643.779297,-17378.640625,17901.269531,0.0,0.0,0.0,0.0,0.0,0.0,0.0,0.0,0.0,0.0,0.0,0.0,0.0,0.0,0.0,0.0,0.0,0.0,0.0,0.0,0.0,0.0,0.0,0.0,0.0,0.0,0.0,0.0,0.0,0.0,0.0,0.0,4076.427734,11505.772461,51499.621094,0.0,-17704.224609,-17704.224609,17961.640625,-17450.232422,4066.534668,11502.597656,51350.011719,0.0,17644.009766,17640.962891,-17389.28125,17901.902344,29.930542,90.327118,22.895,0.0,0.080737,0.048313,28.554903,28.319229,29.857903,90.311554,22.826385,0.0,-3.246555,-2.286916,31.419899,25.588943,1.018,1.014,-63617.0,-145286.0,-412178.0,0.0,141786.0,141676.0,-145019.0,138607.0,-60642.0,-140418.0,-417313.0,0.0,-143245.0,-143379.0,140109.0,-146099.0,0.0,0.0,0.0,0.0,0.0,0.0,0.0,0.0,0.0,0.0,0.0,0.0,0.0,0.0,0.0,0.0,0.0,0.0,0.0,0.0,0.0,0.0,0.0,0.0
29,1.9515972137451172,0.522391,1.576855,0.399574,0.0,-3.134339,0.004442,0.518451,0.500159,0.521295,1.576588,0.39857,0.0,-3.193039,-0.03462,0.566041,0.448028,3.0,1.0,111.0,0.0,1.0,-78308.0,-25304.0,13690.0,-79143.0,25992.0,13711.0,-0.93763,-0.22542,0.264642,-0.301136,0.146328,-0.942287,0.173686,-0.96321,-0.205083,-0.941265,0.17375,0.289535,0.323004,0.21336,0.922034,0.098428,0.961399,-0.25695,-0.93763,-0.22542,0.264642,-0.301136,0.146328,-0.942287,0.173686,-0.96321,-0.205083,-0.941265,0.17375,0.289535,0.323004,0.21336,0.922034,0.098428,0.961399,-0.25695,-78308.0,-25304.0,13690.0,-79143.0,25992.0,13711.0,18323.0,17417.0,-160017.0,0.0,-54913.0,-55017.0,-54680.0,-55261.0,-15443.0,-12582.0,153488.0,0.0,52812.0,52662.0,52989.0,52804.0,45.0,208.0,-64.0,0.0,-252.0,-136.0,678.0,-540.0,-70.0,-212.0,-169.0,0.0,-691.0,-628.0,752.0,-872.0,-0.01234,-0.056536,0.017476,0.0,-0.009232,-0.005002,-0.024831,-0.019762,-0.018976,-0.057507,-0.045736,0.0,-0.025293,-0.023016,-0.027548,-0.031921,4076.460205,11508.209961,51497.550781,0.0,-17702.910156,-17702.371094,17972.910156,-17448.121094,4067.9104,11505.240234,51372.089844,0.0,17645.130859,17643.691406,-17378.820312,17901.269531,0.0,0.0,0.0,0.0,0.0,0.0,0.0,0.0,0.0,0.0,0.0,0.0,0.0,0.0,0.0,0.0,0.0,0.0,0.0,0.0,0.0,0.0,0.0,0.0,0.0,0.0,0.0,0.0,0.0,0.0,0.0,0.0,4076.427734,11505.772461,51499.621094,0.0,-17704.224609,-17704.224609,17961.640625,-17450.232422,4066.534668,11502.597656,51350.011719,0.0,17644.009766,17640.962891,-17389.28125,17901.902344,29.930542,90.327118,22.895,0.0,0.080737,0.048313,28.554903,28.319229,29.857903,90.311554,22.826385,0.0,-3.246555,-2.286916,31.419899,25.588943,1.018,1.014,-63617.0,-145286.0,-412178.0,0.0,141786.0,141676.0,-145019.0,138607.0,-60642.0,-140418.0,-417313.0,0.0,-143245.0,-143379.0,140109.0,-146099.0,0.0,0.0,0.0,0.0,0.0,0.0,0.0,0.0,0.0,0.0,0.0,0.0,0.0,0.0,0.0,0.0,0.0,0.0,0.0,0.0,0.0,0.0,0.0,0.0
30,1.9726810455322263,0.522391,1.576855,0.399574,0.0,-3.134339,0.004442,0.518278,0.500159,0.521295,1.576588,0.39857,0.0,-3.193039,-0.034793,0.565778,0.447769,3.0,1.0,111.0,0.0,1.0,-78308.0,-25304.0,13690.0,-79143.0,25994.0,13710.0,-0.93765,-0.225339,0.264642,-0.301123,0.146354,-0.942287,0.173602,-0.963225,-0.205083,-0.941215,0.173754,0.289696,0.323164,0.213369,0.921976,0.098385,0.961396,-0.256977,-0.93765,-0.225339,0.264642,-0.301123,0.146354,-0.942287,0.173602,-0.963225,-0.205083,-0.941215,0.173754,0.289696,0.323164,0.213369,0.921976,0.098385,0.961396,-0.256977,-78308.0,-25304.0,13690.0,-79143.0,25994.0,13710.0,18323.0,17417.0,-160017.0,0.0,-54913.0,-55017.0,-54679.0,-55261.0,-15443.0,-12582.0,153488.0,0.0,52812.0,52661.0,52991.0,52803.0,45.0,208.0,-64.0,0.0,-252.0,-137.0,682.0,-541.0,-70.0,-212.0,-169.0,0.0,-691.0,-628.0,753.0,-869.0,-0.01234,-0.056536,0.017476,0.0,-0.009256,-0.005036,-0.02496,-0.0198,-0.018976,-0.057507,-0.045736,0.0,-0.025313,-0.022988,-0.027581,-0.031831,4076.460205,11508.209961,51497.550781,0.0,-17702.910156,-17702.371094,17972.820312,-17448.121094,4067.9104,11505.240234,51372.089844,0.0,17645.130859,17643.601562,-17379.0,17901.179688,0.0,0.0,0.0,0.0,0.0,0.0,0.0,0.0,0.0,0.0,0.0,0.0,0.0,0.0,0.0,0.0,0.0,0.0,0.0,0.0,0.0,0.0,0.0,0.0,0.0,0.0,0.0,0.0,0.0,0.0,0.0,0.0,4076.427734,11505.772461,51499.621094,0.0,-17704.224609,-17704.224609,17961.640625,-17450.232422,4066.534668,11502.597656,51350.011719,0.0,17644.009766,17640.962891,-17389.28125,17901.902344,29.930542,90.327118,22.895,0.0,0.080737,0.048313,28.554903,28.319229,29.857903,90.311554,22.826385,0.0,-3.246555,-2.286916,31.419899,25.588943,1.018,1.013,-63617.0,-145286.0,-412178.0,0.0,141786.0,141676.0,-145019.0,138607.0,-60642.0,-140418.0,-417313.0,0.0,-143245.0,-143379.0,140109.0,-146099.0,0.0,0.0,0.0,0.0,0.0,0.0,0.0,0.0,0.0,0.0,0.0,0.0,0.0,0.0,0.0,0.0,0.0,0.0,0.0,0.0,0.0,0.0,0.0,0.0
31,1.9925711154937744,0.522391,1.576855,0.399574,0.0,-3.134339,0.004442,0.518101,0.500159,0.521295,1.576588,0.39857,0.0,-3.193039,-0.034793,0.565252,0.447769,3.0,1.0,111.0,0.0,1.0,-78308.0,-25304.0,13690.0,-79143.0,25994.0,13710.0,-0.93767,-0.225256,0.264642,-0.301111,0.14638,-0.942287,0.173517,-0.963241,-0.205083,-0.941169,0.174002,0.289696,0.32322,0.213284,0.921976,0.098638,0.961371,-0.256977,-0.93767,-0.225256,0.264642,-0.301111,0.14638,-0.942287,0.173517,-0.963241,-0.205083,-0.941169,0.174002,0.289696,0.32322,0.213284,0.921976,0.098638,0.961371,-0.256977,-78308.0,-25304.0,13690.0,-79143.0,25994.0,13710.0,18323.0,17417.0,-160017.0,0.0,-54913.0,-55017.0,-54678.0,-55261.0,-15443.0,-12582.0,153488.0,0.0,52812.0,52661.0,52994.0,52803.0,45.0,208.0,-64.0,0.0,-253.0,-138.0,685.0,-542.0,-70.0,-212.0,-169.0,0.0,-692.0,-629.0,752.0,-869.0,-0.01234,-0.056536,0.017476,0.0,-0.009279,-0.005068,-0.025075,-0.019837,-0.018976,-0.057507,-0.045736,0.0,-0.025333,-0.023034,-0.027522,-0.031819,4076.460205,11508.209961,51497.550781,0.0,-17702.910156,-17702.371094,17972.730469,-17448.121094,4067.9104,11505.240234,51372.089844,0.0,17645.130859,17643.601562,-17379.271484,17901.179688,0.0,0.0,0.0,0.0,0.0,0.0,-90.92347,0.0,0.0,0.0,0.0,0.0,0.0,0.0,0.0,0.0,0.0,0.0,0.0,0.0,0.0,0.0,-0.176481,0.0,0.0,0.0,0.0,0.0,0.0,0.0,0.0,0.0,4076.427734,11505.772461,51499.621094,0.0,-17704.224609,-17704.224609,17961.640625,-17450.232422,4066.534668,11502.597656,51350.011719,0.0,17644.009766,17640.962891,-17389.28125,17901.902344,29.930542,90.327118,22.895,0.0,0.080737,0.048313,28.554903,28.319229,29.857903,90.311554,22.826385,0.0,-3.246555,-2.286916,31.419899,25.588943,1.018,1.013,-63617.0,-145286.0,-412178.0,0.0,141786.0,141676.0,-145019.0,138607.0,-60642.0,-140418.0,-417313.0,0.0,-143245.0,-143379.0,140109.0,-146099.0,0.0,0.0,0.0,0.0,0.0,-0.176481,0.0,0.0,0.0,0.0,0.0,0.0,0.0,0.0,0.0,0.0,0.0,-0.176481,0.0,0.0,0.0,0.0,0.0,0.0
32,2.013634204864502,0.522391,1.576855,0.399574,0.0,-3.134339,0.004442,0.518101,0.499986,0.521295,1.576588,0.39857,0.0,-3.193333,-0.034969,0.56499,0.447681,3.0,1.0,111.0,0.0,1.0,-78308.0,-25304.0,13690.0,-79142.0,25996.0,13710.0,-0.93765,-0.225337,0.264642,-0.301123,0.146354,-0.942287,0.173601,-0.963226,-0.205083,-0.94111,0.174162,0.289793,0.323382,0.213539,0.921859,0.098671,0.961285,-0.257285,-0.93765,-0.225337,0.264642,-0.301123,0.146354,-0.942287,0.173601,-0.963226,-0.205083,-0.94111,0.174162,0.289793,0.323382,0.213539,0.921859,0.098671,0.961285,-0.257285,-78308.0,-25304.0,13690.0,-79142.0,25996.0,13710.0,18323.0,17417.0,-160017.0,0.0,-54913.0,-55017.0,-54678.0,-55262.0,-15443.0,-12582.0,153488.0,0.0,52811.0,52660.0,52996.0,52803.0,45.0,208.0,-64.0,0.0,-254.0,-139.0,690.0,-541.0,-70.0,-212.0,-169.0,0.0,-688.0,-628.0,752.0,-869.0,-0.01234,-0.056536,0.017476,0.0,-0.009303,-0.005102,-0.025279,-0.019797,-0.018976,-0.057507,-0.045736,0.0,-0.02521,-0.023002,-0.027546,-0.031805,4076.460205,11508.209961,51497.550781,0.0,-17702.910156,-17702.371094,17972.730469,-17448.210938,4067.9104,11505.240234,51372.089844,0.0,17645.041016,17643.509766,-17379.451172,17901.179688,0.0,0.0,0.0,0.0,0.0,0.0,0.0,0.0,0.0,0.0,0.0,0.0,0.0,0.0,0.0,0.0,0.0,0.0,0.0,0.0,0.0,0.0,0.0,0.0,0.0,0.0,0.0,0.0,0.0,0.0,0.0,0.0,4076.427734,11505.772461,51499.621094,0.0,-17704.224609,-17704.224609,17961.640625,-17450.232422,4066.534668,11502.597656,51350.011719,0.0,17644.009766,17640.962891,-17389.28125,17901.902344,29.930542,90.327118,22.895,0.0,0.080737,0.048313,28.554903,28.319229,29.857903,90.311554,22.826385,0.0,-3.246555,-2.286916,31.419899,25.588943,1.018,1.012,-63617.0,-145286.0,-412178.0,0.0,141786.0,141676.0,-145019.0,138607.0,-60642.0,-140418.0,-417313.0,0.0,-143245.0,-143379.0,140109.0,-146099.0,0.0,0.0,0.0,0.0,0.0,0.0,0.0,0.0,0.0,0.0,0.0,0.0,0.0,0.0,0.0,0.0,0.0,0.0,0.0,0.0,0.0,0.0,0.0,0.0
33,2.033569097518921,0.522391,1.576855,0.399574,0.0,-3.134339,0.004442,0.517928,0.499986,0.521295,1.576588,0.39857,0.0,-3.193333,-0.034969,0.564641,0.447681,3.0,1.0,111.0,0.0,1.0,-78308.0,-25304.0,13690.0,-79142.0,25996.0,13710.0,-0.93767,-0.225256,0.264642,-0.30111,0.14638,-0.942287,0.173517,-0.963241,-0.205083,-0.941079,0.174326,0.289793,0.32342,0.213483,0.921859,0.098839,0.961268,-0.257285,-0.93767,-0.225256,0.264642,-0.30111,0.14638,-0.942287,0.173517,-0.963241,-0.205083,-0.941079,0.174326,0.289793,0.32342,0.213483,0.921859,0.098839,0.961268,-0.257285,-78308.0,-25304.0,13690.0,-79142.0,25996.0,13710.0,18323.0,17417.0,-160017.0,0.0,-54913.0,-55017.0,-54677.0,-55262.0,-15443.0,-12582.0,153488.0,0.0,52811.0,52660.0,52998.0,52803.0,45.0,208.0,-64.0,0.0,-254.0,-140.0,693.0,-541.0,-70.0,-212.0,-169.0,0.0,-689.0,-629.0,753.0,-868.0,-0.01234,-0.056536,0.017476,0.0,-0.009326,-0.005135,-0.025393,-0.019832,-0.018976,-0.057507,-0.045736,0.0,-0.025228,-0.023047,-0.027559,-0.031793,4076.460205,11508.209961,51497.550781,0.0,-17702.910156,-17702.371094,17972.640625,-17448.210938,4067.9104,11505.240234,51372.089844,0.0,17645.041016,17643.509766,-17379.630859,17901.179688,0.0,0.0,0.0,0.0,0.0,0.0,0.0,0.0,0.0,0.0,0.0,0.0,0.0,0.0,0.0,0.0,0.0,0.0,0.0,0.0,0.0,0.0,0.0,0.0,0.0,0.0,0.0,0.0,0.0,0.0,0.0,0.0,4076.427734,11505.772461,51499.621094,0.0,-17704.224609,-17704.224609,17961.640625,-17450.232422,4066.534668,11502.597656,51350.011719,0.0,17644.009766,17640.962891,-17389.28125,17901.902344,29.930542,90.327118,22.895,0.0,0.080737,0.048313,28.554903,28.319229,29.857903,90.311554,22.826385,0.0,-3.246555,-2.286916,31.419899,25.588943,1.017,1.012,-63617.0,-145286.0,-412178.0,0.0,141786.0,141676.0,-145019.0,138607.0,-60642.0,-140418.0,-417313.0,0.0,-143245.0,-143379.0,140109.0,-146099.0,0.0,0.0,0.0,0.0,0.0,0.0,0.0,0.0,0.0,0.0,0.0,0.0,0.0,0.0,0.0,0.0,0.0,0.0,0.0,0.0,0.0,0.0,0.0,0.0
34,2.0535950660705566,0.522391,1.576855,0.399574,0.0,-3.134339,0.004442,0.517579,0.499986,0.521295,1.576588,0.39857,0.0,-3.193333,-0.035143,0.564378,0.447594,3.0,1.0,111.0,0.0,1.0,-78308.0,-25304.0,13690.0,-79141.0,25998.0,13709.0,-0.937709,-0.225092,0.264642,-0.301085,0.146433,-0.942287,0.173349,-0.963271,-0.205083,-0.941014,0.174412,0.289953,0.323598,0.213463,0.921801,0.098879,0.961256,-0.257312,-0.937709,-0.225092,0.264642,-0.301085,0.146433,-0.942287,0.173349,-0.963271,-0.205083,-0.941014,0.174412,0.289953,0.323598,0.213463,0.921801,0.098879,0.961256,-0.257312,-78308.0,-25304.0,13690.0,-79141.0,25998.0,13709.0,18323.0,17417.0,-160017.0,0.0,-54913.0,-55017.0,-54675.0,-55262.0,-15443.0,-12582.0,153488.0,0.0,52811.0,52659.0,53000.0,52803.0,45.0,208.0,-64.0,0.0,-255.0,-141.0,694.0,-542.0,-70.0,-212.0,-169.0,0.0,-689.0,-628.0,753.0,-868.0,-0.01234,-0.056536,0.017476,0.0,-0.009349,-0.005167,-0.025426,-0.019867,-0.018976,-0.057507,-0.045736,0.0,-0.025246,-0.023012,-0.027569,-0.03178,4076.460205,11508.209961,51497.550781,0.0,-17702.910156,-17702.371094,17972.460938,-17448.210938,4067.9104,11505.240234,51372.089844,0.0,17645.041016,17643.421875,-17379.810547,17901.179688,0.0,0.0,0.0,0.0,0.0,0.0,0.0,0.0,0.0,0.0,0.0,0.0,0.0,0.0,0.0,0.0,0.0,0.0,0.0,0.0,0.0,0.0,0.0,0.0,0.0,0.0,0.0,0.0,0.0,0.0,0.0,0.0,4076.427734,11505.772461,51499.621094,0.0,-17704.224609,-17704.224609,17961.640625,-17450.232422,4066.534668,11502.597656,51350.011719,0.0,17644.009766,17640.962891,-17389.28125,17901.902344,29.930542,90.327118,22.895,0.0,0.080737,0.048313,28.554903,28.319229,29.857903,90.311554,22.826385,0.0,-3.246555,-2.286916,31.419899,25.588943,1.017,1.011,-63617.0,-145286.0,-412178.0,0.0,141786.0,141676.0,-145019.0,138607.0,-60642.0,-140418.0,-417313.0,0.0,-143245.0,-143379.0,140109.0,-146099.0,0.0,0.0,0.0,0.0,0.0,0.0,0.0,0.0,0.0,0.0,0.0,0.0,0.0,0.0,0.0,0.0,0.0,0.0,0.0,0.0,0.0,0.0,0.0,0.0
35,2.075566053390503,0.522391,1.576855,0.399574,0.0,-3.134339,0.004442,0.517229,0.499809,0.521295,1.576588,0.39857,0.0,-3.193622,-0.035319,0.56412,0.447506,3.0,1.0,111.0,0.0,1.0,-78308.0,-25304.0,13690.0,-79141.0,26000.0,13708.0,-0.937728,-0.225011,0.264642,-0.301072,0.146459,-0.942287,0.173266,-0.963286,-0.205083,-0.940955,0.174569,0.290051,0.323761,0.213714,0.921686,0.09891,0.961172,-0.257614,-0.937728,-0.225011,0.264642,-0.301072,0.146459,-0.942287,0.173266,-0.963286,-0.205083,-0.940955,0.174569,0.290051,0.323761,0.213714,0.921686,0.09891,0.961172,-0.257614,-78308.0,-25304.0,13690.0,-79141.0,26000.0,13708.0,18323.0,17417.0,-160017.0,0.0,-54913.0,-55017.0,-54673.0,-55263.0,-15443.0,-12582.0,153488.0,0.0,52810.0,52658.0,53002.0,52803.0,45.0,208.0,-64.0,0.0,-256.0,-142.0,696.0,-541.0,-70.0,-212.0,-169.0,0.0,-686.0,-627.0,754.0,-868.0,-0.01234,-0.056536,0.017476,0.0,-0.009374,-0.005202,-0.025474,-0.019826,-0.018976,-0.057507,-0.045736,0.0,-0.025124,-0.02298,-0.027594,-0.031766,4076.460205,11508.209961,51497.550781,0.0,-17702.910156,-17702.371094,17972.28125,-17448.300781,4067.9104,11505.240234,51372.089844,0.0,17644.951172,17643.330078,-17379.990234,17901.179688,0.0,0.0,0.0,0.0,0.0,0.0,0.0,0.0,0.0,0.0,0.0,0.0,0.0,-90.92347,0.0,0.0,0.0,0.0,0.0,0.0,0.0,0.0,0.0,0.0,0.0,0.0,0.0,0.0,0.0,-0.176481,0.088241,-0.088241,4076.427734,11505.772461,51499.621094,0.0,-17704.224609,-17704.224609,17961.640625,-17450.232422,4066.534668,11502.597656,51350.011719,0.0,17644.009766,17640.962891,-17389.28125,17901.902344,29.930542,90.327118,22.895,0.0,0.080737,0.048313,28.554903,28.319229,29.857903,90.311554,22.826385,0.0,-3.246555,-2.286916,31.419899,25.588943,1.017,1.011,-63617.0,-145286.0,-412178.0,0.0,141786.0,141676.0,-145019.0,138607.0,-60642.0,-140418.0,-417313.0,0.0,-143245.0,-143379.0,140109.0,-146099.0,0.0,0.0,0.0,0.0,0.0,0.0,0.0,-0.176481,0.0,-0.09436,-0.149137,0.088241,0.0,0.0,0.0,0.0,0.0,0.0,0.0,-0.176481,0.0,-0.09436,-0.149137,0.088241
36,2.096604108810425,0.522391,1.576855,0.399574,0.0,-3.134339,0.004442,0.51688,0.499809,0.521295,1.576588,0.39857,0.0,-3.193622,-0.035319,0.563943,0.447506,3.0,1.0,111.0,0.0,1.0,-78308.0,-25304.0,13690.0,-79141.0,26000.0,13708.0,-0.937768,-0.224847,0.264642,-0.301047,0.146512,-0.942287,0.173097,-0.963316,-0.205083,-0.940939,0.174652,0.290051,0.32378,0.213685,0.921686,0.098995,0.961163,-0.257614,-0.937768,-0.224847,0.264642,-0.301047,0.146512,-0.942287,0.173097,-0.963316,-0.205083,-0.940939,0.174652,0.290051,0.32378,0.213685,0.921686,0.098995,0.961163,-0.257614,-78308.0,-25304.0,13690.0,-79141.0,26000.0,13708.0,18323.0,17417.0,-160017.0,0.0,-54913.0,-55017.0,-54671.0,-55263.0,-15443.0,-12582.0,153488.0,0.0,52810.0,52658.0,53003.0,52803.0,45.0,208.0,-64.0,0.0,-256.0,-143.0,697.0,-542.0,-70.0,-212.0,-169.0,0.0,-687.0,-629.0,756.0,-867.0,-0.01234,-0.056536,0.017476,0.0,-0.009398,-0.005236,-0.02551,-0.019862,-0.018976,-0.057507,-0.045736,0.0,-0.025141,-0.023023,-0.027684,-0.031753,4076.460205,11508.209961,51497.550781,0.0,-17702.910156,-17702.371094,17972.101562,-17448.300781,4067.9104,11505.240234,51372.089844,0.0,17644.951172,17643.330078,-17380.080078,17901.179688,0.0,0.0,0.0,0.0,0.0,0.0,0.0,0.0,0.0,0.0,0.0,0.0,0.0,0.0,0.0,0.0,0.0,0.0,0.0,0.0,0.0,0.0,0.0,0.0,0.0,0.0,0.0,0.0,0.0,0.0,0.0,0.0,4076.427734,11505.772461,51499.621094,0.0,-17704.224609,-17704.224609,17961.640625,-17450.232422,4066.534668,11502.597656,51350.011719,0.0,17644.009766,17640.962891,-17389.28125,17901.902344,29.930542,90.327118,22.895,0.0,0.080737,0.048313,28.554903,28.319229,29.857903,90.311554,22.826385,0.0,-3.246555,-2.286916,31.419899,25.588943,1.016,1.011,-63617.0,-145286.0,-412178.0,0.0,141786.0,141676.0,-145019.0,138607.0,-60642.0,-140418.0,-417313.0,0.0,-143245.0,-143379.0,140109.0,-146099.0,0.0,0.0,0.0,0.0,0.0,0.0,0.0,0.0,0.0,0.0,0.0,0.0,0.0,0.0,0.0,0.0,0.0,0.0,0.0,0.0,0.0,0.0,0.0,0.0
37,2.11680006980896,0.522391,1.576855,0.399574,0.0,-3.134339,0.004442,0.51653,0.499809,0.521295,1.576588,0.39857,0.0,-3.193622,-0.035319,0.563594,0.447506,3.0,1.0,111.0,0.0,1.0,-78308.0,-25304.0,13690.0,-79141.0,26000.0,13708.0,-0.937807,-0.224683,0.264642,-0.301021,0.146564,-0.942287,0.172929,-0.963346,-0.205083,-0.940909,0.174817,0.290051,0.323817,0.213629,0.921686,0.099163,0.961146,-0.257614,-0.937807,-0.224683,0.264642,-0.301021,0.146564,-0.942287,0.172929,-0.963346,-0.205083,-0.940909,0.174817,0.290051,0.323817,0.213629,0.921686,0.099163,0.961146,-0.257614,-78308.0,-25304.0,13690.0,-79141.0,26000.0,13708.0,18323.0,17417.0,-160017.0,0.0,-54913.0,-55017.0,-54669.0,-55263.0,-15443.0,-12582.0,153488.0,0.0,52810.0,52658.0,53005.0,52803.0,45.0,208.0,-64.0,0.0,-257.0,-143.0,697.0,-543.0,-70.0,-212.0,-169.0,0.0,-687.0,-630.0,756.0,-867.0,-0.01234,-0.056536,0.017476,0.0,-0.009421,-0.005269,-0.025533,-0.019895,-0.018976,-0.057507,-0.045736,0.0,-0.025158,-0.023064,-0.027685,-0.031741,4076.460205,11508.209961,51497.550781,0.0,-17702.910156,-17702.371094,17971.919922,-17448.300781,4067.9104,11505.240234,51372.089844,0.0,17644.951172,17643.330078,-17380.259766,17901.179688,0.0,0.0,0.0,0.0,0.0,0.0,0.0,0.0,0.0,0.0,0.0,0.0,0.0,0.0,0.0,0.0,0.0,0.0,0.0,0.0,0.0,0.0,0.0,0.0,0.0,0.0,0.0,0.0,0.0,0.0,0.0,0.0,4076.427734,11505.772461,51499.621094,0.0,-17704.224609,-17704.224609,17961.640625,-17450.232422,4066.534668,11502.597656,51350.011719,0.0,17644.009766,17640.962891,-17389.28125,17901.902344,29.930542,90.327118,22.895,0.0,0.080737,0.048313,28.554903,28.319229,29.857903,90.311554,22.826385,0.0,-3.246555,-2.286916,31.419899,25.588943,1.016,1.011,-63617.0,-145286.0,-412178.0,0.0,141786.0,141676.0,-145019.0,138607.0,-60642.0,-140418.0,-417313.0,0.0,-143245.0,-143379.0,140109.0,-146099.0,0.0,0.0,0.0,0.0,0.0,0.0,0.0,0.0,0.0,0.0,0.0,0.0,0.0,0.0,0.0,0.0,0.0,0.0,0.0,0.0,0.0,0.0,0.0,0.0
38,2.137801170349121,0.522391,1.576855,0.399574,0.0,-3.134339,0.004442,0.516004,0.499809,0.521295,1.576588,0.39857,0.0,-3.193916,-0.035492,0.563507,0.447419,3.0,1.0,111.0,0.0,1.0,-78308.0,-25304.0,13690.0,-79140.0,26002.0,13707.0,-0.937866,-0.224437,0.264642,-0.300982,0.146644,-0.942287,0.172676,-0.963392,-0.205083,-0.940865,0.174895,0.290145,0.323958,0.213912,0.921571,0.099112,0.961069,-0.257921,-0.937866,-0.224437,0.264642,-0.300982,0.146644,-0.942287,0.172676,-0.963392,-0.205083,-0.940865,0.174895,0.290145,0.323958,0.213912,0.921571,0.099112,0.961069,-0.257921,-78308.0,-25304.0,13690.0,-79140.0,26002.0,13707.0,18323.0,17417.0,-160017.0,0.0,-54913.0,-55017.0,-54666.0,-55263.0,-15443.0,-12582.0,153488.0,0.0,52809.0,52657.0,53006.0,52803.0,45.0,208.0,-64.0,0.0,-258.0,-144.0,696.0,-544.0,-70.0,-212.0,-169.0,0.0,-684.0,-629.0,758.0,-867.0,-0.01234,-0.056536,0.017476,0.0,-0.009445,-0.005303,-0.025482,-0.019931,-0.018976,-0.057507,-0.045736,0.0,-0.025031,-0.023028,-0.027772,-0.031727,4076.460205,11508.209961,51497.550781,0.0,-17702.910156,-17702.371094,17971.650391,-17448.300781,4067.9104,11505.240234,51372.089844,0.0,17644.859375,17643.240234,-17380.349609,17901.179688,0.0,0.0,0.0,0.0,0.0,0.0,0.0,0.0,0.0,0.0,0.0,0.0,0.0,0.0,0.0,0.0,0.0,0.0,0.0,0.0,0.0,0.0,0.0,0.0,0.0,0.0,0.0,0.0,0.0,0.0,0.0,0.0,4076.427734,11505.772461,51499.621094,0.0,-17704.224609,-17704.224609,17961.640625,-17450.232422,4066.534668,11502.597656,51350.011719,0.0,17644.009766,17640.962891,-17389.28125,17901.902344,29.930542,90.327118,22.895,0.0,0.080737,0.048313,28.554903,28.319229,29.857903,90.311554,22.826385,0.0,-3.246555,-2.286916,31.419899,25.588943,1.015,1.01,-63617.0,-145286.0,-412178.0,0.0,141786.0,141676.0,-145019.0,138607.0,-60642.0,-140418.0,-417313.0,0.0,-143245.0,-143379.0,140109.0,-146099.0,0.0,0.0,0.0,0.0,0.0,0.0,0.0,0.0,0.0,0.0,0.0,0.0,0.0,0.0,0.0,0.0,0.0,0.0,0.0,0.0,0.0,0.0,0.0,0.0
39,2.1576180458068848,0.522391,1.576855,0.399574,0.0,-3.134339,0.004442,0.514959,0.499636,0.521295,1.576588,0.39857,0.0,-3.193916,-0.035492,0.563331,0.447419,3.0,1.0,111.0,0.0,1.0,-78308.0,-25304.0,13690.0,-79140.0,26002.0,13707.0,-0.937964,-0.224027,0.264642,-0.300918,0.146775,-0.942287,0.172255,-0.963467,-0.205083,-0.94085,0.174978,0.290145,0.323977,0.213883,0.921571,0.099197,0.96106,-0.257921,-0.937964,-0.224027,0.264642,-0.300918,0.146775,-0.942287,0.172255,-0.963467,-0.205083,-0.94085,0.174978,0.290145,0.323977,0.213883,0.921571,0.099197,0.96106,-0.257921,-78308.0,-25304.0,13690.0,-79140.0,26002.0,13707.0,18323.0,17417.0,-160017.0,0.0,-54913.0,-55017.0,-54660.0,-55264.0,-15443.0,-12582.0,153488.0,0.0,52809.0,52657.0,53007.0,52803.0,45.0,208.0,-64.0,0.0,-258.0,-145.0,688.0,-543.0,-70.0,-212.0,-169.0,0.0,-684.0,-630.0,761.0,-866.0,-0.01234,-0.056536,0.017476,0.0,-0.009468,-0.005335,-0.025183,-0.019885,-0.018976,-0.057507,-0.045736,0.0,-0.025045,-0.023068,-0.027848,-0.031715,4076.460205,11508.209961,51497.550781,0.0,-17702.910156,-17702.371094,17971.111328,-17448.390625,4067.9104,11505.240234,51372.089844,0.0,17644.859375,17643.240234,-17380.441406,17901.179688,0.0,0.0,0.0,0.0,0.0,0.0,-89.174942,0.0,0.0,0.0,0.0,0.0,0.0,0.0,0.0,0.0,0.0,0.0,0.0,0.0,0.0,0.0,-0.173088,0.0,0.0,0.0,0.0,0.0,0.0,0.0,0.0,0.0,4076.427734,11505.772461,51499.621094,0.0,-17704.224609,-17704.224609,17961.640625,-17450.232422,4066.534668,11502.597656,51350.011719,0.0,17644.009766,17640.962891,-17389.28125,17901.902344,29.930542,90.327118,22.895,0.0,0.080737,0.048313,28.554903,28.319229,29.857903,90.311554,22.826385,0.0,-3.246555,-2.286916,31.419899,25.588943,1.014,1.01,-63617.0,-145286.0,-412178.0,0.0,141786.0,141676.0,-145019.0,138607.0,-60642.0,-140418.0,-417313.0,0.0,-143245.0,-143379.0,140109.0,-146099.0,0.0,0.0,0.0,0.0,0.0,-0.173088,0.0,0.0,0.0,0.0,0.0,0.0,0.0,0.0,0.0,0.0,0.0,-0.173088,0.0,0.0,0.0,0.0,0.0,0.0
40,2.177545070648194,0.522391,1.576855,0.399574,0.0,-3.134339,0.004442,0.512512,0.499636,0.521295,1.576588,0.39857,0.0,-3.193916,-0.035669,0.562896,0.447331,3.0,1.0,111.0,0.0,1.0,-78308.0,-25304.0,13690.0,-79139.0,26004.0,13707.0,-0.938237,-0.22288,0.264642,-0.300739,0.147143,-0.942287,0.171076,-0.963677,-0.205083,-0.940769,0.175144,0.290309,0.324177,0.213837,0.921512,0.099318,0.96104,-0.257948,-0.938218,-0.222961,0.264642,-0.300751,0.147117,-0.942287,0.17116,-0.963662,-0.205083,-0.940784,0.175062,0.290309,0.324158,0.213865,0.921512,0.099235,0.961049,-0.257948,-78308.0,-25304.0,13690.0,-79139.0,26004.0,13707.0,18323.0,17417.0,-160017.0,0.0,-54913.0,-55017.0,-54646.0,-55264.0,-15443.0,-12582.0,153488.0,0.0,52809.0,52656.0,53010.0,52803.0,45.0,208.0,-64.0,0.0,-259.0,-146.0,662.0,-544.0,-70.0,-212.0,-169.0,0.0,-684.0,-629.0,758.0,-866.0,-0.01234,-0.056536,0.017476,0.0,-0.009491,-0.005367,-0.024238,-0.019917,-0.018976,-0.057507,-0.045736,0.0,-0.02506,-0.023028,-0.027765,-0.031702,4076.460205,11508.209961,51497.550781,0.0,-17702.910156,-17702.371094,17969.849609,-17448.390625,4067.9104,11505.240234,51372.089844,0.0,17644.859375,17643.150391,-17380.710938,17901.179688,0.0,0.0,0.0,0.0,0.0,0.0,-89.174942,0.0,0.0,0.0,0.0,0.0,0.0,0.0,-89.174942,0.0,0.0,0.0,0.0,0.0,0.0,0.0,-0.173088,0.0,0.0,0.0,0.0,0.0,0.0,0.0,-0.173088,0.0,4076.427734,11505.772461,51499.621094,0.0,-17704.224609,-17704.224609,17961.640625,-17450.232422,4066.534668,11502.597656,51350.011719,0.0,17644.009766,17640.962891,-17389.28125,17901.902344,29.930542,90.327118,22.895,0.0,0.080737,0.048313,28.554903,28.319229,29.857903,90.311554,22.826385,0.0,-3.246555,-2.286916,31.419899,25.588943,1.012,1.01,-63617.0,-145286.0,-412178.0,0.0,141786.0,141676.0,-145019.0,138607.0,-60642.0,-140418.0,-417313.0,0.0,-143245.0,-143379.0,140109.0,-146099.0,0.0,0.0,0.0,0.0,0.0,-0.173088,0.0,0.0,0.0,0.0,0.0,-0.173088,0.0,0.0,0.0,0.0,0.0,-0.173088,0.0,0.0,0.0,0.0,0.0,-0.173088
41,2.197768211364746,0.522391,1.576855,0.399574,0.0,-3.134339,0.004442,0.511463,0.499636,0.521295,1.576588,0.39857,0.0,-3.194204,-0.035669,0.56272,0.447331,3.0,1.0,111.0,0.0,1.0,-78308.0,-25304.0,13690.0,-79140.0,26004.0,13707.0,-0.938354,-0.222388,0.264642,-0.300661,0.147301,-0.942287,0.170571,-0.963767,-0.205083,-0.94076,0.1753,0.290243,0.324178,0.214077,0.921455,0.099397,0.960958,-0.258223,-0.938354,-0.222388,0.264642,-0.300661,0.147301,-0.942287,0.170571,-0.963767,-0.205083,-0.94076,0.1753,0.290243,0.324178,0.214077,0.921455,0.099397,0.960958,-0.258223,-78308.0,-25304.0,13690.0,-79140.0,26004.0,13707.0,18323.0,17417.0,-160017.0,0.0,-54913.0,-55017.0,-54640.0,-55264.0,-15443.0,-12582.0,153488.0,0.0,52808.0,52656.0,53011.0,52803.0,45.0,208.0,-64.0,0.0,-259.0,-147.0,653.0,-545.0,-70.0,-212.0,-169.0,0.0,-681.0,-630.0,760.0,-866.0,-0.01234,-0.056536,0.017476,0.0,-0.009514,-0.0054,-0.023903,-0.019949,-0.018976,-0.057507,-0.045736,0.0,-0.024934,-0.023066,-0.027834,-0.03169,4076.460205,11508.209961,51497.550781,0.0,-17702.910156,-17702.371094,17969.310547,-17448.390625,4067.9104,11505.240234,51372.089844,0.0,17644.771484,17643.150391,-17380.800781,17901.179688,0.0,0.0,0.0,0.0,0.0,0.0,0.0,0.0,0.0,0.0,0.0,0.0,0.0,0.0,0.0,0.0,0.0,0.0,0.0,0.0,0.0,0.0,0.0,0.0,0.0,0.0,0.0,0.0,0.0,0.0,0.0,0.0,4076.427734,11505.772461,51499.621094,0.0,-17704.224609,-17704.224609,17961.640625,-17450.232422,4066.534668,11502.597656,51350.011719,0.0,17644.009766,17640.962891,-17389.28125,17901.902344,29.930542,90.327118,22.895,0.0,0.080737,0.048313,28.554903,28.319229,29.857903,90.311554,22.826385,0.0,-3.246555,-2.286916,31.419899,25.588943,1.011,1.01,-63617.0,-145286.0,-412178.0,0.0,141786.0,141676.0,-145019.0,138607.0,-60642.0,-140418.0,-417313.0,0.0,-143245.0,-143379.0,140109.0,-146099.0,0.0,0.0,0.0,0.0,0.0,0.0,0.0,0.0,0.0,0.0,0.0,0.0,0.0,0.0,0.0,0.0,0.0,0.0,0.0,0.0,0.0,0.0,0.0,0.0
42,2.219757080078125,0.522391,1.576855,0.399574,0.0,-3.134339,0.004442,0.51129,0.49946,0.521295,1.576588,0.39857,0.0,-3.194204,-0.035842,0.562457,0.447244,3.0,1.0,111.0,0.0,1.0,-78308.0,-25304.0,13690.0,-79139.0,26006.0,13706.0,-0.938354,-0.222389,0.264642,-0.300662,0.1473,-0.942287,0.170573,-0.963766,-0.205083,-0.940694,0.175386,0.290404,0.324356,0.214057,0.921397,0.099438,0.960947,-0.25825,-0.938354,-0.222389,0.264642,-0.300662,0.1473,-0.942287,0.170573,-0.963766,-0.205083,-0.940694,0.175386,0.290404,0.324356,0.214057,0.921397,0.099438,0.960947,-0.25825,-78308.0,-25304.0,13690.0,-79139.0,26006.0,13706.0,18323.0,17417.0,-160017.0,0.0,-54913.0,-55017.0,-54639.0,-55265.0,-15443.0,-12582.0,153488.0,0.0,52808.0,52655.0,53013.0,52803.0,45.0,208.0,-64.0,0.0,-260.0,-148.0,655.0,-543.0,-70.0,-212.0,-169.0,0.0,-681.0,-629.0,760.0,-865.0,-0.01234,-0.056536,0.017476,0.0,-0.009539,-0.005435,-0.023971,-0.019905,-0.018976,-0.057507,-0.045736,0.0,-0.024949,-0.02303,-0.027838,-0.031676,4076.460205,11508.209961,51497.550781,0.0,-17702.910156,-17702.371094,17969.220703,-17448.480469,4067.9104,11505.240234,51372.089844,0.0,17644.771484,17643.060547,-17380.980469,17901.179688,0.0,0.0,0.0,0.0,0.0,0.0,0.0,0.0,0.0,0.0,0.0,0.0,0.0,0.0,0.0,0.0,0.0,0.0,0.0,0.0,0.0,0.0,0.0,0.0,0.0,0.0,0.0,0.0,0.0,0.0,0.0,0.0,4076.427734,11505.772461,51499.621094,0.0,-17704.224609,-17704.224609,17961.640625,-17450.232422,4066.534668,11502.597656,51350.011719,0.0,17644.009766,17640.962891,-17389.28125,17901.902344,29.930542,90.327118,22.895,0.0,0.080737,0.048313,28.554903,28.319229,29.857903,90.311554,22.826385,0.0,-3.246555,-2.286916,31.419899,25.588943,1.01,1.009,-63617.0,-145286.0,-412178.0,0.0,141786.0,141676.0,-145019.0,138607.0,-60642.0,-140418.0,-417313.0,0.0,-143245.0,-143379.0,140109.0,-146099.0,0.0,0.0,0.0,0.0,0.0,0.0,0.0,0.0,0.0,0.0,0.0,0.0,0.0,0.0,0.0,0.0,0.0,0.0,0.0,0.0,0.0,0.0,0.0,0.0
43,2.2406551837921143,0.522391,1.576855,0.399574,0.0,-3.134339,0.004442,0.51094,0.49946,0.521295,1.576588,0.39857,0.0,-3.194204,-0.035842,0.562107,0.447244,3.0,1.0,111.0,0.0,1.0,-78308.0,-25304.0,13690.0,-79139.0,26006.0,13706.0,-0.938392,-0.222225,0.264642,-0.300636,0.147353,-0.942287,0.170404,-0.963796,-0.205083,-0.940663,0.175551,0.290404,0.324393,0.214001,0.921397,0.099605,0.96093,-0.25825,-0.938392,-0.222225,0.264642,-0.300636,0.147353,-0.942287,0.170404,-0.963796,-0.205083,-0.940663,0.175551,0.290404,0.324393,0.214001,0.921397,0.099605,0.96093,-0.25825,-78308.0,-25304.0,13690.0,-79139.0,26006.0,13706.0,18323.0,17417.0,-160017.0,0.0,-54913.0,-55017.0,-54637.0,-55265.0,-15443.0,-12582.0,153488.0,0.0,52808.0,52655.0,53015.0,52803.0,45.0,208.0,-64.0,0.0,-261.0,-149.0,654.0,-544.0,-70.0,-212.0,-169.0,0.0,-682.0,-630.0,760.0,-865.0,-0.01234,-0.056536,0.017476,0.0,-0.009563,-0.005469,-0.023951,-0.019937,-0.018976,-0.057507,-0.045736,0.0,-0.024963,-0.023068,-0.027832,-0.031663,4076.460205,11508.209961,51497.550781,0.0,-17702.910156,-17702.371094,17969.041016,-17448.480469,4067.9104,11505.240234,51372.089844,0.0,17644.771484,17643.060547,-17381.162109,17901.179688,0.0,0.0,0.0,0.0,0.0,0.0,0.0,0.0,0.0,0.0,0.0,0.0,0.0,0.0,0.0,0.0,0.0,0.0,0.0,0.0,0.0,0.0,0.0,0.0,0.0,0.0,0.0,0.0,0.0,0.0,0.0,0.0,4076.427734,11505.772461,51499.621094,0.0,-17704.224609,-17704.224609,17961.640625,-17450.232422,4066.534668,11502.597656,51350.011719,0.0,17644.009766,17640.962891,-17389.28125,17901.902344,29.930542,90.327118,22.895,0.0,0.080737,0.048313,28.554903,28.319229,29.857903,90.311554,22.826385,0.0,-3.246555,-2.286916,31.419899,25.588943,1.01,1.009,-63617.0,-145286.0,-412178.0,0.0,141786.0,141676.0,-145019.0,138607.0,-60642.0,-140418.0,-417313.0,0.0,-143245.0,-143379.0,140109.0,-146099.0,0.0,0.0,0.0,0.0,0.0,0.0,0.0,0.0,0.0,0.0,0.0,0.0,0.0,0.0,0.0,0.0,0.0,0.0,0.0,0.0,0.0,0.0,0.0,0.0
44,2.2616031169891357,0.522391,1.576855,0.399574,0.0,-3.134339,0.004442,0.510591,0.49946,0.521295,1.576588,0.39857,0.0,-3.1944980000000003,-0.036018,0.562022,0.447156,3.0,1.0,111.0,0.0,1.0,-78308.0,-25304.0,13690.0,-79138.0,26008.0,13705.0,-0.938431,-0.222061,0.264642,-0.30061,0.147405,-0.942287,0.170236,-0.963826,-0.205083,-0.940619,0.175627,0.2905,0.324538,0.214284,0.92128,0.099553,0.960852,-0.258558,-0.938431,-0.222061,0.264642,-0.30061,0.147405,-0.942287,0.170236,-0.963826,-0.205083,-0.940655,0.175707,0.290336,0.324394,0.214246,0.92134,0.099683,0.960846,-0.25853,-78308.0,-25304.0,13690.0,-79139.0,26006.0,13706.0,18323.0,17417.0,-160017.0,0.0,-54913.0,-55017.0,-54635.0,-55265.0,-15443.0,-12582.0,153488.0,0.0,52807.0,52654.0,53016.0,52803.0,45.0,208.0,-64.0,0.0,-262.0,-150.0,653.0,-545.0,-70.0,-212.0,-169.0,0.0,-678.0,-629.0,762.0,-864.0,-0.01234,-0.056536,0.017476,0.0,-0.009587,-0.005503,-0.023928,-0.019969,-0.018976,-0.057507,-0.045736,0.0,-0.024833,-0.023027,-0.027902,-0.031649,4076.460205,11508.209961,51497.550781,0.0,-17702.910156,-17702.371094,17968.861328,-17448.480469,4067.9104,11505.240234,51372.089844,0.0,17644.679688,17642.970703,-17381.25,17901.179688,0.0,0.0,0.0,0.0,0.0,0.0,0.0,0.0,0.0,0.0,0.0,0.0,0.0,-90.92347,0.0,0.0,0.0,0.0,0.0,0.0,0.0,0.0,0.0,0.0,0.0,0.0,0.0,0.0,0.0,-0.176481,0.088241,-0.088241,4076.427734,11505.772461,51499.621094,0.0,-17704.224609,-17704.224609,17961.640625,-17450.232422,4066.534668,11502.597656,51350.011719,0.0,17644.009766,17640.962891,-17389.28125,17901.902344,29.930542,90.327118,22.895,0.0,0.080737,0.048313,28.554903,28.319229,29.857903,90.311554,22.826385,0.0,-3.246555,-2.286916,31.419899,25.588943,1.01,1.009,-63617.0,-145286.0,-412178.0,0.0,141786.0,141676.0,-145019.0,138607.0,-60642.0,-140418.0,-417313.0,0.0,-143245.0,-143379.0,140109.0,-146099.0,0.0,0.0,0.0,0.0,0.0,0.0,0.0,-0.176481,0.0,-0.094047,-0.149335,0.088241,0.0,0.0,0.0,0.0,0.0,0.0,0.0,-0.176481,0.0,-0.094047,-0.149335,0.088241
45,2.281668186187744,0.522391,1.576855,0.399574,0.0,-3.134339,0.004442,0.510414,0.49946,0.521295,1.576588,0.39857,0.0,-3.1944980000000003,-0.036018,0.561846,0.447156,3.0,1.0,111.0,0.0,1.0,-78308.0,-25304.0,13690.0,-79138.0,26008.0,13705.0,-0.938451,-0.221978,0.264642,-0.300597,0.147432,-0.942287,0.170151,-0.963841,-0.205083,-0.940604,0.17571,0.2905,0.324556,0.214256,0.92128,0.099637,0.960844,-0.258558,-0.938451,-0.221978,0.264642,-0.300597,0.147432,-0.942287,0.170151,-0.963841,-0.205083,-0.940604,0.17571,0.2905,0.324556,0.214256,0.92128,0.099637,0.960844,-0.258558,-78308.0,-25304.0,13690.0,-79138.0,26008.0,13705.0,18323.0,17417.0,-160017.0,0.0,-54913.0,-55017.0,-54634.0,-55265.0,-15443.0,-12582.0,153488.0,0.0,52807.0,52654.0,53017.0,52803.0,45.0,208.0,-64.0,0.0,-262.0,-151.0,655.0,-546.0,-70.0,-212.0,-169.0,0.0,-678.0,-630.0,764.0,-864.0,-0.01234,-0.056536,0.017476,0.0,-0.00961,-0.005536,-0.023974,-0.02,-0.018976,-0.057507,-0.045736,0.0,-0.024845,-0.023062,-0.027962,-0.031637,4076.460205,11508.209961,51497.550781,0.0,-17702.910156,-17702.371094,17968.769531,-17448.480469,4067.9104,11505.240234,51372.089844,0.0,17644.679688,17642.970703,-17381.341797,17901.179688,0.0,0.0,0.0,0.0,0.0,0.0,0.0,0.0,0.0,0.0,0.0,0.0,0.0,0.0,0.0,0.0,0.0,0.0,0.0,0.0,0.0,0.0,0.0,0.0,0.0,0.0,0.0,0.0,0.0,0.0,0.0,0.0,4076.427734,11505.772461,51499.621094,0.0,-17704.224609,-17704.224609,17961.640625,-17450.232422,4066.534668,11502.597656,51350.011719,0.0,17644.009766,17640.962891,-17389.28125,17901.902344,29.930542,90.327118,22.895,0.0,0.080737,0.048313,28.554903,28.319229,29.857903,90.311554,22.826385,0.0,-3.246555,-2.286916,31.419899,25.588943,1.009,1.009,-63617.0,-145286.0,-412178.0,0.0,141786.0,141676.0,-145019.0,138607.0,-60642.0,-140418.0,-417313.0,0.0,-143245.0,-143379.0,140109.0,-146099.0,0.0,0.0,0.0,0.0,0.0,0.0,0.0,0.0,0.0,0.0,0.0,0.0,0.0,0.0,0.0,0.0,0.0,0.0,0.0,0.0,0.0,0.0,0.0,0.0
46,2.3015801906585693,0.522391,1.576855,0.399574,0.0,-3.134339,0.004442,0.510065,0.49946,0.521295,1.576588,0.39857,0.0,-3.1944980000000003,-0.036018,0.561496,0.447156,3.0,1.0,111.0,0.0,1.0,-78308.0,-25304.0,13690.0,-79138.0,26008.0,13705.0,-0.93849,-0.221814,0.264642,-0.300571,0.147484,-0.942287,0.169982,-0.963871,-0.205083,-0.940573,0.175875,0.2905,0.324594,0.214199,0.92128,0.099805,0.960826,-0.258558,-0.93847,-0.221897,0.264642,-0.300584,0.147458,-0.942287,0.170067,-0.963856,-0.205083,-0.940589,0.175792,0.2905,0.324575,0.214227,0.92128,0.09972,0.960835,-0.258558,-78308.0,-25304.0,13690.0,-79138.0,26008.0,13705.0,18323.0,17417.0,-160017.0,0.0,-54913.0,-55017.0,-54632.0,-55265.0,-15443.0,-12582.0,153488.0,0.0,52807.0,52654.0,53019.0,52803.0,45.0,208.0,-64.0,0.0,-263.0,-152.0,654.0,-547.0,-70.0,-212.0,-169.0,0.0,-679.0,-631.0,763.0,-864.0,-0.01234,-0.056536,0.017476,0.0,-0.009633,-0.005568,-0.023939,-0.02003,-0.018976,-0.057507,-0.045736,0.0,-0.024856,-0.023097,-0.027942,-0.031624,4076.460205,11508.209961,51497.550781,0.0,-17702.910156,-17702.371094,17968.589844,-17448.480469,4067.9104,11505.240234,51372.089844,0.0,17644.679688,17642.970703,-17381.521484,17901.179688,0.0,0.0,0.0,0.0,0.0,0.0,0.0,0.0,0.0,0.0,0.0,0.0,0.0,0.0,-90.92347,0.0,0.0,0.0,0.0,0.0,0.0,0.0,0.0,0.0,0.0,0.0,0.0,0.0,0.0,0.0,-0.176481,0.0,4076.427734,11505.772461,51499.621094,0.0,-17704.224609,-17704.224609,17961.640625,-17450.232422,4066.534668,11502.597656,51350.011719,0.0,17644.009766,17640.962891,-17389.28125,17901.902344,29.930542,90.327118,22.895,0.0,0.080737,0.048313,28.554903,28.319229,29.857903,90.311554,22.826385,0.0,-3.246555,-2.286916,31.419899,25.588943,1.009,1.008,-63617.0,-145286.0,-412178.0,0.0,141786.0,141676.0,-145019.0,138607.0,-60642.0,-140418.0,-417313.0,0.0,-143245.0,-143379.0,140109.0,-146099.0,0.0,0.0,0.0,0.0,0.0,0.0,0.0,0.0,0.0,0.0,0.0,-0.176481,0.0,0.0,0.0,0.0,0.0,0.0,0.0,0.0,0.0,0.0,0.0,-0.176481
47,2.3227860927581787,0.522391,1.576855,0.399574,0.0,-3.134339,0.004442,0.509892,0.499287,0.521295,1.576588,0.39857,0.0,-3.1944980000000003,-0.036191,0.56141,0.44707,3.0,1.0,111.0,0.0,1.0,-78308.0,-25304.0,13690.0,-79138.0,26010.0,13705.0,-0.93849,-0.221814,0.264642,-0.300571,0.147484,-0.942287,0.169982,-0.963871,-0.205083,-0.940523,0.175878,0.290661,0.324753,0.214208,0.921222,0.099761,0.960824,-0.258584,-0.93849,-0.221814,0.264642,-0.300571,0.147484,-0.942287,0.169982,-0.963871,-0.205083,-0.940523,0.175878,0.290661,0.324753,0.214208,0.921222,0.099761,0.960824,-0.258584,-78308.0,-25304.0,13690.0,-79138.0,26010.0,13705.0,18323.0,17417.0,-160017.0,0.0,-54913.0,-55017.0,-54631.0,-55266.0,-15443.0,-12582.0,153488.0,0.0,52807.0,52653.0,53020.0,52803.0,45.0,208.0,-64.0,0.0,-263.0,-153.0,655.0,-546.0,-70.0,-212.0,-169.0,0.0,-679.0,-630.0,765.0,-863.0,-0.01234,-0.056536,0.017476,0.0,-0.009656,-0.0056,-0.023982,-0.019982,-0.018976,-0.057507,-0.045736,0.0,-0.024868,-0.023053,-0.027999,-0.031612,4076.460205,11508.209961,51497.550781,0.0,-17702.910156,-17702.371094,17968.5,-17448.570312,4067.9104,11505.240234,51372.089844,0.0,17644.679688,17642.880859,-17381.611328,17901.179688,0.0,0.0,0.0,0.0,0.0,0.0,0.0,0.0,0.0,0.0,0.0,0.0,0.0,0.0,0.0,0.0,0.0,0.0,0.0,0.0,0.0,0.0,0.0,0.0,0.0,0.0,0.0,0.0,0.0,0.0,0.0,0.0,4076.427734,11505.772461,51499.621094,0.0,-17704.224609,-17704.224609,17961.640625,-17450.232422,4066.534668,11502.597656,51350.011719,0.0,17644.009766,17640.962891,-17389.28125,17901.902344,29.930542,90.327118,22.895,0.0,0.080737,0.048313,28.554903,28.319229,29.857903,90.311554,22.826385,0.0,-3.246555,-2.286916,31.419899,25.588943,1.009,1.008,-63617.0,-145286.0,-412178.0,0.0,141786.0,141676.0,-145019.0,138607.0,-60642.0,-140418.0,-417313.0,0.0,-143245.0,-143379.0,140109.0,-146099.0,0.0,0.0,0.0,0.0,0.0,0.0,0.0,0.0,0.0,0.0,0.0,0.0,0.0,0.0,0.0,0.0,0.0,0.0,0.0,0.0,0.0,0.0,0.0,0.0
48,2.3426010608673096,0.522391,1.576855,0.399574,0.0,-3.134339,0.004442,0.509542,0.499287,0.521295,1.576588,0.39857,0.0,-3.1947870000000003,-0.036191,0.56106,0.44707,3.0,1.0,111.0,0.0,1.0,-78308.0,-25304.0,13690.0,-79138.0,26010.0,13705.0,-0.938528,-0.22165,0.264642,-0.300546,0.147537,-0.942287,0.169814,-0.9639,-0.205083,-0.940499,0.176116,0.290595,0.324773,0.21442,0.921166,0.099923,0.960733,-0.258859,-0.938528,-0.22165,0.264642,-0.300546,0.147537,-0.942287,0.169814,-0.9639,-0.205083,-0.940499,0.176116,0.290595,0.324773,0.21442,0.921166,0.099923,0.960733,-0.258859,-78308.0,-25304.0,13690.0,-79138.0,26010.0,13705.0,18323.0,17417.0,-160017.0,0.0,-54913.0,-55017.0,-54629.0,-55266.0,-15443.0,-12582.0,153488.0,0.0,52806.0,52653.0,53022.0,52803.0,45.0,208.0,-64.0,0.0,-264.0,-153.0,654.0,-546.0,-70.0,-212.0,-169.0,0.0,-676.0,-630.0,764.0,-863.0,-0.01234,-0.056536,0.017476,0.0,-0.009679,-0.005633,-0.023943,-0.020011,-0.018976,-0.057507,-0.045736,0.0,-0.024738,-0.023087,-0.027974,-0.031599,4076.460205,11508.209961,51497.550781,0.0,-17702.910156,-17702.371094,17968.320312,-17448.570312,4067.9104,11505.240234,51372.089844,0.0,17644.591797,17642.880859,-17381.791016,17901.179688,0.0,0.0,0.0,0.0,0.0,0.0,0.0,0.0,0.0,0.0,0.0,0.0,0.0,0.0,0.0,0.0,0.0,0.0,0.0,0.0,0.0,0.0,0.0,0.0,0.0,0.0,0.0,0.0,0.0,0.0,0.0,0.0,4076.427734,11505.772461,51499.621094,0.0,-17704.224609,-17704.224609,17961.640625,-17450.232422,4066.534668,11502.597656,51350.011719,0.0,17644.009766,17640.962891,-17389.28125,17901.902344,29.930542,90.327118,22.895,0.0,0.080737,0.048313,28.554903,28.319229,29.857903,90.311554,22.826385,0.0,-3.246555,-2.286916,31.419899,25.588943,1.008,1.008,-63617.0,-145286.0,-412178.0,0.0,141786.0,141676.0,-145019.0,138607.0,-60642.0,-140418.0,-417313.0,0.0,-143245.0,-143379.0,140109.0,-146099.0,0.0,0.0,0.0,0.0,0.0,0.0,0.0,0.0,0.0,0.0,0.0,0.0,0.0,0.0,0.0,0.0,0.0,0.0,0.0,0.0,0.0,0.0,0.0,0.0
49,2.3646061420440674,0.522391,1.576855,0.399574,0.0,-3.134339,0.004442,0.509369,0.499287,0.521295,1.576588,0.39857,0.0,-3.1947870000000003,-0.036368,0.560975,0.446981,3.0,1.0,111.0,0.0,1.0,-78308.0,-25304.0,13690.0,-79137.0,26012.0,13704.0,-0.938548,-0.221569,0.264642,-0.300533,0.147563,-0.942287,0.16973,-0.963915,-0.205083,-0.940448,0.176117,0.290759,0.324935,0.21443,0.921106,0.099875,0.96073,-0.258886,-0.938548,-0.221569,0.264642,-0.300533,0.147563,-0.942287,0.16973,-0.963915,-0.205083,-0.940448,0.176117,0.290759,0.324935,0.21443,0.921106,0.099875,0.96073,-0.258886,-78308.0,-25304.0,13690.0,-79137.0,26012.0,13704.0,18323.0,17417.0,-160017.0,0.0,-54913.0,-55017.0,-54628.0,-55266.0,-15443.0,-12582.0,153488.0,0.0,52806.0,52652.0,53023.0,52803.0,45.0,208.0,-64.0,0.0,-265.0,-154.0,655.0,-547.0,-70.0,-212.0,-169.0,0.0,-676.0,-629.0,766.0,-863.0,-0.01234,-0.056536,0.017476,0.0,-0.009704,-0.005668,-0.023992,-0.020043,-0.018976,-0.057507,-0.045736,0.0,-0.024749,-0.023043,-0.028039,-0.031585,4076.460205,11508.209961,51497.550781,0.0,-17702.910156,-17702.371094,17968.230469,-17448.570312,4067.9104,11505.240234,51372.089844,0.0,17644.591797,17642.789062,-17381.878906,17901.179688,0.0,0.0,0.0,0.0,0.0,0.0,0.0,0.0,0.0,0.0,0.0,0.0,0.0,0.0,0.0,0.0,0.0,0.0,0.0,0.0,0.0,0.0,0.0,0.0,0.0,0.0,0.0,0.0,0.0,0.0,0.0,0.0,4076.427734,11505.772461,51499.621094,0.0,-17704.224609,-17704.224609,17961.640625,-17450.232422,4066.534668,11502.597656,51350.011719,0.0,17644.009766,17640.962891,-17389.28125,17901.902344,29.930542,90.327118,22.895,0.0,0.080737,0.048313,28.554903,28.319229,29.857903,90.311554,22.826385,0.0,-3.246555,-2.286916,31.419899,25.588943,1.008,1.007,-63617.0,-145286.0,-412178.0,0.0,141786.0,141676.0,-145019.0,138607.0,-60642.0,-140418.0,-417313.0,0.0,-143245.0,-143379.0,140109.0,-146099.0,0.0,0.0,0.0,0.0,0.0,0.0,0.0,0.0,0.0,0.0,0.0,0.0,0.0,0.0,0.0,0.0,0.0,0.0,0.0,0.0,0.0,0.0,0.0,0.0
50,2.384606122970581,0.522391,1.576855,0.399574,0.0,-3.134339,0.004442,0.509019,0.499287,0.521295,1.576588,0.39857,0.0,-3.1947870000000003,-0.036368,0.560626,0.446981,3.0,1.0,111.0,0.0,1.0,-78308.0,-25304.0,13690.0,-79137.0,26012.0,13704.0,-0.938586,-0.221405,0.264642,-0.300507,0.147615,-0.942287,0.169562,-0.963945,-0.205083,-0.940417,0.176282,0.290759,0.324973,0.214373,0.921106,0.100043,0.960713,-0.258886,-0.938586,-0.221405,0.264642,-0.300507,0.147615,-0.942287,0.169562,-0.963945,-0.205083,-0.940417,0.176282,0.290759,0.324973,0.214373,0.921106,0.100043,0.960713,-0.258886,-78308.0,-25304.0,13690.0,-79137.0,26012.0,13704.0,18323.0,17417.0,-160017.0,0.0,-54913.0,-55017.0,-54626.0,-55266.0,-15443.0,-12582.0,153488.0,0.0,52806.0,52652.0,53025.0,52803.0,45.0,208.0,-64.0,0.0,-265.0,-155.0,654.0,-548.0,-70.0,-212.0,-169.0,0.0,-676.0,-630.0,765.0,-862.0,-0.01234,-0.056536,0.017476,0.0,-0.009727,-0.005701,-0.023948,-0.020072,-0.018976,-0.057507,-0.045736,0.0,-0.02476,-0.023075,-0.02801,-0.031573,4076.460205,11508.209961,51497.550781,0.0,-17702.910156,-17702.371094,17968.050781,-17448.570312,4067.9104,11505.240234,51372.089844,0.0,17644.591797,17642.789062,-17382.060547,17901.179688,0.0,0.0,0.0,0.0,0.0,0.0,0.0,0.0,0.0,0.0,0.0,0.0,0.0,0.0,0.0,0.0,0.0,0.0,0.0,0.0,0.0,0.0,0.0,0.0,0.0,0.0,0.0,0.0,0.0,0.0,0.0,0.0,4076.427734,11505.772461,51499.621094,0.0,-17704.224609,-17704.224609,17961.640625,-17450.232422,4066.534668,11502.597656,51350.011719,0.0,17644.009766,17640.962891,-17389.28125,17901.902344,29.930542,90.327118,22.895,0.0,0.080737,0.048313,28.554903,28.319229,29.857903,90.311554,22.826385,0.0,-3.246555,-2.286916,31.419899,25.588943,1.008,1.007,-63617.0,-145286.0,-412178.0,0.0,141786.0,141676.0,-145019.0,138607.0,-60642.0,-140418.0,-417313.0,0.0,-143245.0,-143379.0,140109.0,-146099.0,0.0,0.0,0.0,0.0,0.0,0.0,0.0,0.0,0.0,0.0,0.0,0.0,0.0,0.0,0.0,0.0,0.0,0.0,0.0,0.0,0.0,0.0,0.0,0.0
