MHC-RobotSimulators-Research/Data_Analysis_MotionReplication/mai_plotter/offset_fixed/2arm__a1.csv
Unnamed: 0,time,jpos0,jpos1,jpos2,jpos3,jpos4,jpos5,jpos6,jpos7,jpos8,jpos9,jpos10,jpos11,jpos12,jpos13,jpos14,jpos15,runlevel,sublevel,last_seq,type0,type1,pos0,pos1,pos2,pos3,pos4,pos5,ori0,ori1,ori2,ori3,ori4,ori5,ori6,ori7,ori8,ori9,ori10,ori11,ori12,ori13,ori14,ori15,ori16,ori17,ori_d0,ori_d1,ori_d2,ori_d3,ori_d4,ori_d5,ori_d6,ori_d7,ori_d8,ori_d9,ori_d10,ori_d11,ori_d12,ori_d13,ori_d14,ori_d15,ori_d16,ori_d17,pos_d0,pos_d1,pos_d2,pos_d3,pos_d4,pos_d5,encVals0,encVals1,encVals2,encVals3,encVals4,encVals5,encVals6,encVals7,encVals8,encVals9,encVals10,encVals11,encVals12,encVals13,encVals14,encVals15,dac_vals0,dac_vals1,dac_vals2,dac_vals3,dac_vals4,dac_vals5,dac_vals6,dac_vals7,dac_vals8,dac_vals9,dac_vals10,dac_vals11,dac_vals12,dac_vals13,dac_vals14,dac_vals15,Tau0,Tau1,Tau2,Tau3,Tau4,Tau5,Tau6,Tau7,Tau8,Tau9,Tau10,Tau11,Tau12,Tau13,Tau14,Tau15,mpos0,mpos1,mpos2,mpos3,mpos4,mpos5,mpos6,mpos7,mpos8,mpos9,mpos10,mpos11,mpos12,mpos13,mpos14,mpos15,mvel0,mvel1,mvel2,mvel3,mvel4,mvel5,mvel6,mvel7,mvel8,mvel9,mvel10,mvel11,mvel12,mvel13,mvel14,mvel15,jvel0,jvel1,jvel2,jvel3,jvel4,jvel5,jvel6,jvel7,jvel8,jvel9,jvel10,jvel11,jvel12,jvel13,jvel14,jvel15,mpos_d0,mpos_d1,mpos_d2,mpos_d3,mpos_d4,mpos_d5,mpos_d6,mpos_d7,mpos_d8,mpos_d9,mpos_d10,mpos_d11,mpos_d12,mpos_d13,mpos_d14,mpos_d15,jpos_d0,jpos_d1,jpos_d2,jpos_d3,jpos_d4,jpos_d5,jpos_d6,jpos_d7,jpos_d8,jpos_d9,jpos_d10,jpos_d11,jpos_d12,jpos_d13,jpos_d14,jpos_d15,grasp_d0,grasp_d1,encoffsets0,encoffsets1,encoffsets2,encoffsets3,encoffsets4,encoffsets5,encoffsets6,encoffsets7,encoffsets8,encoffsets9,encoffsets10,encoffsets11,encoffsets12,encoffsets13,encoffsets14,encoffsets15,jac_vel0,jac_vel1,jac_vel2,jac_vel3,jac_vel4,jac_vel5,jac_vel6,jac_vel7,jac_vel8,jac_vel9,jac_vel10,jac_vel11,jac_f0,jac_f1,jac_f2,jac_f3,jac_f4,jac_f5,jac_f6,jac_f7,jac_f8,jac_f9,jac_f10,jac_f11
0,0.0,0.6108584403991699,1.5707788467407229,0.3900007745623589,0.0,-3.141583913562706,-3.158364889066512e-11,0.7853894233703613,0.7853894233703613,0.6108584403991699,1.5707788467407229,0.3900007745623589,0.0,-3.141583913562706,-1.2499491025552699e-11,0.7853894233703613,0.7853894233703613,,,,,,,,,,,,,,,,,,,,,,,,,,,,,,,,,,,,,,,,,,,,,,,,,,,,,,,,,,,,,,,,,,,,,,,,,,,,,,,,,,,,,,,,,,,,,,,,,,,,,,,,,,,,,,,,,,,,,,,,,,,,,,,,,,,,,,0.0,0.0,0.0,0.0,0.0,0.0,0.0,0.0,0.0,0.0,0.0,0.0,0.0,0.0,0.0,0.0,,,,,,,,,,,,,,,,,,,,,,,,,,,,,,,,,,,,,,,,,,,,,,,,,,,,,,,,,,,,,,,,,,,,,,,,,,
1,1.1414670944213867,0.6107974648475647,1.5706220865249634,0.39000777810812,0.0,-3.1415954768637926,-2.7366363610781264e-06,0.5311392545700073,0.5306989550590515,0.6107974648475647,1.570622205734253,0.3900077632069588,0.0,-3.141618245838097,-3.3112079108832404e-05,0.5365176796913147,0.5363245010375977,,,,,,,,,,,,,,,,,,,,,,,,,,,,,,,,,,,,,,,,,,,,,,,,,,,,,,,,,,,,,,,,,,,,,,,,,,,,,,,,,,,,,,,,,,,,,,,,,,,,,,,,,,,,,,,,,,,,,,,,,,,,,,,,,,,,,,-4.009855274489382e-06,6.823328476457391e-06,1.880510239971045e-06,0.0,-0.0169782061129808,-0.0022302414290606,-0.3128543198108673,-0.3217859268188476,1.136645195742858e-07,-4.806345714314375e-06,5.904792033106787e-07,0.0,0.0008442138205282,0.0024363617412745,0.1333908885717392,0.1136676222085952,,,,,,,,,,,,,,,,,,,,,,,,,,,,,,,,,,,,,,,,,,,,,,,,,,,,,,,,,,,,,,,,,,,,,,,,,,
2,1.1637532711029053,0.6107974648475647,1.5706220865249634,0.3900077706575394,0.0,-3.141583734748772,-3.635638279320119e-08,0.5237438082695007,0.523551344871521,0.6107974648475647,1.570622205734253,0.3900077706575394,0.0,-3.1416366040686876,-4.909428025712259e-05,0.5270204544067383,0.5266873240470886,,,,,,,,,,,,,,,,,,,,,,,,,,,,,,,,,,,,,,,,,,,,,,,,,,,,,,,,,,,,,,,,,,,,,,,,,,,,,,,,,,,,,,,,,,,,,,,,,,,,,,,,,,,,,,,,,,,,,,,,,,,,,,,,,,,,,,-1.0654829338818672e-06,-3.023741328433971e-06,-5.072979547549039e-07,0.0,0.0011209512595087,4.0289571188623086e-05,-0.121764175593853,-0.1121586337685585,6.606113061025098e-07,1.8111271856469106e-05,-8.333221330758533e-07,0.0,0.0123495375737547,0.0078215757384896,0.3115831017494201,0.3216843605041504,,,,,,,,,,,,,,,,,,,,,,,,,,,,,,,,,,,,,,,,,,,,,,,,,,,,,,,,,,,,,,,,,,,,,,,,,,
3,1.184657335281372,0.6107974648475647,1.5706220865249634,0.3900077706575394,0.0,-3.141583675144127,-1.6710961858734666e-07,0.52326899766922,0.5230979919433594,0.6107974052429199,1.5706220865249634,0.3900077706575394,0.0,-3.1416057884673387,-1.828572385420557e-05,0.5217118263244629,0.5216006636619568,,,,,,,,,,,,,,,,,,,,,,,,,,,,,,,,,,,,,,,,,,,,,,,,,,,,,,,,,,,,,,,,,,,,,,,,,,,,,,,,,,,,,,,,,,,,,,,,,,,,,,,,,,,,,,,,,,,,,,,,,,,,,,,,,,,,,,-1.730179945980126e-07,-1.7597102441868628e-06,1.4393714309335337e-07,0.0,0.0002830557350534,-2.5792247470235452e-05,-0.1178470179438591,-0.1135316714644432,-4.675679292631685e-07,-1.343182248092489e-06,6.388776085941572e-08,0.0,9.482169116381556e-05,6.303485861280933e-05,0.1092308461666107,0.1086556836962699,,,,,,,,,,,,,,,,,,,,,,,,,,,,,,,,,,,,,,,,,,,,,,,,,,,,,,,,,,,,,,,,,,,,,,,,,,
4,1.2059733867645264,0.6107974052429199,1.5706220865249634,0.3900077706575394,0.0,-3.141586595771721,-2.5852659746306017e-07,0.5192368626594543,0.5191036462783813,0.6107974052429199,1.5706220865249634,0.3900077706575394,0.0,-3.1416057884673387,-1.828572385420557e-05,0.5217118263244629,0.5216006636619568,,,,,,,,,,,,,,,,,,,,,,,,,,,,,,,,,,,,,,,,,,,,,,,,,,,,,,,,,,,,,,,,,,,,,,,,,,,,,,,,,,,,,,,,,,,,,,,,,,,,,,,,,,,,,,,,,,,,,,,,,,,,,,,,,,,,,,-4.054321891544532e-07,-1.0383961352999904e-06,3.7667238217409256e-08,0.0,-2.4825432774377987e-05,6.637105798290577e-07,-0.096786729991436,-0.0960638672113418,-4.675679292631685e-07,-1.343182248092489e-06,6.388776085941572e-08,0.0,9.482169116381556e-05,6.303485861280933e-05,0.1092308461666107,0.1086556836962699,,,,,,,,,,,,,,,,,,,,,,,,,,,,,,,,,,,,,,,,,,,,,,,,,,,,,,,,,,,,,,,,,,,,,,,,,,
5,1.2269926071166992,0.6107974052429199,1.5706220865249634,0.3900077706575394,0.0,-3.141586595771721,-2.5852659746306017e-07,0.5192368626594543,0.5191036462783813,0.6107974052429199,1.5706220865249634,0.3900077706575394,0.0,-3.141604357955864,-1.5576528312521987e-05,0.5181317329406738,0.518039345741272,,,,,,,,,,,,,,,,,,,,,,,,,,,,,,,,,,,,,,,,,,,,,,,,,,,,,,,,,,,,,,,,,,,,,,,,,,,,,,,,,,,,,,,,,,,,,,,,,,,,,,,,,,,,,,,,,,,,,,,,,,,,,,,,,,,,,,-4.054321891544532e-07,-1.0383961352999904e-06,3.7667238217409256e-08,0.0,-2.4825432774377987e-05,6.637105798290577e-07,-0.096786729991436,-0.0960638672113418,-3.721455925642658e-07,-1.0588323675619904e-06,4.0179436666676345e-08,0.0,6.260683585423976e-05,8.435177005594596e-05,0.0912196189165115,0.0907111093401908,,,,,,,,,,,,,,,,,,,,,,,,,,,,,,,,,,,,,,,,,,,,,,,,,,,,,,,,,,,,,,,,,,,,,,,,,,
6,1.2487025260925293,0.6107974052429199,1.5706219673156738,0.3900077706575394,0.0,-3.1415876090506822,-2.143070503279887e-07,0.5160642862319946,0.5159549713134766,0.6107974052429199,1.5706220865249634,0.3900077706575394,0.0,-3.141604357955864,-1.5576528312521987e-05,0.5181317329406738,0.518039345741272,,,,,,,,,,,,,,,,,,,,,,,,,,,,,,,,,,,,,,,,,,,,,,,,,,,,,,,,,,,,,,,,,,,,,,,,,,,,,,,,,,,,,,,,,,,,,,,,,,,,,,,,,,,,,,,,,,,,,,,,,,,,,,,,,,,,,,-3.366181715591665e-07,-8.730499416742532e-07,3.1328681870945736e-08,0.0,-2.57942210737383e-05,1.2253029808562133e-06,-0.0808273553848266,-0.0802226513624191,-3.721455925642658e-07,-1.0588323675619904e-06,4.0179436666676345e-08,0.0,6.260683585423976e-05,8.435177005594596e-05,0.0912196189165115,0.0907111093401908,,,,,,,,,,,,,,,,,,,,,,,,,,,,,,,,,,,,,,,,,,,,,,,,,,,,,,,,,,,,,,,,,,,,,,,,,,
7,1.2708845138549805,0.6107974052429199,1.5706219673156738,0.3900077706575394,0.0,-3.1415876090506822,-2.143070503279887e-07,0.5160642862319946,0.5159549713134766,0.6107974052429199,1.5706219673156738,0.3900077706575394,0.0,-3.141602152584007,-1.2783138117811175e-05,0.5151416659355164,0.5150659084320068,,,,,,,,,,,,,,,,,,,,,,,,,,,,,,,,,,,,,,,,,,,,,,,,,,,,,,,,,,,,,,,,,,,,,,,,,,,,,,,,,,,,,,,,,,,,,,,,,,,,,,,,,,,,,,,,,,,,,,,,,,,,,,,,,,,,,,-3.366181715591665e-07,-8.730499416742532e-07,3.1328681870945736e-08,0.0,-2.57942210737383e-05,1.2253029808562133e-06,-0.0808273553848266,-0.0802226513624191,-3.093770715167921e-07,-8.812657483758812e-07,3.3681100575222445e-08,0.0,5.5311917094513774e-05,7.068554987199605e-05,0.0761779099702835,0.0757584795355796,,,,,,,,,,,,,,,,,,,,,,,,,,,,,,,,,,,,,,,,,,,,,,,,,,,,,,,,,,,,,,,,,,,,,,,,,,
8,1.2926456928253174,0.6107974052429199,1.5706219673156738,0.3900077706575394,0.0,-3.141588503120354,-1.7292931886458973e-07,0.5132813453674316,0.5131926536560059,0.6107974052429199,1.5706219673156738,0.3900077706575394,0.0,-3.1416003048400194,-1.037152651406359e-05,0.5125187635421753,0.5124573111534119,,,,,,,,,,,,,,,,,,,,,,,,,,,,,,,,,,,,,,,,,,,,,,,,,,,,,,,,,,,,,,,,,,,,,,,,,,,,,,,,,,,,,,,,,,,,,,,,,,,,,,,,,,,,,,,,,,,,,,,,,,,,,,,,,,,,,,-2.783135926165415e-07,-7.21588321539457e-07,2.6007898057400783e-08,0.0,-2.112854235747363e-05,9.803517286854913e-07,-0.0668248683214187,-0.0663332715630531,-2.558909670824505e-07,-7.275938855855202e-07,2.7892944842733417e-08,0.0,4.439329859451391e-05,5.742833309341222e-05,0.0629819929599762,0.0626411139965057,,,,,,,,,,,,,,,,,,,,,,,,,,,,,,,,,,,,,,,,,,,,,,,,,,,,,,,,,,,,,,,,,,,,,,,,,,
9,1.3145153522491455,0.6107974052429199,1.5706219673156738,0.3900077706575394,0.0,-3.1415891587714464,-1.4276173487814958e-07,0.5112025737762451,0.5111290216445923,0.6107974052429199,1.5706219673156738,0.3900077706575394,0.0,-3.1416003048400194,-1.037152651406359e-05,0.5125187635421753,0.5124573111534119,,,,,,,,,,,,,,,,,,,,,,,,,,,,,,,,,,,,,,,,,,,,,,,,,,,,,,,,,,,,,,,,,,,,,,,,,,,,,,,,,,,,,,,,,,,,,,,,,,,,,,,,,,,,,,,,,,,,,,,,,,,,,,,,,,,,,,-2.347576071315416e-07,-6.085111294851231e-07,2.2016068967900537e-08,0.0,-1.7839829524746165e-05,8.094986014839378e-07,-0.056365642696619,-0.0559574514627456,-2.558909670824505e-07,-7.275938855855202e-07,2.7892944842733417e-08,0.0,4.439329859451391e-05,5.742833309341222e-05,0.0629819929599762,0.0626411139965057,,,,,,,,,,,,,,,,,,,,,,,,,,,,,,,,,,,,,,,,,,,,,,,,,,,,,,,,,,,,,,,,,,,,,,,,,,
10,1.3363194465637207,0.6107974052429199,1.5706219673156738,0.3900077706575394,0.0,-3.1415891587714464,-1.411609105161915e-07,0.5110909342765808,0.5110182166099548,0.6107974052429199,1.5706219673156738,0.3900077706575394,0.0,-3.1415988147239,-8.411322596657556e-06,0.510350227355957,0.51030033826828,,,,,,,,,,,,,,,,,,,,,,,,,,,,,,,,,,,,,,,,,,,,,,,,,,,,,,,,,,,,,,,,,,,,,,,,,,,,,,,,,,,,,,,,,,,,,,,,,,,,,,,,,,,,,,,,,,,,,,,,,,,,,,,,,,,,,,-2.3241896940362497e-07,-6.024419576533546e-07,2.1801289662448653e-08,0.0,-1.7662605387158692e-05,8.004126925698074e-07,-0.0558040887117385,-0.0554003380239009,-2.1165547536838858e-07,-6.007451247569406e-07,2.3094859358252503e-08,0.0,3.57683929905761e-05,4.667247412726283e-05,0.0520719327032566,0.0517950467765331,,,,,,,,,,,,,,,,,,,,,,,,,,,,,,,,,,,,,,,,,,,,,,,,,,,,,,,,,,,,,,,,,,,,,,,,,,
11,1.3578858375549316,0.6107974052429199,1.5706219673156738,0.39000777810812,0.0,-3.141589754817894,-1.1522988785372945e-07,0.5092618465423584,0.509202241897583,0.6107974052429199,1.5706219673156738,0.3900077706575394,0.0,-3.1415988147239,-8.411322596657556e-06,0.510350227355957,0.51030033826828,,,,,,,,,,,,,,,,,,,,,,,,,,,,,,,,,,,,,,,,,,,,,,,,,,,,,,,,,,,,,,,,,,,,,,,,,,,,,,,,,,,,,,,,,,,,,,,,,,,,,,,,,,,,,,,,,,,,,,,,,,,,,,,,,,,,,,-1.940935732136495e-07,-5.029868930250814e-07,1.8272174884259584e-08,0.0,-1.4755558368051425e-05,6.533754799420421e-07,-0.0466008558869361,-0.0462693534791469,-2.1165547536838858e-07,-6.007451247569406e-07,2.3094859358252503e-08,0.0,3.57683929905761e-05,4.667247412726283e-05,0.0520719327032566,0.0517950467765331,,,,,,,,,,,,,,,,,,,,,,,,,,,,,,,,,,,,,,,,,,,,,,,,,,,,,,,,,,,,,,,,,,,,,,,,,,
12,1.3791325092315674,0.6107974052429199,1.5706219673156738,0.39000777810812,0.0,-3.141589754817894,-1.1522988785372945e-07,0.5092618465423584,0.509202241897583,0.6107974052429199,1.5706219673156738,0.3900077706575394,0.0,-3.1415975630263597,-6.818612746428698e-06,0.5085572600364685,0.5085169076919556,,,,,,,,,,,,,,,,,,,,,,,,,,,,,,,,,,,,,,,,,,,,,,,,,,,,,,,,,,,,,,,,,,,,,,,,,,,,,,,,,,,,,,,,,,,,,,,,,,,,,,,,,,,,,,,,,,,,,,,,,,,,,,,,,,,,,,-1.940935732136495e-07,-5.029868930250814e-07,1.8272174884259584e-08,0.0,-1.4755558368051425e-05,6.533754799420421e-07,-0.0466008558869361,-0.0462693534791469,-1.7506879146367282e-07,-4.960193109582178e-07,1.9118990834954275e-08,0.0,2.8795446269214153e-05,3.7914735003141686e-05,0.0430517680943012,0.0428269356489181,,,,,,,,,,,,,,,,,,,,,,,,,,,,,,,,,,,,,,,,,,,,,,,,,,,,,,,,,,,,,,,,,,,,,,,,,,
13,1.4004604816436768,0.6107974052429199,1.5706219673156738,0.39000777810812,0.0,-3.1415902316550524,-9.405835754705549e-08,0.5077343583106995,0.5076855421066284,0.6107974052429199,1.5706219673156738,0.3900077706575394,0.0,-3.1415975630263597,-6.818612746428698e-06,0.5085572600364685,0.5085169076919556,,,,,,,,,,,,,,,,,,,,,,,,,,,,,,,,,,,,,,,,,,,,,,,,,,,,,,,,,,,,,,,,,,,,,,,,,,,,,,,,,,,,,,,,,,,,,,,,,,,,,,,,,,,,,,,,,,,,,,,,,,,,,,,,,,,,,,-1.6208795727834513e-07,-4.199587237962988e-07,1.531248727815182e-08,0.0,-1.2324432645982595e-05,5.335374453352415e-07,-0.0389154218137264,-0.0386433191597461,-1.7506879146367282e-07,-4.960193109582178e-07,1.9118990834954275e-08,0.0,2.8795446269214153e-05,3.7914735003141686e-05,0.0430517680943012,0.0428269356489181,,,,,,,,,,,,,,,,,,,,,,,,,,,,,,,,,,,,,,,,,,,,,,,,,,,,,,,,,,,,,,,,,,,,,,,,,,
14,1.4221386909484863,0.6107973456382751,1.5706219673156738,0.39000777810812,0.0,-3.141590589282921,-7.76393704882139e-08,0.5065237879753113,0.5064833760261536,0.6107973456382751,1.5706219673156738,0.39000777810812,0.0,-3.1415966093520433,-5.525028882402694e-06,0.5070749521255493,0.5070422291755676,,,,,,,,,,,,,,,,,,,,,,,,,,,,,,,,,,,,,,,,,,,,,,,,,,,,,,,,,,,,,,,,,,,,,,,,,,,,,,,,,,,,,,,,,,,,,,,,,,,,,,,,,,,,,,,,,,,,,,,,,,,,,,,,,,,,,,-1.3672224952188117e-07,-3.541725845934707e-07,1.2957509731847951e-08,0.0,-1.039557628246257e-05,4.4070404214835435e-07,-0.0328244902193546,-0.0325987488031387,-1.448075579446595e-07,-4.095577139651141e-07,1.582557729307155e-08,0.0,2.3165483071352355e-05,3.078789450228214e-05,0.0355941206216812,0.0354116149246692,,,,,,,,,,,,,,,,,,,,,,,,,,,,,,,,,,,,,,,,,,,,,,,,,,,,,,,,,,,,,,,,,,,,,,,,,,
15,1.4441332817077637,0.6107973456382751,1.5706219673156738,0.39000777810812,0.0,-3.141590648887566,-7.676781876853056e-08,0.5064588189125061,0.5064188241958618,0.6107973456382751,1.5706219673156738,0.39000777810812,0.0,-3.1415958344916612,-4.474816250876756e-06,0.5058493614196777,0.5058228969573975,,,,,,,,,,,,,,,,,,,,,,,,,,,,,,,,,,,,,,,,,,,,,,,,,,,,,,,,,,,,,,,,,,,,,,,,,,,,,,,,,,,,,,,,,,,,,,,,,,,,,,,,,,,,,,,,,,,,,,,,,,,,,,,,,,,,,,-1.3536016751913849e-07,-3.50641187196743e-07,1.2830778217676198e-08,0.0,-1.0291970284015406e-05,4.357783609520993e-07,-0.0324974693357944,-0.0322741940617561,-1.1977790848050065e-07,-3.3817249800449645e-07,1.309801600513083e-08,0.0,1.862221324699931e-05,2.4990564270410687e-05,0.0294283237308263,0.0292802322655916,,,,,,,,,,,,,,,,,,,,,,,,,,,,,,,,,,,,,,,,,,,,,,,,,,,,,,,,,,,,,,,,,,,,,,,,,,
16,1.4660863876342771,0.6107973456382751,1.5706218481063845,0.39000777810812,0.0,-3.1415909469107897,-6.264434659897233e-08,0.5053936243057251,0.5053609013557434,0.6107973456382751,1.5706219673156738,0.39000777810812,0.0,-3.1415958344916612,-4.474816250876756e-06,0.5058493614196777,0.5058228969573975,,,,,,,,,,,,,,,,,,,,,,,,,,,,,,,,,,,,,,,,,,,,,,,,,,,,,,,,,,,,,,,,,,,,,,,,,,,,,,,,,,,,,,,,,,,,,,,,,,,,,,,,,,,,,,,,,,,,,,,,,,,,,,,,,,,,,,-1.130397464521593e-07,-2.927687035025883e-07,1.0750240697632309e-08,0.0,-8.593378879595548e-06,3.559777894679428e-07,-0.0271379668265581,-0.0269548185169696,-1.1977790848050065e-07,-3.3817249800449645e-07,1.309801600513083e-08,0.0,1.862221324699931e-05,2.4990564270410687e-05,0.0294283237308263,0.0292802322655916,,,,,,,,,,,,,,,,,,,,,,,,,,,,,,,,,,,,,,,,,,,,,,,,,,,,,,,,,,,,,,,,,,,,,,,,,,
17,1.489495038986206,0.6107973456382751,1.5706218481063845,0.39000777810812,0.0,-3.1415909469107897,-6.264434659897233e-08,0.5053936243057251,0.5053609013557434,0.6107973456382751,1.5706218481063845,0.39000777810812,0.0,-3.1415951788405687,-3.622534450187231e-06,0.5048361420631409,0.5048146843910217,,,,,,,,,,,,,,,,,,,,,,,,,,,,,,,,,,,,,,,,,,,,,,,,,,,,,,,,,,,,,,,,,,,,,,,,,,,,,,,,,,,,,,,,,,,,,,,,,,,,,,,,,,,,,,,,,,,,,,,,,,,,,,,,,,,,,,-1.130397464521593e-07,-2.927687035025883e-07,1.0750240697632309e-08,0.0,-8.593378879595548e-06,3.559777894679428e-07,-0.0271379668265581,-0.0269548185169696,-9.907519427088118e-08,-2.792327506995207e-07,1.0839593223010981e-08,0.0,1.495800734119257e-05,2.0276589566492476e-05,0.0243305973708629,0.0242104735225439,,,,,,,,,,,,,,,,,,,,,,,,,,,,,,,,,,,,,,,,,,,,,,,,,,,,,,,,,,,,,,,,,,,,,,,,,,
18,1.5117034912109375,0.6107973456382751,1.5706218481063845,0.39000777810812,0.0,-3.1415912449340135,-5.0531731687897263e-08,0.5044592022895813,0.504432737827301,0.6107973456382751,1.5706218481063845,0.39000777810812,0.0,-3.1415951788405687,-3.622534450187231e-06,0.5048361420631409,0.5048146843910217,,,,,,,,,,,,,,,,,,,,,,,,,,,,,,,,,,,,,,,,,,,,,,,,,,,,,,,,,,,,,,,,,,,,,,,,,,,,,,,,,,,,,,,,,,,,,,,,,,,,,,,,,,,,,,,,,,,,,,,,,,,,,,,,,,,,,,-9.345946239136539e-08,-2.420138400793803e-07,8.918296323656705e-09,0.0,-7.102609743014909e-06,2.875552524983505e-07,-0.0224365778267383,-0.0222880411893129,-9.907519427088118e-08,-2.792327506995207e-07,1.0839593223010981e-08,0.0,1.495800734119257e-05,2.0276589566492476e-05,0.0243305973708629,0.0242104735225439,,,,,,,,,,,,,,,,,,,,,,,,,,,,,,,,,,,,,,,,,,,,,,,,,,,,,,,,,,,,,,,,,,,,,,,,,,
19,1.53413987159729,0.6107973456382751,1.5706218481063845,0.39000777810812,0.0,-3.1415914833525926,-4.1681779805458063e-08,0.5037612915039062,0.5037393569946289,0.6107973456382751,1.5706218481063845,0.39000777810812,0.0,-3.1415947020034105,-2.93116409011418e-06,0.5039983987808228,0.5039810538291931,,,,,,,,,,,,,,,,,,,,,,,,,,,,,,,,,,,,,,,,,,,,,,,,,,,,,,,,,,,,,,,,,,,,,,,,,,,,,,,,,,,,,,,,,,,,,,,,,,,,,,,,,,,,,,,,,,,,,,,,,,,,,,,,,,,,,,-7.883355124249648e-08,-2.0410917045410318e-07,7.544902480560722e-09,0.0,-5.988786597299622e-06,2.3755400491154435e-07,-0.0189248658716678,-0.0188017543405294,-8.195111433906278e-08,-2.305680055769699e-07,8.969901266198121e-09,0.0,1.20045842777472e-05,1.6445008441223763e-05,0.020115926861763,0.0200185254216194,,,,,,,,,,,,,,,,,,,,,,,,,,,,,,,,,,,,,,,,,,,,,,,,,,,,,,,,,,,,,,,,,,,,,,,,,,
20,1.5561401844024658,0.6107973456382751,1.5706218481063845,0.39000777810812,0.0,-3.1415914833525926,-4.1681779805458063e-08,0.5037612915039062,0.5037393569946289,0.6107973456382751,1.5706218481063845,0.39000777810812,0.0,-3.141594284770897,-2.397222488070838e-06,0.5033390522003174,0.5033248662948608,,,,,,,,,,,,,,,,,,,,,,,,,,,,,,,,,,,,,,,,,,,,,,,,,,,,,,,,,,,,,,,,,,,,,,,,,,,,,,,,,,,,,,,,,,,,,,,,,,,,,,,,,,,,,,,,,,,,,,,,,,,,,,,,,,,,,,-7.883355124249648e-08,-2.0410917045410318e-07,7.544902480560722e-09,0.0,-5.988786597299622e-06,2.3755400491154435e-07,-0.0189248658716678,-0.0188017543405294,-6.846734379450936e-08,-1.9231450210099865e-07,7.496593568134813e-09,0.0,9.73837904894026e-06,1.3480061170412228e-05,0.0167986862361431,0.0167188607156276,,,,,,,,,,,,,,,,,,,,,,,,,,,,,,,,,,,,,,,,,,,,,,,,,,,,,,,,,,,,,,,,,,,,,,,,,,
21,1.5780057907104492,0.6107973456382751,1.5706218481063845,0.39000777810812,0.0,-3.1415917217711717,-3.3599171445075626e-08,0.5031096935272217,0.5030919313430786,0.6107973456382751,1.5706218481063845,0.39000777810812,0.0,-3.141594284770897,-2.397222488070838e-06,0.5033390522003174,0.5033248662948608,,,,,,,,,,,,,,,,,,,,,,,,,,,,,,,,,,,,,,,,,,,,,,,,,,,,,,,,,,,,,,,,,,,,,,,,,,,,,,,,,,,,,,,,,,,,,,,,,,,,,,,,,,,,,,,,,,,,,,,,,,,,,,,,,,,,,,-6.517836226294095e-08,-1.687273680772705e-07,6.258334295239365e-09,0.0,-4.948851255903719e-06,1.91865851206785e-07,-0.0156463161110878,-0.0155465444549918,-6.846734379450936e-08,-1.9231450210099865e-07,7.496593568134813e-09,0.0,9.73837904894026e-06,1.3480061170412228e-05,0.0167986862361431,0.0167188607156276,,,,,,,,,,,,,,,,,,,,,,,,,,,,,,,,,,,,,,,,,,,,,,,,,,,,,,,,,,,,,,,,,,,,,,,,,,
22,1.5993897914886477,0.6107973456382751,1.5706218481063845,0.39000777810812,0.0,-3.1415917217711717,-3.3599171445075626e-08,0.5031096935272217,0.5030919313430786,0.6107973456382751,1.5706218481063845,0.39000777810812,0.0,-3.141593986747673,-1.9596338916016975e-06,0.5027884244918823,0.5027768015861511,,,,,,,,,,,,,,,,,,,,,,,,,,,,,,,,,,,,,,,,,,,,,,,,,,,,,,,,,,,,,,,,,,,,,,,,,,,,,,,,,,,,,,,,,,,,,,,,,,,,,,,,,,,,,,,,,,,,,,,,,,,,,,,,,,,,,,-6.517836226294095e-08,-1.687273680772705e-07,6.258334295239365e-09,0.0,-4.948851255903719e-06,1.91865851206785e-07,-0.0156463161110878,-0.0155465444549918,-5.7202353076490915e-08,-1.604084616246837e-07,6.265036933683632e-09,0.0,7.893187103036325e-06,1.104540660890052e-05,0.0140284793451428,0.0139630828052759,,,,,,,,,,,,,,,,,,,,,,,,,,,,,,,,,,,,,,,,,,,,,,,,,,,,,,,,,,,,,,,,,,,,,,,,,,
23,1.6207036972045898,0.6107973456382751,1.5706218481063845,0.39000777810812,0.0,-3.1415918409804613,-2.7071656916177744e-08,0.5025709271430969,0.5025566220283508,0.6107973456382751,1.5706218481063845,0.39000777810812,0.0,-3.141593986747673,-1.9596338916016975e-06,0.5027884244918823,0.5027768015861511,,,,,,,,,,,,,,,,,,,,,,,,,,,,,,,,,,,,,,,,,,,,,,,,,,,,,,,,,,,,,,,,,,,,,,,,,,,,,,,,,,,,,,,,,,,,,,,,,,,,,,,,,,,,,,,,,,,,,,,,,,,,,,,,,,,,,,-5.38881153033799e-08,-1.39480320626717e-07,5.1909032627861515e-09,0.0,-4.089165940968087e-06,1.549359467389877e-07,-0.0129357418045401,-0.0128549197688698,-5.7202353076490915e-08,-1.604084616246837e-07,6.265036933683632e-09,0.0,7.893187103036325e-06,1.104540660890052e-05,0.0140284793451428,0.0139630828052759,,,,,,,,,,,,,,,,,,,,,,,,,,,,,,,,,,,,,,,,,,,,,,,,,,,,,,,,,,,,,,,,,,,,,,,,,,
24,1.6416394710540771,0.6107973456382751,1.5706218481063845,0.39000777810812,0.0,-3.1415918409804613,-2.7071656916177744e-08,0.5025709271430969,0.5025566220283508,0.6107973456382751,1.5706218481063845,0.39000777810812,0.0,-3.141593748329094,-1.6011510979296872e-06,0.5023285746574402,0.5023190975189209,,,,,,,,,,,,,,,,,,,,,,,,,,,,,,,,,,,,,,,,,,,,,,,,,,,,,,,,,,,,,,,,,,,,,,,,,,,,,,,,,,,,,,,,,,,,,,,,,,,,,,,,,,,,,,,,,,,,,,,,,,,,,,,,,,,,,,-5.38881153033799e-08,-1.39480320626717e-07,5.1909032627861515e-09,0.0,-4.089165940968087e-06,1.549359467389877e-07,-0.0129357418045401,-0.0128549197688698,-4.7790880586262574e-08,-1.3379641927713237e-07,5.235534228376082e-09,0.0,6.391765964508522e-06,9.046891136677004e-06,0.0117150964215397,0.0116615407168865,,,,,,,,,,,,,,,,,,,,,,,,,,,,,,,,,,,,,,,,,,,,,,,,,,,,,,,,,,,,,,,,,,,,,,,,,,
25,1.6642615795135498,0.6107973456382751,1.5706218481063845,0.39000777810812,0.0,-3.1415920197943956,-2.1801197291893004e-08,0.5021255612373352,0.5021139979362488,0.6107973456382751,1.5706218481063845,0.39000777810812,0.0,-3.141593509910515,-1.307591901422711e-06,0.5019446015357971,0.5019368529319763,,,,,,,,,,,,,,,,,,,,,,,,,,,,,,,,,,,,,,,,,,,,,,,,,,,,,,,,,,,,,,,,,,,,,,,,,,,,,,,,,,,,,,,,,,,,,,,,,,,,,,,,,,,,,,,,,,,,,,,,,,,,,,,,,,,,,,-4.455408131320837e-08,-1.1530265453529864e-07,4.305299228235526e-09,0.0,-3.3785927371354778e-06,1.250822236897875e-07,-0.0106947487220168,-0.010629303753376,-3.9927783745952183e-08,-1.1160005897181693e-07,4.3751113842915865e-09,0.0,5.170904387341579e-06,7.406958047795342e-06,0.0097832046449184,0.0097393626347184,,,,,,,,,,,,,,,,,,,,,,,,,,,,,,,,,,,,,,,,,,,,,,,,,,,,,,,,,,,,,,,,,,,,,,,,,,
26,1.685835361480713,0.6107973456382751,1.5706218481063845,0.39000777810812,0.0,-3.141592139003685,-1.7748822855878643e-08,0.5017750263214111,0.5017655491828918,0.6107973456382751,1.5706218481063845,0.39000777810812,0.0,-3.141593509910515,-1.307591901422711e-06,0.5019446015357971,0.5019368529319763,,,,,,,,,,,,,,,,,,,,,,,,,,,,,,,,,,,,,,,,,,,,,,,,,,,,,,,,,,,,,,,,,,,,,,,,,,,,,,,,,,,,,,,,,,,,,,,,,,,,,,,,,,,,,,,,,,,,,,,,,,,,,,,,,,,,,,-3.7207183112286664e-08,-9.62768780254919e-08,3.60596974502414e-09,0.0,-2.8195356662763515e-06,1.020960098685464e-07,-0.0089309625327587,-0.0088774003088474,-3.9927783745952183e-08,-1.1160005897181693e-07,4.3751113842915865e-09,0.0,5.170904387341579e-06,7.406958047795342e-06,0.0097832046449184,0.0097393626347184,,,,,,,,,,,,,,,,,,,,,,,,,,,,,,,,,,,,,,,,,,,,,,,,,,,,,,,,,,,,,,,,,,,,,,,,,,
27,1.7076189517974854,0.6107973456382751,1.5706218481063845,0.39000777810812,0.0,-3.141592139003685,-1.7748822855878643e-08,0.5017750263214111,0.5017655491828918,0.6107973456382751,1.5706218481063845,0.39000777810812,0.0,-3.1415933310965807,-1.0672976031855796e-06,0.5016239285469055,0.5016176104545593,,,,,,,,,,,,,,,,,,,,,,,,,,,,,,,,,,,,,,,,,,,,,,,,,,,,,,,,,,,,,,,,,,,,,,,,,,,,,,,,,,,,,,,,,,,,,,,,,,,,,,,,,,,,,,,,,,,,,,,,,,,,,,,,,,,,,,-3.7207183112286664e-08,-9.62768780254919e-08,3.60596974502414e-09,0.0,-2.8195356662763515e-06,1.020960098685464e-07,-0.0089309625327587,-0.0088774003088474,-3.3358816153850064e-08,-9.308575954491972e-08,3.655936664515025e-09,0.0,4.178892140771495e-06,6.061745807528496e-06,0.0081698931753635,0.0081340186297893,,,,,,,,,,,,,,,,,,,,,,,,,,,,,,,,,,,,,,,,,,,,,,,,,,,,,,,,,,,,,,,,,,,,,,,,,,
28,1.7301201820373535,0.6107973456382751,1.5706218481063845,0.39000777810812,0.0,-3.14159219860833,-1.427697693401342e-08,0.5014675259590149,0.5014598965644836,0.6107973456382751,1.5706218481063845,0.39000777810812,0.0,-3.1415933310965807,-1.0672976031855796e-06,0.5016239285469055,0.5016176104545593,,,,,,,,,,,,,,,,,,,,,,,,,,,,,,,,,,,,,,,,,,,,,,,,,,,,,,,,,,,,,,,,,,,,,,,,,,,,,,,,,,,,,,,,,,,,,,,,,,,,,,,,,,,,,,,,,,,,,,,,,,,,,,,,,,,,,,-3.076227983456192e-08,-7.958922054740469e-08,2.9905453668988e-09,0.0,-2.3293530375667615e-06,8.236864346145013e-08,-0.0073837591335177,-0.0073404260911047,-3.3358816153850064e-08,-9.308575954491972e-08,3.655936664515025e-09,0.0,4.178892140771495e-06,6.061745807528496e-06,0.0081698931753635,0.0081340186297893,,,,,,,,,,,,,,,,,,,,,,,,,,,,,,,,,,,,,,,,,,,,,,,,,,,,,,,,,,,,,,,,,,,,,,,,,,
29,1.7525532245635986,0.6107973456382751,1.5706218481063845,0.39000777810812,0.0,-3.1415922582129747,-1.187966525151296e-08,0.5012502670288086,0.5012439489364624,0.6107973456382751,1.5706218481063845,0.39000777810812,0.0,-3.141593211887291,-8.806051710052998e-07,0.5013697743415833,0.501364529132843,,,,,,,,,,,,,,,,,,,,,,,,,,,,,,,,,,,,,,,,,,,,,,,,,,,,,,,,,,,,,,,,,,,,,,,,,,,,,,,,,,,,,,,,,,,,,,,,,,,,,,,,,,,,,,,,,,,,,,,,,,,,,,,,,,,,,,-2.6209201919868977e-08,-6.780154393482007e-08,2.554380262864697e-09,0.0,-1.983243464565021e-06,6.872232916066423e-08,-0.0062907454557716,-0.0062545090913772,-2.8149926833975772e-08,-7.842970717319987e-08,3.0856011079549713e-09,0.0,3.413918648220715e-06,5.014387625124073e-06,0.0068912766873836,0.0068616038188338,,,,,,,,,,,,,,,,,,,,,,,,,,,,,,,,,,,,,,,,,,,,,,,,,,,,,,,,,,,,,,,,,,,,,,,,,,
30,1.7738242149353027,0.6107973456382751,1.5706218481063845,0.39000777810812,0.0,-3.1415923178176195,-1.1609404992896089e-08,0.501225471496582,0.5012192726135254,0.6107973456382751,1.5706218481063845,0.39000777810812,0.0,-3.1415930926780016,-7.180010470619891e-07,0.5011438727378845,0.5011396408081055,,,,,,,,,,,,,,,,,,,,,,,,,,,,,,,,,,,,,,,,,,,,,,,,,,,,,,,,,,,,,,,,,,,,,,,,,,,,,,,,,,,,,,,,,,,,,,,,,,,,,,,,,,,,,,,,,,,,,,,,,,,,,,,,,,,,,,-2.56896175443444e-08,-6.645694838880446e-08,2.504704665895474e-09,0.0,-1.9437613900663564e-06,6.718217093748535e-08,-0.0061660236679017,-0.006130589172244,-2.3518630598573512e-08,-6.5418667816175e-08,2.578305569045369e-09,0.0,2.752831733232597e-06,4.100173100596294e-06,0.0057548624463379,0.0057306019589304,,,,,,,,,,,,,,,,,,,,,,,,,,,,,,,,,,,,,,,,,,,,,,,,,,,,,,,,,,,,,,,,,,,,,,,,,,
31,1.7959778308868408,0.6107973456382751,1.5706218481063845,0.39000777810812,0.0,-3.1415923774222643,-9.325809458005097e-09,0.5010131597518921,0.501008152961731,0.6107973456382751,1.5706218481063845,0.39000777810812,0.0,-3.1415930926780016,-7.180010470619891e-07,0.5011438727378845,0.5011396408081055,,,,,,,,,,,,,,,,,,,,,,,,,,,,,,,,,,,,,,,,,,,,,,,,,,,,,,,,,,,,,,,,,,,,,,,,,,,,,,,,,,,,,,,,,,,,,,,,,,,,,,,,,,,,,,,,,,,,,,,,,,,,,,,,,,,,,,-2.1239898728708795e-08,-5.4938276150551246e-08,2.0770953845783424e-09,0.0,-1.605721763553447e-06,5.415393289354142e-08,-0.0050978190265595,-0.0050691794604063,-2.3518630598573512e-08,-6.5418667816175e-08,2.578305569045369e-09,0.0,2.752831733232597e-06,4.100173100596294e-06,0.0057548624463379,0.0057306019589304,,,,,,,,,,,,,,,,,,,,,,,,,,,,,,,,,,,,,,,,,,,,,,,,,,,,,,,,,,,,,,,,,,,,,,,,,,
32,1.8170533180236816,0.6107973456382751,1.5706218481063845,0.39000777810812,0.0,-3.1415923774222643,-9.325809458005097e-09,0.5010131597518921,0.501008152961731,0.6107973456382751,1.5706218481063845,0.39000777810812,0.0,-3.141593033073357,-5.850741331414611e-07,0.5009552240371704,0.5009517669677734,,,,,,,,,,,,,,,,,,,,,,,,,,,,,,,,,,,,,,,,,,,,,,,,,,,,,,,,,,,,,,,,,,,,,,,,,,,,,,,,,,,,,,,,,,,,,,,,,,,,,,,,,,,,,,,,,,,,,,,,,,,,,,,,,,,,,,-2.1239898728708795e-08,-5.4938276150551246e-08,2.0770953845783424e-09,0.0,-1.605721763553447e-06,5.415393289354142e-08,-0.0050978190265595,-0.0050691794604063,-1.9649281313149913e-08,-5.4566239526820937e-08,2.154415534860732e-09,0.0,2.2169444946484873e-06,3.351072109580855e-06,0.0048058498650789,0.0047860238701105,,,,,,,,,,,,,,,,,,,,,,,,,,,,,,,,,,,,,,,,,,,,,,,,,,,,,,,,,,,,,,,,,,,,,,,,,,
33,1.839087724685669,0.6107973456382751,1.5706218481063845,0.39000777810812,0.0,-3.141592437026909,-7.661061118824364e-09,0.5008546113967896,0.5008504986763,0.6107973456382751,1.5706218481063845,0.39000777810812,0.0,-3.141592973468712,-4.819347623197245e-07,0.5008057355880737,0.5008028745651245,,,,,,,,,,,,,,,,,,,,,,,,,,,,,,,,,,,,,,,,,,,,,,,,,,,,,,,,,,,,,,,,,,,,,,,,,,,,,,,,,,,,,,,,,,,,,,,,,,,,,,,,,,,,,,,,,,,,,,,,,,,,,,,,,,,,,,-1.7916113037586e-08,-4.6335046022250026e-08,1.7567336474400006e-09,0.0,-1.353386551272706e-06,4.463425895551154e-08,-0.0042999219149351,-0.0042762598022818,-1.6581180872776713e-08,-4.5974889673061625e-08,1.8182191308113713e-09,0.0,1.8047188632408504e-06,2.768468675640179e-06,0.004053717944771,0.0040373397059738,,,,,,,,,,,,,,,,,,,,,,,,,,,,,,,,,,,,,,,,,,,,,,,,,,,,,,,,,,,,,,,,,,,,,,,,,,
34,1.8602895736694336,0.6107973456382751,1.5706218481063845,0.39000777810812,0.0,-3.141592437026909,-7.661061118824364e-09,0.5008546113967896,0.5008504986763,0.6107973456382751,1.5706218481063845,0.39000777810812,0.0,-3.141592973468712,-4.710459791112953e-07,0.5007897615432739,0.5007869601249695,,,,,,,,,,,,,,,,,,,,,,,,,,,,,,,,,,,,,,,,,,,,,,,,,,,,,,,,,,,,,,,,,,,,,,,,,,,,,,,,,,,,,,,,,,,,,,,,,,,,,,,,,,,,,,,,,,,,,,,,,,,,,,,,,,,,,,-1.7916113037586e-08,-4.6335046022250026e-08,1.7567336474400006e-09,0.0,-1.353386551272706e-06,4.463425895551154e-08,-0.0042999219149351,-0.0042762598022818,-1.6253220991302442e-08,-4.5057401365511396e-08,1.7823104103698027e-09,0.0,1.7614153193790116e-06,2.706879058678169e-06,0.0039733555167913,0.0039573418907821,,,,,,,,,,,,,,,,,,,,,,,,,,,,,,,,,,,,,,,,,,,,,,,,,,,,,,,,,,,,,,,,,,,,,,,,,,
35,1.8834314346313477,0.6107973456382751,1.5706218481063845,0.39000777810812,0.0,-3.141592437026909,-6.216565928696127e-09,0.5007136464118958,0.5007103085517883,0.6107973456382751,1.5706218481063845,0.39000777810812,0.0,-3.1415929138640672,-3.789642732954235e-07,0.5006529688835144,0.5006507039070129,,,,,,,,,,,,,,,,,,,,,,,,,,,,,,,,,,,,,,,,,,,,,,,,,,,,,,,,,,,,,,,,,,,,,,,,,,,,,,,,,,,,,,,,,,,,,,,,,,,,,,,,,,,,,,,,,,,,,,,,,,,,,,,,,,,,,,-1.4961587524453538e-08,-3.869027409564296e-08,1.471156529930795e-09,0.0,-1.1292676163066062e-06,3.635401313317743e-08,-0.0035907751880586,-0.0035714537370949,-1.3444300783760356e-08,-3.7205794001238246e-08,1.4744178100656311e-09,0.0,1.3971817907076911e-06,2.185287712563877e-06,0.0032850701827555,0.0032721434254199,,,,,,,,,,,,,,,,,,,,,,,,,,,,,,,,,,,,,,,,,,,,,,,,,,,,,,,,,,,,,,,,,,,,,,,,,,
36,1.9051735401153564,0.6107973456382751,1.5706218481063845,0.39000777810812,0.0,-3.141592496631554,-5.0403747842153734e-09,0.5005959868431091,0.5005932450294495,0.6107973456382751,1.5706218481063845,0.39000777810812,0.0,-3.1415929138640672,-3.789642732954235e-07,0.5006529688835144,0.5006507039070129,,,,,,,,,,,,,,,,,,,,,,,,,,,,,,,,,,,,,,,,,,,,,,,,,,,,,,,,,,,,,,,,,,,,,,,,,,,,,,,,,,,,,,,,,,,,,,,,,,,,,,,,,,,,,,,,,,,,,,,,,,,,,,,,,,,,,,-1.2494616008495996e-08,-3.2306601838172355e-08,1.2320700015777675e-09,0.0,-9.422466291653108e-07,2.9593511641223813e-08,-0.0029985818546265,-0.0029828127007931,-1.3444300783760356e-08,-3.7205794001238246e-08,1.4744178100656311e-09,0.0,1.3971817907076911e-06,2.185287712563877e-06,0.0032850701827555,0.0032721434254199,,,,,,,,,,,,,,,,,,,,,,,,,,,,,,,,,,,,,,,,,,,,,,,,,,,,,,,,,,,,,,,,,,,,,,,,,,
37,1.9279310703277588,0.6107973456382751,1.5706218481063845,0.39000777810812,0.0,-3.141592496631554,-5.0403747842153734e-09,0.5005959868431091,0.5005932450294495,0.6107973456382751,1.5706218481063845,0.39000777810812,0.0,-3.1415928542594225,-3.0817435003882565e-07,0.5005452632904053,0.500543475151062,,,,,,,,,,,,,,,,,,,,,,,,,,,,,,,,,,,,,,,,,,,,,,,,,,,,,,,,,,,,,,,,,,,,,,,,,,,,,,,,,,,,,,,,,,,,,,,,,,,,,,,,,,,,,,,,,,,,,,,,,,,,,,,,,,,,,,-1.2494616008495996e-08,-3.2306601838172355e-08,1.2320700015777675e-09,0.0,-9.422466291653108e-07,2.9593511641223813e-08,-0.0029985818546265,-0.0029828127007931,-1.1232292429497193e-08,-3.103373202861803e-08,1.2319519848702496e-09,0.0,1.1200119161003386e-06,1.7832184084909386e-06,0.0027433417271822,0.0027327940333634,,,,,,,,,,,,,,,,,,,,,,,,,,,,,,,,,,,,,,,,,,,,,,,,,,,,,,,,,,,,,,,,,,,,,,,,,,
38,1.9494528770446775,0.6107973456382751,1.5706218481063845,0.39000777810812,0.0,-3.141592496631554,-4.083201776694523e-09,0.5004976987838745,0.500495433807373,0.6107973456382751,1.5706218481063845,0.39000777810812,0.0,-3.1415928542594225,-3.0817435003882565e-07,0.5005452632904053,0.500543475151062,,,,,,,,,,,,,,,,,,,,,,,,,,,,,,,,,,,,,,,,,,,,,,,,,,,,,,,,,,,,,,,,,,,,,,,,,,,,,,,,,,,,,,,,,,,,,,,,,,,,,,,,,,,,,,,,,,,,,,,,,,,,,,,,,,,,,,-1.0434209052334609e-08,-2.6975977007737132e-08,1.0317371401669104e-09,0.0,-7.861863764446753e-07,2.407568544526839e-08,-0.002504053292796,-0.002491190098226,-1.1232292429497193e-08,-3.103373202861803e-08,1.2319519848702496e-09,0.0,1.1200119161003386e-06,1.7832184084909386e-06,0.0027433417271822,0.0027327940333634,,,,,,,,,,,,,,,,,,,,,,,,,,,,,,,,,,,,,,,,,,,,,,,,,,,,,,,,,,,,,,,,,,,,,,,,,,
39,1.9728586673736572,0.6107973456382751,1.5706218481063845,0.39000777810812,0.0,-3.1415925562361986,-3.304746032384287e-09,0.5004156231880188,0.5004137754440308,0.6107973456382751,1.5706218481063845,0.39000777810812,0.0,-3.1415927946547777,-2.475494227383024e-07,0.500450849533081,0.5004493594169617,,,,,,,,,,,,,,,,,,,,,,,,,,,,,,,,,,,,,,,,,,,,,,,,,,,,,,,,,,,,,,,,,,,,,,,,,,,,,,,,,,,,,,,,,,,,,,,,,,,,,,,,,,,,,,,,,,,,,,,,,,,,,,,,,,,,,,-8.713696431073004e-09,-2.25253149466198e-08,8.640102522328164e-10,0.0,-6.559661187566235e-07,1.9574157406054837e-08,-0.0020910827443003,-0.0020805962849408,-9.291067470940106e-09,-2.5625833899312056e-08,1.0191292254546622e-09,0.0,8.851840789247944e-07,1.437915898350184e-06,0.0022681257687509,0.0022596211638301,,,,,,,,,,,,,,,,,,,,,,,,,,,,,,,,,,,,,,,,,,,,,,,,,,,,,,,,,,,,,,,,,,,,,,,,,,
40,1.9944658279418943,0.6107973456382751,1.5706218481063845,0.39000777810812,0.0,-3.1415925562361986,-3.304746032384287e-09,0.5004156231880188,0.5004137754440308,0.6107973456382751,1.5706218481063845,0.39000777810812,0.0,-3.1415927946547777,-1.9867984235588665e-07,0.5003727078437805,0.5003715753555298,,,,,,,,,,,,,,,,,,,,,,,,,,,,,,,,,,,,,,,,,,,,,,,,,,,,,,,,,,,,,,,,,,,,,,,,,,,,,,,,,,,,,,,,,,,,,,,,,,,,,,,,,,,,,,,,,,,,,,,,,,,,,,,,,,,,,,-8.713696431073004e-09,-2.25253149466198e-08,8.640102522328164e-10,0.0,-6.559661187566235e-07,1.9574157406054837e-08,-0.0020910827443003,-0.0020805962849408,-7.685407865665184e-09,-2.1160072805059823e-08,8.431033649003438e-10,0.0,6.981035767239518e-07,1.1587272865654086e-06,0.0018752290634438,0.0018683763919398,,,,,,,,,,,,,,,,,,,,,,,,,,,,,,,,,,,,,,,,,,,,,,,,,,,,,,,,,,,,,,,,,,,,,,,,,,
41,2.0165951251983643,0.6107973456382751,1.5706218481063845,0.39000777810812,0.0,-3.1415925562361986,-2.6720581303152358e-09,0.5003470778465271,0.5003455877304077,0.6107973456382751,1.5706218481063845,0.39000777810812,0.0,-3.1415927946547777,-1.9867984235588665e-07,0.5003727078437805,0.5003715753555298,,,,,,,,,,,,,,,,,,,,,,,,,,,,,,,,,,,,,,,,,,,,,,,,,,,,,,,,,,,,,,,,,,,,,,,,,,,,,,,,,,,,,,,,,,,,,,,,,,,,,,,,,,,,,,,,,,,,,,,,,,,,,,,,,,,,,,-7.276790281451895e-09,-1.8808620438903745e-08,7.235392840421183e-10,0.0,-5.473085593621363e-07,1.5903465211408733e-08,-0.001746219699271,-0.0017376756295561,-7.685407865665184e-09,-2.1160072805059823e-08,8.431033649003438e-10,0.0,6.981035767239518e-07,1.1587272865654086e-06,0.0018752290634438,0.0018683763919398,,,,,,,,,,,,,,,,,,,,,,,,,,,,,,,,,,,,,,,,,,,,,,,,,,,,,,,,,,,,,,,,,,,,,,,,,,
42,2.038755178451538,0.6107973456382751,1.5706218481063845,0.39000777810812,0.0,-3.1415925562361986,-2.6720581303152358e-09,0.5003470778465271,0.5003455877304077,0.6107973456382751,1.5706218481063845,0.39000777810812,0.0,-3.141592735050133,-1.611786473176835e-07,0.5003112554550171,0.5003103017807007,,,,,,,,,,,,,,,,,,,,,,,,,,,,,,,,,,,,,,,,,,,,,,,,,,,,,,,,,,,,,,,,,,,,,,,,,,,,,,,,,,,,,,,,,,,,,,,,,,,,,,,,,,,,,,,,,,,,,,,,,,,,,,,,,,,,,,-7.276790281451895e-09,-1.8808620438903745e-08,7.235392840421183e-10,0.0,-5.473085593621363e-07,1.5903465211408733e-08,-0.001746219699271,-0.0017376756295561,-6.4209193517683624e-09,-1.7649881556280892e-08,7.044573258063734e-10,0.0,5.562849878515408e-07,9.438228971703212e-07,0.0015659921336919,0.0015604107175022,,,,,,,,,,,,,,,,,,,,,,,,,,,,,,,,,,,,,,,,,,,,,,,,,,,,,,,,,,,,,,,,,,,,,,,,,,
43,2.0598113536834717,0.6107973456382751,1.5706218481063845,0.39000777810812,0.0,-3.1415925562361986,-2.1840316222210272e-09,0.5002927184104919,0.5002915263175964,0.6107973456382751,1.5706218481063845,0.39000777810812,0.0,-3.141592735050133,-1.611786473176835e-07,0.5003112554550171,0.5003103017807007,,,,,,,,,,,,,,,,,,,,,,,,,,,,,,,,,,,,,,,,,,,,,,,,,,,,,,,,,,,,,,,,,,,,,,,,,,,,,,,,,,,,,,,,,,,,,,,,,,,,,,,,,,,,,,,,,,,,,,,,,,,,,,,,,,,,,,-6.13797901394264e-09,-1.5863310665054087e-08,6.119271755977707e-10,0.0,-4.612637951595389e-07,1.3062115833406553e-08,-0.0014729059766978,-0.0014658687869086,-6.4209193517683624e-09,-1.7649881556280892e-08,7.044573258063734e-10,0.0,5.562849878515408e-07,9.438228971703212e-07,0.0015659921336919,0.0015604107175022,,,,,,,,,,,,,,,,,,,,,,,,,,,,,,,,,,,,,,,,,,,,,,,,,,,,,,,,,,,,,,,,,,,,,,,,,,
44,2.080727815628052,0.6107973456382751,1.5706218481063845,0.39000777810812,0.0,-3.1415926158408434,-1.7411926345189952e-09,0.5002419948577881,0.5002410411834717,0.6107973456382751,1.5706218481063845,0.39000777810812,0.0,-3.141592735050133,-1.291234781319872e-07,0.5002573728561401,0.5002565979957581,,,,,,,,,,,,,,,,,,,,,,,,,,,,,,,,,,,,,,,,,,,,,,,,,,,,,,,,,,,,,,,,,,,,,,,,,,,,,,,,,,,,,,,,,,,,,,,,,,,,,,,,,,,,,,,,,,,,,,,,,,,,,,,,,,,,,,-5.074884956712822e-09,-1.3114065389174812e-08,5.073927389354083e-10,0.0,-3.809979034485878e-07,1.0474548339800549e-08,-0.0012177389580756,-0.0012120777973905,-5.3112514386555185e-09,-1.4574119688859357e-08,5.82728310050129e-10,0.0,4.366227415175672e-07,7.595353395117854e-07,0.0012947227805852,0.0012902314774692,,,,,,,,,,,,,,,,,,,,,,,,,,,,,,,,,,,,,,,,,,,,,,,,,,,,,,,,,,,,,,,,,,,,,,,,,,
45,2.102621793746948,0.6107973456382751,1.5706218481063845,0.39000777810812,0.0,-3.1415926158408434,-1.7411926345189952e-09,0.5002419948577881,0.5002410411834717,0.6107973456382751,1.5706218481063845,0.39000777810812,0.0,-3.141592735050133,-1.0579429243762207e-07,0.500217080116272,0.5002164244651794,,,,,,,,,,,,,,,,,,,,,,,,,,,,,,,,,,,,,,,,,,,,,,,,,,,,,,,,,,,,,,,,,,,,,,,,,,,,,,,,,,,,,,,,,,,,,,,,,,,,,,,,,,,,,,,,,,,,,,,,,,,,,,,,,,,,,,-5.074884956712822e-09,-1.3114065389174812e-08,5.073927389354083e-10,0.0,-3.809979034485878e-07,1.0474548339800549e-08,-0.0012177389580756,-0.0012120777973905,-4.481970350411757e-09,-1.227951074156408e-08,4.917247165003856e-10,0.0,3.507058465856972e-07,6.249698571991757e-07,0.0010920942295342,0.0010883988579735,,,,,,,,,,,,,,,,,,,,,,,,,,,,,,,,,,,,,,,,,,,,,,,,,,,,,,,,,,,,,,,,,,,,,,,,,,
46,2.124392509460449,0.6107973456382751,1.5706218481063845,0.39000777810812,0.0,-3.1415926158408434,-1.4030361317196594e-09,0.5002021193504333,0.5002013444900513,0.6107973456382751,1.5706218481063845,0.39000777810812,0.0,-3.141592735050133,-1.0455863730385317e-07,0.5002149343490601,0.5002142786979675,,,,,,,,,,,,,,,,,,,,,,,,,,,,,,,,,,,,,,,,,,,,,,,,,,,,,,,,,,,,,,,,,,,,,,,,,,,,,,,,,,,,,,,,,,,,,,,,,,,,,,,,,,,,,,,,,,,,,,,,,,,,,,,,,,,,,,-4.238109863052841e-09,-1.0950462758785308e-08,4.2483377926672006e-10,0.0,-3.178805627612747e-07,8.49023695792539e-09,-0.0010169085580855,-0.0010123050305992,-4.437450407124288e-09,-1.2156387008133152e-08,4.868883074493624e-10,0.0,3.4618730637703266e-07,6.178299827297451e-07,0.0010812149848788,0.0010775618720799,,,,,,,,,,,,,,,,,,,,,,,,,,,,,,,,,,,,,,,,,,,,,,,,,,,,,,,,,,,,,,,,,,,,,,,,,,
47,2.145878553390503,0.6107973456382751,1.5706218481063845,0.39000777810812,0.0,-3.1415926158408434,-1.4030361317196594e-09,0.5002021193504333,0.5002013444900513,0.6107973456382751,1.5706218481063845,0.39000777810812,0.0,-3.141592735050133,-8.458402334099446e-08,0.5001794695854187,0.5001789927482605,,,,,,,,,,,,,,,,,,,,,,,,,,,,,,,,,,,,,,,,,,,,,,,,,,,,,,,,,,,,,,,,,,,,,,,,,,,,,,,,,,,,,,,,,,,,,,,,,,,,,,,,,,,,,,,,,,,,,,,,,,,,,,,,,,,,,,-4.238109863052841e-09,-1.0950462758785308e-08,4.2483377926672006e-10,0.0,-3.178805627612747e-07,8.49023695792539e-09,-0.0010169085580855,-0.0010123050305992,-3.707256723828322e-09,-1.0139555861599092e-08,4.0679265511656126e-10,0.0,2.737050124324014e-07,5.022043296776246e-07,0.0009029159555211,0.0008999466663226,,,,,,,,,,,,,,,,,,,,,,,,,,,,,,,,,,,,,,,,,,,,,,,,,,,,,,,,,,,,,,,,,,,,,,,,,,
48,2.1691808700561523,0.6107973456382751,1.5706218481063845,0.39000777810812,0.0,-3.1415926158408434,-1.1154736023755163e-09,0.5001670718193054,0.5001664757728577,0.6107973456382751,1.5706218481063845,0.39000777810812,0.0,-3.141592735050133,-8.458402334099446e-08,0.5001794695854187,0.5001789927482605,,,,,,,,,,,,,,,,,,,,,,,,,,,,,,,,,,,,,,,,,,,,,,,,,,,,,,,,,,,,,,,,,,,,,,,,,,,,,,,,,,,,,,,,,,,,,,,,,,,,,,,,,,,,,,,,,,,,,,,,,,,,,,,,,,,,,,-3.504085910321919e-09,-9.052314453583676e-09,3.5232927686479343e-10,0.0,-2.625621959850833e-07,6.795302986972729e-09,-0.000840738764964,-0.0008370410068891,-3.707256723828322e-09,-1.0139555861599092e-08,4.0679265511656126e-10,0.0,2.737050124324014e-07,5.022043296776246e-07,0.0009029159555211,0.0008999466663226,,,,,,,,,,,,,,,,,,,,,,,,,,,,,,,,,,,,,,,,,,,,,,,,,,,,,,,,,,,,,,,,,,,,,,,,,,
49,2.1908559799194336,0.6107973456382751,1.5706218481063845,0.39000777810812,0.0,-3.1415926158408434,-8.96303753439298e-10,0.5001395344734192,0.500139057636261,0.6107973456382751,1.5706218481063845,0.39000777810812,0.0,-3.141592675445488,-6.754736858738397e-08,0.500148355960846,0.5001479983329773,,,,,,,,,,,,,,,,,,,,,,,,,,,,,,,,,,,,,,,,,,,,,,,,,,,,,,,,,,,,,,,,,,,,,,,,,,,,,,,,,,,,,,,,,,,,,,,,,,,,,,,,,,,,,,,,,,,,,,,,,,,,,,,,,,,,,,-2.9261593148532942e-09,-7.558842440857916e-09,2.949723798550963e-10,0.0,-2.190623860087726e-07,5.4975952679114926e-09,-0.0007020834600552,-0.000699081167113,-3.0667135497708387e-09,-8.372635917908156e-09,3.3652941544559667e-10,0.0,2.128576142013117e-07,4.032162337352929e-07,0.000746508128941,0.000744124292396,,,,,,,,,,,,,,,,,,,,,,,,,,,,,,,,,,,,,,,,,,,,,,,,,,,,,,,,,,,,,,,,,,,,,,,,,,
50,2.212363004684448,0.6107973456382751,1.5706218481063845,0.39000777810812,0.0,-3.1415926158408434,-8.854378896749893e-10,0.5001381635665894,0.5001376271247864,0.6107973456382751,1.5706218481063845,0.39000777810812,0.0,-3.141592675445488,-5.5176233360043625e-08,0.5001251697540283,0.5001248121261597,,,,,,,,,,,,,,,,,,,,,,,,,,,,,,,,,,,,,,,,,,,,,,,,,,,,,,,,,,,,,,,,,,,,,,,,,,,,,,,,,,,,,,,,,,,,,,,,,,,,,,,,,,,,,,,,,,,,,,,,,,,,,,,,,,,,,,-2.897182493910577e-09,-7.48356931978833e-09,2.921066166727826e-10,0.0,-2.168693526982679e-07,5.432930549886805e-09,-0.0006950887618586,-0.0006921211024746,-2.587985381552471e-09,-7.054246076165782e-09,2.8397423301740327e-10,0.0,1.6940482794325362e-07,3.310589420379984e-07,0.0006296769715845,0.0006277198554016,,,,,,,,,,,,,,,,,,,,,,,,,,,,,,,,,,,,,,,,,,,,,,,,,,,,,,,,,,,,,,,,,,,,,,,,,,
51,2.2340354919433594,0.6107973456382751,1.5706218481063845,0.39000777810812,0.0,-3.1415926158408434,-7.016250358482522e-10,0.5001142024993896,0.500113844871521,0.6107973456382751,1.5706218481063845,0.39000777810812,0.0,-3.141592675445488,-5.452176665698971e-08,0.500123918056488,0.5001235604286194,,,,,,,,,,,,,,,,,,,,,,,,,,,,,,,,,,,,,,,,,,,,,,,,,,,,,,,,,,,,,,,,,,,,,,,,,,,,,,,,,,,,,,,,,,,,,,,,,,,,,,,,,,,,,,,,,,,,,,,,,,,,,,,,,,,,,,-2.3951951533263127e-09,-6.186606782421222e-09,2.4216739724636227e-10,0.0,-1.791272126183685e-07,4.3392263116004415e-09,-0.0005746712558902,-0.0005722917267121,-2.562006162776242e-09,-6.983635891799622e-09,2.811501031985131e-10,0.0,1.671261458113804e-07,3.272339483828546e-07,0.0006234042812138,0.000621469807811,,,,,,,,,,,,,,,,,,,,,,,,,,,,,,,,,,,,,,,,,,,,,,,,,,,,,,,,,,,,,,,,,,,,,,,,,,
52,2.2561891078948975,0.6107973456382751,1.5706218481063845,0.39000777810812,0.0,-3.1415926158408434,-7.016250358482522e-10,0.5001142024993896,0.500113844871521,0.6107973456382751,1.5706218481063845,0.39000777810812,0.0,-3.141592675445488,-4.395522523736872e-08,0.5001034736633301,0.500103235244751,,,,,,,,,,,,,,,,,,,,,,,,,,,,,,,,,,,,,,,,,,,,,,,,,,,,,,,,,,,,,,,,,,,,,,,,,,,,,,,,,,,,,,,,,,,,,,,,,,,,,,,,,,,,,,,,,,,,,,,,,,,,,,,,,,,,,,-2.3951951533263127e-09,-6.186606782421222e-09,2.4216739724636227e-10,0.0,-1.791272126183685e-07,4.3392263116004415e-09,-0.0005746712558902,-0.0005722917267121,-2.1408430583846894e-09,-5.825007143300809e-09,2.3496482537410657e-10,0.0,1.306895143216025e-07,2.653458466284065e-07,0.0005206010537222,0.0005190325318835,,,,,,,,,,,,,,,,,,,,,,,,,,,,,,,,,,,,,,,,,,,,,,,,,,,,,,,,,,,,,,,,,,,,,,,,,,
53,2.278012752532959,0.6107973456382751,1.5706218481063845,0.39000777810812,0.0,-3.141592675445488,-5.549236070656605e-10,0.5000944137573242,0.5000941157341003,0.6107973456382751,1.5706218481063845,0.39000777810812,0.0,-3.141592675445488,-4.395522523736872e-08,0.5001034736633301,0.500103235244751,,,,,,,,,,,,,,,,,,,,,,,,,,,,,,,,,,,,,,,,,,,,,,,,,,,,,,,,,,,,,,,,,,,,,,,,,,,,,,,,,,,,,,,,,,,,,,,,,,,,,,,,,,,,,,,,,,,,,,,,,,,,,,,,,,,,,,-1.980360320175123e-09,-5.1144644075407095e-09,2.0087403962421035e-10,0.0,-1.4795253377997144e-07,3.4607050558577153e-09,-0.000475114909932,-0.00047320878366,-2.1408430583846894e-09,-5.825007143300809e-09,2.3496482537410657e-10,0.0,1.306895143216025e-07,2.653458466284065e-07,0.0005206010537222,0.0005190325318835,,,,,,,,,,,,,,,,,,,,,,,,,,,,,,,,,,,,,,,,,,,,,,,,,,,,,,,,,,,,,,,,,,,,,,,,,,
54,2.298840284347534,0.6107973456382751,1.5706218481063845,0.39000777810812,0.0,-3.141592675445488,-5.549236070656605e-10,0.5000944137573242,0.5000941157341003,0.6107973456382751,1.5706218481063845,0.39000777810812,0.0,-3.141592675445488,-3.539095061455555e-08,0.5000864267349243,0.5000861883163452,,,,,,,,,,,,,,,,,,,,,,,,,,,,,,,,,,,,,,,,,,,,,,,,,,,,,,,,,,,,,,,,,,,,,,,,,,,,,,,,,,,,,,,,,,,,,,,,,,,,,,,,,,,,,,,,,,,,,,,,,,,,,,,,,,,,,,-1.980360320175123e-09,-5.1144644075407095e-09,2.0087403962421035e-10,0.0,-1.4795253377997144e-07,3.4607050558577153e-09,-0.000475114909932,-0.00047320878366,-1.7882917369149711e-09,-4.858335955759685e-09,1.9627355296591984e-10,0.0,1.0172473707825703e-07,2.1497034197182074e-07,0.00043475072016,0.0004334800469223,,,,,,,,,,,,,,,,,,,,,,,,,,,,,,,,,,,,,,,,,,,,,,,,,,,,,,,,,,,,,,,,,,,,,,,,,,
55,2.320033311843872,0.6107973456382751,1.5706218481063845,0.39000777810812,0.0,-3.141592675445488,-4.379895335304695e-10,0.5000780820846558,0.5000778436660767,0.6107973456382751,1.5706218481063845,0.39000777810812,0.0,-3.141592675445488,-2.8803915697039884e-08,0.5000728964805603,0.500072717666626,,,,,,,,,,,,,,,,,,,,,,,,,,,,,,,,,,,,,,,,,,,,,,,,,,,,,,,,,,,,,,,,,,,,,,,,,,,,,,,,,,,,,,,,,,,,,,,,,,,,,,,,,,,,,,,,,,,,,,,,,,,,,,,,,,,,,,-1.6372458944147184e-09,-4.2280623446799845e-09,1.6649182033035004e-10,0.0,-1.2220374401294978e-07,2.7568531901778215e-09,-0.0003928057849407,-0.0003912804240826,-1.5091816685242063e-09,-4.093392291792952e-09,1.6565915306188114e-10,0.0,7.989853401113579e-08,1.760537742256929e-07,0.0003667107084766,0.0003656701301224,,,,,,,,,,,,,,,,,,,,,,,,,,,,,,,,,,,,,,,,,,,,,,,,,,,,,,,,,,,,,,,,,,,,,,,,,,
56,2.341744899749756,0.6107973456382751,1.5706218481063845,0.39000777810812,0.0,-3.141592675445488,-3.4929745207357143e-10,0.5000652074813843,0.5000649690628052,0.6107973456382751,1.5706218481063845,0.39000777810812,0.0,-3.141592675445488,-2.8455930944915053e-08,0.500072181224823,0.5000720024108887,,,,,,,,,,,,,,,,,,,,,,,,,,,,,,,,,,,,,,,,,,,,,,,,,,,,,,,,,,,,,,,,,,,,,,,,,,,,,,,,,,,,,,,,,,,,,,,,,,,,,,,,,,,,,,,,,,,,,,,,,,,,,,,,,,,,,,-1.3673506771283426e-09,-3.5305092183079982e-09,1.3940237852949622e-10,0.0,-1.0195583399763565e-07,2.2192925275277275e-09,-0.000328023917973,-0.0003267901483923,-1.4940826353893042e-09,-4.052758129091671e-09,1.6400769631275122e-10,0.0,7.875855345673699e-08,1.7399247553839817e-07,0.0003630576247815,0.0003620292118284,,,,,,,,,,,,,,,,,,,,,,,,,,,,,,,,,,,,,,,,,,,,,,,,,,,,,,,,,,,,,,,,,,,,,,,,,,
57,2.363828659057617,0.6107973456382751,1.5706218481063845,0.39000777810812,0.0,-3.141592675445488,-3.4929745207357143e-10,0.5000652074813843,0.5000649690628052,0.6107973456382751,1.5706218481063845,0.39000777810812,0.0,-3.141592675445488,-2.2845719982456103e-08,0.5000602602958679,0.5000601410865784,,,,,,,,,,,,,,,,,,,,,,,,,,,,,,,,,,,,,,,,,,,,,,,,,,,,,,,,,,,,,,,,,,,,,,,,,,,,,,,,,,,,,,,,,,,,,,,,,,,,,,,,,,,,,,,,,,,,,,,,,,,,,,,,,,,,,,-1.3673506771283426e-09,-3.5305092183079982e-09,1.3940237852949622e-10,0.0,-1.0195583399763565e-07,2.2192925275277275e-09,-0.000328023917973,-0.0003267901483923,-1.2484457911909883e-09,-3.380296043076214e-09,1.370153990265521e-10,0.0,6.060007962105375e-08,1.4068437792502666e-07,0.0003031871747225,0.0003023557073902,,,,,,,,,,,,,,,,,,,,,,,,,,,,,,,,,,,,,,,,,,,,,,,,,,,,,,,,,,,,,,,,,,,,,,,,,,
58,2.3862619400024414,0.6107973456382751,1.5706218481063845,0.39000777810812,0.0,-3.141592675445488,-2.779434737920638e-10,0.5000544190406799,0.5000542998313904,0.6107973456382751,1.5706218481063845,0.39000777810812,0.0,-3.141592675445488,-2.2845719982456103e-08,0.5000602602958679,0.5000601410865784,,,,,,,,,,,,,,,,,,,,,,,,,,,,,,,,,,,,,,,,,,,,,,,,,,,,,,,,,,,,,,,,,,,,,,,,,,,,,,,,,,,,,,,,,,,,,,,,,,,,,,,,,,,,,,,,,,,,,,,,,,,,,,,,,,,,,,-1.1419198919782048e-09,-2.947975197287178e-09,1.1669137878200786e-10,0.0,-8.506301441002506e-08,1.7842934907363883e-09,-0.0002739259507507,-0.000272929057246,-1.2484457911909883e-09,-3.380296043076214e-09,1.370153990265521e-10,0.0,6.060007962105375e-08,1.4068437792502666e-07,0.0003031871747225,0.0003023557073902,,,,,,,,,,,,,,,,,,,,,,,,,,,,,,,,,,,,,,,,,,,,,,,,,,,,,,,,,,,,,,,,,,,,,,,,,,
59,2.4082999229431152,0.6107973456382751,1.5706218481063845,0.39000777810812,0.0,-3.141592675445488,-2.779434737920638e-10,0.5000544190406799,0.5000542998313904,0.6107973456382751,1.5706218481063845,0.39000777810812,0.0,-3.141592675445488,-1.8311977711960026e-08,0.5000503063201904,0.5000502467155457,,,,,,,,,,,,,,,,,,,,,,,,,,,,,,,,,,,,,,,,,,,,,,,,,,,,,,,,,,,,,,,,,,,,,,,,,,,,,,,,,,,,,,,,,,,,,,,,,,,,,,,,,,,,,,,,,,,,,,,,,,,,,,,,,,,,,,-1.1419198919782048e-09,-2.947975197287178e-09,1.1669137878200786e-10,0.0,-8.506301441002506e-08,1.7842934907363883e-09,-0.0002739259507507,-0.000272929057246,-1.042943509332872e-09,-2.8195223933380476e-09,1.1447093273275756e-10,0.0,4.628891758784449e-08,1.1362923402202797e-07,0.0002531897334847,0.0002525181917008,,,,,,,,,,,,,,,,,,,,,,,,,,,,,,,,,,,,,,,,,,,,,,,,,,,,,,,,,,,,,,,,,,,,,,,,,,
60,2.43056321144104,0.6107973456382751,1.5706218481063845,0.39000777810812,0.0,-3.141592675445488,-2.1779174297353876e-10,0.5000450015068054,0.5000448822975159,0.6107973456382751,1.5706218481063845,0.39000777810812,0.0,-3.141592675445488,-1.465224119812092e-08,0.5000420212745667,0.5000419616699219,,,,,,,,,,,,,,,,,,,,,,,,,,,,,,,,,,,,,,,,,,,,,,,,,,,,,,,,,,,,,,,,,,,,,,,,,,,,,,,,,,,,,,,,,,,,,,,,,,,,,,,,,,,,,,,,,,,,,,,,,,,,,,,,,,,,,,-9.439671266875391e-10,-2.437272605959606e-09,9.680450885340973e-11,0.0,-7.025852255537758e-08,1.4148492377685782e-09,-0.0002264708891743,-0.0002256758452858,-8.713030297258229e-10,-2.351563388458544e-09,9.570816361659239e-11,0.0,3.5049851021540235e-08,9.167165870849205e-08,0.0002114371745847,0.0002108954504365,,,,,,,,,,,,,,,,,,,,,,,,,,,,,,,,,,,,,,,,,,,,,,,,,,,,,,,,,,,,,,,,,,,,,,,,,,
61,2.453049898147583,0.6107973456382751,1.5706218481063845,0.39000777810812,0.0,-3.141592675445488,-1.7237632154998295e-10,0.5000376105308533,0.5000374913215637,0.6107973456382751,1.5706218481063845,0.39000777810812,0.0,-3.141592675445488,-1.4471078557676265e-08,0.5000416040420532,0.5000415444374084,,,,,,,,,,,,,,,,,,,,,,,,,,,,,,,,,,,,,,,,,,,,,,,,,,,,,,,,,,,,,,,,,,,,,,,,,,,,,,,,,,,,,,,,,,,,,,,,,,,,,,,,,,,,,,,,,,,,,,,,,,,,,,,,,,,,,,-7.884248809375548e-10,-2.035038804137912e-09,8.100464743421297e-11,0.0,-5.8617168008368026e-08,1.133732663305409e-09,-0.000189121128642,-0.0001884802768472,-8.626432901337465e-10,-2.3280266603364907e-09,9.468120731881412e-11,0.0,3.450201191412816e-08,9.058148009444268e-08,0.0002093308721669,0.0002087955945171,,,,,,,,,,,,,,,,,,,,,,,,,,,,,,,,,,,,,,,,,,,,,,,,,,,,,,,,,,,,,,,,,,,,,,,,,,
62,2.4742696285247803,0.6107973456382751,1.5706218481063845,0.39000777810812,0.0,-3.141592675445488,-1.7237632154998295e-10,0.5000376105308533,0.5000374913215637,0.6107973456382751,1.5706218481063845,0.39000777810812,0.0,-3.141592675445488,-1.1411363409763451e-08,0.5000343918800354,0.5000343322753906,,,,,,,,,,,,,,,,,,,,,,,,,,,,,,,,,,,,,,,,,,,,,,,,,,,,,,,,,,,,,,,,,,,,,,,,,,,,,,,,,,,,,,,,,,,,,,,,,,,,,,,,,,,,,,,,,,,,,,,,,,,,,,,,,,,,,,-7.884248809375548e-10,-2.035038804137912e-09,8.100464743421297e-11,0.0,-5.8617168008368026e-08,1.133732663305409e-09,-0.000189121128642,-0.0001884802768472,-7.134848267753569e-10,-1.9221291225335335e-09,7.834011217511261e-11,0.0,2.5409729431657982e-08,7.210869057416859e-08,0.0001730694930301,0.0001726433984003,,,,,,,,,,,,,,,,,,,,,,,,,,,,,,,,,,,,,,,,,,,,,,,,,,,,,,,,,,,,,,,,,,,,,,,,,,
63,2.4963250160217285,0.6107973456382751,1.5706218481063845,0.39000777810812,0.0,-3.141592675445488,-1.3422292444165151e-10,0.500031054019928,0.5000309944152832,0.6107973456382751,1.5706218481063845,0.39000777810812,0.0,-3.141592675445488,-1.1411363409763451e-08,0.5000343918800354,0.5000343322753906,,,,,,,,,,,,,,,,,,,,,,,,,,,,,,,,,,,,,,,,,,,,,,,,,,,,,,,,,,,,,,,,,,,,,,,,,,,,,,,,,,,,,,,,,,,,,,,,,,,,,,,,,,,,,,,,,,,,,,,,,,,,,,,,,,,,,,-6.516454043037355e-10,-1.6825429938194247e-09,6.71962485654376e-11,0.0,-4.8414772635396737e-08,8.957348751614801e-10,-0.0001563576952321,-0.0001558479852974,-7.134848267753569e-10,-1.9221291225335335e-09,7.834011217511261e-11,0.0,2.5409729431657982e-08,7.210869057416859e-08,0.0001730694930301,0.0001726433984003,,,,,,,,,,,,,,,,,,,,,,,,,,,,,,,,,,,,,,,,,,,,,,,,,,,,,,,,,,,,,,,,,,,,,,,,,,
64,2.517334461212158,0.6107973456382751,1.5706218481063845,0.39000777810812,0.0,-3.141592675445488,-1.3422292444165151e-10,0.500031054019928,0.5000309944152832,0.6107973456382751,1.5706218481063845,0.39000777810812,0.0,-3.141592675445488,-9.208117823789053e-09,0.5000290274620056,0.5000289678573608,,,,,,,,,,,,,,,,,,,,,,,,,,,,,,,,,,,,,,,,,,,,,,,,,,,,,,,,,,,,,,,,,,,,,,,,,,,,,,,,,,,,,,,,,,,,,,,,,,,,,,,,,,,,,,,,,,,,,,,,,,,,,,,,,,,,,,-6.516454043037355e-10,-1.6825429938194247e-09,6.71962485654376e-11,0.0,-4.8414772635396737e-08,8.957348751614801e-10,-0.0001563576952321,-0.0001558479852974,-6.02018435102991e-10,-1.6198153929281032e-09,6.607214775300463e-11,0.0,1.9081348057170544e-08,5.8723941265270696e-08,0.0001459835184505,0.0001456365425838,,,,,,,,,,,,,,,,,,,,,,,,,,,,,,,,,,,,,,,,,,,,,,,,,,,,,,,,,,,,,,,,,,,,,,,,,,
65,2.5391223430633545,0.6107973456382751,1.5706218481063845,0.39000777810812,0.0,-3.141592675445488,-1.0552574092326239e-10,0.5000259280204773,0.5000258684158325,0.6107973456382751,1.5706218481063845,0.39000777810812,0.0,-3.141592675445488,-7.320629435980663e-09,0.5000242590904236,0.5000241994857788,,,,,,,,,,,,,,,,,,,,,,,,,,,,,,,,,,,,,,,,,,,,,,,,,,,,,,,,,,,,,,,,,,,,,,,,,,,,,,,,,,,,,,,,,,,,,,,,,,,,,,,,,,,,,,,,,,,,,,,,,,,,,,,,,,,,,,-5.445643935786393e-10,-1.404654170755748e-09,5.6246673985071987e-11,0.0,-4.03929121262081e-08,7.150851022430516e-10,-0.0001305710466112,-0.000130161337438,-5.032640970625835e-10,-1.350808354061428e-09,5.5240534369005445e-11,0.0,1.3855083302871662e-08,4.718370760770085e-08,0.0001219099285663,0.0001216311648022,,,,,,,,,,,,,,,,,,,,,,,,,,,,,,,,,,,,,,,,,,,,,,,,,,,,,,,,,,,,,,,,,,,,,,,,,,
66,2.5621371269226074,0.6107973456382751,1.5706218481063845,0.39000777810812,0.0,-3.141592675445488,-8.264101208910189e-11,0.5000216960906982,0.5000216364860535,0.6107973456382751,1.5706218481063845,0.39000777810812,0.0,-3.141592675445488,-7.227406229048938e-09,0.5000239610671997,0.5000239610671997,,,,,,,,,,,,,,,,,,,,,,,,,,,,,,,,,,,,,,,,,,,,,,,,,,,,,,,,,,,,,,,,,,,,,,,,,,,,,,,,,,,,,,,,,,,,,,,,,,,,,,,,,,,,,,,,,,,,,,,,,,,,,,,,,,,,,,-4.5463632858400155e-10,-1.1730616478189402e-09,4.709427292581836e-11,0.0,-3.3699485868510244e-08,5.697194938036887e-10,-0.0001090371661121,-0.0001087083146558,-4.978795153931515e-10,-1.337263633161001e-09,5.4692361750596774e-11,0.0,1.3603284720886677e-08,4.6611738468982367e-08,0.0001206954912049,0.0001204201034852,,,,,,,,,,,,,,,,,,,,,,,,,,,,,,,,,,,,,,,,,,,,,,,,,,,,,,,,,,,,,,,,,,,,,,,,,,
67,2.583723545074463,0.6107973456382751,1.5706218481063845,0.39000777810812,0.0,-3.141592675445488,-8.264101208910189e-11,0.5000216960906982,0.5000216364860535,0.6107973456382751,1.5706218481063845,0.39000777810812,0.0,-3.141592675445488,-5.656601409498307e-09,0.5000198483467102,0.5000197887420654,,,,,,,,,,,,,,,,,,,,,,,,,,,,,,,,,,,,,,,,,,,,,,,,,,,,,,,,,,,,,,,,,,,,,,,,,,,,,,,,,,,,,,,,,,,,,,,,,,,,,,,,,,,,,,,,,,,,,,,,,,,,,,,,,,,,,,-4.5463632858400155e-10,-1.1730616478189402e-09,4.709427292581836e-11,0.0,-3.3699485868510244e-08,5.697194938036887e-10,-0.0001090371661121,-0.0001087083146558,-4.1222580904332057e-10,-1.1042278202921807e-09,4.5206893783955586e-11,0.0,9.450162430368891e-09,3.6933396785343575e-08,9.978798334486784e-05,9.956979920389132e-05,,,,,,,,,,,,,,,,,,,,,,,,,,,,,,,,,,,,,,,,,,,,,,,,,,,,,,,,,,,,,,,,,,,,,,,,,,
68,2.6056835651397705,0.6107973456382751,1.5706218481063845,0.39000777810812,0.0,-3.141592675445488,-6.533804747244075e-11,0.500018298625946,0.5000182390213013,0.6107973456382751,1.5706218481063845,0.39000777810812,0.0,-3.141592675445488,-5.656601409498307e-09,0.5000198483467102,0.5000197887420654,,,,,,,,,,,,,,,,,,,,,,,,,,,,,,,,,,,,,,,,,,,,,,,,,,,,,,,,,,,,,,,,,,,,,,,,,,,,,,,,,,,,,,,,,,,,,,,,,,,,,,,,,,,,,,,,,,,,,,,,,,,,,,,,,,,,,,-3.8341552155429776e-10,-9.89097692638552e-10,3.9801495432811856e-11,0.0,-2.8400004126183376e-08,4.5837578177554406e-10,-9.197094914270564e-05,-9.17041616048664e-05,-4.1222580904332057e-10,-1.1042278202921807e-09,4.5206893783955586e-11,0.0,9.450162430368891e-09,3.6933396785343575e-08,9.978798334486784e-05,9.956979920389132e-05,,,,,,,,,,,,,,,,,,,,,,,,,,,,,,,,,,,,,,,,,,,,,,,,,,,,,,,,,,,,,,,,,,,,,,,,,,
69,2.6304783821105957,0.6107973456382751,1.5706218481063845,0.39000777810812,0.0,-3.141592675445488,-5.142605091768005e-11,0.5000154376029968,0.500015377998352,0.6107973456382751,1.5706218481063845,0.39000777810812,0.0,-3.141592675445488,-4.4715458002997366e-09,0.5000165700912476,0.5000165104866028,,,,,,,,,,,,,,,,,,,,,,,,,,,,,,,,,,,,,,,,,,,,,,,,,,,,,,,,,,,,,,,,,,,,,,,,,,,,,,,,,,,,,,,,,,,,,,,,,,,,,,,,,,,,,,,,,,,,,,,,,,,,,,,,,,,,,,-3.2335245592207684e-10,-8.344436253082677e-10,3.372302437298913e-11,0.0,-2.3933688808597253e-08,3.6818079141021087e-10,-7.757589628454298e-05,-7.735980034340173e-05,-3.442246487850298e-10,-9.211520435314923e-10,3.7823910670198295e-11,0.0,6.469602631398175e-09,2.9573547166705794e-08,8.333232835866511e-05,8.315763261634856e-05,,,,,,,,,,,,,,,,,,,,,,,,,,,,,,,,,,,,,,,,,,,,,,,,,,,,,,,,,,,,,,,,,,,,,,,,,,
70,2.6528160572052,0.6107973456382751,1.5706218481063845,0.39000777810812,0.0,-3.141592675445488,-5.0699434234191536e-11,0.5000152587890625,0.5000152587890625,0.6107973456382751,1.5706218481063845,0.39000777810812,0.0,-3.141592675445488,-3.476821497372384e-09,0.5000137090682983,0.5000136494636536,,,,,,,,,,,,,,,,,,,,,,,,,,,,,,,,,,,,,,,,,,,,,,,,,,,,,,,,,,,,,,,,,,,,,,,,,,,,,,,,,,,,,,,,,,,,,,,,,,,,,,,,,,,,,,,,,,,,,,,,,,,,,,,,,,,,,,-3.204103649068202e-10,-8.260059303211165e-10,3.335526299608205e-11,0.0,-2.3694434858612112e-08,3.63307300910165e-10,-7.680302951484919e-05,-7.658960385015234e-05,-2.8466118351389014e-10,-7.605027718682321e-10,3.126665593100597e-11,0.0,4.108602347230317e-09,2.3343329047520456e-08,6.889706855872646e-05,6.875918916193768e-05,,,,,,,,,,,,,,,,,,,,,,,,,,,,,,,,,,,,,,,,,,,,,,,,,,,,,,,,,,,,,,,,,,,,,,,,,,
71,2.674325704574585,0.6107973456382751,1.5706218481063845,0.39000777810812,0.0,-3.141592675445488,-3.9109892407962477e-11,0.5000127553939819,0.5000126957893372,0.6107973456382751,1.5706218481063845,0.39000777810812,0.0,-3.141592675445488,-3.476821497372384e-09,0.5000137090682983,0.5000136494636536,,,,,,,,,,,,,,,,,,,,,,,,,,,,,,,,,,,,,,,,,,,,,,,,,,,,,,,,,,,,,,,,,,,,,,,,,,,,,,,,,,,,,,,,,,,,,,,,,,,,,,,,,,,,,,,,,,,,,,,,,,,,,,,,,,,,,,-2.6728619317850644e-10,-6.897815651996098e-10,2.792904796322659e-11,0.0,-1.976829722138973e-08,2.8741320434733103e-10,-6.413660594262183e-05,-6.396620301529765e-05,-2.8466118351389014e-10,-7.605027718682321e-10,3.126665593100597e-11,0.0,4.108602347230317e-09,2.3343329047520456e-08,6.889706855872646e-05,6.875918916193768e-05,,,,,,,,,,,,,,,,,,,,,,,,,,,,,,,,,,,,,,,,,,,,,,,,,,,,,,,,,,,,,,,,,,,,,,,,,,
72,2.696615695953369,0.6107973456382751,1.5706218481063845,0.39000777810812,0.0,-3.141592675445488,-3.9109892407962477e-11,0.5000127553939819,0.5000126957893372,0.6107973456382751,1.5706218481063845,0.39000777810812,0.0,-3.141592675445488,-2.729309445115291e-09,0.5000114440917969,0.5000114440917969,,,,,,,,,,,,,,,,,,,,,,,,,,,,,,,,,,,,,,,,,,,,,,,,,,,,,,,,,,,,,,,,,,,,,,,,,,,,,,,,,,,,,,,,,,,,,,,,,,,,,,,,,,,,,,,,,,,,,,,,,,,,,,,,,,,,,,-2.6728619317850644e-10,-6.897815651996098e-10,2.792904796322659e-11,0.0,-1.976829722138973e-08,2.8741320434733103e-10,-6.413660594262183e-05,-6.396620301529765e-05,-2.3803181647963356e-10,-6.341593916658893e-10,2.609024107869118e-11,0.0,2.44981812613787e-09,1.8617805963572213e-08,5.753551522502676e-05,5.742555731558241e-05,,,,,,,,,,,,,,,,,,,,,,,,,,,,,,,,,,,,,,,,,,,,,,,,,,,,,,,,,,,,,,,,,,,,,,,,,,
73,2.7182302474975586,0.6107973456382751,1.5706218481063845,0.39000777810812,0.0,-3.141592675445488,-2.9515789118361724e-11,0.5000105500221252,0.5000104904174805,0.6107973456382751,1.5706218481063845,0.39000777810812,0.0,-3.141592675445488,-2.729309445115291e-09,0.5000114440917969,0.5000114440917969,,,,,,,,,,,,,,,,,,,,,,,,,,,,,,,,,,,,,,,,,,,,,,,,,,,,,,,,,,,,,,,,,,,,,,,,,,,,,,,,,,,,,,,,,,,,,,,,,,,,,,,,,,,,,,,,,,,,,,,,,,,,,,,,,,,,,,-2.2104540420286867e-10,-5.703215677499428e-10,2.3175905639050143e-11,0.0,-1.6327049934261595e-08,2.2351082096250252e-10,-5.302555291564204e-05,-5.289149339660071e-05,-2.3803181647963356e-10,-6.341593916658893e-10,2.609024107869118e-11,0.0,2.44981812613787e-09,1.8617805963572213e-08,5.753551522502676e-05,5.742555731558241e-05,,,,,,,,,,,,,,,,,,,,,,,,,,,,,,,,,,,,,,,,,,,,,,,,,,,,,,,,,,,,,,,,,,,,,,,,,,
74,2.7402212619781494,0.6107973456382751,1.5706218481063845,0.39000777810812,0.0,-3.141592675445488,-2.276816062074527e-11,0.5000088810920715,0.5000088810920715,0.6107973456382751,1.5706218481063845,0.39000777810812,0.0,-3.141592675445488,-2.1045294396060403e-09,0.5000094771385193,0.5000094175338745,,,,,,,,,,,,,,,,,,,,,,,,,,,,,,,,,,,,,,,,,,,,,,,,,,,,,,,,,,,,,,,,,,,,,,,,,,,,,,,,,,,,,,,,,,,,,,,,,,,,,,,,,,,,,,,,,,,,,,,,,,,,,,,,,,,,,,-1.8657297928825756e-10,-4.808375919651553e-10,1.9567680809018384e-11,0.0,-1.3759493100451436e-08,1.7767790017053642e-10,-4.4726129999617115e-05,-4.461820572032593e-05,-1.9689805341727149e-10,-5.238032230181489e-10,2.1621593404574924e-11,0.0,1.1687317780229023e-09,1.4627920208454272e-08,4.756891212309711e-05,4.7482528316322714e-05,,,,,,,,,,,,,,,,,,,,,,,,,,,,,,,,,,,,,,,,,,,,,,,,,,,,,,,,,,,,,,,,,,,,,,,,,,
75,2.763324499130249,0.6107973456382751,1.5706218481063845,0.39000777810812,0.0,-3.141592675445488,-2.2417180958744787e-11,0.5000088214874268,0.500008761882782,0.6107973456382751,1.5706218481063845,0.39000777810812,0.0,-3.141592675445488,-1.637229796180861e-09,0.5000078678131104,0.5000078678131104,,,,,,,,,,,,,,,,,,,,,,,,,,,,,,,,,,,,,,,,,,,,,,,,,,,,,,,,,,,,,,,,,,,,,,,,,,,,,,,,,,,,,,,,,,,,,,,,,,,,,,,,,,,,,,,,,,,,,,,,,,,,,,,,,,,,,,-1.8457457784393227e-10,-4.762856775641922e-10,1.9387269567516796e-11,0.0,-1.3621936467700381e-08,1.7548999753369543e-10,-4.428053580340929e-05,-4.4173983042128384e-05,-1.6442402994698568e-10,-4.3687276018999905e-10,1.8034185256254887e-11,0.0,2.9826141556554825e-10,1.1611046346615694e-08,3.972450576839037e-05,3.965594441979192e-05,,,,,,,,,,,,,,,,,,,,,,,,,,,,,,,,,,,,,,,,,,,,,,,,,,,,,,,,,,,,,,,,,,,,,,,,,,
76,2.784734010696411,0.6107973456382751,1.5706218481063845,0.39000777810812,0.0,-3.141592675445488,-1.6856517917607228e-11,0.5000073313713074,0.5000073313713074,0.6107973456382751,1.5706218481063845,0.39000777810812,0.0,-3.141592675445488,-1.637229796180861e-09,0.5000078678131104,0.5000078678131104,,,,,,,,,,,,,,,,,,,,,,,,,,,,,,,,,,,,,,,,,,,,,,,,,,,,,,,,,,,,,,,,,,,,,,,,,,,,,,,,,,,,,,,,,,,,,,,,,,,,,,,,,,,,,,,,,,,,,,,,,,,,,,,,,,,,,,-1.5420997812043424e-10,-3.97681887420731e-10,1.6243950629046822e-11,0.0,-1.1365242080785265e-08,1.3690104605501574e-10,-3.697775173350237e-05,-3.689328514155932e-05,-1.6442402994698568e-10,-4.3687276018999905e-10,1.8034185256254887e-11,0.0,2.9826141556554825e-10,1.1611046346615694e-08,3.972450576839037e-05,3.965594441979192e-05,,,,,,,,,,,,,,,,,,,,,,,,,,,,,,,,,,,,,,,,,,,,,,,,,,,,,,,,,,,,,,,,,,,,,,,,,,
77,2.8069698810577393,0.6107973456382751,1.5706218481063845,0.39000777810812,0.0,-3.141592675445488,-1.6856517917607228e-11,0.5000073313713074,0.5000073313713074,0.6107973456382751,1.5706218481063845,0.39000777810812,0.0,-3.141592675445488,-1.2668196491816275e-09,0.5000066161155701,0.5000066161155701,,,,,,,,,,,,,,,,,,,,,,,,,,,,,,,,,,,,,,,,,,,,,,,,,,,,,,,,,,,,,,,,,,,,,,,,,,,,,,,,,,,,,,,,,,,,,,,,,,,,,,,,,,,,,,,,,,,,,,,,,,,,,,,,,,,,,,-1.5420997812043424e-10,-3.97681887420731e-10,1.6243950629046822e-11,0.0,-1.1365242080785265e-08,1.3690104605501574e-10,-3.697775173350237e-05,-3.689328514155932e-05,-1.3733458814613186e-10,-3.644862189844389e-10,1.5085155347094314e-11,0.0,-3.1674662892555716e-10,9.191021277388245e-09,3.31736882799305e-05,3.311942418804392e-05,,,,,,,,,,,,,,,,,,,,,,,,,,,,,,,,,,,,,,,,,,,,,,,,,,,,,,,,,,,,,,,,,,,,,,,,,,
78,2.8295114040374756,0.6107973456382751,1.5706218481063845,0.39000777810812,0.0,-3.141592675445488,-1.2309336709648289e-11,0.5000060796737671,0.5000060796737671,0.6107973456382751,1.5706218481063845,0.39000777810812,0.0,-3.141592675445488,-1.2668196491816275e-09,0.5000066161155701,0.5000066161155701,,,,,,,,,,,,,,,,,,,,,,,,,,,,,,,,,,,,,,,,,,,,,,,,,,,,,,,,,,,,,,,,,,,,,,,,,,,,,,,,,,,,,,,,,,,,,,,,,,,,,,,,,,,,,,,,,,,,,,,,,,,,,,,,,,,,,,-1.2773115898312426e-10,-3.2840397068412125e-10,1.3461454173580023e-11,0.0,-9.386546651057872e-09,1.0536063688171282e-10,-3.057170761167072e-05,-3.0505807444569655e-05,-1.3733458814613186e-10,-3.644862189844389e-10,1.5085155347094314e-11,0.0,-3.1674662892555716e-10,9.191021277388245e-09,3.31736882799305e-05,3.311942418804392e-05,,,,,,,,,,,,,,,,,,,,,,,,,,,,,,,,,,,,,,,,,,,,,,,,,,,,,,,,,,,,,,,,,,,,,,,,,,
79,2.850890636444092,0.6107973456382751,1.5706218481063845,0.39000777810812,0.0,-3.141592675445488,-1.2309336709648289e-11,0.5000060796737671,0.5000060796737671,0.6107973456382751,1.5706218481063845,0.39000777810812,0.0,-3.141592675445488,-9.740520612311343e-10,0.5000054836273193,0.5000054836273193,,,,,,,,,,,,,,,,,,,,,,,,,,,,,,,,,,,,,,,,,,,,,,,,,,,,,,,,,,,,,,,,,,,,,,,,,,,,,,,,,,,,,,,,,,,,,,,,,,,,,,,,,,,,,,,,,,,,,,,,,,,,,,,,,,,,,,-1.2773115898312426e-10,-3.2840397068412125e-10,1.3461454173580023e-11,0.0,-9.386546651057872e-09,1.0536063688171282e-10,-3.057170761167072e-05,-3.0505807444569655e-05,-1.146305272925474e-10,-3.0375701953744283e-10,1.2559397966072083e-11,0.0,-7.37854222165879e-10,7.253329492584726e-09,2.7703141313395463e-05,2.766032048384659e-05,,,,,,,,,,,,,,,,,,,,,,,,,,,,,,,,,,,,,,,,,,,,,,,,,,,,,,,,,,,,,,,,,,,,,,,,,,
80,2.874427556991577,0.6107973456382751,1.5706218481063845,0.39000777810812,0.0,-3.141592675445488,-8.830869195619595e-12,0.5000050067901611,0.5000050067901611,0.6107973456382751,1.5706218481063845,0.39000777810812,0.0,-3.141592675445488,-7.43392181146163e-10,0.5000045895576477,0.5000045895576477,,,,,,,,,,,,,,,,,,,,,,,,,,,,,,,,,,,,,,,,,,,,,,,,,,,,,,,,,,,,,,,,,,,,,,,,,,,,,,,,,,,,,,,,,,,,,,,,,,,,,,,,,,,,,,,,,,,,,,,,,,,,,,,,,,,,,,-1.054156761881586e-10,-2.7178259642823827e-10,1.1171619185290638e-11,0.0,-7.752631425717027e-09,8.037491505685779e-11,-2.527545075281523e-05,-2.5224218916264363e-05,-9.592326932761351e-11,-2.5357493882438575e-10,1.054017984003508e-11,0.0,-1.0105249970138175e-09,5.705106609354971e-09,2.313472214154899e-05,2.3101047190721147e-05,,,,,,,,,,,,,,,,,,,,,,,,,,,,,,,,,,,,,,,,,,,,,,,,,,,,,,,,,,,,,,,,,,,,,,,,,,
81,2.8959059715270996,0.6107973456382751,1.5706218481063845,0.39000777810812,0.0,-3.141592675445488,-6.1887738857235855e-12,0.5000041723251343,0.5000041723251343,0.6107973456382751,1.5706218481063845,0.39000777810812,0.0,-3.141592675445488,-7.43392181146163e-10,0.5000045895576477,0.5000045895576477,,,,,,,,,,,,,,,,,,,,,,,,,,,,,,,,,,,,,,,,,,,,,,,,,,,,,,,,,,,,,,,,,,,,,,,,,,,,,,,,,,,,,,,,,,,,,,,,,,,,,,,,,,,,,,,,,,,,,,,,,,,,,,,,,,,,,,-8.726352973553729e-11,-2.2448709557920663e-10,9.26342336171615e-12,0.0,-6.40321129452559e-09,6.067876756610247e-11,-2.089671943394933e-05,-2.0857052732026204e-05,-9.592326932761351e-11,-2.5357493882438575e-10,1.054017984003508e-11,0.0,-1.0105249970138175e-09,5.705106609354971e-09,2.313472214154899e-05,2.3101047190721147e-05,,,,,,,,,,,,,,,,,,,,,,,,,,,,,,,,,,,,,,,,,,,,,,,,,,,,,,,,,,,,,,,,,,,,,,,,,,
82,2.9180150032043457,0.6107973456382751,1.5706218481063845,0.39000777810812,0.0,-3.141592675445488,-6.1887738857235855e-12,0.5000041723251343,0.5000041723251343,0.6107973456382751,1.5706218481063845,0.39000777810812,0.0,-3.141592675445488,-5.712582074046678e-10,0.5000038743019104,0.5000038743019104,,,,,,,,,,,,,,,,,,,,,,,,,,,,,,,,,,,,,,,,,,,,,,,,,,,,,,,,,,,,,,,,,,,,,,,,,,,,,,,,,,,,,,,,,,,,,,,,,,,,,,,,,,,,,,,,,,,,,,,,,,,,,,,,,,,,,,-8.726352973553729e-11,-2.2448709557920663e-10,9.26342336171615e-12,0.0,-6.40321129452559e-09,6.067876756610247e-11,-2.089671943394933e-05,-2.0857052732026204e-05,-8.093525849517391e-11,-2.1371793224034263e-10,8.833211939673902e-12,0.0,-1.166566843124883e-09,4.531305997090841e-09,1.951405829458963e-05,1.9487313693389297e-05,,,,,,,,,,,,,,,,,,,,,,,,,,,,,,,,,,,,,,,,,,,,,,,,,,,,,,,,,,,,,,,,,,,,,,,,,,
83,2.939354181289673,0.6107973456382751,1.5706218481063845,0.39000777810812,0.0,-3.141592675445488,-4.286698166572345e-12,0.500003457069397,0.500003457069397,0.6107973456382751,1.5706218481063845,0.39000777810812,0.0,-3.141592675445488,-4.3479481126595937e-10,0.5000032782554626,0.5000032782554626,,,,,,,,,,,,,,,,,,,,,,,,,,,,,,,,,,,,,,,,,,,,,,,,,,,,,,,,,,,,,,,,,,,,,,,,,,,,,,,,,,,,,,,,,,,,,,,,,,,,,,,,,,,,,,,,,,,,,,,,,,,,,,,,,,,,,,-7.277511926417901e-11,-1.874056465567264e-10,7.771561172376096e-12,0.0,-5.341949105286403e-09,4.6274799964107765e-11,-1.7450414816266857e-05,-1.7419417417841032e-05,-6.822320486321587e-11,-1.7985612998927536e-10,7.480127628411992e-12,0.0,-1.249667036518076e-09,3.5854794688816582e-09,1.6460040569654666e-05,1.643888208491262e-05,,,,,,,,,,,,,,,,,,,,,,,,,,,,,,,,,,,,,,,,,,,,,,,,,,,,,,,,,,,,,,,,,,,,,,,,,,
84,2.961606025695801,0.6107973456382751,1.5706218481063845,0.39000777810812,0.0,-3.141592675445488,-2.913511012309078e-12,0.500002920627594,0.500002920627594,0.6107973456382751,1.5706218481063845,0.39000777810812,0.0,-3.141592675445488,-4.20748769158763e-10,0.5000032186508179,0.5000032186508179,,,,,,,,,,,,,,,,,,,,,,,,,,,,,,,,,,,,,,,,,,,,,,,,,,,,,,,,,,,,,,,,,,,,,,,,,,,,,,,,,,,,,,,,,,,,,,,,,,,,,,,,,,,,,,,,,,,,,,,,,,,,,,,,,,,,,,-6.13398221105399e-11,-1.5853984791647235e-10,6.501743587961073e-12,0.0,-4.502120898308703e-09,3.573447093785376e-11,-1.4719121281814296e-05,-1.4694670426251832e-05,-6.70019595361282e-11,-1.7641443861293735e-10,7.348288644237755e-12,0.0,-1.255051618187508e-09,3.487043542804713e-09,1.613373024156317e-05,1.611315383343026e-05,,,,,,,,,,,,,,,,,,,,,,,,,,,,,,,,,,,,,,,,,,,,,,,,,,,,,,,,,,,,,,,,,,,,,,,,,,
85,2.9833719730377197,0.6107973456382751,1.5706218481063845,0.39000777810812,0.0,-3.141592675445488,-2.8433728895688178e-12,0.500002920627594,0.500002920627594,0.6107973456382751,1.5706218481063845,0.39000777810812,0.0,-3.141592675445488,-3.0524130445463977e-10,0.5000026226043701,0.5000026226043701,,,,,,,,,,,,,,,,,,,,,,,,,,,,,,,,,,,,,,,,,,,,,,,,,,,,,,,,,,,,,,,,,,,,,,,,,,,,,,,,,,,,,,,,,,,,,,,,,,,,,,,,,,,,,,,,,,,,,,,,,,,,,,,,,,,,,,-6.072919944699606e-11,-1.5654144647214707e-10,6.501743587961073e-12,0.0,-4.456601754299072e-09,3.5069135095877606e-11,-1.4572478903573938e-05,-1.454837001801934e-05,-5.545564008002657e-11,-1.4543921622589548e-10,6.078471059822732e-12,0.0,-1.2778667013435552e-09,2.668550047602025e-09,1.3338962162379175e-05,1.3323217899596784e-05,,,,,,,,,,,,,,,,,,,,,,,,,,,,,,,,,,,,,,,,,,,,,,,,,,,,,,,,,,,,,,,,,,,,,,,,,,
86,3.005039691925049,0.6107973456382751,1.5706218481063845,0.39000777810812,0.0,-3.141592675445488,-1.759320336983117e-12,0.5000024437904358,0.5000024437904358,0.6107973456382751,1.5706218481063845,0.39000777810812,0.0,-3.141592675445488,-3.0524130445463977e-10,0.5000026226043701,0.5000026226043701,,,,,,,,,,,,,,,,,,,,,,,,,,,,,,,,,,,,,,,,,,,,,,,,,,,,,,,,,,,,,,,,,,,,,,,,,,,,,,,,,,,,,,,,,,,,,,,,,,,,,,,,,,,,,,,,,,,,,,,,,,,,,,,,,,,,,,-5.057065877167588e-11,-1.3100631690576847e-10,5.4192761389515446e-12,0.0,-3.718580998679499e-09,2.615324450061518e-11,-1.2169173714937642e-05,-1.2150524526077788e-05,-5.545564008002657e-11,-1.4543921622589548e-10,6.078471059822732e-12,0.0,-1.2778667013435552e-09,2.668550047602025e-09,1.3338962162379175e-05,1.3323217899596784e-05,,,,,,,,,,,,,,,,,,,,,,,,,,,,,,,,,,,,,,,,,,,,,,,,,,,,,,,,,,,,,,,,,,,,,,,,,,
87,3.0269360542297363,0.6107973456382751,1.5706218481063845,0.39000777810812,0.0,-3.141592675445488,-1.759320336983117e-12,0.5000024437904358,0.5000024437904358,0.6107973456382751,1.5706218481063845,0.39000777810812,0.0,-3.141592675445488,-2.211834326804052e-10,0.5000022053718567,0.5000022053718567,,,,,,,,,,,,,,,,,,,,,,,,,,,,,,,,,,,,,,,,,,,,,,,,,,,,,,,,,,,,,,,,,,,,,,,,,,,,,,,,,,,,,,,,,,,,,,,,,,,,,,,,,,,,,,,,,,,,,,,,,,,,,,,,,,,,,,-5.057065877167588e-11,-1.3100631690576847e-10,5.4192761389515446e-12,0.0,-3.718580998679499e-09,2.615324450061518e-11,-1.2169173714937642e-05,-1.2150524526077788e-05,-4.6351811278100286e-11,-1.2145839889399213e-10,5.051514762044462e-12,0.0,-1.2574385976904523e-09,2.0588704074953053e-09,1.1139284652017524e-05,1.112714107875945e-05,,,,,,,,,,,,,,,,,,,,,,,,,,,,,,,,,,,,,,,,,,,,,,,,,,,,,,,,,,,,,,,,,,,,,,,,,,
88,3.0486502647399902,0.6107973456382751,1.5706218481063845,0.39000777810812,0.0,-3.141592675445488,-9.551414563782612e-13,0.5000020265579224,0.5000020265579224,0.6107973456382751,1.5706218481063845,0.39000777810812,0.0,-3.141592675445488,-2.211834326804052e-10,0.5000022053718567,0.5000022053718567,,,,,,,,,,,,,,,,,,,,,,,,,,,,,,,,,,,,,,,,,,,,,,,,,,,,,,,,,,,,,,,,,,,,,,,,,,,,,,,,,,,,,,,,,,,,,,,,,,,,,,,,,,,,,,,,,,,,,,,,,,,,,,,,,,,,,,-4.2521541843143495e-11,-1.0913492332065287e-10,4.524158825347513e-12,0.0,-3.1022406865588432e-09,1.943330565912227e-11,-1.0162223588849884e-05,-1.014788904285524e-05,-4.6351811278100286e-11,-1.2145839889399213e-10,5.051514762044462e-12,0.0,-1.2574385976904523e-09,2.0588704074953053e-09,1.1139284652017524e-05,1.112714107875945e-05,,,,,,,,,,,,,,,,,,,,,,,,,,,,,,,,,,,,,,,,,,,,,,,,,,,,,,,,,,,,,,,,,,,,,,,,,,
89,3.0717062950134277,0.6107973456382751,1.5706218481063845,0.39000777810812,0.0,-3.141592675445488,-3.6868327401434753e-13,0.5000016689300537,0.5000016689300537,0.6107973456382751,1.5706218481063845,0.39000777810812,0.0,-3.141592675445488,-1.5343995518612982e-10,0.500001847743988,0.500001847743988,,,,,,,,,,,,,,,,,,,,,,,,,,,,,,,,,,,,,,,,,,,,,,,,,,,,,,,,,,,,,,,,,,,,,,,,,,,,,,,,,,,,,,,,,,,,,,,,,,,,,,,,,,,,,,,,,,,,,,,,,,,,,,,,,,,,,,-3.530509218307998e-11,-9.114931032172535e-11,3.760880495917718e-12,0.0,-2.5878188480987774e-09,1.401657522687172e-11,-8.486261322104838e-06,-8.47532555781072e-06,-3.8413716652030416e-11,-1.0003109451872659e-10,4.1772141301521515e-12,0.0,-1.205924249347845e-09,1.554149253735204e-09,9.209679774357936e-06,9.200514796248171e-06,,,,,,,,,,,,,,,,,,,,,,,,,,,,,,,,,,,,,,,,,,,,,,,,,,,,,,,,,,,,,,,,,,,,,,,,,,
90,3.0937068462371826,0.6107973456382751,1.5706218481063845,0.39000777810812,0.0,-3.141592675445488,-3.6868327401434753e-13,0.5000016689300537,0.5000016689300537,0.6107973456382751,1.5706218481063845,0.39000777810812,0.0,-3.141592675445488,-1.0252816651235007e-10,0.5000014901161194,0.5000014901161194,,,,,,,,,,,,,,,,,,,,,,,,,,,,,,,,,,,,,,,,,,,,,,,,,,,,,,,,,,,,,,,,,,,,,,,,,,,,,,,,,,,,,,,,,,,,,,,,,,,,,,,,,,,,,,,,,,,,,,,,,,,,,,,,,,,,,,-3.530509218307998e-11,-9.114931032172535e-11,3.760880495917718e-12,0.0,-2.5878188480987774e-09,1.401657522687172e-11,-8.486261322104838e-06,-8.47532555781072e-06,-3.175237850427948e-11,-8.271161533457416e-11,3.4694469519536138e-12,0.0,-1.1343148642595222e-09,1.162718032965415e-09,7.614331025251886e-06,7.607477982674027e-06,,,,,,,,,,,,,,,,,,,,,,,,,,,,,,,,,,,,,,,,,,,,,,,,,,,,,,,,,,,,,,,,,,,,,,,,,,
91,3.1149303913116455,0.6107973456382751,1.5706218481063845,0.39000777810812,0.0,-3.141592675445488,5.055058747895774e-14,0.5000014305114746,0.5000014305114746,0.6107973456382751,1.5706218481063845,0.39000777810812,0.0,-3.141592675445488,-1.0252816651235007e-10,0.5000014901161194,0.5000014901161194,,,,,,,,,,,,,,,,,,,,,,,,,,,,,,,,,,,,,,,,,,,,,,,,,,,,,,,,,,,,,,,,,,,,,,,,,,,,,,,,,,,,,,,,,,,,,,,,,,,,,,,,,,,,,,,,,,,,,,,,,,,,,,,,,,,,,,-2.964295475749168e-11,-7.616129948928574e-11,3.1988300897012327e-12,0.0,-2.159605827500854e-09,9.710393079898072e-12,-7.0866999521967955e-06,-7.078431735862978e-06,-3.175237850427948e-11,-8.271161533457416e-11,3.4694469519536138e-12,0.0,-1.1343148642595222e-09,1.162718032965415e-09,7.614331025251886e-06,7.607477982674027e-06,,,,,,,,,,,,,,,,,,,,,,,,,,,,,,,,,,,,,,,,,,,,,,,,,,,,,,,,,,,,,,,,,,,,,,,,,,
92,3.1368796825408936,0.6107973456382751,1.5706218481063845,0.39000777810812,0.0,-3.141592675445488,5.055058747895774e-14,0.5000014305114746,0.5000014305114746,0.6107973456382751,1.5706218481063845,0.39000777810812,0.0,-3.141592675445488,-6.637138755261063e-11,0.5000012516975403,0.5000012516975403,,,,,,,,,,,,,,,,,,,,,,,,,,,,,,,,,,,,,,,,,,,,,,,,,,,,,,,,,,,,,,,,,,,,,,,,,,,,,,,,,,,,,,,,,,,,,,,,,,,,,,,,,,,,,,,,,,,,,,,,,,,,,,,,,,,,,,-2.964295475749168e-11,-7.616129948928574e-11,3.1988300897012327e-12,0.0,-2.159605827500854e-09,9.710393079898072e-12,-7.0866999521967955e-06,-7.078431735862978e-06,-2.642330798607873e-11,-6.916689443414725e-11,2.921274333544943e-12,0.0,-1.0559331187209864e-09,8.740543289142976e-10,6.358680820994778e-06,6.3535303524986375e-06,,,,,,,,,,,,,,,,,,,,,,,,,,,,,,,,,,,,,,,,,,,,,,,,,,,,,,,,,,,,,,,,,,,,,,,,,,
93,3.1581811904907227,0.6107973456382751,1.5706218481063845,0.39000777810812,0.0,-3.141592675445488,3.4313944372553473e-13,0.5000011920928955,0.5000011920928955,0.6107973456382751,1.5706218481063845,0.39000777810812,0.0,-3.141592675445488,-6.637138755261063e-11,0.5000012516975403,0.5000012516975403,,,,,,,,,,,,,,,,,,,,,,,,,,,,,,,,,,,,,,,,,,,,,,,,,,,,,,,,,,,,,,,,,,,,,,,,,,,,,,,,,,,,,,,,,,,,,,,,,,,,,,,,,,,,,,,,,,,,,,,,,,,,,,,,,,,,,,-2.4702462297909733e-11,-6.339373470609644e-11,2.692290834716005e-12,0.0,-1.801447879756779e-09,6.746124492362782e-12,-5.9179560594202485e-06,-5.9117719501955435e-06,-2.642330798607873e-11,-6.916689443414725e-11,2.921274333544943e-12,0.0,-1.0559331187209864e-09,8.740543289142976e-10,6.358680820994778e-06,6.3535303524986375e-06,,,,,,,,,,,,,,,,,,,,,,,,,,,,,,,,,,,,,,,,,,,,,,,,,,,,,,,,,,,,,,,,,,,,,,,,,,
94,3.1800668239593506,0.6107973456382751,1.5706218481063845,0.39000777810812,0.0,-3.141592675445488,5.36215874220175e-13,0.5000009536743164,0.5000009536743164,0.6107973456382751,1.5706218481063845,0.39000777810812,0.0,-3.141592675445488,-3.9351868985626475e-11,0.500001072883606,0.500001072883606,,,,,,,,,,,,,,,,,,,,,,,,,,,,,,,,,,,,,,,,,,,,,,,,,,,,,,,,,,,,,,,,,,,,,,,,,,,,,,,,,,,,,,,,,,,,,,,,,,,,,,,,,,,,,,,,,,,,,,,,,,,,,,,,,,,,,,-2.070565940925917e-11,-5.295763827461997e-11,2.2343238370581275e-12,0.0,-1.503241975342462e-09,4.178104043295328e-12,-4.94196228828514e-06,-4.937400717608398e-06,-2.192690473634684e-11,-5.750955267558311e-11,2.4702462297909733e-12,0.0,-9.721667915130183e-10,6.490295523242651e-10,5.310094820742961e-06,5.306272214511409e-06,,,,,,,,,,,,,,,,,,,,,,,,,,,,,,,,,,,,,,,,,,,,,,,,,,,,,,,,,,,,,,,,,,,,,,,,,,
95,3.2013823986053467,0.6107973456382751,1.5706218481063845,0.39000777810812,0.0,-3.141592675445488,5.36215874220175e-13,0.5000009536743164,0.5000009536743164,0.6107973456382751,1.5706218481063845,0.39000777810812,0.0,-3.141592675445488,-1.9438166354301956e-11,0.5000008940696716,0.5000008940696716,,,,,,,,,,,,,,,,,,,,,,,,,,,,,,,,,,,,,,,,,,,,,,,,,,,,,,,,,,,,,,,,,,,,,,,,,,,,,,,,,,,,,,,,,,,,,,,,,,,,,,,,,,,,,,,,,,,,,,,,,,,,,,,,,,,,,,-2.070565940925917e-11,-5.295763827461997e-11,2.2343238370581275e-12,0.0,-1.503241975342462e-09,4.178104043295328e-12,-4.94196228828514e-06,-4.937400717608398e-06,-1.84297022087776e-11,-4.7961634663806756e-11,2.033095913844818e-12,0.0,-8.873457524316564e-10,4.745198123323745e-10,4.434427410160424e-06,4.4316343519312795e-06,,,,,,,,,,,,,,,,,,,,,,,,,,,,,,,,,,,,,,,,,,,,,,,,,,,,,,,,,,,,,,,,,,,,,,,,,,
96,3.2229363918304443,0.6107973456382751,1.5706218481063845,0.39000777810812,0.0,-3.141592675445488,6.626339017420936e-13,0.5000008344650269,0.5000008344650269,0.6107973456382751,1.5706218481063845,0.39000777810812,0.0,-3.141592675445488,-1.8505773302646137e-11,0.5000008940696716,0.5000008940696716,,,,,,,,,,,,,,,,,,,,,,,,,,,,,,,,,,,,,,,,,,,,,,,,,,,,,,,,,,,,,,,,,,,,,,,,,,,,,,,,,,,,,,,,,,,,,,,,,,,,,,,,,,,,,,,,,,,,,,,,,,,,,,,,,,,,,,-1.7208456881689926e-11,-4.385380947269368e-11,1.880440247958859e-12,0.0,-1.2413403638333875e-09,2.5184142965484213e-12,-4.085813998244703e-06,-4.082568921148777e-06,-1.804112415015879e-11,-4.7628567756419216e-11,2.0122792321330962e-12,0.0,-8.830158826356183e-10,4.661969699171209e-10,4.390252797747962e-06,4.387508852232713e-06,,,,,,,,,,,,,,,,,,,,,,,,,,,,,,,,,,,,,,,,,,,,,,,,,,,,,,,,,,,,,,,,,,,,,,,,,,
97,3.245668888092041,0.6107973456382751,1.5706218481063845,0.39000777810812,0.0,-3.141592675445488,6.626339017420936e-13,0.5000008344650269,0.5000008344650269,0.6107973456382751,1.5706218481063845,0.39000777810812,0.0,-3.141592675445488,-4.35528392864204e-12,0.5000007152557373,0.5000007152557373,,,,,,,,,,,,,,,,,,,,,,,,,,,,,,,,,,,,,,,,,,,,,,,,,,,,,,,,,,,,,,,,,,,,,,,,,,,,,,,,,,,,,,,,,,,,,,,,,,,,,,,,,,,,,,,,,,,,,,,,,,,,,,,,,,,,,,-1.7208456881689926e-11,-4.385380947269368e-11,1.880440247958859e-12,0.0,-1.2413403638333875e-09,2.5184142965484213e-12,-4.085813998244703e-06,-4.082568921148777e-06,-1.5154544286133387e-11,-3.9523939676655566e-11,1.7139067942650854e-12,0.0,-7.999712003936564e-10,3.3351024719685535e-10,3.6662731872638687e-06,3.664312089313171e-06,,,,,,,,,,,,,,,,,,,,,,,,,,,,,,,,,,,,,,,,,,,,,,,,,,,,,,,,,,,,,,,,,,,,,,,,,,
98,3.26806902885437,0.6107973456382751,1.5706218481063845,0.39000777810812,0.0,-3.141592675445488,7.288896049228999e-13,0.5000006556510925,0.5000006556510925,0.6107973456382751,1.5706218481063845,0.39000777810812,0.0,-3.141592675445488,-4.35528392864204e-12,0.5000007152557373,0.5000007152557373,,,,,,,,,,,,,,,,,,,,,,,,,,,,,,,,,,,,,,,,,,,,,,,,,,,,,,,,,,,,,,,,,,,,,,,,,,,,,,,,,,,,,,,,,,,,,,,,,,,,,,,,,,,,,,,,,,,,,,,,,,,,,,,,,,,,,,-1.4210854715202004e-11,-3.6193270602780097e-11,1.5543122344752194e-12,0.0,-1.0256240301487194e-09,9.9204563834554e-13,-3.3779854220483685e-06,-3.3757364690245595e-06,-1.5154544286133387e-11,-3.9523939676655566e-11,1.7139067942650854e-12,0.0,-7.999712003936564e-10,3.3351024719685535e-10,3.6662731872638687e-06,3.664312089313171e-06,,,,,,,,,,,,,,,,,,,,,,,,,,,,,,,,,,,,,,,,,,,,,,,,,,,,,,,,,,,,,,,,,,,,,,,,,,
99,3.289970636367798,0.6107973456382751,1.5706218481063845,0.39000777810812,0.0,-3.141592675445488,7.288896049228999e-13,0.5000006556510925,0.5000006556510925,0.6107973456382751,1.5706218481063845,0.39000777810812,0.0,-3.141592675445488,5.631062890282257e-12,0.5000005960464478,0.5000005960464478,,,,,,,,,,,,,,,,,,,,,,,,,,,,,,,,,,,,,,,,,,,,,,,,,,,,,,,,,,,,,,,,,,,,,,,,,,,,,,,,,,,,,,,,,,,,,,,,,,,,,,,,,,,,,,,,,,,,,,,,,,,,,,,,,,,,,,-1.4210854715202004e-11,-3.6193270602780097e-11,1.5543122344752194e-12,0.0,-1.0256240301487194e-09,9.9204563834554e-13,-3.3779854220483685e-06,-3.3757364690245595e-06,-1.2712053631958042e-11,-3.319566843629218e-11,1.394717674685353e-12,0.0,-7.204792318304952e-10,2.315617697590255e-10,3.0616818094131304e-06,3.0603198410972254e-06,,,,,,,,,,,,,,,,,,,,,,,,,,,,,,,,,,,,,,,,,,,,,,,,,,,,,,,,,,,,,,,,,,,,,,,,,,
100,3.313352108001709,0.6107973456382751,1.5706218481063845,0.39000777810812,0.0,-3.141592675445488,7.524045405812864e-13,0.500000536441803,0.500000536441803,0.6107973456382751,1.5706218481063845,0.39000777810812,0.0,-3.141592675445488,1.244282975265687e-11,0.500000536441803,0.500000536441803,,,,,,,,,,,,,,,,,,,,,,,,,,,,,,,,,,,,,,,,,,,,,,,,,,,,,,,,,,,,,,,,,,,,,,,,,,,,,,,,,,,,,,,,,,,,,,,,,,,,,,,,,,,,,,,,,,,,,,,,,,,,,,,,,,,,,,-1.1712852909795402e-11,-3.0087043967341736e-11,1.2975731600306517e-12,0.0,-8.471001677889943e-10,2.590857758368037e-13,-2.792781970128999e-06,-2.791281531244749e-06,-1.0713652187632759e-11,-2.753353101070388e-11,1.1726730697603216e-12,0.0,-6.451505996096785e-10,1.545383265799671e-10,2.556791287133819e-06,2.5558847482898273e-06,,,,,,,,,,,,,,,,,,,,,,,,,,,,,,,,,,,,,,,,,,,,,,,,,,,,,,,,,,,,,,,,,,,,,,,,,,
101,3.3343148231506348,0.6107973456382751,1.5706218481063845,0.39000777810812,0.0,-3.141592675445488,7.475746367432978e-13,0.5000004768371582,0.5000004768371582,0.6107973456382751,1.5706218481063845,0.39000777810812,0.0,-3.141592675445488,1.244282975265687e-11,0.500000536441803,0.500000536441803,,,,,,,,,,,,,,,,,,,,,,,,,,,,,,,,,,,,,,,,,,,,,,,,,,,,,,,,,,,,,,,,,,,,,,,,,,,,,,,,,,,,,,,,,,,,,,,,,,,,,,,,,,,,,,,,,,,,,,,,,,,,,,,,,,,,,,-9.936496070395153e-12,-2.531308496145357e-11,1.0894063429134349e-12,0.0,-7.136513602290505e-10,-3.8549586157780874e-13,-2.3556629002996488e-06,-2.354668822590611e-06,-1.0713652187632759e-11,-2.753353101070388e-11,1.1726730697603216e-12,0.0,-6.451505996096785e-10,1.545383265799671e-10,2.556791287133819e-06,2.5558847482898273e-06,,,,,,,,,,,,,,,,,,,,,,,,,,,,,,,,,,,,,,,,,,,,,,,,,,,,,,,,,,,,,,,,,,,,,,,,,,
102,3.355933666229248,0.6107973456382751,1.5706218481063845,0.39000777810812,0.0,-3.141592675445488,7.475746367432978e-13,0.5000004768371582,0.5000004768371582,0.6107973456382751,1.5706218481063845,0.39000777810812,0.0,-3.141592675445488,1.6853884607370695e-11,0.5000004172325134,0.5000004172325134,,,,,,,,,,,,,,,,,,,,,,,,,,,,,,,,,,,,,,,,,,,,,,,,,,,,,,,,,,,,,,,,,,,,,,,,,,,,,,,,,,,,,,,,,,,,,,,,,,,,,,,,,,,,,,,,,,,,,,,,,,,,,,,,,,,,,,-9.936496070395153e-12,-2.531308496145357e-11,1.0894063429134349e-12,0.0,-7.136513602290505e-10,-3.8549586157780874e-13,-2.3556629002996488e-06,-2.354668822590611e-06,-8.93729534823251e-12,-2.3092638912203256e-11,9.783840404509192e-13,0.0,-5.752620602095249e-10,9.66262972412757e-11,2.135160912075662e-06,2.13459566111851e-06,,,,,,,,,,,,,,,,,,,,,,,,,,,,,,,,,,,,,,,,,,,,,,,,,,,,,,,,,,,,,,,,,,,,,,,,,,
103,3.3784842491149902,0.6107973456382751,1.5706218481063845,0.39000777810812,0.0,-3.141592675445488,7.227516653739163e-13,0.5000003576278687,0.5000003576278687,0.6107973456382751,1.5706218481063845,0.39000777810812,0.0,-3.141592675445488,1.6853884607370695e-11,0.5000004172325134,0.5000004172325134,,,,,,,,,,,,,,,,,,,,,,,,,,,,,,,,,,,,,,,,,,,,,,,,,,,,,,,,,,,,,,,,,,,,,,,,,,,,,,,,,,,,,,,,,,,,,,,,,,,,,,,,,,,,,,,,,,,,,,,,,,,,,,,,,,,,,,-8.271161533457416e-12,-2.0650148258027912e-11,9.298117831235686e-13,0.0,-5.894174037734955e-10,-9.236182782132452e-13,-1.9475667158985743e-06,-1.94699509847851e-06,-8.93729534823251e-12,-2.3092638912203256e-11,9.783840404509192e-13,0.0,-5.752620602095249e-10,9.66262972412757e-11,2.135160912075662e-06,2.13459566111851e-06,,,,,,,,,,,,,,,,,,,,,,,,,,,,,,,,,,,,,,,,,,,,,,,,,,,,,,,,,,,,,,,,,,,,,,,,,,
104,3.4005486965179443,0.6107973456382751,1.5706218481063845,0.39000777810812,0.0,-3.141592675445488,7.227516653739163e-13,0.5000003576278687,0.5000003576278687,0.6107973456382751,1.5706218481063845,0.39000777810812,0.0,-3.141592675445488,1.9472940621101387e-11,0.5000003576278687,0.5000003576278687,,,,,,,,,,,,,,,,,,,,,,,,,,,,,,,,,,,,,,,,,,,,,,,,,,,,,,,,,,,,,,,,,,,,,,,,,,,,,,,,,,,,,,,,,,,,,,,,,,,,,,,,,,,,,,,,,,,,,,,,,,,,,,,,,,,,,,-8.271161533457416e-12,-2.0650148258027912e-11,9.298117831235686e-13,0.0,-5.894174037734955e-10,-9.236182782132452e-13,-1.9475667158985743e-06,-1.94699509847851e-06,-7.327471962526033e-12,-1.9095836023552692e-11,8.118505867571457e-13,0.0,-5.10702591327572e-10,5.3567820318400905e-11,1.7830595879786415e-06,1.7827484271037974e-06,,,,,,,,,,,,,,,,,,,,,,,,,,,,,,,,,,,,,,,,,,,,,,,,,,,,,,,,,,,,,,,,,,,,,,,,,,
105,3.4226326942443848,0.6107973456382751,1.5706218481063845,0.39000777810812,0.0,-3.141592675445488,6.84041582058037e-13,0.5000002980232239,0.5000002980232239,0.6107973456382751,1.5706218481063845,0.39000777810812,0.0,-3.141592675445488,2.0769348046956185e-11,0.5000002980232239,0.5000002980232239,,,,,,,,,,,,,,,,,,,,,,,,,,,,,,,,,,,,,,,,,,,,,,,,,,,,,,,,,,,,,,,,,,,,,,,,,,,,,,,,,,,,,,,,,,,,,,,,,,,,,,,,,,,,,,,,,,,,,,,,,,,,,,,,,,,,,,-6.772360450213455e-12,-1.7208456881689926e-11,7.494005416219808e-13,0.0,-4.869993297518248e-10,-1.0025566531471353e-12,-1.6101693063319544e-06,-1.609903620192199e-06,-6.161737786669619e-12,-1.609823385706477e-11,6.800116025829084e-13,0.0,-4.5174974871997614e-10,2.194702926339165e-11,1.4890222246322082e-06,1.4888960322423372e-06,,,,,,,,,,,,,,,,,,,,,,,,,,,,,,,,,,,,,,,,,,,,,,,,,,,,,,,,,,,,,,,,,,,,,,,,,,
106,3.4445013999938965,0.6107973456382751,1.5706218481063845,0.39000777810812,0.0,-3.141592675445488,6.406110993235903e-13,0.5000002384185791,0.5000002384185791,0.6107973456382751,1.5706218481063845,0.39000777810812,0.0,-3.141592675445488,2.0769348046956185e-11,0.5000002980232239,0.5000002980232239,,,,,,,,,,,,,,,,,,,,,,,,,,,,,,,,,,,,,,,,,,,,,,,,,,,,,,,,,,,,,,,,,,,,,,,,,,,,,,,,,,,,,,,,,,,,,,,,,,,,,,,,,,,,,,,,,,,,,,,,,,,,,,,,,,,,,,-5.440092820663267e-12,-1.4543921622589549e-11,6.38378239159465e-13,0.0,-4.058975378029572e-10,-1.2831076262251329e-12,-1.344618681287102e-06,-1.3445612694340523e-06,-6.161737786669619e-12,-1.609823385706477e-11,6.800116025829084e-13,0.0,-4.5174974871997614e-10,2.194702926339165e-11,1.4890222246322082e-06,1.4888960322423372e-06,,,,,,,,,,,,,,,,,,,,,,,,,,,,,,,,,,,,,,,,,,,,,,,,,,,,,,,,,,,,,,,,,,,,,,,,,,
107,3.4666318893432617,0.6107973456382751,1.5706218481063845,0.39000777810812,0.0,-3.141592675445488,6.406110993235903e-13,0.5000002384185791,0.5000002384185791,0.6107973456382751,1.5706218481063845,0.39000777810812,0.0,-3.141592675445488,2.1105220002204383e-11,0.5000002384185791,0.5000002384185791,,,,,,,,,,,,,,,,,,,,,,,,,,,,,,,,,,,,,,,,,,,,,,,,,,,,,,,,,,,,,,,,,,,,,,,,,,,,,,,,,,,,,,,,,,,,,,,,,,,,,,,,,,,,,,,,,,,,,,,,,,,,,,,,,,,,,,-5.440092820663267e-12,-1.4543921622589549e-11,6.38378239159465e-13,0.0,-4.058975378029572e-10,-1.2831076262251329e-12,-1.344618681287102e-06,-1.3445612694340523e-06,-5.051514762044462e-12,-1.3100631690576847e-11,5.759281940243e-13,0.0,-3.958500194300995e-10,-1.5675237800480413e-12,1.231086230291112e-06,1.2310982810959104e-06,,,,,,,,,,,,,,,,,,,,,,,,,,,,,,,,,,,,,,,,,,,,,,,,,,,,,,,,,,,,,,,,,,,,,,,,,,
108,3.488111972808838,0.6107973456382751,1.5706218481063845,0.39000777810812,0.0,-3.141592675445488,5.919006062192478e-13,0.5000002384185791,0.5000002384185791,0.6107973456382751,1.5706218481063845,0.39000777810812,0.0,-3.141592675445488,2.1105220002204383e-11,0.5000002384185791,0.5000002384185791,,,,,,,,,,,,,,,,,,,,,,,,,,,,,,,,,,,,,,,,,,,,,,,,,,,,,,,,,,,,,,,,,,,,,,,,,,,,,,,,,,,,,,,,,,,,,,,,,,,,,,,,,,,,,,,,,,,,,,,,,,,,,,,,,,,,,,-4.6074255521944e-12,-1.176836406102666e-11,6.175615574477433e-13,0.0,-3.38673533661904e-10,-1.6234081136670686e-12,-1.1228632956772344e-06,-1.122952085097495e-06,-5.051514762044462e-12,-1.3100631690576847e-11,5.759281940243e-13,0.0,-3.958500194300995e-10,-1.5675237800480413e-12,1.231086230291112e-06,1.2310982810959104e-06,,,,,,,,,,,,,,,,,,,,,,,,,,,,,,,,,,,,,,,,,,,,,,,,,,,,,,,,,,,,,,,,,,,,,,,,,,
109,3.5101826190948486,0.6107973456382751,1.5706218481063845,0.39000777810812,0.0,-3.141592675445488,5.919006062192478e-13,0.5000002384185791,0.5000002384185791,0.6107973456382751,1.5706218481063845,0.39000777810812,0.0,-3.141592675445488,2.0701666075817468e-11,0.5000001788139343,0.5000001788139343,,,,,,,,,,,,,,,,,,,,,,,,,,,,,,,,,,,,,,,,,,,,,,,,,,,,,,,,,,,,,,,,,,,,,,,,,,,,,,,,,,,,,,,,,,,,,,,,,,,,,,,,,,,,,,,,,,,,,,,,,,,,,,,,,,,,,,-4.6074255521944e-12,-1.176836406102666e-11,6.175615574477433e-13,0.0,-3.38673533661904e-10,-1.6234081136670686e-12,-1.1228632956772344e-06,-1.122952085097495e-06,-3.9968028886505635e-12,-1.121325254871408e-11,4.579669976578771e-13,0.0,-3.45778961019505e-10,-1.753963294048866e-11,1.0178308684771764e-06,1.0179381888519856e-06,,,,,,,,,,,,,,,,,,,,,,,,,,,,,,,,,,,,,,,,,,,,,,,,,,,,,,,,,,,,,,,,,,,,,,,,,,
110,3.5324721336364746,0.6107973456382751,1.5706218481063845,0.39000777810812,0.0,-3.141592675445488,5.389485515858161e-13,0.5000001788139343,0.5000001788139343,0.6107973456382751,1.5706218481063845,0.39000777810812,0.0,-3.141592675445488,1.9861714703472977e-11,0.5000001788139343,0.5000001788139343,,,,,,,,,,,,,,,,,,,,,,,,,,,,,,,,,,,,,,,,,,,,,,,,,,,,,,,,,,,,,,,,,,,,,,,,,,,,,,,,,,,,,,,,,,,,,,,,,,,,,,,,,,,,,,,,,,,,,,,,,,,,,,,,,,,,,,-3.941291737419306e-12,-9.992007221626407e-12,4.3715031594615544e-13,0.0,-2.7988722450800196e-10,-1.7627820860996457e-12,-9.283376130042598e-07,-9.285305395678732e-07,-3.4416913763379853e-12,-9.103828801926284e-12,3.677613769070831e-13,0.0,-3.03146396873899e-10,-2.7534049693023196e-11,8.499845876031031e-07,8.501503998559201e-07,,,,,,,,,,,,,,,,,,,,,,,,,,,,,,,,,,,,,,,,,,,,,,,,,,,,,,,,,,,,,,,,,,,,,,,,,,
111,3.5549840927124023,0.6107973456382751,1.5706218481063845,0.39000777810812,0.0,-3.141592675445488,4.906477242723474e-13,0.5000001788139343,0.5000001788139343,0.6107973456382751,1.5706218481063845,0.39000777810812,0.0,-3.141592675445488,1.9805424661401002e-11,0.5000001788139343,0.5000001788139343,,,,,,,,,,,,,,,,,,,,,,,,,,,,,,,,,,,,,,,,,,,,,,,,,,,,,,,,,,,,,,,,,,,,,,,,,,,,,,,,,,,,,,,,,,,,,,,,,,,,,,,,,,,,,,,,,,,,,,,,,,,,,,,,,,,,,,-3.275157922644212e-12,-8.215650382226158e-12,3.816391647148976e-13,0.0,-2.3309132402005156e-10,-1.4326490297908445e-12,-7.752357760182349e-07,-7.754908892820822e-07,-3.4416913763379853e-12,-8.881784197001252e-12,4.024558464266193e-13,0.0,-3.0075941737095486e-10,-2.814481980806249e-11,8.415166803388274e-07,8.416857326665195e-07,,,,,,,,,,,,,,,,,,,,,,,,,,,,,,,,,,,,,,,,,,,,,,,,,,,,,,,,,,,,,,,,,,,,,,,,,,
112,3.575833320617676,0.6107973456382751,1.5706218481063845,0.39000777810812,0.0,-3.141592675445488,4.906477242723474e-13,0.5000001788139343,0.5000001788139343,0.6107973456382751,1.5706218481063845,0.39000777810812,0.0,-3.141592675445488,1.866685972462534e-11,0.5000001192092896,0.5000001192092896,,,,,,,,,,,,,,,,,,,,,,,,,,,,,,,,,,,,,,,,,,,,,,,,,,,,,,,,,,,,,,,,,,,,,,,,,,,,,,,,,,,,,,,,,,,,,,,,,,,,,,,,,,,,,,,,,,,,,,,,,,,,,,,,,,,,,,-3.275157922644212e-12,-8.215650382226158e-12,3.816391647148976e-13,0.0,-2.3309132402005156e-10,-1.4326490297908445e-12,-7.752357760182349e-07,-7.754908892820822e-07,-2.7755575615628914e-12,-7.438494264988549e-12,3.2612801348363973e-13,0.0,-2.6334490144108713e-10,-3.4235118212544435e-11,7.027456376818009e-07,7.029495918686735e-07,,,,,,,,,,,,,,,,,,,,,,,,,,,,,,,,,,,,,,,,,,,,,,,,,,,,,,,,,,,,,,,,,,,,,,,,,,
113,3.59867262840271,0.6107973456382751,1.5706218481063845,0.39000777810812,0.0,-3.141592675445488,4.434302046645716e-13,0.5000001192092896,0.5000001192092896,0.6107973456382751,1.5706218481063845,0.39000777810812,0.0,-3.141592675445488,1.866685972462534e-11,0.5000001192092896,0.5000001192092896,,,,,,,,,,,,,,,,,,,,,,,,,,,,,,,,,,,,,,,,,,,,,,,,,,,,,,,,,,,,,,,,,,,,,,,,,,,,,,,,,,,,,,,,,,,,,,,,,,,,,,,,,,,,,,,,,,,,,,,,,,,,,,,,,,,,,,-2.609024107869118e-12,-6.994405055138486e-12,3.1225022567582533e-13,0.0,-1.9462209621678992e-10,-1.1980178134252117e-12,-6.473829898823169e-07,-6.476749945250049e-07,-2.7755575615628914e-12,-7.438494264988549e-12,3.2612801348363973e-13,0.0,-2.6334490144108713e-10,-3.4235118212544435e-11,7.027456376818009e-07,7.029495918686735e-07,,,,,,,,,,,,,,,,,,,,,,,,,,,,,,,,,,,,,,,,,,,,,,,,,,,,,,,,,,,,,,,,,,,,,,,,,,
114,3.620774507522583,0.6107973456382751,1.5706218481063845,0.39000777810812,0.0,-3.141592675445488,4.006154674489338e-13,0.5000001192092896,0.5000001192092896,0.6107973456382751,1.5706218481063845,0.39000777810812,0.0,-3.141592675445488,1.7364307908218635e-11,0.5000001192092896,0.5000001192092896,,,,,,,,,,,,,,,,,,,,,,,,,,,,,,,,,,,,,,,,,,,,,,,,,,,,,,,,,,,,,,,,,,,,,,,,,,,,,,,,,,,,,,,,,,,,,,,,,,,,,,,,,,,,,,,,,,,,,,,,,,,,,,,,,,,,,,-2.3869795029440866e-12,-5.88418203051333e-12,2.498001805406602e-13,0.0,-1.6397994073713562e-10,-9.479832283748602e-13,-5.460567535919836e-07,-5.463655838866543e-07,-2.55351295663786e-12,-6.439293542825908e-12,2.5673907444456745e-13,0.0,-2.2964963264371363e-10,-3.750458971163439e-11,5.868587322765961e-07,5.870815016351116e-07,,,,,,,,,,,,,,,,,,,,,,,,,,,,,,,,,,,,,,,,,,,,,,,,,,,,,,,,,,,,,,,,,,,,,,,,,,
115,3.642420530319214,0.6107973456382751,1.5706218481063845,0.39000777810812,0.0,-3.141592675445488,3.9812139587640243e-13,0.5000001192092896,0.5000001192092896,0.6107973456382751,1.5706218481063845,0.39000777810812,0.0,-3.141592675445488,1.598454875406663e-11,0.5000001192092896,0.5000001192092896,,,,,,,,,,,,,,,,,,,,,,,,,,,,,,,,,,,,,,,,,,,,,,,,,,,,,,,,,,,,,,,,,,,,,,,,,,,,,,,,,,,,,,,,,,,,,,,,,,,,,,,,,,,,,,,,,,,,,,,,,,,,,,,,,,,,,,-2.0539125955565396e-12,-5.773159728050814e-12,2.6367796834847473e-13,0.0,-1.6259216195635418e-10,-1.2470310157761122e-12,-5.406163836596534e-07,-5.409257823885127e-07,-1.942890293094024e-12,-5.3290705182007506e-12,2.3592239273284576e-13,0.0,-2.005617893985345e-10,-3.8794058243585277e-11,4.900820727016253e-07,4.903126296085247e-07,,,,,,,,,,,,,,,,,,,,,,,,,,,,,,,,,,,,,,,,,,,,,,,,,,,,,,,,,,,,,,,,,,,,,,,,,,
116,3.663350343704224,0.6107973456382751,1.5706218481063845,0.39000777810812,0.0,-3.141592675445488,3.562191774192369e-13,0.5000001192092896,0.5000001192092896,0.6107973456382751,1.5706218481063845,0.39000777810812,0.0,-3.141592675445488,1.5906951103539235e-11,0.5000001192092896,0.5000001192092896,,,,,,,,,,,,,,,,,,,,,,,,,,,,,,,,,,,,,,,,,,,,,,,,,,,,,,,,,,,,,,,,,,,,,,,,,,,,,,,,,,,,,,,,,,,,,,,,,,,,,,,,,,,,,,,,,,,,,,,,,,,,,,,,,,,,,,-2.109423746787798e-12,-4.996003610813205e-12,1.3183898417423734e-13,0.0,-1.3539169785303784e-10,-1.152293104683677e-12,-4.514572538028006e-07,-4.517711715834594e-07,-1.9984014443252818e-12,-5.10702591327572e-12,2.220446049250313e-13,0.0,-1.9878543255913428e-10,-3.879946364193643e-11,4.85199564081995e-07,4.854304052059888e-07,,,,,,,,,,,,,,,,,,,,,,,,,,,,,,,,,,,,,,,,,,,,,,,,,,,,,,,,,,,,,,,,,,,,,,,,,,
117,3.684580087661743,0.6107973456382751,1.5706218481063845,0.39000777810812,0.0,-3.141592675445488,3.562191774192369e-13,0.5000001192092896,0.5000001192092896,0.6107973456382751,1.5706218481063845,0.39000777810812,0.0,-3.141592675445488,1.4432803042974118e-11,0.5000000596046448,0.5000000596046448,,,,,,,,,,,,,,,,,,,,,,,,,,,,,,,,,,,,,,,,,,,,,,,,,,,,,,,,,,,,,,,,,,,,,,,,,,,,,,,,,,,,,,,,,,,,,,,,,,,,,,,,,,,,,,,,,,,,,,,,,,,,,,,,,,,,,,-2.109423746787798e-12,-4.996003610813205e-12,1.3183898417423734e-13,0.0,-1.3539169785303784e-10,-1.152293104683677e-12,-4.514572538028006e-07,-4.517711715834594e-07,-1.609823385706477e-12,-4.440892098500626e-12,1.8041124150158794e-13,0.0,-1.7169599075828046e-10,-3.839711881781227e-11,4.011511691714986e-07,4.013798786672851e-07,,,,,,,,,,,,,,,,,,,,,,,,,,,,,,,,,,,,,,,,,,,,,,,,,,,,,,,,,,,,,,,,,,,,,,,,,,
