MHC-RobotSimulators-Research/Data_Analysis_MotionReplication/mai_plotter/offset_fixed/cube__a3.csv
,time,jpos0,jpos1,jpos2,jpos3,jpos4,jpos5,jpos6,jpos7,jpos8,jpos9,jpos10,jpos11,jpos12,jpos13,jpos14,jpos15,runlevel,sublevel,last_seq,type0,type1,pos0,pos1,pos2,pos3,pos4,pos5,ori0,ori1,ori2,ori3,ori4,ori5,ori6,ori7,ori8,ori9,ori10,ori11,ori12,ori13,ori14,ori15,ori16,ori17,ori_d0,ori_d1,ori_d2,ori_d3,ori_d4,ori_d5,ori_d6,ori_d7,ori_d8,ori_d9,ori_d10,ori_d11,ori_d12,ori_d13,ori_d14,ori_d15,ori_d16,ori_d17,pos_d0,pos_d1,pos_d2,pos_d3,pos_d4,pos_d5,encVals0,encVals1,encVals2,encVals3,encVals4,encVals5,encVals6,encVals7,encVals8,encVals9,encVals10,encVals11,encVals12,encVals13,encVals14,encVals15,dac_vals0,dac_vals1,dac_vals2,dac_vals3,dac_vals4,dac_vals5,dac_vals6,dac_vals7,dac_vals8,dac_vals9,dac_vals10,dac_vals11,dac_vals12,dac_vals13,dac_vals14,dac_vals15,Tau0,Tau1,Tau2,Tau3,Tau4,Tau5,Tau6,Tau7,Tau8,Tau9,Tau10,Tau11,Tau12,Tau13,Tau14,Tau15,mpos0,mpos1,mpos2,mpos3,mpos4,mpos5,mpos6,mpos7,mpos8,mpos9,mpos10,mpos11,mpos12,mpos13,mpos14,mpos15,mvel0,mvel1,mvel2,mvel3,mvel4,mvel5,mvel6,mvel7,mvel8,mvel9,mvel10,mvel11,mvel12,mvel13,mvel14,mvel15,jvel0,jvel1,jvel2,jvel3,jvel4,jvel5,jvel6,jvel7,jvel8,jvel9,jvel10,jvel11,jvel12,jvel13,jvel14,jvel15,mpos_d0,mpos_d1,mpos_d2,mpos_d3,mpos_d4,mpos_d5,mpos_d6,mpos_d7,mpos_d8,mpos_d9,mpos_d10,mpos_d11,mpos_d12,mpos_d13,mpos_d14,mpos_d15,jpos_d0,jpos_d1,jpos_d2,jpos_d3,jpos_d4,jpos_d5,jpos_d6,jpos_d7,jpos_d8,jpos_d9,jpos_d10,jpos_d11,jpos_d12,jpos_d13,jpos_d14,jpos_d15,grasp_d0,grasp_d1,encoffsets0,encoffsets1,encoffsets2,encoffsets3,encoffsets4,encoffsets5,encoffsets6,encoffsets7,encoffsets8,encoffsets9,encoffsets10,encoffsets11,encoffsets12,encoffsets13,encoffsets14,encoffsets15,jac_vel0,jac_vel1,jac_vel2,jac_vel3,jac_vel4,jac_vel5,jac_vel6,jac_vel7,jac_vel8,jac_vel9,jac_vel10,jac_vel11,jac_f0,jac_f1,jac_f2,jac_f3,jac_f4,jac_f5,jac_f6,jac_f7,jac_f8,jac_f9,jac_f10,jac_f11
0,0.0,0.6109501123428345,1.570692777633667,0.3899884214997292,0.0,-2.1855695031547384e-08,1.4935229033122646e-15,0.7852340340614319,0.7852340340614319,0.6109878420829773,1.5709707736968994,0.38998244613409044,0.0,-2.1855695031547384e-08,2.834654838534587e-15,0.7852340340614319,0.7852340340614319,,,,,,,,,,,,,,,,,,,,,,,,,,,,,,,,,,,,,,,,,,,,,,,,,,,,,,,,,,,,,,,,,,,,,,,,,,,,,,,,,,,,,,,,,,,,,,,,,,,,,,,,,,,,,,,,,,,,,,,,,,,,,,,,,,,,,,0.0,0.0,0.0,0.0,0.0,0.0,0.0,0.0,0.0,0.0,0.0,0.0,0.0,0.0,0.0,1.1102230246251565e-13,,,,,,,,,,,,,,,,,,,,,,,,,,,,,,,,,,,,,,,,,,,,,,,,,,,,,,,,,,,,,,,,,,,,,,,,,,
1,1.0982975959777832,0.6159415245056152,1.5646165609359741,0.3893070435523987,0.0,5.104143755652046e-06,-1.4667468349216506e-05,0.5338204503059387,0.5334979891777039,0.6188643574714661,1.5822051763534546,0.3888678839802742,0.0,-5.3248803479455376e-05,-6.9788407017767895e-06,0.531215488910675,0.5311217904090881,,,,,,,,,,,,,,,,,,,,,,,,,,,,,,,,,,,,,,,,,,,,,,,,,,,,,,,,,,,,,,,,,,,,,,,,,,,,,,,,,,,,,,,,,,,,,,,,,,,,,,,,,,,,,,,,,,,,,,,,,,,,,,,,,,,,,,6.0361788200680166e-05,-6.101878170738928e-05,-1.5217920008581132e-05,0.0,0.006392970215529203,0.0007318349671550095,-0.21311131119728088,-0.1825733780860901,0.00012856192188337445,0.00010928048868663609,-2.0437231796677224e-05,0.0,0.006890175864100456,0.0032428004778921604,0.15103992819786072,0.12709370255470276,,,,,,,,,,,,,,,,,,,,,,,,,,,,,,,,,,,,,,,,,,,,,,,,,,,,,,,,,,,,,,,,,,,,,,,,,,
2,1.1192939281463623,0.6159435510635376,1.564614176750183,0.38930670082569124,0.0,-4.909436566613579e-06,-1.1074494977947325e-05,0.524813711643219,0.5245211720466614,0.6188643574714661,1.5822051763534546,0.3888678839802742,0.0,-5.3248803479455376e-05,-6.9788407017767895e-06,0.531215488910675,0.5311217904090881,,,,,,,,,,,,,,,,,,,,,,,,,,,,,,,,,,,,,,,,,,,,,,,,,,,,,,,,,,,,,,,,,,,,,,,,,,,,,,,,,,,,,,,,,,,,,,,,,,,,,,,,,,,,,,,,,,,,,,,,,,,,,,,,,,,,,,5.284164581098594e-05,-6.007722549838945e-05,-1.0079047569888644e-05,0.0,-0.004140961915254593,0.0003127706004306674,-0.16766995191574097,-0.13003234565258026,0.00012856192188337445,0.00010928048868663609,-2.0437231796677224e-05,0.0,0.006890175864100456,0.0032428004778921604,0.15103992819786072,0.12709370255470276,,,,,,,,,,,,,,,,,,,,,,,,,,,,,,,,,,,,,,,,,,,,,,,,,,,,,,,,,,,,,,,,,,,,,,,,,,
3,1.1402037143707275,0.6159435510635376,1.564614176750183,0.38930670082569124,0.0,-4.909436566613579e-06,-1.1074494977947325e-05,0.524813711643219,0.5245211720466614,0.618868887424469,1.582209587097168,0.3888671612739563,0.0,-3.447334037520733e-05,2.310758873136365e-06,0.5231327414512634,0.5231091380119324,,,,,,,,,,,,,,,,,,,,,,,,,,,,,,,,,,,,,,,,,,,,,,,,,,,,,,,,,,,,,,,,,,,,,,,,,,,,,,,,,,,,,,,,,,,,,,,,,,,,,,,,,,,,,,,,,,,,,,,,,,,,,,,,,,,,,,5.284164581098594e-05,-6.007722549838945e-05,-1.0079047569888644e-05,0.0,-0.004140961915254593,0.0003127706004306674,-0.16766995191574097,-0.13003234565258026,0.00010794368427013978,0.00010690216004149988,-1.7578739061718807e-05,0.0,0.0008864051778800786,0.0005313546862453222,0.11696629971265793,0.11443568766117096,,,,,,,,,,,,,,,,,,,,,,,,,,,,,,,,,,,,,,,,,,,,,,,,,,,,,,,,,,,,,,,,,,,,,,,,,,
4,1.162052869796753,0.6159452199935913,1.5646120309829712,0.38930641770362856,0.0,3.077585833288765e-06,-8.306607014674228e-06,0.5206687450408936,0.5205606818199158,0.6188724040985107,1.582213044166565,0.38886658757925036,0.0,-2.7559201581262016e-05,2.256735342598404e-06,0.5193170309066772,0.5193021893501282,,,,,,,,,,,,,,,,,,,,,,,,,,,,,,,,,,,,,,,,,,,,,,,,,,,,,,,,,,,,,,,,,,,,,,,,,,,,,,,,,,,,,,,,,,,,,,,,,,,,,,,,,,,,,,,,,,,,,,,,,,,,,,,,,,,,,,4.258793705957942e-05,-5.174737816560082e-05,-7.303141501324717e-06,0.0,-1.627957317396067e-05,3.970664693042636e-05,-0.10397636145353317,-0.10343270003795624,8.993333904072642e-05,8.846274431562051e-05,-1.4570481653208844e-05,0.0,0.00011483108391985297,-1.2624029295693617e-05,0.09717988967895508,0.09706784039735794,,,,,,,,,,,,,,,,,,,,,,,,,,,,,,,,,,,,,,,,,,,,,,,,,,,,,,,,,,,,,,,,,,,,,,,,,,
5,1.1832311153411865,0.6159452199935913,1.5646120309829712,0.38930641770362856,0.0,3.077585833288765e-06,-8.306607014674228e-06,0.5206687450408936,0.5205606818199158,0.6188725829124451,1.582213282585144,0.38886655777692797,0.0,-2.7320783002160454e-05,2.235397687400109e-06,0.5191246271133423,0.5191100239753723,,,,,,,,,,,,,,,,,,,,,,,,,,,,,,,,,,,,,,,,,,,,,,,,,,,,,,,,,,,,,,,,,,,,,,,,,,,,,,,,,,,,,,,,,,,,,,,,,,,,,,,,,,,,,,,,,,,,,,,,,,,,,,,,,,,,,,4.258793705957942e-05,-5.174737816560082e-05,-7.303141501324717e-06,0.0,-1.627957317396067e-05,3.970664693042636e-05,-0.10397636145353317,-0.10343270003795624,8.90394439920783e-05,8.758442709222436e-05,-1.442529264750192e-05,0.0,0.0001198835889226757,-1.0668853064998984e-05,0.09621262550354004,0.09609904885292053,,,,,,,,,,,,,,,,,,,,,,,,,,,,,,,,,,,,,,,,,,,,,,,,,,,,,,,,,,,,,,,,,,,,,,,,,,
6,1.2048821449279785,0.6159466505050659,1.564610242843628,0.38930616438388826,0.0,2.6603533198610307e-06,-6.8869180722686e-06,0.5170881748199463,0.5170006155967712,0.6188755035400391,1.5822161436080933,0.38886608839035036,0.0,-2.2671620709679985e-05,2.078334318866837e-06,0.5159708261489868,0.5159600377082825,,,,,,,,,,,,,,,,,,,,,,,,,,,,,,,,,,,,,,,,,,,,,,,,,,,,,,,,,,,,,,,,,,,,,,,,,,,,,,,,,,,,,,,,,,,,,,,,,,,,,,,,,,,,,,,,,,,,,,,,,,,,,,,,,,,,,,3.523025952745229e-05,-4.281685687601566e-05,-6.043870598659851e-06,0.0,-1.399296525050886e-05,3.473924516583793e-05,-0.08597900718450546,-0.08548057824373245,7.436935266014189e-05,7.315753464354202e-05,-1.2043456081300974e-05,0.0,0.0001223342987941578,-3.4411000342515763e-06,0.08034960180521011,0.080254927277565,,,,,,,,,,,,,,,,,,,,,,,,,,,,,,,,,,,,,,,,,,,,,,,,,,,,,,,,,,,,,,,,,,,,,,,,,,
7,1.2260470390319824,0.6159479022026062,1.5646088123321533,0.38930595576763155,0.0,2.1835161616579057e-06,-5.691330443369225e-06,0.5141278505325317,0.5140572190284729,0.6188755035400391,1.5822161436080933,0.38886608839035036,0.0,-2.2671620709679985e-05,2.078334318866837e-06,0.5159708261489868,0.5159600377082825,,,,,,,,,,,,,,,,,,,,,,,,,,,,,,,,,,,,,,,,,,,,,,,,,,,,,,,,,,,,,,,,,,,,,,,,,,,,,,,,,,,,,,,,,,,,,,,,,,,,,,,,,,,,,,,,,,,,,,,,,,,,,,,,,,,,,,2.9131520932423882e-05,-3.5406006645644084e-05,-4.9954910537053365e-06,0.0,-1.1055659342673607e-05,2.869545824069064e-05,-0.07108411937952042,-0.07068055123090744,7.436935266014189e-05,7.315753464354202e-05,-1.2043456081300974e-05,0.0,0.0001223342987941578,-3.4411000342515763e-06,0.08034960180521011,0.080254927277565,,,,,,,,,,,,,,,,,,,,,,,,,,,,,,,,,,,,,,,,,,,,,,,,,,,,,,,,,,,,,,,,,,,,,,,,,,
8,1.2472491264343262,0.6159479022026062,1.5646088123321533,0.38930595576763155,0.0,2.1835161616579057e-06,-5.691330443369225e-06,0.5141278505325317,0.5140572190284729,0.6188780665397644,1.5822186470031738,0.38886567115783693,0.0,-1.849929557540264e-05,1.932551867867005e-06,0.5132042765617371,0.5131966471672058,,,,,,,,,,,,,,,,,,,,,,,,,,,,,,,,,,,,,,,,,,,,,,,,,,,,,,,,,,,,,,,,,,,,,,,,,,,,,,,,,,,,,,,,,,,,,,,,,,,,,,,,,,,,,,,,,,,,,,,,,,,,,,,,,,,,,,2.9131520932423882e-05,-3.5406006645644084e-05,-4.9954910537053365e-06,0.0,-1.1055659342673607e-05,2.869545824069064e-05,-0.07108411937952042,-0.07068055123090744,6.149383989395574e-05,6.04936940362677e-05,-9.954610504792072e-06,0.0,9.922988101607189e-05,-4.046678441227414e-06,0.06643103808164597,0.06635888665914536,,,,,,,,,,,,,,,,,,,,,,,,,,,,,,,,,,,,,,,,,,,,,,,,,,,,,,,,,,,,,,,,,,,,,,,,,,
9,1.268678903579712,0.6159488558769226,1.5646076202392578,0.3893057918548584,0.0,1.825888293005562e-06,-4.7509743126283865e-06,0.5117978453636169,0.5117403268814087,0.6188780665397644,1.5822186470031738,0.38886567115783693,0.0,-1.849929557540264e-05,1.932551867867005e-06,0.5132042765617371,0.5131966471672058,,,,,,,,,,,,,,,,,,,,,,,,,,,,,,,,,,,,,,,,,,,,,,,,,,,,,,,,,,,,,,,,,,,,,,,,,,,,,,,,,,,,,,,,,,,,,,,,,,,,,,,,,,,,,,,,,,,,,,,,,,,,,,,,,,,,,,2.4330751330126077e-05,-2.957202923425939e-05,-4.170593456365168e-06,0.0,-9.26269876799779e-06,2.3952323317644186e-05,-0.05936089903116226,-0.05903109908103943,6.149383989395574e-05,6.04936940362677e-05,-9.954610504792072e-06,0.0,9.922988101607189e-05,-4.046678441227414e-06,0.06643103808164597,0.06635888665914536,,,,,,,,,,,,,,,,,,,,,,,,,,,,,,,,,,,,,,,,,,,,,,,,,,,,,,,,,,,,,,,,,,,,,,,,,,
10,1.2899079322814941,0.6159488558769226,1.5646076202392578,0.3893057918548584,0.0,1.825888293005562e-06,-4.7509743126283865e-06,0.5117978453636169,0.5117403268814087,0.6188801527023315,1.5822207927703857,0.3888653284311295,0.0,-1.5101830823205376e-05,1.7747510128174326e-06,0.5109169483184814,0.5109117031097412,,,,,,,,,,,,,,,,,,,,,,,,,,,,,,,,,,,,,,,,,,,,,,,,,,,,,,,,,,,,,,,,,,,,,,,,,,,,,,,,,,,,,,,,,,,,,,,,,,,,,,,,,,,,,,,,,,,,,,,,,,,,,,,,,,,,,,2.4330751330126077e-05,-2.957202923425939e-05,-4.170593456365168e-06,0.0,-9.26269876799779e-06,2.3952323317644186e-05,-0.05936089903116226,-0.05903109908103943,5.084744043415412e-05,5.0021870265481994e-05,-8.228065780713223e-06,0.0,8.107127359835431e-05,-4.217058631184045e-06,0.05492349714040756,0.05486910045146942,,,,,,,,,,,,,,,,,,,,,,,,,,,,,,,,,,,,,,,,,,,,,,,,,,,,,,,,,,,,,,,,,,,,,,,,,,
11,1.312528133392334,0.6159496307373047,1.5646066665649414,0.3893056577444077,0.0,1.5278650691286089e-06,-3.9660549191467e-06,0.5098521709442139,0.5098053216934204,0.6188819408416748,1.5822224617004395,0.3888650453090668,0.0,-1.2300412518762016e-05,1.6140892284965958e-06,0.5090258717536926,0.5090223550796509,,,,,,,,,,,,,,,,,,,,,,,,,,,,,,,,,,,,,,,,,,,,,,,,,,,,,,,,,,,,,,,,,,,,,,,,,,,,,,,,,,,,,,,,,,,,,,,,,,,,,,,,,,,,,,,,,,,,,,,,,,,,,,,,,,,,,,2.03211293410277e-05,-2.469936771376524e-05,-3.48191292687261e-06,0.0,-7.744640242890455e-06,1.9993161913589574e-05,-0.049571067094802856,-0.049301695078611374,4.204424112685956e-05,4.136277493671514e-05,-6.800979008403374e-06,0.0,6.621350621571764e-05,-4.214442924421746e-06,0.04540935531258583,0.04536872357130051,,,,,,,,,,,,,,,,,,,,,,,,,,,,,,,,,,,,,,,,,,,,,,,,,,,,,,,,,,,,,,,,,,,,,,,,,,
12,1.3336961269378662,0.6159502863883972,1.5646058320999146,0.3893055385351181,0.0,1.2894464900270464e-06,-3.310866986794281e-06,0.5082273483276367,0.5081892013549805,0.6188819408416748,1.5822224617004395,0.3888650453090668,0.0,-1.2300412518762016e-05,1.6140892284965958e-06,0.5090258717536926,0.5090223550796509,,,,,,,,,,,,,,,,,,,,,,,,,,,,,,,,,,,,,,,,,,,,,,,,,,,,,,,,,,,,,,,,,,,,,,,,,,,,,,,,,,,,,,,,,,,,,,,,,,,,,,,,,,,,,,,,,,,,,,,,,,,,,,,,,,,,,,1.6972277080640197e-05,-2.062959538307041e-05,-2.9069547053950373e-06,0.0,-6.472399491030956e-06,1.6688951291143894e-05,-0.041395775973796844,-0.04117587208747864,4.204424112685956e-05,4.136277493671514e-05,-6.800979008403374e-06,0.0,6.621350621571764e-05,-4.214442924421746e-06,0.04540935531258583,0.04536872357130051,,,,,,,,,,,,,,,,,,,,,,,,,,,,,,,,,,,,,,,,,,,,,,,,,,,,,,,,,,,,,,,,,,,,,,,,,,
13,1.3555457592010498,0.6159502863883972,1.5646058320999146,0.3893055385351181,0.0,1.2894464900270464e-06,-3.310866986794281e-06,0.5082273483276367,0.5081892013549805,0.6188833713531494,1.582223892211914,0.3888648143410683,0.0,-1.0035436017297172e-05,1.4561315992978052e-06,0.5074623823165894,0.5074601769447327,,,,,,,,,,,,,,,,,,,,,,,,,,,,,,,,,,,,,,,,,,,,,,,,,,,,,,,,,,,,,,,,,,,,,,,,,,,,,,,,,,,,,,,,,,,,,,,,,,,,,,,,,,,,,,,,,,,,,,,,,,,,,,,,,,,,,,1.6972277080640197e-05,-2.062959538307041e-05,-2.9069547053950373e-06,0.0,-6.472399491030956e-06,1.6688951291143894e-05,-0.041395775973796844,-0.04117587208747864,3.4765136661008e-05,3.4202614187961444e-05,-5.621410764433676e-06,0.0,5.407118078437634e-05,-4.089150479558157e-06,0.03754330053925514,0.03751330077648163,,,,,,,,,,,,,,,,,,,,,,,,,,,,,,,,,,,,,,,,,,,,,,,,,,,,,,,,,,,,,,,,,,,,,,,,,,
14,1.3773682117462158,0.615950882434845,1.5646052360534668,0.38930544912815096,0.0,1.0510279109254839e-06,-2.7639521249511745e-06,0.506870448589325,0.5068395137786865,0.6188833713531494,1.582223892211914,0.3888648143410683,0.0,-1.0035436017297172e-05,1.4561315992978052e-06,0.5074623823165894,0.5074601769447327,,,,,,,,,,,,,,,,,,,,,,,,,,,,,,,,,,,,,,,,,,,,,,,,,,,,,,,,,,,,,,,,,,,,,,,,,,,,,,,,,,,,,,,,,,,,,,,,,,,,,,,,,,,,,,,,,,,,,,,,,,,,,,,,,,,,,,1.4175305295793805e-05,-1.7230417142855003e-05,-2.426938863209216e-06,0.0,-5.4069973884907085e-06,1.3931190551375039e-05,-0.03456875681877136,-0.03438933566212654,3.4765136661008e-05,3.4202614187961444e-05,-5.621410764433676e-06,0.0,5.407118078437634e-05,-4.089150479558157e-06,0.03754330053925514,0.03751330077648163,,,,,,,,,,,,,,,,,,,,,,,,,,,,,,,,,,,,,,,,,,,,,,,,,,,,,,,,,,,,,,,,,,,,,,,,,,
15,1.3988137245178223,0.615950882434845,1.5646052360534668,0.38930544912815096,0.0,1.0510279109254839e-06,-2.7639521249511745e-06,0.506870448589325,0.5068395137786865,0.6188845634460449,1.5822250843048096,0.38886462062597277,0.0,-8.187692029260063e-06,1.304668330703862e-06,0.5061696767807007,0.5061684846878052,,,,,,,,,,,,,,,,,,,,,,,,,,,,,,,,,,,,,,,,,,,,,,,,,,,,,,,,,,,,,,,,,,,,,,,,,,,,,,,,,,,,,,,,,,,,,,,,,,,,,,,,,,,,,,,,,,,,,,,,,,,,,,,,,,,,,,1.4175305295793805e-05,-1.7230417142855003e-05,-2.426938863209216e-06,0.0,-5.4069973884907085e-06,1.3931190551375039e-05,-0.03456875681877136,-0.03438933566212654,2.8746260795742273e-05,2.82819164567627e-05,-4.646429260901641e-06,0.0,4.414897921378724e-05,-3.882869350491092e-06,0.031039845198392868,0.03101801685988903,,,,,,,,,,,,,,,,,,,,,,,,,,,,,,,,,,,,,,,,,,,,,,,,,,,,,,,,,,,,,,,,,,,,,,,,,,
16,1.4211602210998535,0.6159513592720032,1.564604640007019,0.3893053597211838,0.0,8.72213976599312e-07,-2.2843801161798183e-06,0.5056802034378052,0.5056553483009338,0.6188845634460449,1.5822250843048096,0.38886462062597277,0.0,-8.187692029260063e-06,1.304668330703862e-06,0.5061696767807007,0.5061684846878052,,,,,,,,,,,,,,,,,,,,,,,,,,,,,,,,,,,,,,,,,,,,,,,,,,,,,,,,,,,,,,,,,,,,,,,,,,,,,,,,,,,,,,,,,,,,,,,,,,,,,,,,,,,,,,,,,,,,,,,,,,,,,,,,,,,,,,1.172140946437139e-05,-1.4248094885260798e-05,-2.0059737835254055e-06,0.0,-4.470454314287053e-06,1.1513307981658727e-05,-0.02858005277812481,-0.028435394167900085,2.8746260795742273e-05,2.82819164567627e-05,-4.646429260901641e-06,0.0,4.414897921378724e-05,-3.882869350491092e-06,0.031039845198392868,0.03101801685988903,,,,,,,,,,,,,,,,,,,,,,,,,,,,,,,,,,,,,,,,,,,,,,,,,,,,,,,,,,,,,,,,,,,,,,,,,,
17,1.4423294067382812,0.6159517168998718,1.5646041631698608,0.389305300116539,0.0,6.934000422731401e-07,-1.9070682810706785e-06,0.5047434568405151,0.5047232508659363,0.6188855767250061,1.582226037979126,0.38886445671319964,0.0,-6.697575909875297e-06,1.1621245903370436e-06,0.5051009654998779,0.505100429058075,,,,,,,,,,,,,,,,,,,,,,,,,,,,,,,,,,,,,,,,,,,,,,,,,,,,,,,,,,,,,,,,,,,,,,,,,,,,,,,,,,,,,,,,,,,,,,,,,,,,,,,,,,,,,,,,,,,,,,,,,,,,,,,,,,,,,,9.789761861611623e-06,-1.1900415302079637e-05,-1.6747354720791918e-06,0.0,-3.732264303835109e-06,9.611199857317843e-06,-0.02386660873889923,-0.023748721927404404,2.376942939008586e-05,2.3386126486002468e-05,-3.840550107270246e-06,0.0,3.604199446272105e-05,-3.6267604173190193e-06,0.02566295489668846,0.025647364556789398,,,,,,,,,,,,,,,,,,,,,,,,,,,,,,,,,,,,,,,,,,,,,,,,,,,,,,,,,,,,,,,,,,,,,,,,,,
18,1.4629380702972412,0.6159517168998718,1.5646041631698608,0.389305300116539,0.0,6.934000422731401e-07,-1.9070682810706785e-06,0.5047434568405151,0.5047232508659363,0.6188863515853882,1.5822267532348633,0.3888643300533295,0.0,-5.505483014367485e-06,1.0365987463956117e-06,0.5042597651481628,0.5042597055435181,,,,,,,,,,,,,,,,,,,,,,,,,,,,,,,,,,,,,,,,,,,,,,,,,,,,,,,,,,,,,,,,,,,,,,,,,,,,,,,,,,,,,,,,,,,,,,,,,,,,,,,,,,,,,,,,,,,,,,,,,,,,,,,,,,,,,,9.789761861611623e-06,-1.1900415302079637e-05,-1.6747354720791918e-06,0.0,-3.732264303835109e-06,9.611199857317843e-06,-0.02386660873889923,-0.023748721927404404,1.9851875549647957e-05,1.9532257283572108e-05,-3.20642948281602e-06,0.0,2.97352162306197e-05,-3.359096353960922e-06,0.0214309673756361,0.021419895812869072,,,,,,,,,,,,,,,,,,,,,,,,,,,,,,,,,,,,,,,,,,,,,,,,,,,,,,,,,,,,,,,,,,,,,,,,,,
19,1.484189748764038,0.6159520745277405,1.5646036863327026,0.38930524051189425,0.0,5.741907527223589e-07,-1.5762026350785163e-06,0.5039216876029968,0.5039054751396179,0.6188863515853882,1.5822268724441528,0.3888643300533295,0.0,-5.445878369592094e-06,1.0299111181666376e-06,0.5042173266410828,0.5042173266410828,,,,,,,,,,,,,,,,,,,,,,,,,,,,,,,,,,,,,,,,,,,,,,,,,,,,,,,,,,,,,,,,,,,,,,,,,,,,,,,,,,,,,,,,,,,,,,,,,,,,,,,,,,,,,,,,,,,,,,,,,,,,,,,,,,,,,,8.095050361589529e-06,-9.840640814218204e-06,-1.3842450243828353e-06,0.0,-3.0841242733004037e-06,7.943383934616577e-06,-0.019731946289539337,-0.019637025892734528,1.9654235074995086e-05,1.9337827325216495e-05,-3.1744441457703942e-06,0.0,2.941902494058013e-05,-3.3438295758969616e-06,0.021217476576566696,0.021206622943282127,,,,,,,,,,,,,,,,,,,,,,,,,,,,,,,,,,,,,,,,,,,,,,,,,,,,,,,,,,,,,,,,,,,,,,,,,,
20,1.5059242248535156,0.6159520745277405,1.5646036863327026,0.38930524051189425,0.0,5.741907527223589e-07,-1.5762026350785163e-06,0.5039216876029968,0.5039054751396179,0.6188870668411255,1.5822274684906006,0.38886421829462053,0.0,-4.492204053185844e-06,9.086962791116093e-07,0.5034867525100708,0.5034871101379395,,,,,,,,,,,,,,,,,,,,,,,,,,,,,,,,,,,,,,,,,,,,,,,,,,,,,,,,,,,,,,,,,,,,,,,,,,,,,,,,,,,,,,,,,,,,,,,,,,,,,,,,,,,,,,,,,,,,,,,,,,,,,,,,,,,,,,8.095050361589529e-06,-9.840640814218204e-06,-1.3842450243828353e-06,0.0,-3.0841242733004037e-06,7.943383934616577e-06,-0.019731946289539337,-0.019637025892734528,1.625150252948515e-05,1.599031384103e-05,-2.623868113005301e-06,0.0,2.400915400357917e-05,-3.0507490009767935e-06,0.017542069777846336,0.017534775659441948,,,,,,,,,,,,,,,,,,,,,,,,,,,,,,,,,,,,,,,,,,,,,,,,,,,,,,,,,,,,,,,,,,,,,,,,,,
21,1.5274324417114258,0.6159523725509644,1.5646034479141235,0.38930518835783007,0.0,4.549814631715776e-07,-1.3027495242567966e-06,0.5032423138618469,0.5032293200492859,0.6188870668411255,1.5822274684906006,0.38886421829462053,0.0,-4.492204053185844e-06,9.086962791116093e-07,0.5034867525100708,0.5034871101379395,,,,,,,,,,,,,,,,,,,,,,,,,,,,,,,,,,,,,,,,,,,,,,,,,,,,,,,,,,,,,,,,,,,,,,,,,,,,,,,,,,,,,,,,,,,,,,,,,,,,,,,,,,,,,,,,,,,,,,,,,,,,,,,,,,,,,,6.693711384286871e-06,-8.137381882988848e-06,-1.1441418337199138e-06,0.0,-2.5480044314463157e-06,6.565075636899564e-06,-0.016313573345541954,-0.016237201169133186,1.625150252948515e-05,1.599031384103e-05,-2.623868113005301e-06,0.0,2.400915400357917e-05,-3.0507490009767935e-06,0.017542069777846336,0.017534775659441948,,,,,,,,,,,,,,,,,,,,,,,,,,,,,,,,,,,,,,,,,,,,,,,,,,,,,,,,,,,,,,,,,,,,,,,,,,
22,1.5484588146209717,0.6159523725509644,1.5646034479141235,0.38930518835783007,0.0,4.549814631715776e-07,-1.3027495242567966e-06,0.5032423138618469,0.5032293200492859,0.6188876032829285,1.5822280645370483,0.38886412888765337,0.0,-3.6577390263303755e-06,8.041349133236508e-07,0.5029118061065674,0.5029123425483704,,,,,,,,,,,,,,,,,,,,,,,,,,,,,,,,,,,,,,,,,,,,,,,,,,,,,,,,,,,,,,,,,,,,,,,,,,,,,,,,,,,,,,,,,,,,,,,,,,,,,,,,,,,,,,,,,,,,,,,,,,,,,,,,,,,,,,6.693711384286871e-06,-8.137381882988848e-06,-1.1441418337199138e-06,0.0,-2.5480044314463157e-06,6.565075636899564e-06,-0.016313573345541954,-0.016237201169133186,1.3573014257417526e-05,1.3355220289668068e-05,-2.1906369056523545e-06,0.0,1.9801720554823987e-05,-2.7744704311771784e-06,0.014649268239736557,0.014644509181380272,,,,,,,,,,,,,,,,,,,,,,,,,,,,,,,,,,,,,,,,,,,,,,,,,,,,,,,,,,,,,,,,,,,,,,,,,,
23,1.569523572921753,0.6159526109695435,1.5646030902862549,0.3893051511049271,0.0,3.95376818396187e-07,-1.0767436151581933e-06,0.5026805996894836,0.5026702284812927,0.6188876032829285,1.5822280645370483,0.38886412888765337,0.0,-3.6577390263303755e-06,8.041349133236508e-07,0.5029118061065674,0.5029123425483704,,,,,,,,,,,,,,,,,,,,,,,,,,,,,,,,,,,,,,,,,,,,,,,,,,,,,,,,,,,,,,,,,,,,,,,,,,,,,,,,,,,,,,,,,,,,,,,,,,,,,,,,,,,,,,,,,,,,,,,,,,,,,,,,,,,,,,5.5349592003040016e-06,-6.728931566613028e-06,-9.456856560063898e-07,0.0,-2.1047151221864624e-06,5.425991275842534e-06,-0.01348740141838789,-0.013425999321043491,1.3573014257417526e-05,1.3355220289668068e-05,-2.1906369056523545e-06,0.0,1.9801720554823987e-05,-2.7744704311771784e-06,0.014649268239736557,0.014644509181380272,,,,,,,,,,,,,,,,,,,,,,,,,,,,,,,,,,,,,,,,,,,,,,,,,,,,,,,,,,,,,,,,,,,,,,,,,,
24,1.590165138244629,0.615952730178833,1.5646028518676758,0.3893051213026047,0.0,3.3577217362079637e-07,-9.079790288524237e-07,0.5022610425949097,0.5022525191307068,0.6188880801200867,1.5822285413742065,0.3888640543818474,0.0,-3.0020879338010786e-06,7.043919367788476e-07,0.5024073719978333,0.5024080872535706,,,,,,,,,,,,,,,,,,,,,,,,,,,,,,,,,,,,,,,,,,,,,,,,,,,,,,,,,,,,,,,,,,,,,,,,,,,,,,,,,,,,,,,,,,,,,,,,,,,,,,,,,,,,,,,,,,,,,,,,,,,,,,,,,,,,,,4.6692980504303705e-06,-5.676698947354453e-06,-7.974851996550569e-07,0.0,-1.773661324477871e-06,4.575448201649124e-06,-0.011376387439668179,-0.01132590975612402,1.1223121873626951e-05,1.1043336598959286e-05,-1.8106931065631215e-06,0.0,1.6155012417584658e-05,-2.492103021722869e-06,0.012111641466617584,0.012108868919312954,,,,,,,,,,,,,,,,,,,,,,,,,,,,,,,,,,,,,,,,,,,,,,,,,,,,,,,,,,,,,,,,,,,,,,,,,,
25,1.6124718189239502,0.6159527897834778,1.5646028518676758,0.3893051213026047,0.0,3.3577217362079637e-07,-8.989194384412258e-07,0.5022385120391846,0.5022301077842712,0.6188884377479553,1.5822288990020752,0.3888639947772026,0.0,-2.465646130822563e-06,6.195455739543831e-07,0.5020104050636292,0.5020111203193665,,,,,,,,,,,,,,,,,,,,,,,,,,,,,,,,,,,,,,,,,,,,,,,,,,,,,,,,,,,,,,,,,,,,,,,,,,,,,,,,,,,,,,,,,,,,,,,,,,,,,,,,,,,,,,,,,,,,,,,,,,,,,,,,,,,,,,4.622816959454212e-06,-5.620199317490915e-06,-7.895293379078794e-07,0.0,-1.7558902527525788e-06,4.529790658125421e-06,-0.011263047344982624,-0.011213148944079876,9.373385182698257e-06,9.223468623531517e-06,-1.51172673668043e-06,0.0,1.3319649042387027e-05,-2.2381768758350518e-06,0.010114353150129318,0.01011295709758997,,,,,,,,,,,,,,,,,,,,,,,,,,,,,,,,,,,,,,,,,,,,,,,,,,,,,,,,,,,,,,,,,,,,,,,,,,
26,1.6348400115966797,0.6159529089927673,1.5646027326583862,0.3893050915002823,0.0,2.7616752884540574e-07,-7.429777610923338e-07,0.5018507242202759,0.5018439888954163,0.6188884377479553,1.5822288990020752,0.3888639947772026,0.0,-2.465646130822563e-06,6.150965532469854e-07,0.5019903779029846,0.5019910931587219,,,,,,,,,,,,,,,,,,,,,,,,,,,,,,,,,,,,,,,,,,,,,,,,,,,,,,,,,,,,,,,,,,,,,,,,,,,,,,,,,,,,,,,,,,,,,,,,,,,,,,,,,,,,,,,,,,,,,,,,,,,,,,,,,,,,,,3.822558483079774e-06,-4.6474342525471e-06,-6.525824005620962e-07,0.0,-1.450035369998659e-06,3.743906745512504e-06,-0.009311830624938011,-0.009271778166294098,9.280065569328144e-06,9.13165513338754e-06,-1.4966468597776839e-06,0.0,1.3177539585740305e-05,-2.2245228592510102e-06,0.010013596154749393,0.010012264363467693,,,,,,,,,,,,,,,,,,,,,,,,,,,,,,,,,,,,,,,,,,,,,,,,,,,,,,,,,,,,,,,,,,,,,,,,,,
27,1.6558198928833008,0.6159529089927673,1.5646027326583862,0.3893050915002823,0.0,2.7616752884540574e-07,-7.429777610923338e-07,0.5018507242202759,0.5018439888954163,0.6188887357711792,1.5822291374206543,0.38886394262313845,0.0,-2.0484136173948286e-06,5.395654625317547e-07,0.5016621351242065,0.5016629099845886,,,,,,,,,,,,,,,,,,,,,,,,,,,,,,,,,,,,,,,,,,,,,,,,,,,,,,,,,,,,,,,,,,,,,,,,,,,,,,,,,,,,,,,,,,,,,,,,,,,,,,,,,,,,,,,,,,,,,,,,,,,,,,,,,,,,,,3.822558483079774e-06,-4.6474342525471e-06,-6.525824005620962e-07,0.0,-1.450035369998659e-06,3.743906745512504e-06,-0.009311830624938011,-0.009271778166294098,7.75057287683012e-06,7.62681929700193e-06,-1.2495332839534967e-06,0.0,1.0862867384275887e-05,-1.9876601982105058e-06,0.008362289518117905,0.008361936546862125,,,,,,,,,,,,,,,,,,,,,,,,,,,,,,,,,,,,,,,,,,,,,,,,,,,,,,,,,,,,,,,,,,,,,,,,,,
28,1.6788029670715332,0.6159530282020569,1.5646024942398071,0.3893050691485405,0.0,2.1656288407001512e-07,-6.140903110463114e-07,0.501530110836029,0.5015247464179993,0.6188887357711792,1.5822291374206543,0.38886394262313845,0.0,-2.0484136173948286e-06,5.395654625317547e-07,0.5016621351242065,0.5016629099845886,,,,,,,,,,,,,,,,,,,,,,,,,,,,,,,,,,,,,,,,,,,,,,,,,,,,,,,,,,,,,,,,,,,,,,,,,,,,,,,,,,,,,,,,,,,,,,,,,,,,,,,,,,,,,,,,,,,,,,,,,,,,,,,,,,,,,,3.1608331028110115e-06,-3.843039394268999e-06,-5.393895889937994e-07,0.0,-1.197337496705586e-06,3.0943881483835867e-06,-0.007698643486946821,-0.007666523568332195,7.75057287683012e-06,7.62681929700193e-06,-1.2495332839534967e-06,0.0,1.0862867384275887e-05,-1.9876601982105058e-06,0.008362289518117905,0.008361936546862125,,,,,,,,,,,,,,,,,,,,,,,,,,,,,,,,,,,,,,,,,,,,,,,,,,,,,,,,,,,,,,,,,,,,,,,,,,
29,1.7009668350219727,0.6159530282020569,1.5646024942398071,0.3893050691485405,0.0,2.1656288407001512e-07,-6.140903110463114e-07,0.501530110836029,0.5015247464179993,0.6188890337944031,1.5822293758392334,0.38886390537023546,0.0,-1.6311811039670943e-06,4.6871394943082123e-07,0.5013742446899414,0.5013750195503235,,,,,,,,,,,,,,,,,,,,,,,,,,,,,,,,,,,,,,,,,,,,,,,,,,,,,,,,,,,,,,,,,,,,,,,,,,,,,,,,,,,,,,,,,,,,,,,,,,,,,,,,,,,,,,,,,,,,,,,,,,,,,,,,,,,,,,3.1608331028110115e-06,-3.843039394268999e-06,-5.393895889937994e-07,0.0,-1.197337496705586e-06,3.0943881483835867e-06,-0.007698643486946821,-0.007666523568332195,6.408718036254868e-06,6.306561317614978e-06,-1.0328147936888854e-06,0.0,8.857565262587741e-06,-1.7568759176356252e-06,0.00691372761502862,0.006914099212735891,,,,,,,,,,,,,,,,,,,,,,,,,,,,,,,,,,,,,,,,,,,,,,,,,,,,,,,,,,,,,,,,,,,,,,,,,,
30,1.7797043323516846,0.6159533262252808,1.564602255821228,0.38930502444505694,0.0,9.735359451923387e-08,-3.5376675100451394e-07,0.5008821487426758,0.5008794069290161,0.6206963658332825,1.5846705436706543,0.3887717491388321,0.0,0.00011429985298416767,-0.00017378827033098787,0.5012725591659546,0.5004971027374268,,,,,,,,,,,,,,,,,,,,,,,,,,,,,,,,,,,,,,,,,,,,,,,,,,,,,,,,,,,,,,,,,,,,,,,,,,,,,,,,,,,,,,,,,,,,,,,,,,,,,,,,,,,,,,,,,,,,,,,,,,,,,,,,,,,,,,1.8231969534099335e-06,-2.2169097064761445e-06,-3.1075148854142753e-07,0.0,-6.875441158626927e-07,1.7825706208896008e-06,-0.004438626114279032,-0.0044217659160494804,0.12055598944425583,0.15464617311954498,-0.004499112721532583,0.0,0.04788446053862572,-0.050586070865392685,-0.12869468331336975,0.13162420690059662,,,,,,,,,,,,,,,,,,,,,,,,,,,,,,,,,,,,,,,,,,,,,,,,,,,,,,,,,,,,,,,,,,,,,,,,,,
31,1.8010408878326416,0.6159533262252808,1.564602255821228,0.38930502444505694,0.0,9.735359451923387e-08,-3.5376675100451394e-07,0.5008821487426758,0.5008794069290161,0.6217937469482422,1.5861800909042358,0.3887168234586716,0.0,1.124342216751728e-05,-3.778925383812748e-05,0.5008425712585449,0.500648021697998,,,,,,,,,,,,,,,,,,,,,,,,,,,,,,,,,,,,,,,,,,,,,,,,,,,,,,,,,,,,,,,,,,,,,,,,,,,,,,,,,,,,,,,,,,,,,,,,,,,,,,,,,,,,,,,,,,,,,,,,,,,,,,,,,,,,,,1.8231969534099335e-06,-2.2169097064761445e-06,-3.1075148854142753e-07,0.0,-6.875441158626927e-07,1.7825706208896008e-06,-0.004438626114279032,-0.0044217659160494804,0.010091949254274368,0.012530733831226826,0.000416807975852862,0.0,0.002019804436713457,0.013098589144647121,0.0059000039473176,-0.016147643327713013,,,,,,,,,,,,,,,,,,,,,,,,,,,,,,,,,,,,,,,,,,,,,,,,,,,,,,,,,,,,,,,,,,,,,,,,,,
32,1.8234131336212158,0.6159533858299255,1.5646021366119385,0.38930501699447634,0.0,9.735359451923387e-08,-2.9239959076221567e-07,0.5007293224334717,0.5007271766662598,0.6218119859695435,1.586206316947937,0.38871372401714327,0.0,5.759794848181343e-06,-2.950830639747437e-05,0.5008319616317749,0.500663161277771,,,,,,,,,,,,,,,,,,,,,,,,,,,,,,,,,,,,,,,,,,,,,,,,,,,,,,,,,,,,,,,,,,,,,,,,,,,,,,,,,,,,,,,,,,,,,,,,,,,,,,,,,,,,,,,,,,,,,,,,,,,,,,,,,,,,,,1.5075821693244507e-06,-1.8331988940190058e-06,-2.568506261013681e-07,0.0,-5.675813099514926e-07,1.473342081226292e-06,-0.00366967567242682,-0.0036562103778123856,0.009112918749451637,0.013102898374199867,-0.0015514141414314508,0.0,-0.002734879031777382,0.004140473902225494,0.005306425970047712,-0.0075654867105185986,,,,,,,,,,,,,,,,,,,,,,,,,,,,,,,,,,,,,,,,,,,,,,,,,,,,,,,,,,,,,,,,,,,,,,,,,,
33,1.8447580337524414,0.6159533858299255,1.5646021366119385,0.38930501699447634,0.0,9.735359451923387e-08,-2.9239959076221567e-07,0.5007293224334717,0.5007271766662598,0.6221156716346741,1.5866206884384155,0.38869877815246584,0.0,8.561213152624703e-06,-3.449872383498587e-05,0.5006933212280273,0.5005679130554199,,,,,,,,,,,,,,,,,,,,,,,,,,,,,,,,,,,,,,,,,,,,,,,,,,,,,,,,,,,,,,,,,,,,,,,,,,,,,,,,,,,,,,,,,,,,,,,,,,,,,,,,,,,,,,,,,,,,,,,,,,,,,,,,,,,,,,1.5075821693244507e-06,-1.8331988940190058e-06,-2.568506261013681e-07,0.0,-5.675813099514926e-07,1.473342081226292e-06,-0.00366967567242682,-0.0036562103778123856,0.007775197271257639,0.010578279383480549,-0.0003948562953155488,0.0,-3.2087576983030885e-05,0.00016082612273748964,0.003503702115267515,0.0028812361415475607,,,,,,,,,,,,,,,,,,,,,,,,,,,,,,,,,,,,,,,,,,,,,,,,,,,,,,,,,,,,,,,,,,,,,,,,,,
34,1.8668804168701172,0.6159534454345703,1.5646021366119385,0.38930500954389574,0.0,9.735359451923387e-08,-2.4167792389562237e-07,0.5006029605865479,0.5006012916564941,0.6221156716346741,1.5866206884384155,0.38869877815246584,0.0,8.561213152624703e-06,-3.449872383498587e-05,0.5006933212280273,0.5005679130554199,,,,,,,,,,,,,,,,,,,,,,,,,,,,,,,,,,,,,,,,,,,,,,,,,,,,,,,,,,,,,,,,,,,,,,,,,,,,,,,,,,,,,,,,,,,,,,,,,,,,,,,,,,,,,,,,,,,,,,,,,,,,,,,,,,,,,,1.2466036878322484e-06,-1.5159026816036203e-06,-2.122990139241665e-07,0.0,-4.685301462359348e-07,1.2177596317997086e-06,-0.0030339385848492384,-0.0030231978744268417,0.007775197271257639,0.010578279383480549,-0.0003948562953155488,0.0,-3.2087576983030885e-05,0.00016082612273748964,0.003503702115267515,0.0028812361415475607,,,,,,,,,,,,,,,,,,,,,,,,,,,,,,,,,,,,,,,,,,,,,,,,,,,,,,,,,,,,,,,,,,,,,,,,,,
35,1.8879330158233643,0.6159534454345703,1.5646021366119385,0.38930500954389574,0.0,9.735359451923387e-08,-2.4167792389562237e-07,0.5006029605865479,0.5006012916564941,0.6223835945129395,1.5869851112365723,0.38868518829345705,0.0,6.951887743689156e-06,-2.8113354346714914e-05,0.5005725622177124,0.5004705786705017,,,,,,,,,,,,,,,,,,,,,,,,,,,,,,,,,,,,,,,,,,,,,,,,,,,,,,,,,,,,,,,,,,,,,,,,,,,,,,,,,,,,,,,,,,,,,,,,,,,,,,,,,,,,,,,,,,,,,,,,,,,,,,,,,,,,,,1.2466036878322484e-06,-1.5159026816036203e-06,-2.122990139241665e-07,0.0,-4.685301462359348e-07,1.2177596317997086e-06,-0.0030339385848492384,-0.0030231978744268417,0.006434994284063578,0.008752039633691311,-0.0003263748367317021,0.0,-3.8567570300074294e-05,0.00015534216072410345,0.0028976001776754856,0.0023352676071226597,,,,,,,,,,,,,,,,,,,,,,,,,,,,,,,,,,,,,,,,,,,,,,,,,,,,,,,,,,,,,,,,,,,,,,,,,,
36,1.91005539894104,0.6159535050392151,1.564602017402649,0.38930500209331514,0.0,3.774894974384324e-08,-1.9975496456936526e-07,0.5004985332489014,0.5004971623420715,0.6223835945129395,1.5869851112365723,0.38868518829345705,0.0,6.951887743689156e-06,-2.8113354346714914e-05,0.5005725622177124,0.5004705786705017,,,,,,,,,,,,,,,,,,,,,,,,,,,,,,,,,,,,,,,,,,,,,,,,,,,,,,,,,,,,,,,,,,,,,,,,,,,,,,,,,,,,,,,,,,,,,,,,,,,,,,,,,,,,,,,,,,,,,,,,,,,,,,,,,,,,,,1.0308035598427523e-06,-1.2535253972600913e-06,-1.754750371674163e-07,0.0,-3.867507416543958e-07,1.0065157312055817e-06,-0.0025083371438086033,-0.002499781083315611,0.006434994284063578,0.008752039633691311,-0.0003263748367317021,0.0,-3.8567570300074294e-05,0.00015534216072410345,0.0028976001776754856,0.0023352676071226597,,,,,,,,,,,,,,,,,,,,,,,,,,,,,,,,,,,,,,,,,,,,,,,,,,,,,,,,,,,,,,,,,,,,,,,,,,
37,1.9314138889312744,0.6159535050392151,1.564602017402649,0.38930499464273455,0.0,3.774894974384324e-08,-1.6510432487848448e-07,0.5004121661186218,0.5004110932350159,0.6226052045822144,1.5872864723205566,0.3886739528179169,0.0,5.640585558630562e-06,-2.2817224817117676e-05,0.5004728436470032,0.5003900527954102,,,,,,,,,,,,,,,,,,,,,,,,,,,,,,,,,,,,,,,,,,,,,,,,,,,,,,,,,,,,,,,,,,,,,,,,,,,,,,,,,,,,,,,,,,,,,,,,,,,,,,,,,,,,,,,,,,,,,,,,,,,,,,,,,,,,,,8.523607561983226e-07,-1.0365607749918127e-06,-1.4503829959267023e-07,0.0,-3.1923602250572003e-07,8.319169637616142e-07,-0.002073791343718767,-0.0020669850055128336,0.005321020260453224,0.007236968260258436,-0.0002697603777050972,0.0,-3.1098952604224905e-05,0.0001260255230590701,0.0023927732836455107,0.0019360613077878952,,,,,,,,,,,,,,,,,,,,,,,,,,,,,,,,,,,,,,,,,,,,,,,,,,,,,,,,,,,,,,,,,,,,,,,,,,
38,1.9527614116668701,0.6159535050392151,1.564602017402649,0.38930499464273455,0.0,3.774894974384324e-08,-1.6510432487848448e-07,0.5004121661186218,0.5004110932350159,0.6227884292602539,1.5875357389450073,0.3886646619439125,0.0,4.627306597448921e-06,-1.8515962437959388e-05,0.5003905296325684,0.5003232955932617,,,,,,,,,,,,,,,,,,,,,,,,,,,,,,,,,,,,,,,,,,,,,,,,,,,,,,,,,,,,,,,,,,,,,,,,,,,,,,,,,,,,,,,,,,,,,,,,,,,,,,,,,,,,,,,,,,,,,,,,,,,,,,,,,,,,,,8.523607561983226e-07,-1.0365607749918127e-06,-1.4503829959267023e-07,0.0,-3.1923602250572003e-07,8.319169637616142e-07,-0.002073791343718767,-0.0020669850055128336,0.0043997871689498425,0.005984089802950621,-0.00022297209943644702,0.0,-2.533659790060483e-05,0.00010241705604130402,0.00197613169439137,0.0016047656536102295,,,,,,,,,,,,,,,,,,,,,,,,,,,,,,,,,,,,,,,,,,,,,,,,,,,,,,,,,,,,,,,,,,,,,,,,,,
39,1.9737253189086914,0.6159535646438599,1.5646018981933594,0.38930498719215395,0.0,3.774894974384324e-08,-1.364644646173474e-07,0.5003407597541809,0.500339925289154,0.6227884292602539,1.5875357389450073,0.3886646619439125,0.0,4.627306597448921e-06,-1.8515962437959388e-05,0.5003905296325684,0.5003232955932617,,,,,,,,,,,,,,,,,,,,,,,,,,,,,,,,,,,,,,,,,,,,,,,,,,,,,,,,,,,,,,,,,,,,,,,,,,,,,,,,,,,,,,,,,,,,,,,,,,,,,,,,,,,,,,,,,,,,,,,,,,,,,,,,,,,,,,7.048076895443955e-07,-8.571492458031571e-07,-1.198808945446217e-07,0.0,-2.635016187468864e-07,6.876069278405339e-07,-0.0017145263263955712,-0.0017091206973418593,0.0043997871689498425,0.005984089802950621,-0.00022297209943644702,0.0,-2.533659790060483e-05,0.00010241705604130402,0.00197613169439137,0.0016047656536102295,,,,,,,,,,,,,,,,,,,,,,,,,,,,,,,,,,,,,,,,,,,,,,,,,,,,,,,,,,,,,,,,,,,,,,,,,,
40,1.9958786964416504,0.6159535646438599,1.5646018981933594,0.38930498719215395,0.0,3.774894974384324e-08,-1.364644646173474e-07,0.5003407597541809,0.500339925289154,0.6229326725006104,1.5877318382263184,0.38865735292434694,0.0,3.7928415705934526e-06,-1.5186958080448676e-05,0.5003257989883423,0.5002706050872803,,,,,,,,,,,,,,,,,,,,,,,,,,,,,,,,,,,,,,,,,,,,,,,,,,,,,,,,,,,,,,,,,,,,,,,,,,,,,,,,,,,,,,,,,,,,,,,,,,,,,,,,,,,,,,,,,,,,,,,,,,,,,,,,,,,,,,7.048076895443955e-07,-8.571492458031571e-07,-1.198808945446217e-07,0.0,-2.635016187468864e-07,6.876069278405339e-07,-0.0017145263263955712,-0.0017091206973418593,0.003674631007015705,0.004997866228222847,-0.00018615620501805097,0.0,-2.0854835383943282e-05,8.413632167503238e-05,0.0016485529486089945,0.001343364710919559,,,,,,,,,,,,,,,,,,,,,,,,,,,,,,,,,,,,,,,,,,,,,,,,,,,,,,,,,,,,,,,,,,,,,,,,,,
41,2.0174245834350586,0.6159535646438599,1.5646018981933594,0.38930498719215395,0.0,3.774894974384324e-08,-1.1279264811037137e-07,0.5002817511558533,0.500281035900116,0.6229326725006104,1.5877318382263184,0.38865735292434694,0.0,3.7928415705934526e-06,-1.5186958080448676e-05,0.5003257989883423,0.5002706050872803,,,,,,,,,,,,,,,,,,,,,,,,,,,,,,,,,,,,,,,,,,,,,,,,,,,,,,,,,,,,,,,,,,,,,,,,,,,,,,,,,,,,,,,,,,,,,,,,,,,,,,,,,,,,,,,,,,,,,,,,,,,,,,,,,,,,,,5.827981226502743e-07,-7.087911626513232e-07,-9.908714559969667e-08,0.0,-2.1749252709923894e-07,5.68330108308146e-07,-0.0014175006654113531,-0.001413214486092329,0.003674631007015705,0.004997866228222847,-0.00018615620501805097,0.0,-2.0854835383943282e-05,8.413632167503238e-05,0.0016485529486089945,0.001343364710919559,,,,,,,,,,,,,,,,,,,,,,,,,,,,,,,,,,,,,,,,,,,,,,,,,,,,,,,,,,,,,,,,,,,,,,,,,,
42,2.03804087638855,0.6159535646438599,1.5646018981933594,0.38930498719215395,0.0,3.774894974384324e-08,-1.1279264811037137e-07,0.5002817511558533,0.500281035900116,0.6230530738830566,1.5878956317901611,0.38865125834941866,0.0,3.077585833288765e-06,-1.2452504961402155e-05,0.5002717971801758,0.5002265572547913,,,,,,,,,,,,,,,,,,,,,,,,,,,,,,,,,,,,,,,,,,,,,,,,,,,,,,,,,,,,,,,,,,,,,,,,,,,,,,,,,,,,,,,,,,,,,,,,,,,,,,,,,,,,,,,,,,,,,,,,,,,,,,,,,,,,,,5.827981226502743e-07,-7.087911626513232e-07,-9.908714559969667e-08,0.0,-2.1749252709923894e-07,5.68330108308146e-07,-0.0014175006654113531,-0.001413214486092329,0.0030689937993884087,0.0041741798631846905,-0.0001554192858748138,0.0,-1.7160986317321658e-05,6.910122465342283e-05,0.0013752741506323218,0.0011245403438806534,,,,,,,,,,,,,,,,,,,,,,,,,,,,,,,,,,,,,,,,,,,,,,,,,,,,,,,,,,,,,,,,,,,,,,,,,,
43,2.0597846508026123,0.6159535646438599,1.5646018981933594,0.38930497974157335,0.0,3.774894974384324e-08,-9.322709360048975e-08,0.5002329349517822,0.5002323985099792,0.6230530738830566,1.5878956317901611,0.38865125834941866,0.0,3.077585833288765e-06,-1.2452504961402155e-05,0.5002717971801758,0.5002265572547913,,,,,,,,,,,,,,,,,,,,,,,,,,,,,,,,,,,,,,,,,,,,,,,,,,,,,,,,,,,,,,,,,,,,,,,,,,,,,,,,,,,,,,,,,,,,,,,,,,,,,,,,,,,,,,,,,,,,,,,,,,,,,,,,,,,,,,4.819095806851692e-07,-5.861110707883199e-07,-8.190026790089178e-08,0.0,-1.795131794324334e-07,4.6974437850622053e-07,-0.001171931973658502,-0.0011685396311804652,0.0030689937993884087,0.0041741798631846905,-0.0001554192858748138,0.0,-1.7160986317321658e-05,6.910122465342283e-05,0.0013752741506323218,0.0011245403438806534,,,,,,,,,,,,,,,,,,,,,,,,,,,,,,,,,,,,,,,,,,,,,,,,,,,,,,,,,,,,,,,,,,,,,,,,,,
44,2.0823798179626465,0.6159536242485046,1.5646018981933594,0.38930497974157335,0.0,-2.1855695031547384e-08,-7.70554891005304e-08,0.5001925826072693,0.5001921653747559,0.6231587529182434,1.5880393981933594,0.38864590138196947,0.0,2.5411440303102495e-06,-1.0094760000356473e-05,0.5002244710922241,0.5001877546310425,,,,,,,,,,,,,,,,,,,,,,,,,,,,,,,,,,,,,,,,,,,,,,,,,,,,,,,,,,,,,,,,,,,,,,,,,,,,,,,,,,,,,,,,,,,,,,,,,,,,,,,,,,,,,,,,,,,,,,,,,,,,,,,,,,,,,,3.9848580968282477e-07,-4.846649517276092e-07,-6.769432303599388e-08,0.0,-1.4816382076787704e-07,3.8826007653369743e-07,-0.0009689056896604598,-0.0009662262164056301,0.0025376572739332914,0.0034515364095568657,-0.00012846317258663476,0.0,-1.3964953723188955e-05,5.611940287053585e-05,0.0011358001502230763,0.0009321046527475119,,,,,,,,,,,,,,,,,,,,,,,,,,,,,,,,,,,,,,,,,,,,,,,,,,,,,,,,,,,,,,,,,,,,,,,,,,
45,2.1038119792938232,0.6159536242485046,1.5646018981933594,0.38930497974157335,0.0,-2.1855695031547384e-08,-7.70554891005304e-08,0.5001925826072693,0.5001921653747559,0.6232461333274841,1.5881582498550415,0.3886414831876755,0.0,2.0643068721071245e-06,-8.180256372725125e-06,0.5001853704452515,0.5001556277275085,,,,,,,,,,,,,,,,,,,,,,,,,,,,,,,,,,,,,,,,,,,,,,,,,,,,,,,,,,,,,,,,,,,,,,,,,,,,,,,,,,,,,,,,,,,,,,,,,,,,,,,,,,,,,,,,,,,,,,,,,,,,,,,,,,,,,,3.9848580968282477e-07,-4.846649517276092e-07,-6.769432303599388e-08,0.0,-1.4816382076787704e-07,3.8826007653369743e-07,-0.0009689056896604598,-0.0009662262164056301,0.0020983119029551744,0.002853998914361,-0.00010618243686622009,0.0,-1.1360531971149612e-05,4.556231579044834e-05,0.0009380238479934633,0.0007725961040705442,,,,,,,,,,,,,,,,,,,,,,,,,,,,,,,,,,,,,,,,,,,,,,,,,,,,,,,,,,,,,,,,,,,,,,,,,,
46,2.1252095699310303,0.6159536242485046,1.5646018981933594,0.38930497974157335,0.0,-2.1855695031547384e-08,-6.433091215285458e-08,0.500160813331604,0.5001605153083801,0.6232461333274841,1.5881582498550415,0.3886414831876755,0.0,2.0643068721071245e-06,-8.180256372725125e-06,0.5001853704452515,0.5001556277275085,,,,,,,,,,,,,,,,,,,,,,,,,,,,,,,,,,,,,,,,,,,,,,,,,,,,,,,,,,,,,,,,,,,,,,,,,,,,,,,,,,,,,,,,,,,,,,,,,,,,,,,,,,,,,,,,,,,,,,,,,,,,,,,,,,,,,,3.328168816096877e-07,-4.0480662732989003e-07,-5.651638090853339e-08,0.0,-1.235292472756555e-07,3.241447075197357e-07,-0.0008091128547675908,-0.0008069741888903081,0.0020983119029551744,0.002853998914361,-0.00010618243686622009,0.0,-1.1360531971149612e-05,4.556231579044834e-05,0.0009380238479934633,0.0007725961040705442,,,,,,,,,,,,,,,,,,,,,,,,,,,,,,,,,,,,,,,,,,,,,,,,,,,,,,,,,,,,,,,,,,,,,,,,,,
47,2.1464004516601562,0.6159536242485046,1.5646018981933594,0.38930497974157335,0.0,-2.1855695031547384e-08,-6.433091215285458e-08,0.500160813331604,0.5001605153083801,0.6233184337615967,1.588256597518921,0.3886378249526024,0.0,1.6470743586793901e-06,-6.62616002955474e-06,0.5001530647277832,0.500128984451294,,,,,,,,,,,,,,,,,,,,,,,,,,,,,,,,,,,,,,,,,,,,,,,,,,,,,,,,,,,,,,,,,,,,,,,,,,,,,,,,,,,,,,,,,,,,,,,,,,,,,,,,,,,,,,,,,,,,,,,,,,,,,,,,,,,,,,3.328168816096877e-07,-4.0480662732989003e-07,-5.651638090853339e-08,0.0,-1.235292472756555e-07,3.241447075197357e-07,-0.0008091128547675908,-0.0008069741888903081,0.0017350311391055584,0.0023599083069711924,-8.776613685768098e-05,0.0,-9.238873644790146e-06,3.697923239087686e-05,0.0007746850023977458,0.0006403808947652578,,,,,,,,,,,,,,,,,,,,,,,,,,,,,,,,,,,,,,,,,,,,,,,,,,,,,,,,,,,,,,,,,,,,,,,,,,
48,2.1679553985595703,0.6159536242485046,1.5646018981933594,0.38930497229099276,0.0,-2.1855695031547384e-08,-5.317177453889599e-08,0.5001329779624939,0.50013267993927,0.6233184337615967,1.588256597518921,0.3886378249526024,0.0,1.6470743586793901e-06,-6.62616002955474e-06,0.5001530647277832,0.500128984451294,,,,,,,,,,,,,,,,,,,,,,,,,,,,,,,,,,,,,,,,,,,,,,,,,,,,,,,,,,,,,,,,,,,,,,,,,,,,,,,,,,,,,,,,,,,,,,,,,,,,,,,,,,,,,,,,,,,,,,,,,,,,,,,,,,,,,,2.752028080976743e-07,-3.347414576637675e-07,-4.6713395818187564e-08,0.0,-1.0195372368571043e-07,2.679168744634808e-07,-0.000668941589538008,-0.0006672598537988961,0.0017350311391055584,0.0023599083069711924,-8.776613685768098e-05,0.0,-9.238873644790146e-06,3.697923239087686e-05,0.0007746850023977458,0.0006403808947652578,,,,,,,,,,,,,,,,,,,,,,,,,,,,,,,,,,,,,,,,,,,,,,,,,,,,,,,,,,,,,,,,,,,,,,,,,,
49,2.1896300315856934,0.6159536242485046,1.5646018981933594,0.38930497229099276,0.0,-2.1855695031547384e-08,-5.317177453889599e-08,0.5001329779624939,0.50013267993927,0.6233781576156616,1.588337779045105,0.38863480746746065,0.0,1.349051134802437e-06,-5.365042397897923e-06,0.5001264214515686,0.500106930732727,,,,,,,,,,,,,,,,,,,,,,,,,,,,,,,,,,,,,,,,,,,,,,,,,,,,,,,,,,,,,,,,,,,,,,,,,,,,,,,,,,,,,,,,,,,,,,,,,,,,,,,,,,,,,,,,,,,,,,,,,,,,,,,,,,,,,,2.752028080976743e-07,-3.347414576637675e-07,-4.6713395818187564e-08,0.0,-1.0195372368571043e-07,2.679168744634808e-07,-0.000668941589538008,-0.0006672598537988961,0.0014346453826874495,0.001951355836354196,-7.254400406964123e-05,0.0,-7.511026524298359e-06,3.0002887797309086e-05,0.000639787467662245,0.0005307893152348697,,,,,,,,,,,,,,,,,,,,,,,,,,,,,,,,,,,,,,,,,,,,,,,,,,,,,,,,,,,,,,,,,,,,,,,,,,
50,2.2114217281341553,0.6159536242485046,1.5646017789840698,0.38930497229099276,0.0,-2.1855695031547384e-08,-4.3948350736400243e-08,0.5001099109649658,0.5001097321510315,0.6233781576156616,1.588337779045105,0.38863480746746065,0.0,1.349051134802437e-06,-5.365042397897923e-06,0.5001264214515686,0.500106930732727,,,,,,,,,,,,,,,,,,,,,,,,,,,,,,,,,,,,,,,,,,,,,,,,,,,,,,,,,,,,,,,,,,,,,,,,,,,,,,,,,,,,,,,,,,,,,,,,,,,,,,,,,,,,,,,,,,,,,,,,,,,,,,,,,,,,,,2.275622534853028e-07,-2.7680334824253805e-07,-3.861082120693027e-08,0.0,-8.414657770572376e-08,2.2144288891468022e-07,-0.000553053745534271,-0.0005517347017303109,0.0014346453826874495,0.001951355836354196,-7.254400406964123e-05,0.0,-7.511026524298359e-06,3.0002887797309086e-05,0.000639787467662245,0.0005307893152348697,,,,,,,,,,,,,,,,,,,,,,,,,,,,,,,,,,,,,,,,,,,,,,,,,,,,,,,,,,,,,,,,,,,,,,,,,,
51,2.233016014099121,0.6159536242485046,1.5646017789840698,0.38930497229099276,0.0,-2.1855695031547384e-08,-3.706067630560028e-08,0.5000926852226257,0.5000925660133362,0.6234275698661804,1.5884050130844116,0.3886323040723801,0.0,1.0510279109254839e-06,-4.342024112702347e-06,0.5001044273376465,0.500088632106781,,,,,,,,,,,,,,,,,,,,,,,,,,,,,,,,,,,,,,,,,,,,,,,,,,,,,,,,,,,,,,,,,,,,,,,,,,,,,,,,,,,,,,,,,,,,,,,,,,,,,,,,,,,,,,,,,,,,,,,,,,,,,,,,,,,,,,1.9197172207441326e-07,-2.335185342872137e-07,-3.2560080853727413e-08,0.0,-7.086625686270054e-08,1.8673813428904396e-07,-0.00046649109572172165,-0.00046543244388885796,0.0011862654937431216,0.001613532891497016,-5.9962014347547665e-05,0.0,-6.1043197092658374e-06,2.4334070985787548e-05,0.0005283791688270867,0.000439950410509482,,,,,,,,,,,,,,,,,,,,,,,,,,,,,,,,,,,,,,,,,,,,,,,,,,,,,,,,,,,,,,,,,,,,,,,,,,
52,2.2546589374542236,0.6159536242485046,1.5646017789840698,0.38930497229099276,0.0,-2.1855695031547384e-08,-3.706067630560028e-08,0.5000926852226257,0.5000925660133362,0.6234683990478516,1.5884605646133423,0.38863024026155474,0.0,8.72213976599312e-07,-3.512452167342417e-06,0.50008624792099,0.5000734329223633,,,,,,,,,,,,,,,,,,,,,,,,,,,,,,,,,,,,,,,,,,,,,,,,,,,,,,,,,,,,,,,,,,,,,,,,,,,,,,,,,,,,,,,,,,,,,,,,,,,,,,,,,,,,,,,,,,,,,,,,,,,,,,,,,,,,,,1.9197172207441326e-07,-2.335185342872137e-07,-3.2560080853727413e-08,0.0,-7.086625686270054e-08,1.8673813428904396e-07,-0.00046649109572172165,-0.00046543244388885796,0.000980887794867158,0.0013341945596039295,-4.9562251660972834e-05,0.0,-4.959414582117461e-06,1.972905738512054e-05,0.0004363700863905251,0.0003646557161118835,,,,,,,,,,,,,,,,,,,,,,,,,,,,,,,,,,,,,,,,,,,,,,,,,,,,,,,,,,,,,,,,,,,,,,,,,,
53,2.2758615016937256,0.6159536242485046,1.5646017789840698,0.38930497229099276,0.0,-2.1855695031547384e-08,-3.0631952085968805e-08,0.5000766515731812,0.5000765323638916,0.6234683990478516,1.5884605646133423,0.38863024026155474,0.0,8.72213976599312e-07,-3.512452167342417e-06,0.50008624792099,0.5000734329223633,,,,,,,,,,,,,,,,,,,,,,,,,,,,,,,,,,,,,,,,,,,,,,,,,,,,,,,,,,,,,,,,,,,,,,,,,,,,,,,,,,,,,,,,,,,,,,,,,,,,,,,,,,,,,,,,,,,,,,,,,,,,,,,,,,,,,,1.5873935410581907e-07,-1.9310031973418518e-07,-2.6912395867384475e-08,0.0,-5.848754724979699e-08,1.5434565625582763e-07,-0.00038567587034776807,-0.0003848504275083542,0.000980887794867158,0.0013341945596039295,-4.9562251660972834e-05,0.0,-4.959414582117461e-06,1.972905738512054e-05,0.0004363700863905251,0.0003646557161118835,,,,,,,,,,,,,,,,,,,,,,,,,,,,,,,,,,,,,,,,,,,,,,,,,,,,,,,,,,,,,,,,,,,,,,,,,,
54,2.2972822189331055,0.6159536242485046,1.5646017789840698,0.38930497229099276,0.0,-2.1855695031547384e-08,-3.0631952085968805e-08,0.5000766515731812,0.5000765323638916,0.6235021948814392,1.5885064601898193,0.38862853407859804,0.0,6.934000422731401e-07,-2.840000206560944e-06,0.5000712275505066,0.5000608563423157,,,,,,,,,,,,,,,,,,,,,,,,,,,,,,,,,,,,,,,,,,,,,,,,,,,,,,,,,,,,,,,,,,,,,,,,,,,,,,,,,,,,,,,,,,,,,,,,,,,,,,,,,,,,,,,,,,,,,,,,,,,,,,,,,,,,,,1.5873935410581907e-07,-1.9310031973418518e-07,-2.6912395867384475e-08,0.0,-5.848754724979699e-08,1.5434565625582763e-07,-0.00038567587034776807,-0.0003848504275083542,0.0008110671187750995,0.0011032158508896828,-4.096623160876334e-05,0.0,-4.027868726552697e-06,1.598934795765672e-05,0.00036038242978975177,0.0003022455784957856,,,,,,,,,,,,,,,,,,,,,,,,,,,,,,,,,,,,,,,,,,,,,,,,,,,,,,,,,,,,,,,,,,,,,,,,,,
55,2.319408893585205,0.6159536838531494,1.5646017789840698,0.38930497229099276,0.0,-2.1855695031547384e-08,-2.53183838339055e-08,0.5000633597373962,0.5000633001327515,0.6235021948814392,1.5885064601898193,0.38862853407859804,0.0,6.934000422731401e-07,-2.840000206560944e-06,0.5000712275505066,0.5000608563423157,,,,,,,,,,,,,,,,,,,,,,,,,,,,,,,,,,,,,,,,,,,,,,,,,,,,,,,,,,,,,,,,,,,,,,,,,,,,,,,,,,,,,,,,,,,,,,,,,,,,,,,,,,,,,,,,,,,,,,,,,,,,,,,,,,,,,,1.3126000908414426e-07,-1.5967826527685247e-07,-2.2244407205107564e-08,0.0,-4.82703867987766e-08,1.2757219280956633e-07,-0.0003188611299265176,-0.00031821985612623394,0.0008110671187750995,0.0011032158508896828,-4.096623160876334e-05,0.0,-4.027868726552697e-06,1.598934795765672e-05,0.00036038242978975177,0.0003022455784957856,,,,,,,,,,,,,,,,,,,,,,,,,,,,,,,,,,,,,,,,,,,,,,,,,,,,,,,,,,,,,,,,,,,,,,,,,,
56,2.341153860092163,0.6159536838531494,1.5646017789840698,0.38930496484041216,0.0,-2.1855695031547384e-08,-2.1350425427613118e-08,0.5000534653663635,0.5000534057617188,0.6235300898551941,1.588544487953186,0.3886271259188652,0.0,5.741907527223589e-07,-2.2951244318392128e-06,0.5000588297843933,0.50005042552948,,,,,,,,,,,,,,,,,,,,,,,,,,,,,,,,,,,,,,,,,,,,,,,,,,,,,,,,,,,,,,,,,,,,,,,,,,,,,,,,,,,,,,,,,,,,,,,,,,,,,,,,,,,,,,,,,,,,,,,,,,,,,,,,,,,,,,1.1073081651602479e-07,-1.3470835824591632e-07,-1.875839750198338e-08,0.0,-4.065175929213183e-08,1.0757867130450904e-07,-0.0002689537650439888,-0.00026844392414204776,0.000670647481456399,0.0009122247574850917,-3.386109892744571e-05,0.0,-3.2701543659641175e-06,1.2953307304996997e-05,0.00029762653866782784,0.0002505154407117516,,,,,,,,,,,,,,,,,,,,,,,,,,,,,,,,,,,,,,,,,,,,,,,,,,,,,,,,,,,,,,,,,,,,,,,,,,
57,2.3627471923828125,0.6159536838531494,1.5646017789840698,0.38930496484041216,0.0,-2.1855695031547384e-08,-2.1350425427613118e-08,0.5000534653663635,0.5000534057617188,0.6235300898551941,1.588544487953186,0.3886271259188652,0.0,5.741907527223589e-07,-2.2951244318392128e-06,0.5000588297843933,0.50005042552948,,,,,,,,,,,,,,,,,,,,,,,,,,,,,,,,,,,,,,,,,,,,,,,,,,,,,,,,,,,,,,,,,,,,,,,,,,,,,,,,,,,,,,,,,,,,,,,,,,,,,,,,,,,,,,,,,,,,,,,,,,,,,,,,,,,,,,1.1073081651602479e-07,-1.3470835824591632e-07,-1.875839750198338e-08,0.0,-4.065175929213183e-08,1.0757867130450904e-07,-0.0002689537650439888,-0.00026844392414204776,0.000670647481456399,0.0009122247574850917,-3.386109892744571e-05,0.0,-3.2701543659641175e-06,1.2953307304996997e-05,0.00029762653866782784,0.0002505154407117516,,,,,,,,,,,,,,,,,,,,,,,,,,,,,,,,,,,,,,,,,,,,,,,,,,,,,,,,,,,,,,,,,,,,,,,,,,
58,2.38431978225708,0.6159536838531494,1.5646017789840698,0.38930496484041216,0.0,-2.1855695031547384e-08,-1.7646870631438105e-08,0.5000441670417786,0.5000441670417786,0.6235532164573669,1.588575839996338,0.3886259636282921,0.0,4.549814631715776e-07,-1.8538027006798075e-06,0.5000485777854919,0.5000418424606323,,,,,,,,,,,,,,,,,,,,,,,,,,,,,,,,,,,,,,,,,,,,,,,,,,,,,,,,,,,,,,,,,,,,,,,,,,,,,,,,,,,,,,,,,,,,,,,,,,,,,,,,,,,,,,,,,,,,,,,,,,,,,,,,,,,,,,9.156237013030477e-08,-1.1139300681861641e-07,-1.550471573352752e-08,0.0,-3.354966437996154e-08,8.891761638096796e-08,-0.00022236004588194191,-0.00022196723148226738,0.0005545386811718345,0.0007542984094470739,-2.7988278816337697e-05,0.0,-2.6540240014583105e-06,1.0489347005204763e-05,0.000245798408286646,0.00020763785869348794,,,,,,,,,,,,,,,,,,,,,,,,,,,,,,,,,,,,,,,,,,,,,,,,,,,,,,,,,,,,,,,,,,,,,,,,,,
59,2.406041383743286,0.6159536838531494,1.5646017789840698,0.38930496484041216,0.0,-2.1855695031547384e-08,-1.7646870631438105e-08,0.5000441670417786,0.5000441670417786,0.6235722899436951,1.58860182762146,0.3886249950528145,0.0,3.3577217362079637e-07,-1.4965077070883126e-06,0.5000401139259338,0.5000346302986145,,,,,,,,,,,,,,,,,,,,,,,,,,,,,,,,,,,,,,,,,,,,,,,,,,,,,,,,,,,,,,,,,,,,,,,,,,,,,,,,,,,,,,,,,,,,,,,,,,,,,,,,,,,,,,,,,,,,,,,,,,,,,,,,,,,,,,9.156237013030477e-08,-1.1139300681861641e-07,-1.550471573352752e-08,0.0,-3.354966437996154e-08,8.891761638096796e-08,-0.00022236004588194191,-0.00022196723148226738,0.00045853175106458366,0.0006237126071937382,-2.3134036382543854e-05,0.0,-2.1531805032282136e-06,8.490357686241623e-06,0.00020299525931477547,0.00017209812358487397,,,,,,,,,,,,,,,,,,,,,,,,,,,,,,,,,,,,,,,,,,,,,,,,,,,,,,,,,,,,,,,,,,,,,,,,,,
60,2.427611827850342,0.6159536838531494,1.5646017789840698,0.38930496484041216,0.0,-2.1855695031547384e-08,-1.4732736808298341e-08,0.500036895275116,0.500036895275116,0.6235722899436951,1.58860182762146,0.3886249950528145,0.0,3.3577217362079637e-07,-1.4965077070883126e-06,0.5000401139259338,0.5000346302986145,,,,,,,,,,,,,,,,,,,,,,,,,,,,,,,,,,,,,,,,,,,,,,,,,,,,,,,,,,,,,,,,,,,,,,,,,,,,,,,,,,,,,,,,,,,,,,,,,,,,,,,,,,,,,,,,,,,,,,,,,,,,,,,,,,,,,,7.647327038284857e-08,-9.303846582042752e-08,-1.2944527227887193e-08,0.0,-2.796996056986245e-08,7.423412284879305e-08,-0.0001856882154243067,-0.0001853828871389851,0.00045853175106458366,0.0006237126071937382,-2.3134036382543854e-05,0.0,-2.1531805032282136e-06,8.490357686241623e-06,0.00020299525931477547,0.00017209812358487397,,,,,,,,,,,,,,,,,,,,,,,,,,,,,,,,,,,,,,,,,,,,,,,,,,,,,,,,,,,,,,,,,,,,,,,,,,
61,2.4488706588745117,0.6159536838531494,1.5646017789840698,0.38930496484041216,0.0,-2.1855695031547384e-08,-1.2423779338632812e-08,0.5000311136245728,0.5000311136245728,0.6235880851745605,1.5886234045028687,0.38862419784069063,0.0,2.7616752884540574e-07,-1.2073703601345187e-06,0.5000331401824951,0.5000287294387817,,,,,,,,,,,,,,,,,,,,,,,,,,,,,,,,,,,,,,,,,,,,,,,,,,,,,,,,,,,,,,,,,,,,,,,,,,,,,,,,,,,,,,,,,,,,,,,,,,,,,,,,,,,,,,,,,,,,,,,,,,,,,,,,,,,,,,6.451305978316668e-08,-7.848976935065366e-08,-1.0916025416918274e-08,0.0,-2.3554658667990225e-08,6.260030716020992e-08,-0.00015662475198041648,-0.0001563853002153337,0.0003791464550886303,0.000515734136570245,-1.9121707737213e-05,0.0,-1.7461824199926923e-06,6.869176559121115e-06,0.00016764557221904397,0.00014264062338043004,,,,,,,,,,,,,,,,,,,,,,,,,,,,,,,,,,,,,,,,,,,,,,,,,,,,,,,,,,,,,,,,,,,,,,,,,,
62,2.471254348754883,0.6159536838531494,1.5646017789840698,0.38930496484041216,0.0,-2.1855695031547384e-08,-1.2423779338632812e-08,0.5000311136245728,0.5000311136245728,0.6235880851745605,1.5886234045028687,0.38862419784069063,0.0,2.7616752884540574e-07,-1.2073703601345187e-06,0.5000331401824951,0.5000287294387817,,,,,,,,,,,,,,,,,,,,,,,,,,,,,,,,,,,,,,,,,,,,,,,,,,,,,,,,,,,,,,,,,,,,,,,,,,,,,,,,,,,,,,,,,,,,,,,,,,,,,,,,,,,,,,,,,,,,,,,,,,,,,,,,,,,,,,6.451305978316668e-08,-7.848976935065366e-08,-1.0916025416918274e-08,0.0,-2.3554658667990225e-08,6.260030716020992e-08,-0.00015662475198041648,-0.0001563853002153337,0.0003791464550886303,0.000515734136570245,-1.9121707737213e-05,0.0,-1.7461824199926923e-06,6.869176559121115e-06,0.00016764557221904397,0.00014264062338043004,,,,,,,,,,,,,,,,,,,,,,,,,,,,,,,,,,,,,,,,,,,,,,,,,,,,,,,,,,,,,,,,,,,,,,,,,,
63,2.493269443511963,0.6159536838531494,1.5646017789840698,0.38930496484041216,0.0,-2.1855695031547384e-08,-1.0268679240255096e-08,0.500025749206543,0.5000256896018982,0.6236004829406738,1.5886402130126953,0.3886235719919205,0.0,2.1656288407001512e-07,-9.846082775766263e-07,0.5000276565551758,0.5000240206718445,,,,,,,,,,,,,,,,,,,,,,,,,,,,,,,,,,,,,,,,,,,,,,,,,,,,,,,,,,,,,,,,,,,,,,,,,,,,,,,,,,,,,,,,,,,,,,,,,,,,,,,,,,,,,,,,,,,,,,,,,,,,,,,,,,,,,,5.334494090902808e-08,-6.490441251116863e-08,-9.022525837565354e-09,0.0,-1.9439728049519545e-08,5.1741192663712354e-08,-0.0001294909743592143,-0.000129309730255045,0.00031665764981880784,0.0004307372437324375,-1.5964522390277125e-05,0.0,-1.4312953453554655e-06,5.6173958000727e-06,0.00013985278201289475,0.00011939858086407185,,,,,,,,,,,,,,,,,,,,,,,,,,,,,,,,,,,,,,,,,,,,,,,,,,,,,,,,,,,,,,,,,,,,,,,,,,
64,2.5155489444732666,0.6159536838531494,1.5646017789840698,0.38930496484041216,0.0,-2.1855695031547384e-08,-1.0268679240255096e-08,0.500025749206543,0.5000256896018982,0.6236109137535095,1.5886543989181519,0.3886230504512787,0.0,1.569582392946245e-07,-8.024820203900163e-07,0.5000230669975281,0.5000201463699341,,,,,,,,,,,,,,,,,,,,,,,,,,,,,,,,,,,,,,,,,,,,,,,,,,,,,,,,,,,,,,,,,,,,,,,,,,,,,,,,,,,,,,,,,,,,,,,,,,,,,,,,,,,,,,,,,,,,,,,,,,,,,,,,,,,,,,5.334494090902808e-08,-6.490441251116863e-08,-9.022525837565354e-09,0.0,-1.9439728049519545e-08,5.1741192663712354e-08,-0.0001294909743592143,-0.000129309730255045,0.00026446793344803154,0.00035974846105091274,-1.3328620298125315e-05,0.0,-1.1727602213795763e-06,4.591669039655244e-06,0.00011666741193039343,9.99430994852446e-05,,,,,,,,,,,,,,,,,,,,,,,,,,,,,,,,,,,,,,,,,,,,,,,,,,,,,,,,,,,,,,,,,,,,,,,,,,
65,2.5379130840301514,0.6159536838531494,1.5646017789840698,0.38930496484041216,0.0,-2.1855695031547384e-08,-8.572945020546285e-09,0.5000215172767639,0.5000214576721191,0.6236113905906677,1.5886551141738892,0.3886230280995369,0.0,1.569582392946245e-07,-7.934010568533267e-07,0.500022828578949,0.500019907951355,,,,,,,,,,,,,,,,,,,,,,,,,,,,,,,,,,,,,,,,,,,,,,,,,,,,,,,,,,,,,,,,,,,,,,,,,,,,,,,,,,,,,,,,,,,,,,,,,,,,,,,,,,,,,,,,,,,,,,,,,,,,,,,,,,,,,,4.4553917888379146e-08,-5.42098597122731e-08,-7.532641177476762e-09,0.0,-1.620636957966326e-08,4.3197111665449484e-08,-0.00010813520202646032,-0.00010799706797115505,0.0002618349390104413,0.0003561670600902289,-1.3195664905651938e-05,0.0,-1.1598384617172997e-06,4.540461304713972e-06,0.00011549844202818349,9.89603649941273e-05,,,,,,,,,,,,,,,,,,,,,,,,,,,,,,,,,,,,,,,,,,,,,,,,,,,,,,,,,,,,,,,,,,,,,,,,,,
66,2.558823823928833,0.6159536838531494,1.5646017789840698,0.38930496484041216,0.0,-2.1855695031547384e-08,-7.085829700770319e-09,0.5000177621841431,0.5000177621841431,0.6236204504966736,1.588667392730713,0.3886225736141205,0.0,1.569582392946245e-07,-6.388917768163083e-07,0.500018835067749,0.5000165104866028,,,,,,,,,,,,,,,,,,,,,,,,,,,,,,,,,,,,,,,,,,,,,,,,,,,,,,,,,,,,,,,,,,,,,,,,,,,,,,,,,,,,,,,,,,,,,,,,,,,,,,,,,,,,,,,,,,,,,,,,,,,,,,,,,,,,,,3.6841196759951345e-08,-4.482714288656098e-08,-6.2261378275252355e-09,0.0,-1.3374579665992314e-08,3.570378481754233e-08,-8.940178668126464e-05,-8.929913019528612e-05,0.00021650367125403136,0.00029450663714669645,-1.0907034265983384e-05,0.0,-9.394660196448967e-07,3.668070803541923e-06,9.538509766571224e-05,8.202021126635373e-05,,,,,,,,,,,,,,,,,,,,,,,,,,,,,,,,,,,,,,,,,,,,,,,,,,,,,,,,,,,,,,,,,,,,,,,,,,
67,2.580549716949463,0.6159536838531494,1.5646017789840698,0.38930496484041216,0.0,-2.1855695031547384e-08,-7.085829700770319e-09,0.5000177621841431,0.5000177621841431,0.6236204504966736,1.588667392730713,0.3886225736141205,0.0,1.569582392946245e-07,-6.388917768163083e-07,0.500018835067749,0.5000165104866028,,,,,,,,,,,,,,,,,,,,,,,,,,,,,,,,,,,,,,,,,,,,,,,,,,,,,,,,,,,,,,,,,,,,,,,,,,,,,,,,,,,,,,,,,,,,,,,,,,,,,,,,,,,,,,,,,,,,,,,,,,,,,,,,,,,,,,3.6841196759951345e-08,-4.482714288656098e-08,-6.2261378275252355e-09,0.0,-1.3374579665992314e-08,3.570378481754233e-08,-8.940178668126464e-05,-8.929913019528612e-05,0.00021650367125403136,0.00029450663714669645,-1.0907034265983384e-05,0.0,-9.394660196448967e-07,3.668070803541923e-06,9.538509766571224e-05,8.202021126635373e-05,,,,,,,,,,,,,,,,,,,,,,,,,,,,,,,,,,,,,,,,,,,,,,,,,,,,,,,,,,,,,,,,,,,,,,,,,,
68,2.602536678314209,0.6159536838531494,1.5646017789840698,0.38930496484041216,0.0,-2.1855695031547384e-08,-5.915697265379549e-09,0.5000148415565491,0.5000148415565491,0.6236279010772705,1.5886775255203247,0.38862219363451006,0.0,9.735359451923387e-08,-5.14103987825365e-07,0.5000155568122864,0.5000137090682983,,,,,,,,,,,,,,,,,,,,,,,,,,,,,,,,,,,,,,,,,,,,,,,,,,,,,,,,,,,,,,,,,,,,,,,,,,,,,,,,,,,,,,,,,,,,,,,,,,,,,,,,,,,,,,,,,,,,,,,,,,,,,,,,,,,,,,3.0769943037967096e-08,-3.744116128245878e-08,-5.198029562336615e-09,0.0,-1.1150413925520297e-08,2.9807967649730926e-08,-7.46575606171973e-05,-7.458095933543518e-05,0.00017902055697049946,0.00024352101900149137,-9.015338946483098e-06,0.0,-7.606283816130599e-07,2.96167422675353e-06,7.877426833147183e-05,6.797949026804417e-05,,,,,,,,,,,,,,,,,,,,,,,,,,,,,,,,,,,,,,,,,,,,,,,,,,,,,,,,,,,,,,,,,,,,,,,,,,
69,2.6234560012817383,0.6159536838531494,1.5646017789840698,0.38930496484041216,0.0,-2.1855695031547384e-08,-5.915697265379549e-09,0.5000148415565491,0.5000148415565491,0.6236279010772705,1.5886775255203247,0.38862219363451006,0.0,9.735359451923387e-08,-5.14103987825365e-07,0.5000155568122864,0.5000137090682983,,,,,,,,,,,,,,,,,,,,,,,,,,,,,,,,,,,,,,,,,,,,,,,,,,,,,,,,,,,,,,,,,,,,,,,,,,,,,,,,,,,,,,,,,,,,,,,,,,,,,,,,,,,,,,,,,,,,,,,,,,,,,,,,,,,,,,3.0769943037967096e-08,-3.744116128245878e-08,-5.198029562336615e-09,0.0,-1.1150413925520297e-08,2.9807967649730926e-08,-7.46575606171973e-05,-7.458095933543518e-05,0.00017902055697049946,0.00024352101900149137,-9.015338946483098e-06,0.0,-7.606283816130599e-07,2.96167422675353e-06,7.877426833147183e-05,6.797949026804417e-05,,,,,,,,,,,,,,,,,,,,,,,,,,,,,,,,,,,,,,,,,,,,,,,,,,,,,,,,,,,,,,,,,,,,,,,,,,
70,2.644965171813965,0.6159536838531494,1.5646017789840698,0.38930496484041216,0.0,-2.1855695031547384e-08,-4.889521676432196e-09,0.5000122785568237,0.5000122785568237,0.6236337423324585,1.5886855125427246,0.3886219030618668,0.0,9.735359451923387e-08,-4.181569579486677e-07,0.500012993812561,0.5000114440917969,,,,,,,,,,,,,,,,,,,,,,,,,,,,,,,,,,,,,,,,,,,,,,,,,,,,,,,,,,,,,,,,,,,,,,,,,,,,,,,,,,,,,,,,,,,,,,,,,,,,,,,,,,,,,,,,,,,,,,,,,,,,,,,,,,,,,,2.5443203099939637e-08,-3.096079126407858e-08,-4.296459188424251e-09,0.0,-9.201806427938664e-09,2.4637239803837474e-08,-6.172383291414008e-05,-6.166847015265375e-05,0.00014951541379559785,0.00020338690956123173,-7.526818080805242e-06,0.0,-6.224523190212494e-07,2.417107452856726e-06,6.571448466274887e-05,5.690157922799699e-05,,,,,,,,,,,,,,,,,,,,,,,,,,,,,,,,,,,,,,,,,,,,,,,,,,,,,,,,,,,,,,,,,,,,,,,,,,
71,2.666980504989624,0.6159536838531494,1.5646017789840698,0.38930496484041216,0.0,-2.1855695031547384e-08,-4.889521676432196e-09,0.5000122785568237,0.5000122785568237,0.6236388683319092,1.5886924266815186,0.3886216422915459,0.0,3.774894974384324e-08,-3.3597450510569615e-07,0.5000107288360596,0.5000094771385193,,,,,,,,,,,,,,,,,,,,,,,,,,,,,,,,,,,,,,,,,,,,,,,,,,,,,,,,,,,,,,,,,,,,,,,,,,,,,,,,,,,,,,,,,,,,,,,,,,,,,,,,,,,,,,,,,,,,,,,,,,,,,,,,,,,,,,2.5443203099939637e-08,-3.096079126407858e-08,-4.296459188424251e-09,0.0,-9.201806427938664e-09,2.4637239803837474e-08,-6.172383291414008e-05,-6.166847015265375e-05,0.00012362992856651545,0.000168176120496355,-6.221382136573084e-06,0.0,-5.035002459408133e-07,1.9493834315653658e-06,5.427049472928047e-05,4.7160283429548144e-05,,,,,,,,,,,,,,,,,,,,,,,,,,,,,,,,,,,,,,,,,,,,,,,,,,,,,,,,,,,,,,,,,,,,,,,,,,
72,2.6891727447509766,0.6159536838531494,1.5646017789840698,0.38930496484041216,0.0,-2.1855695031547384e-08,-4.041351253647463e-09,0.5000101327896118,0.5000101327896118,0.6236388683319092,1.5886924266815186,0.3886216422915459,0.0,3.774894974384324e-08,-3.3597450510569615e-07,0.5000107288360596,0.5000094771385193,,,,,,,,,,,,,,,,,,,,,,,,,,,,,,,,,,,,,,,,,,,,,,,,,,,,,,,,,,,,,,,,,,,,,,,,,,,,,,,,,,,,,,,,,,,,,,,,,,,,,,,,,,,,,,,,,,,,,,,,,,,,,,,,,,,,,,2.103889329418962e-08,-2.5601964992461035e-08,-3.5511871221416413e-09,0.0,-7.593759399071587e-09,2.0363577490911666e-08,-5.1030758186243474e-05,-5.099157351651229e-05,0.00012362992856651545,0.000168176120496355,-6.221382136573084e-06,0.0,-5.035002459408133e-07,1.9493834315653658e-06,5.427049472928047e-05,4.7160283429548144e-05,,,,,,,,,,,,,,,,,,,,,,,,,,,,,,,,,,,,,,,,,,,,,,,,,,,,,,,,,,,,,,,,,,,,,,,,,,
73,2.711049795150757,0.6159536838531494,1.5646017789840698,0.38930496484041216,0.0,-2.1855695031547384e-08,-3.3403100285767096e-09,0.5000084042549133,0.5000084042549133,0.623643159866333,1.5886982679367065,0.3886214262247086,0.0,3.774894974384324e-08,-2.697160255138442e-07,0.5000088810920715,0.5000078678131104,,,,,,,,,,,,,,,,,,,,,,,,,,,,,,,,,,,,,,,,,,,,,,,,,,,,,,,,,,,,,,,,,,,,,,,,,,,,,,,,,,,,,,,,,,,,,,,,,,,,,,,,,,,,,,,,,,,,,,,,,,,,,,,,,,,,,,1.7396528662061428e-08,-2.117039876736726e-08,-2.935200749121236e-09,0.0,-6.267097951706546e-09,1.6830835392056542e-08,-4.2190153180854395e-05,-4.216320303385146e-05,0.00010222598211839795,0.00013906109961681068,-5.142358531884383e-06,0.0,-4.07077038744319e-07,1.5711705145804444e-06,4.481937867240049e-05,3.9086418837541714e-05,,,,,,,,,,,,,,,,,,,,,,,,,,,,,,,,,,,,,,,,,,,,,,,,,,,,,,,,,,,,,,,,,,,,,,,,,,
74,2.7331535816192627,0.6159536838531494,1.5646017789840698,0.38930496484041216,0.0,-2.1855695031547384e-08,-3.3403100285767096e-09,0.5000084042549133,0.5000084042549133,0.623643159866333,1.5886982679367065,0.3886214262247086,0.0,3.774894974384324e-08,-2.697160255138442e-07,0.5000088810920715,0.5000078678131104,,,,,,,,,,,,,,,,,,,,,,,,,,,,,,,,,,,,,,,,,,,,,,,,,,,,,,,,,,,,,,,,,,,,,,,,,,,,,,,,,,,,,,,,,,,,,,,,,,,,,,,,,,,,,,,,,,,,,,,,,,,,,,,,,,,,,,1.7396528662061428e-08,-2.117039876736726e-08,-2.935200749121236e-09,0.0,-6.267097951706546e-09,1.6830835392056542e-08,-4.2190153180854395e-05,-4.216320303385146e-05,0.00010222598211839795,0.00013906109961681068,-5.142358531884383e-06,0.0,-4.07077038744319e-07,1.5711705145804444e-06,4.481937867240049e-05,3.9086418837541714e-05,,,,,,,,,,,,,,,,,,,,,,,,,,,,,,,,,,,,,,,,,,,,,,,,,,,,,,,,,,,,,,,,,,,,,,,,,,
75,2.7545292377471924,0.6159536838531494,1.5646017789840698,0.38930496484041216,0.0,-2.1855695031547384e-08,-2.7608750841068286e-09,0.500006914138794,0.500006914138794,0.6236464977264404,1.5887027978897095,0.38862125486135485,0.0,3.774894974384324e-08,-2.1886172874019394e-07,0.5000073909759521,0.5000066161155701,,,,,,,,,,,,,,,,,,,,,,,,,,,,,,,,,,,,,,,,,,,,,,,,,,,,,,,,,,,,,,,,,,,,,,,,,,,,,,,,,,,,,,,,,,,,,,,,,,,,,,,,,,,,,,,,,,,,,,,,,,,,,,,,,,,,,,1.4385215685308594e-08,-1.750644074149932e-08,-2.426121747944876e-09,0.0,-5.171751915611367e-09,1.3911320095871815e-08,-3.488110451144166e-05,-3.4863325709011406e-05,8.537768007954583e-05,0.00011614277900662273,-4.293305210012477e-06,0.0,-3.326620685584203e-07,1.2800074955521268e-06,3.738874875125475e-05,3.271637615398504e-05,,,,,,,,,,,,,,,,,,,,,,,,,,,,,,,,,,,,,,,,,,,,,,,,,,,,,,,,,,,,,,,,,,,,,,,,,,
76,2.776568651199341,0.6159536838531494,1.5646017789840698,0.38930496484041216,0.0,-2.1855695031547384e-08,-2.7608750841068286e-09,0.500006914138794,0.500006914138794,0.6236492991447449,1.588706612586975,0.3886211133003235,0.0,3.774894974384324e-08,-1.7744473268521688e-07,0.5000061392784119,0.5000054836273193,,,,,,,,,,,,,,,,,,,,,,,,,,,,,,,,,,,,,,,,,,,,,,,,,,,,,,,,,,,,,,,,,,,,,,,,,,,,,,,,,,,,,,,,,,,,,,,,,,,,,,,,,,,,,,,,,,,,,,,,,,,,,,,,,,,,,,1.4385215685308594e-08,-1.750644074149932e-08,-2.426121747944876e-09,0.0,-5.171751915611367e-09,1.3911320095871815e-08,-3.488110451144166e-05,-3.4863325709011406e-05,7.130621816031635e-05,9.700156806502491e-05,-3.5844386729877442e-06,0.0,-2.717175391353521e-07,1.0421457545817248e-06,3.1190007575787604e-05,2.7384336135583e-05,,,,,,,,,,,,,,,,,,,,,,,,,,,,,,,,,,,,,,,,,,,,,,,,,,,,,,,,,,,,,,,,,,,,,,,,,,
77,2.797844648361206,0.6159536838531494,1.5646017789840698,0.38930496484041216,0.0,-2.1855695031547384e-08,-2.2819526268591517e-09,0.5000057220458984,0.5000057220458984,0.6236492991447449,1.588706612586975,0.3886211133003235,0.0,3.774894974384324e-08,-1.7744473268521688e-07,0.5000061392784119,0.5000054836273193,,,,,,,,,,,,,,,,,,,,,,,,,,,,,,,,,,,,,,,,,,,,,,,,,,,,,,,,,,,,,,,,,,,,,,,,,,,,,,,,,,,,,,,,,,,,,,,,,,,,,,,,,,,,,,,,,,,,,,,,,,,,,,,,,,,,,,1.1894874418771906e-08,-1.4476420062692341e-08,-2.005340338229189e-09,0.0,-4.2683079293226456e-09,1.1498311636159997e-08,-2.883827983168885e-05,-2.8827302230638452e-05,7.130621816031635e-05,9.700156806502491e-05,-3.5844386729877442e-06,0.0,-2.717175391353521e-07,1.0421457545817248e-06,3.1190007575787604e-05,2.7384336135583e-05,,,,,,,,,,,,,,,,,,,,,,,,,,,,,,,,,,,,,,,,,,,,,,,,,,,,,,,,,,,,,,,,,,,,,,,,,,
78,2.8200395107269287,0.6159536838531494,1.5646017789840698,0.38930496484041216,0.0,-2.1855695031547384e-08,-1.905115176725758e-09,0.500004768371582,0.500004768371582,0.6236517429351807,1.5887099504470825,0.38862099409103396,0.0,3.774894974384324e-08,-1.4205902232333756e-07,0.5000050663948059,0.5000045895576477,,,,,,,,,,,,,,,,,,,,,,,,,,,,,,,,,,,,,,,,,,,,,,,,,,,,,,,,,,,,,,,,,,,,,,,,,,,,,,,,,,,,,,,,,,,,,,,,,,,,,,,,,,,,,,,,,,,,,,,,,,,,,,,,,,,,,,9.934608691253288e-09,-1.209099487198273e-08,-1.67416780438856e-09,0.0,-3.5583758162260892e-09,9.599302686069677e-09,-2.4082242816803046e-05,-2.4076020054053515e-05,5.89610353927128e-05,8.020844688871875e-05,-2.962761300295824e-06,0.0,-2.193355470581082e-07,8.382467626688594e-07,2.5758217816473916e-05,2.269573997182306e-05,,,,,,,,,,,,,,,,,,,,,,,,,,,,,,,,,,,,,,,,,,,,,,,,,,,,,,,,,,,,,,,,,,,,,,,,,,
79,2.8421337604522705,0.6159536838531494,1.5646017789840698,0.38930496484041216,0.0,-2.1855695031547384e-08,-1.8861074924103605e-09,0.500004768371582,0.500004768371582,0.6236517429351807,1.5887099504470825,0.38862099409103396,0.0,3.774894974384324e-08,-1.4205902232333756e-07,0.5000050663948059,0.5000045895576477,,,,,,,,,,,,,,,,,,,,,,,,,,,,,,,,,,,,,,,,,,,,,,,,,,,,,,,,,,,,,,,,,,,,,,,,,,,,,,,,,,,,,,,,,,,,,,,,,,,,,,,,,,,,,,,,,,,,,,,,,,,,,,,,,,,,,,9.835909864364112e-09,-1.1970757718415825e-08,-1.6573825645238571e-09,0.0,-3.5222380567745404e-09,9.503819065059815e-09,-2.3842316295485944e-05,-2.3836319087422453e-05,5.89610353927128e-05,8.020844688871875e-05,-2.962761300295824e-06,0.0,-2.193355470581082e-07,8.382467626688594e-07,2.5758217816473916e-05,2.269573997182306e-05,,,,,,,,,,,,,,,,,,,,,,,,,,,,,,,,,,,,,,,,,,,,,,,,,,,,,,,,,,,,,,,,,,,,,,,,,,
80,2.8635830879211426,0.6159536838531494,1.5646017789840698,0.38930496484041216,0.0,-2.1855695031547384e-08,-1.5746386416992664e-09,0.5000039339065552,0.5000039339065552,0.623653769493103,1.5887126922607422,0.3886208897829056,0.0,3.774894974384324e-08,-1.1360780405311743e-07,0.500004231929779,0.5000038146972656,,,,,,,,,,,,,,,,,,,,,,,,,,,,,,,,,,,,,,,,,,,,,,,,,,,,,,,,,,,,,,,,,,,,,,,,,,,,,,,,,,,,,,,,,,,,,,,,,,,,,,,,,,,,,,,,,,,,,,,,,,,,,,,,,,,,,,8.2148181590469e-09,-9.998113448261847e-09,-1.3837889722978503e-09,0.0,-2.9364843889823078e-09,7.934113810392773e-09,-1.991021963476669e-05,-1.990764394577127e-05,4.875316153629683e-05,6.632258737226948e-05,-2.448906116114813e-06,0.0,-1.7694551956992655e-07,6.737153057656542e-07,2.127235165971797e-05,1.8809791072271764e-05,,,,,,,,,,,,,,,,,,,,,,,,,,,,,,,,,,,,,,,,,,,,,,,,,,,,,,,,,,,,,,,,,,,,,,,,,,
81,2.884808301925659,0.6159536838531494,1.5646017789840698,0.38930496484041216,0.0,-2.1855695031547384e-08,-1.5746386416992664e-09,0.5000039339065552,0.5000039339065552,0.623653769493103,1.5887126922607422,0.3886208897829056,0.0,3.774894974384324e-08,-1.1360780405311743e-07,0.500004231929779,0.5000038146972656,,,,,,,,,,,,,,,,,,,,,,,,,,,,,,,,,,,,,,,,,,,,,,,,,,,,,,,,,,,,,,,,,,,,,,,,,,,,,,,,,,,,,,,,,,,,,,,,,,,,,,,,,,,,,,,,,,,,,,,,,,,,,,,,,,,,,,8.2148181590469e-09,-9.998113448261847e-09,-1.3837889722978503e-09,0.0,-2.9364843889823078e-09,7.934113810392773e-09,-1.991021963476669e-05,-1.990764394577127e-05,4.875316153629683e-05,6.632258737226948e-05,-2.448906116114813e-06,0.0,-1.7694551956992655e-07,6.737153057656542e-07,2.127235165971797e-05,1.8809791072271764e-05,,,,,,,,,,,,,,,,,,,,,,,,,,,,,,,,,,,,,,,,,,,,,,,,,,,,,,,,,,,,,,,,,,,,,,,,,,
82,2.905979633331299,0.6159536838531494,1.5646017789840698,0.38930496484041216,0.0,-2.1855695031547384e-08,-1.3014883615269923e-09,0.5000032782554626,0.5000032782554626,0.6236554384231567,1.5887149572372437,0.38862080782651903,0.0,-2.1855695031547384e-08,-9.075048978957057e-08,0.500003457069397,0.5000031590461731,,,,,,,,,,,,,,,,,,,,,,,,,,,,,,,,,,,,,,,,,,,,,,,,,,,,,,,,,,,,,,,,,,,,,,,,,,,,,,,,,,,,,,,,,,,,,,,,,,,,,,,,,,,,,,,,,,,,,,,,,,,,,,,,,,,,,,6.792788553866558e-09,-8.267608819778616e-09,-1.1437240043932206e-09,0.0,-2.4233948181517917e-09,6.557866250034294e-09,-1.6460959159303457e-05,-1.646095552132465e-05,4.031256685266271e-05,5.4840675147715956e-05,-2.0241732272552326e-06,0.0,-1.426585498620625e-07,5.410319090515259e-07,1.7567688701092266e-05,1.5589101167279296e-05,,,,,,,,,,,,,,,,,,,,,,,,,,,,,,,,,,,,,,,,,,,,,,,,,,,,,,,,,,,,,,,,,,,,,,,,,,
83,2.928065776824951,0.6159536838531494,1.5646017789840698,0.38930496484041216,0.0,-2.1855695031547384e-08,-1.3014883615269923e-09,0.5000032782554626,0.5000032782554626,0.6236568093299866,1.5887168645858765,0.38862074077129366,0.0,-2.1855695031547384e-08,-7.327105322474381e-08,0.500002920627594,0.5000026226043701,,,,,,,,,,,,,,,,,,,,,,,,,,,,,,,,,,,,,,,,,,,,,,,,,,,,,,,,,,,,,,,,,,,,,,,,,,,,,,,,,,,,,,,,,,,,,,,,,,,,,,,,,,,,,,,,,,,,,,,,,,,,,,,,,,,,,,6.792788553866558e-09,-8.267608819778616e-09,-1.1437240043932206e-09,0.0,-2.4233948181517917e-09,6.557866250034294e-09,-1.6460959159303457e-05,-1.646095552132465e-05,3.366848250152543e-05,4.580251334118657e-05,-1.6899625734367874e-06,0.0,-1.1625600393472268e-07,4.3916955405620683e-07,1.4655037375632674e-05,1.3048142136540264e-05,,,,,,,,,,,,,,,,,,,,,,,,,,,,,,,,,,,,,,,,,,,,,,,,,,,,,,,,,,,,,,,,,,,,,,,,,,
84,2.9494292736053467,0.6159536838531494,1.5646017789840698,0.38930496484041216,0.0,-2.1855695031547384e-08,-1.0757200685773682e-09,0.5000026822090149,0.5000026822090149,0.6236568689346313,1.5887168645858765,0.38862074077129366,0.0,-2.1855695031547384e-08,-7.240285526677326e-08,0.5000028610229492,0.5000026226043701,,,,,,,,,,,,,,,,,,,,,,,,,,,,,,,,,,,,,,,,,,,,,,,,,,,,,,,,,,,,,,,,,,,,,,,,,,,,,,,,,,,,,,,,,,,,,,,,,,,,,,,,,,,,,,,,,,,,,,,,,,,,,,,,,,,,,,5.616784815032361e-09,-6.836531341036789e-09,-9.453341442977603e-10,0.0,-2.0000667788622195e-09,5.4203481703041234e-09,-1.3609252164314967e-05,-1.3611004760605283e-05,3.3333286410197616e-05,4.534653635346331e-05,-1.6731049754525884e-06,0.0,-1.1494044827031757e-07,4.3409903582869447e-07,1.4508187632600311e-05,1.2919796972710174e-05,,,,,,,,,,,,,,,,,,,,,,,,,,,,,,,,,,,,,,,,,,,,,,,,,,,,,,,,,,,,,,,,,,,,,,,,,,
85,2.9711415767669678,0.6159536838531494,1.5646017789840698,0.38930496484041216,0.0,-2.1855695031547384e-08,-9.0712737321752e-10,0.5000022649765015,0.5000022649765015,0.6236580014228821,1.5887184143066406,0.3886206811666489,0.0,-2.1855695031547384e-08,-5.7688428256597035e-08,0.500002384185791,0.5000021457672119,,,,,,,,,,,,,,,,,,,,,,,,,,,,,,,,,,,,,,,,,,,,,,,,,,,,,,,,,,,,,,,,,,,,,,,,,,,,,,,,,,,,,,,,,,,,,,,,,,,,,,,,,,,,,,,,,,,,,,,,,,,,,,,,,,,,,,4.738542891402631e-09,-5.767608612927688e-09,-7.972580928772288e-10,0.0,-1.6838197502977437e-09,4.570891221078455e-09,-1.1479165550554171e-05,-1.1481969522719737e-05,2.756232424871996e-05,3.7496047298191115e-05,-1.382925233883725e-06,0.0,-9.254208777065287e-08,3.4797790249285754e-07,1.1981496754742693e-05,1.0707492037909105e-05,,,,,,,,,,,,,,,,,,,,,,,,,,,,,,,,,,,,,,,,,,,,,,,,,,,,,,,,,,,,,,,,,,,,,,,,,,
86,2.992426872253418,0.6159536838531494,1.5646017789840698,0.38930496484041216,0.0,-2.1855695031547384e-08,-9.0712737321752e-10,0.5000022649765015,0.5000022649765015,0.6236580014228821,1.5887184143066406,0.3886206811666489,0.0,-2.1855695031547384e-08,-5.7688428256597035e-08,0.500002384185791,0.5000021457672119,,,,,,,,,,,,,,,,,,,,,,,,,,,,,,,,,,,,,,,,,,,,,,,,,,,,,,,,,,,,,,,,,,,,,,,,,,,,,,,,,,,,,,,,,,,,,,,,,,,,,,,,,,,,,,,,,,,,,,,,,,,,,,,,,,,,,,4.738542891402631e-09,-5.767608612927688e-09,-7.972580928772288e-10,0.0,-1.6838197502977437e-09,4.570891221078455e-09,-1.1479165550554171e-05,-1.1481969522719737e-05,2.756232424871996e-05,3.7496047298191115e-05,-1.382925233883725e-06,0.0,-9.254208777065287e-08,3.4797790249285754e-07,1.1981496754742693e-05,1.0707492037909105e-05,,,,,,,,,,,,,,,,,,,,,,,,,,,,,,,,,,,,,,,,,,,,,,,,,,,,,,,,,,,,,,,,,,,,,,,,,,
87,3.013772964477539,0.6159536838531494,1.5646017789840698,0.38930496484041216,0.0,-2.1855695031547384e-08,-7.49769080155005e-10,0.5000019073486328,0.5000019073486328,0.6236588954925537,1.5887197256088257,0.3886206364631653,0.0,-2.1855695031547384e-08,-4.645640316880417e-08,0.5000019669532776,0.5000017881393433,,,,,,,,,,,,,,,,,,,,,,,,,,,,,,,,,,,,,,,,,,,,,,,,,,,,,,,,,,,,,,,,,,,,,,,,,,,,,,,,,,,,,,,,,,,,,,,,,,,,,,,,,,,,,,,,,,,,,,,,,,,,,,,,,,,,,,3.91808807620464e-09,-4.7692960691847475e-09,-6.589589984784539e-10,0.0,-1.3898882045282335e-09,3.77772746418259e-09,-9.49050718190847e-06,-9.494050573266577e-06,2.3019660147838295e-05,3.131641278741881e-05,-1.1545909046617453e-06,0.0,-7.531325252330134e-08,2.8195037771183706e-07,9.994987522077281e-06,8.96211713552475e-06,,,,,,,,,,,,,,,,,,,,,,,,,,,,,,,,,,,,,,,,,,,,,,,,,,,,,,,,,,,,,,,,,,,,,,,,,,
88,3.0358083248138428,0.6159536838531494,1.5646017789840698,0.38930496484041216,0.0,-2.1855695031547384e-08,-7.49769080155005e-10,0.5000019073486328,0.5000019073486328,0.6236588954925537,1.5887197256088257,0.3886206364631653,0.0,-2.1855695031547384e-08,-4.645640316880417e-08,0.5000019669532776,0.5000017881393433,,,,,,,,,,,,,,,,,,,,,,,,,,,,,,,,,,,,,,,,,,,,,,,,,,,,,,,,,,,,,,,,,,,,,,,,,,,,,,,,,,,,,,,,,,,,,,,,,,,,,,,,,,,,,,,,,,,,,,,,,,,,,,,,,,,,,,3.91808807620464e-09,-4.7692960691847475e-09,-6.589589984784539e-10,0.0,-1.3898882045282335e-09,3.77772746418259e-09,-9.49050718190847e-06,-9.494050573266577e-06,2.3019660147838295e-05,3.131641278741881e-05,-1.1545909046617453e-06,0.0,-7.531325252330134e-08,2.8195037771183706e-07,9.994987522077281e-06,8.96211713552475e-06,,,,,,,,,,,,,,,,,,,,,,,,,,,,,,,,,,,,,,,,,,,,,,,,,,,,,,,,,,,,,,,,,,,,,,,,,,
89,3.0585858821868896,0.6159536838531494,1.5646017789840698,0.38930496484041216,0.0,-2.1855695031547384e-08,-6.197060642421093e-10,0.5000015497207642,0.5000015497207642,0.6236596703529358,1.588720679283142,0.3886205992102623,0.0,-2.1855695031547384e-08,-3.7359935589620363e-08,0.5000016689300537,0.5000014901161194,,,,,,,,,,,,,,,,,,,,,,,,,,,,,,,,,,,,,,,,,,,,,,,,,,,,,,,,,,,,,,,,,,,,,,,,,,,,,,,,,,,,,,,,,,,,,,,,,,,,,,,,,,,,,,,,,,,,,,,,,,,,,,,,,,,,,,3.239852830461132e-09,-3.943956272678406e-09,-5.446129658359666e-10,0.0,-1.1470824290427117e-09,3.1226279340046403e-09,-7.846365406294353e-06,-7.850307156331837e-06,1.9225692085456103e-05,2.6155230443691835e-05,-9.639568361308193e-07,0.0,-6.124983542576956e-08,2.2823664380666742e-07,8.337826329807285e-06,7.50120852899272e-06,,,,,,,,,,,,,,,,,,,,,,,,,,,,,,,,,,,,,,,,,,,,,,,,,,,,,,,,,,,,,,,,,,,,,,,,,,
90,3.0794880390167236,0.6159536838531494,1.5646017789840698,0.38930496484041216,0.0,-2.1855695031547384e-08,-6.197060642421093e-10,0.5000015497207642,0.5000015497207642,0.6236603260040283,1.5887216329574585,0.38862056195735933,0.0,-2.1855695031547384e-08,-2.9635357279289565e-08,0.5000013709068298,0.5000012516975403,,,,,,,,,,,,,,,,,,,,,,,,,,,,,,,,,,,,,,,,,,,,,,,,,,,,,,,,,,,,,,,,,,,,,,,,,,,,,,,,,,,,,,,,,,,,,,,,,,,,,,,,,,,,,,,,,,,,,,,,,,,,,,,,,,,,,,3.239852830461132e-09,-3.943956272678406e-09,-5.446129658359666e-10,0.0,-1.1470824290427117e-09,3.1226279340046403e-09,-7.846365406294353e-06,-7.850307156331837e-06,1.5897165212663822e-05,2.1627180103678256e-05,-7.967702231326257e-07,0.0,-4.920430640709128e-08,1.823999440375701e-07,6.885714356030803e-06,6.216646397660952e-06,,,,,,,,,,,,,,,,,,,,,,,,,,,,,,,,,,,,,,,,,,,,,,,,,,,,,,,,,,,,,,,,,,,,,,,,,,
91,3.100754499435425,0.6159536838531494,1.5646017789840698,0.38930496484041216,0.0,-2.1855695031547384e-08,-5.122055002360071e-10,0.5000013113021851,0.5000013113021851,0.6236603260040283,1.5887216329574585,0.38862056195735933,0.0,-2.1855695031547384e-08,-2.9635357279289565e-08,0.5000013709068298,0.5000012516975403,,,,,,,,,,,,,,,,,,,,,,,,,,,,,,,,,,,,,,,,,,,,,,,,,,,,,,,,,,,,,,,,,,,,,,,,,,,,,,,,,,,,,,,,,,,,,,,,,,,,,,,,,,,,,,,,,,,,,,,,,,,,,,,,,,,,,,2.6789681584205027e-09,-3.26139115713886e-09,-4.5016074201598144e-10,0.0,-9.46687173097871e-10,2.581004299173628e-09,-6.4870559981500264e-06,-6.491151907539461e-06,1.5897165212663822e-05,2.1627180103678256e-05,-7.967702231326257e-07,0.0,-4.920430640709128e-08,1.823999440375701e-07,6.885714356030803e-06,6.216646397660952e-06,,,,,,,,,,,,,,,,,,,,,,,,,,,,,,,,,,,,,,,,,,,,,,,,,,,,,,,,,,,,,,,,,,,,,,,,,,
92,3.121584177017212,0.6159536838531494,1.5646017789840698,0.38930496484041216,0.0,-2.1855695031547384e-08,-4.276196896579876e-10,0.500001072883606,0.500001072883606,0.6236608624458313,1.5887223482131958,0.38862053960561754,0.0,-2.1855695031547384e-08,-2.3465810627953942e-08,0.5000011324882507,0.5000010132789612,,,,,,,,,,,,,,,,,,,,,,,,,,,,,,,,,,,,,,,,,,,,,,,,,,,,,,,,,,,,,,,,,,,,,,,,,,,,,,,,,,,,,,,,,,,,,,,,,,,,,,,,,,,,,,,,,,,,,,,,,,,,,,,,,,,,,,2.2377655284344655e-09,-2.724043213220284e-09,-3.7587988277465456e-10,0.0,-7.891465259035613e-10,2.15479101228766e-09,-5.417204647528706e-06,-5.421287369244965e-06,1.3144903277861886e-05,1.7883034161059186e-05,-6.585801202163566e-07,0.0,-3.949335436459478e-08,1.4559407190972706e-07,5.686493295797845e-06,5.152032827027142e-06,,,,,,,,,,,,,,,,,,,,,,,,,,,,,,,,,,,,,,,,,,,,,,,,,,,,,,,,,,,,,,,,,,,,,,,,,,
93,3.142169237136841,0.6159536838531494,1.5646017789840698,0.38930496484041216,0.0,-2.1855695031547384e-08,-4.276196896579876e-10,0.500001072883606,0.500001072883606,0.6236608624458313,1.5887223482131958,0.38862053960561754,0.0,-2.1855695031547384e-08,-2.3465810627953942e-08,0.5000011324882507,0.5000010132789612,,,,,,,,,,,,,,,,,,,,,,,,,,,,,,,,,,,,,,,,,,,,,,,,,,,,,,,,,,,,,,,,,,,,,,,,,,,,,,,,,,,,,,,,,,,,,,,,,,,,,,,,,,,,,,,,,,,,,,,,,,,,,,,,,,,,,,2.2377655284344655e-09,-2.724043213220284e-09,-3.7587988277465456e-10,0.0,-7.891465259035613e-10,2.15479101228766e-09,-5.417204647528706e-06,-5.421287369244965e-06,1.3144903277861886e-05,1.7883034161059186e-05,-6.585801202163566e-07,0.0,-3.949335436459478e-08,1.4559407190972706e-07,5.686493295797845e-06,5.152032827027142e-06,,,,,,,,,,,,,,,,,,,,,,,,,,,,,,,,,,,,,,,,,,,,,,,,,,,,,,,,,,,,,,,,,,,,,,,,,,
94,3.16300368309021,0.6159536838531494,1.5646017789840698,0.38930496484041216,0.0,-2.1855695031547384e-08,-3.534393611115405e-10,0.5000008940696716,0.5000008940696716,0.6236613392829895,1.5887229442596436,0.38862051725387575,0.0,-2.1855695031547384e-08,-1.8544358937333527e-08,0.5000009536743164,0.5000008344650269,,,,,,,,,,,,,,,,,,,,,,,,,,,,,,,,,,,,,,,,,,,,,,,,,,,,,,,,,,,,,,,,,,,,,,,,,,,,,,,,,,,,,,,,,,,,,,,,,,,,,,,,,,,,,,,,,,,,,,,,,,,,,,,,,,,,,,1.8502421816890546e-09,-2.25253149466198e-09,-3.106404022901188e-10,0.0,-6.510902927914231e-10,1.7809261843027002e-09,-4.4787248043576255e-06,-4.482677468331531e-06,1.086913744074991e-05,1.4787085092393681e-05,-5.443574764285586e-07,0.0,-3.1670165157038355e-08,1.1606628191884738e-07,4.696122687164461e-06,4.269712462701136e-06,,,,,,,,,,,,,,,,,,,,,,,,,,,,,,,,,,,,,,,,,,,,,,,,,,,,,,,,,,,,,,,,,,,,,,,,,,
95,3.183793544769287,0.6159536838531494,1.5646017789840698,0.38930496484041216,0.0,-2.1855695031547384e-08,-3.534393611115405e-10,0.5000008940696716,0.5000008940696716,0.6236613392829895,1.5887229442596436,0.38862051725387575,0.0,-2.1855695031547384e-08,-1.8544358937333527e-08,0.5000009536743164,0.5000008344650269,,,,,,,,,,,,,,,,,,,,,,,,,,,,,,,,,,,,,,,,,,,,,,,,,,,,,,,,,,,,,,,,,,,,,,,,,,,,,,,,,,,,,,,,,,,,,,,,,,,,,,,,,,,,,,,,,,,,,,,,,,,,,,,,,,,,,,1.8502421816890546e-09,-2.25253149466198e-09,-3.106404022901188e-10,0.0,-6.510902927914231e-10,1.7809261843027002e-09,-4.4787248043576255e-06,-4.482677468331531e-06,1.086913744074991e-05,1.4787085092393681e-05,-5.443574764285586e-07,0.0,-3.1670165157038355e-08,1.1606628191884738e-07,4.696122687164461e-06,4.269712462701136e-06,,,,,,,,,,,,,,,,,,,,,,,,,,,,,,,,,,,,,,,,,,,,,,,,,,,,,,,,,,,,,,,,,,,,,,,,,,
96,3.2049753665924072,0.6159536838531494,1.5646017789840698,0.38930496484041216,0.0,-2.1855695031547384e-08,-2.9212823826618717e-10,0.5000007152557373,0.5000007152557373,0.6236616969108582,1.5887235403060913,0.38862049490213396,0.0,-2.1855695031547384e-08,-1.462374488170326e-08,0.5000007748603821,0.5000007152557373,,,,,,,,,,,,,,,,,,,,,,,,,,,,,,,,,,,,,,,,,,,,,,,,,,,,,,,,,,,,,,,,,,,,,,,,,,,,,,,,,,,,,,,,,,,,,,,,,,,,,,,,,,,,,,,,,,,,,,,,,,,,,,,,,,,,,,1.5298873279334657e-09,-1.8626211684136251e-09,-2.5675989112627917e-10,0.0,-5.373479439185758e-10,1.4721986962840106e-09,-3.7028278256912017e-06,-3.706572897499427e-06,8.987373803392984e-06,1.2227113074914087e-05,-4.499452472828125e-07,0.0,-2.537220389342565e-08,9.239884235512363e-08,3.878232746501453e-06,3.5384755392442457e-06,,,,,,,,,,,,,,,,,,,,,,,,,,,,,,,,,,,,,,,,,,,,,,,,,,,,,,,,,,,,,,,,,,,,,,,,,,
97,3.226768970489502,0.6159536838531494,1.5646017789840698,0.38930496484041216,0.0,-2.1855695031547384e-08,-2.4882557125849303e-10,0.5000006556510925,0.5000006556510925,0.623661994934082,1.58872389793396,0.38862048000097277,0.0,-2.1855695031547384e-08,-1.165181195972309e-08,0.5000006556510925,0.5000005960464478,,,,,,,,,,,,,,,,,,,,,,,,,,,,,,,,,,,,,,,,,,,,,,,,,,,,,,,,,,,,,,,,,,,,,,,,,,,,,,,,,,,,,,,,,,,,,,,,,,,,,,,,,,,,,,,,,,,,,,,,,,,,,,,,,,,,,,1.3035128532123963e-09,-1.5870638137016613e-09,-2.1873475253286756e-10,0.0,-4.571343303894082e-10,1.2538485805180244e-09,-3.1546996979159303e-06,-3.158233539579669e-06,7.506126166845206e-06,1.0211991138930898e-05,-3.756549915578944e-07,0.0,-2.0545565249108222e-08,7.434388038518591e-08,3.2352033940696856e-06,2.961593054351397e-06,,,,,,,,,,,,,,,,,,,,,,,,,,,,,,,,,,,,,,,,,,,,,,,,,,,,,,,,,,,,,,,,,,,,,,,,,,
98,3.249080181121826,0.6159536838531494,1.5646017789840698,0.38930496484041216,0.0,-2.1855695031547384e-08,-2.4634272399737256e-10,0.5000005960464478,0.5000005960464478,0.623661994934082,1.58872389793396,0.38862048000097277,0.0,-2.1855695031547384e-08,-1.1504915242710467e-08,0.5000006556510925,0.5000005960464478,,,,,,,,,,,,,,,,,,,,,,,,,,,,,,,,,,,,,,,,,,,,,,,,,,,,,,,,,,,,,,,,,,,,,,,,,,,,,,,,,,,,,,,,,,,,,,,,,,,,,,,,,,,,,,,,,,,,,,,,,,,,,,,,,,,,,,1.290745288429207e-09,-1.5714096690544466e-09,-2.1650736758971334e-10,0.0,-4.5236037138352003e-10,1.241415858999062e-09,-3.1232700621330878e-06,-3.1267900340026245e-06,7.4313975346740335e-06,1.011032782116672e-05,-3.7190770285633334e-07,0.0,-2.0305146009036434e-08,7.344834074274331e-08,3.202783545930288e-06,2.9324548904696712e-06,,,,,,,,,,,,,,,,,,,,,,,,,,,,,,,,,,,,,,,,,,,,,,,,,,,,,,,,,,,,,,,,,,,,,,,,,,
99,3.271347761154175,0.6159536838531494,1.5646017789840698,0.38930496484041216,0.0,-2.1855695031547384e-08,-2.0360896302307196e-10,0.500000536441803,0.500000536441803,0.6236622333526611,1.5887242555618286,0.3886204650998116,0.0,-2.1855695031547384e-08,-9.027746550316351e-09,0.500000536441803,0.5000004768371582,,,,,,,,,,,,,,,,,,,,,,,,,,,,,,,,,,,,,,,,,,,,,,,,,,,,,,,,,,,,,,,,,,,,,,,,,,,,,,,,,,,,,,,,,,,,,,,,,,,,,,,,,,,,,,,,,,,,,,,,,,,,,,,,,,,,,,1.067257393572163e-09,-1.2994050280212832e-09,-1.7900264603909477e-10,0.0,-3.734235143326714e-10,1.0258947025221232e-09,-2.582192792033311e-06,-2.585435822766158e-06,6.144805865915259e-06,8.360006177099422e-06,-3.074048606777069e-07,0.0,-1.6232126753834564e-08,5.829028637549527e-08,2.6449697543284856e-06,2.4302114525198704e-06,,,,,,,,,,,,,,,,,,,,,,,,,,,,,,,,,,,,,,,,,,,,,,,,,,,,,,,,,,,,,,,,,,,,,,,,,,
100,3.2923505306243896,0.6159536838531494,1.5646017789840698,0.38930496484041216,0.0,-2.1855695031547384e-08,-2.0360896302307196e-10,0.500000536441803,0.500000536441803,0.6236622333526611,1.5887242555618286,0.3886204650998116,0.0,-2.1855695031547384e-08,-9.027746550316351e-09,0.500000536441803,0.5000004768371582,,,,,,,,,,,,,,,,,,,,,,,,,,,,,,,,,,,,,,,,,,,,,,,,,,,,,,,,,,,,,,,,,,,,,,,,,,,,,,,,,,,,,,,,,,,,,,,,,,,,,,,,,,,,,,,,,,,,,,,,,,,,,,,,,,,,,,1.067257393572163e-09,-1.2994050280212832e-09,-1.7900264603909477e-10,0.0,-3.734235143326714e-10,1.0258947025221232e-09,-2.582192792033311e-06,-2.585435822766158e-06,6.144805865915259e-06,8.360006177099422e-06,-3.074048606777069e-07,0.0,-1.6232126753834564e-08,5.829028637549527e-08,2.6449697543284856e-06,2.4302114525198704e-06,,,,,,,,,,,,,,,,,,,,,,,,,,,,,,,,,,,,,,,,,,,,,,,,,,,,,,,,,,,,,,,,,,,,,,,,,,
101,3.3134748935699463,0.6159536838531494,1.5646017789840698,0.38930496484041216,0.0,-2.1855695031547384e-08,-1.6998416563218655e-10,0.5000004172325134,0.5000004172325134,0.6236624717712402,1.5887244939804077,0.388620457649231,0.0,-2.1855695031547384e-08,-7.063529317008488e-09,0.5000004172325134,0.5000004172325134,,,,,,,,,,,,,,,,,,,,,,,,,,,,,,,,,,,,,,,,,,,,,,,,,,,,,,,,,,,,,,,,,,,,,,,,,,,,,,,,,,,,,,,,,,,,,,,,,,,,,,,,,,,,,,,,,,,,,,,,,,,,,,,,,,,,,,8.912315330178444e-10,-1.0852430065710905e-09,-1.4942214132673826e-10,0.0,-3.107514245925813e-10,8.566382048158516e-10,-2.156335085601313e-06,-2.159307314286707e-06,5.080961273051798e-06,6.912703611305915e-06,-2.540892296565289e-07,0.0,-1.2961354656226831e-08,4.6179522428246855e-08,2.184304321417585e-06,2.013976654779981e-06,,,,,,,,,,,,,,,,,,,,,,,,,,,,,,,,,,,,,,,,,,,,,,,,,,,,,,,,,,,,,,,,,,,,,,,,,,
102,3.3361759185791016,0.6159536838531494,1.5646017789840698,0.38930496484041216,0.0,-2.1855695031547384e-08,-1.4334286535522267e-10,0.5000003576278687,0.5000003576278687,0.6236624717712402,1.5887244939804077,0.388620457649231,0.0,-2.1855695031547384e-08,-7.063529317008488e-09,0.5000004172325134,0.5000004172325134,,,,,,,,,,,,,,,,,,,,,,,,,,,,,,,,,,,,,,,,,,,,,,,,,,,,,,,,,,,,,,,,,,,,,,,,,,,,,,,,,,,,,,,,,,,,,,,,,,,,,,,,,,,,,,,,,,,,,,,,,,,,,,,,,,,,,,7.52065076881081e-10,-9.156009284083666e-10,-1.2598949661324355e-10,0.0,-2.617905892066119e-10,7.220448128286705e-10,-1.818830355659884e-06,-1.8215475847682683e-06,5.080961273051798e-06,6.912703611305915e-06,-2.540892296565289e-07,0.0,-1.2961354656226831e-08,4.6179522428246855e-08,2.184304321417585e-06,2.013976654779981e-06,,,,,,,,,,,,,,,,,,,,,,,,,,,,,,,,,,,,,,,,,,,,,,,,,,,,,,,,,,,,,,,,,,,,,,,,,,
103,3.358621597290039,0.6159536838531494,1.5646017789840698,0.38930496484041216,0.0,-2.1855695031547384e-08,-1.4191235686578096e-10,0.5000003576278687,0.5000003576278687,0.6236626505851746,1.5887247323989868,0.3886204501986504,0.0,-2.1855695031547384e-08,-5.508890232874819e-09,0.5000003576278687,0.5000003576278687,,,,,,,,,,,,,,,,,,,,,,,,,,,,,,,,,,,,,,,,,,,,,,,,,,,,,,,,,,,,,,,,,,,,,,,,,,,,,,,,,,,,,,,,,,,,,,,,,,,,,,,,,,,,,,,,,,,,,,,,,,,,,,,,,,,,,,7.443490268599362e-10,-9.062750550015153e-10,-1.2477519018005978e-10,0.0,-2.599587212159804e-10,7.152586856129517e-10,-1.8007103790296242e-06,-1.8034116919807275e-06,4.201298906991724e-06,5.715960924135288e-06,-2.100205165334046e-07,0.0,-1.0336010269895723e-08,3.651543067917373e-08,1.803869281502557e-06,1.669023390604707e-06,,,,,,,,,,,,,,,,,,,,,,,,,,,,,,,,,,,,,,,,,,,,,,,,,,,,,,,,,,,,,,,,,,,,,,,,,,
104,3.379486083984375,0.6159536838531494,1.5646017789840698,0.38930496484041216,0.0,-2.1855695031547384e-08,-1.1729410498428905e-10,0.5000002980232239,0.5000002980232239,0.6236627697944641,1.588724970817566,0.3886204427480698,0.0,-2.1855695031547384e-08,-4.3385033343668056e-09,0.5000002980232239,0.5000002980232239,,,,,,,,,,,,,,,,,,,,,,,,,,,,,,,,,,,,,,,,,,,,,,,,,,,,,,,,,,,,,,,,,,,,,,,,,,,,,,,,,,,,,,,,,,,,,,,,,,,,,,,,,,,,,,,,,,,,,,,,,,,,,,,,,,,,,,6.156186671546493e-10,-7.496225862269057e-10,-1.0311890230596532e-10,0.0,-2.1432855490388647e-10,5.909862599295934e-10,-1.4887536963215098e-06,-1.4911796597516513e-06,3.5088651202386245e-06,4.77392723041703e-06,-1.753441551954893e-07,0.0,-8.330392375910378e-09,2.917669839064274e-08,1.5047710348881083e-06,1.3968902976557729e-06,,,,,,,,,,,,,,,,,,,,,,,,,,,,,,,,,,,,,,,,,,,,,,,,,,,,,,,,,,,,,,,,,,,,,,,,,,
105,3.400700092315674,0.6159536838531494,1.5646017789840698,0.38930496484041216,0.0,-2.1855695031547384e-08,-1.1729410498428905e-10,0.5000002980232239,0.5000002980232239,0.6236627697944641,1.588724970817566,0.3886204427480698,0.0,-2.1855695031547384e-08,-4.3385033343668056e-09,0.5000002980232239,0.5000002980232239,,,,,,,,,,,,,,,,,,,,,,,,,,,,,,,,,,,,,,,,,,,,,,,,,,,,,,,,,,,,,,,,,,,,,,,,,,,,,,,,,,,,,,,,,,,,,,,,,,,,,,,,,,,,,,,,,,,,,,,,,,,,,,,,,,,,,,6.156186671546493e-10,-7.496225862269057e-10,-1.0311890230596532e-10,0.0,-2.1432855490388647e-10,5.909862599295934e-10,-1.4887536963215098e-06,-1.4911796597516513e-06,3.5088651202386245e-06,4.77392723041703e-06,-1.753441551954893e-07,0.0,-8.330392375910378e-09,2.917669839064274e-08,1.5047710348881083e-06,1.3968902976557729e-06,,,,,,,,,,,,,,,,,,,,,,,,,,,,,,,,,,,,,,,,,,,,,,,,,,,,,,,,,,,,,,,,,,,,,,,,,,
106,3.4231486320495605,0.6159536838531494,1.5646017789840698,0.38930496484041216,0.0,-2.1855695031547384e-08,-9.694627045586657e-11,0.5000002384185791,0.5000002384185791,0.6236628890037537,1.5887250900268555,0.3886204352974892,0.0,-2.1855695031547384e-08,-3.3583500425038437e-09,0.5000002384185791,0.5000002384185791,,,,,,,,,,,,,,,,,,,,,,,,,,,,,,,,,,,,,,,,,,,,,,,,,,,,,,,,,,,,,,,,,,,,,,,,,,,,,,,,,,,,,,,,,,,,,,,,,,,,,,,,,,,,,,,,,,,,,,,,,,,,,,,,,,,,,,5.08981745639403e-10,-6.197264923457624e-10,-8.520961713998076e-11,0.0,-1.7669199436909366e-10,4.883735638117059e-10,-1.2308414625294972e-06,-1.233005946232879e-06,2.901378366004792e-06,3.947454388253391e-06,-1.4493281241811928e-07,0.0,-6.6254224329043154e-09,2.2972741930971097e-08,1.2426853572833352e-06,1.1576186125239474e-06,,,,,,,,,,,,,,,,,,,,,,,,,,,,,,,,,,,,,,,,,,,,,,,,,,,,,,,,,,,,,,,,,,,,,,,,,,
107,3.445648193359375,0.6159536838531494,1.5646017789840698,0.38930496484041216,0.0,-2.1855695031547384e-08,-9.694627045586657e-11,0.5000002384185791,0.5000002384185791,0.6236628890037537,1.5887250900268555,0.3886204352974892,0.0,-2.1855695031547384e-08,-3.3583500425038437e-09,0.5000002384185791,0.5000002384185791,,,,,,,,,,,,,,,,,,,,,,,,,,,,,,,,,,,,,,,,,,,,,,,,,,,,,,,,,,,,,,,,,,,,,,,,,,,,,,,,,,,,,,,,,,,,,,,,,,,,,,,,,,,,,,,,,,,,,,,,,,,,,,,,,,,,,,5.08981745639403e-10,-6.197264923457624e-10,-8.520961713998076e-11,0.0,-1.7669199436909366e-10,4.883735638117059e-10,-1.2308414625294972e-06,-1.233005946232879e-06,2.901378366004792e-06,3.947454388253391e-06,-1.4493281241811928e-07,0.0,-6.6254224329043154e-09,2.2972741930971097e-08,1.2426853572833352e-06,1.1576186125239474e-06,,,,,,,,,,,,,,,,,,,,,,,,,,,,,,,,,,,,,,,,,,,,,,,,,,,,,,,,,,,,,,,,,,,,,,,,,,
108,3.4674932956695557,0.6159536838531494,1.5646017789840698,0.38930496484041216,0.0,-2.1855695031547384e-08,-8.093545972309713e-11,0.5000001788139343,0.5000001788139343,0.6236630082130432,1.5887253284454346,0.3886204278469086,0.0,-2.1855695031547384e-08,-2.587568159739817e-09,0.5000001788139343,0.5000001788139343,,,,,,,,,,,,,,,,,,,,,,,,,,,,,,,,,,,,,,,,,,,,,,,,,,,,,,,,,,,,,,,,,,,,,,,,,,,,,,,,,,,,,,,,,,,,,,,,,,,,,,,,,,,,,,,,,,,,,,,,,,,,,,,,,,,,,,4.2521541843143495e-10,-5.17808018685173e-10,-7.115141809066472e-11,0.0,-1.4682699500667695e-10,4.0793771138858403e-10,-1.0278499757987447e-06,-1.0297825383531745e-06,2.39906512433663e-06,3.2640625704516424e-06,-1.1979598468769836e-07,0.0,-5.260569757581379e-09,1.804279747830151e-08,1.0262455134579795e-06,9.593268259777687e-07,,,,,,,,,,,,,,,,,,,,,,,,,,,,,,,,,,,,,,,,,,,,,,,,,,,,,,,,,,,,,,,,,,,,,,,,,,
109,3.489187240600586,0.6159536838531494,1.5646017789840698,0.38930496484041216,0.0,-2.1855695031547384e-08,-6.825048859404603e-11,0.5000001788139343,0.5000001788139343,0.6236630082130432,1.5887253284454346,0.3886204278469086,0.0,-2.1855695031547384e-08,-2.587568159739817e-09,0.5000001788139343,0.5000001788139343,,,,,,,,,,,,,,,,,,,,,,,,,,,,,,,,,,,,,,,,,,,,,,,,,,,,,,,,,,,,,,,,,,,,,,,,,,,,,,,,,,,,,,,,,,,,,,,,,,,,,,,,,,,,,,,,,,,,,,,,,,,,,,,,,,,,,,3.586575481051568e-10,-4.3653969328261155e-10,-6.001449337489362e-11,0.0,-1.238453783969362e-10,3.4394562198336587e-10,-8.669733801980328e-07,-8.687038643984124e-07,2.39906512433663e-06,3.2640625704516424e-06,-1.1979598468769836e-07,0.0,-5.260569757581379e-09,1.804279747830151e-08,1.0262455134579795e-06,9.593268259777687e-07,,,,,,,,,,,,,,,,,,,,,,,,,,,,,,,,,,,,,,,,,,,,,,,,,,,,,,,,,,,,,,,,,,,,,,,,,,
110,3.5106279850006104,0.6159536838531494,1.5646017789840698,0.38930496484041216,0.0,-2.1855695031547384e-08,-6.825048859404603e-11,0.5000001788139343,0.5000001788139343,0.623663067817688,1.5887253284454346,0.3886204278469086,0.0,-2.1855695031547384e-08,-1.9830361797090745e-09,0.5000001788139343,0.5000001788139343,,,,,,,,,,,,,,,,,,,,,,,,,,,,,,,,,,,,,,,,,,,,,,,,,,,,,,,,,,,,,,,,,,,,,,,,,,,,,,,,,,,,,,,,,,,,,,,,,,,,,,,,,,,,,,,,,,,,,,,,,,,,,,,,,,,,,,3.586575481051568e-10,-4.3653969328261155e-10,-6.001449337489362e-11,0.0,-1.238453783969362e-10,3.4394562198336587e-10,-8.669733801980328e-07,-8.687038643984124e-07,1.9837170839309692e-06,2.6989810066879727e-06,-9.901882691565334e-08,0.0,-4.169276035526082e-09,1.4131465775335528e-08,8.475013828501687e-07,7.949967084641685e-07,,,,,,,,,,,,,,,,,,,,,,,,,,,,,,,,,,,,,,,,,,,,,,,,,,,,,,,,,,,,,,,,,,,,,,,,,,
111,3.5328309535980225,0.6159536838531494,1.5646017789840698,0.38930496484041216,0.0,-2.1855695031547384e-08,-5.6979060358841593e-11,0.5000001192092896,0.5000001192092896,0.6236631870269775,1.5887254476547241,0.388620420396328,0.0,-2.1855695031547384e-08,-1.5102867845229184e-09,0.5000001192092896,0.5000001192092896,,,,,,,,,,,,,,,,,,,,,,,,,,,,,,,,,,,,,,,,,,,,,,,,,,,,,,,,,,,,,,,,,,,,,,,,,,,,,,,,,,,,,,,,,,,,,,,,,,,,,,,,,,,,,,,,,,,,,,,,,,,,,,,,,,,,,,2.994271497414047e-10,-3.6493030819428895e-10,-5.0084936198402374e-11,0.0,-1.0363931934875836e-10,2.871953785898995e-10,-7.239911496981222e-07,-7.255249556692434e-07,1.6402779010604718e-06,2.2317274215311045e-06,-8.184524347143451e-08,0.0,-3.2985836284638026e-09,1.1033682412175949e-08,6.998891421972075e-07,6.588117571482144e-07,,,,,,,,,,,,,,,,,,,,,,,,,,,,,,,,,,,,,,,,,,,,,,,,,,,,,,,,,,,,,,,,,,,,,,,,,,
112,3.5545716285705566,0.6159536838531494,1.5646017789840698,0.38930496484041216,0.0,-2.1855695031547384e-08,-5.6979060358841593e-11,0.5000001192092896,0.5000001192092896,0.6236631870269775,1.5887254476547241,0.388620420396328,0.0,-2.1855695031547384e-08,-1.5102867845229184e-09,0.5000001192092896,0.5000001192092896,,,,,,,,,,,,,,,,,,,,,,,,,,,,,,,,,,,,,,,,,,,,,,,,,,,,,,,,,,,,,,,,,,,,,,,,,,,,,,,,,,,,,,,,,,,,,,,,,,,,,,,,,,,,,,,,,,,,,,,,,,,,,,,,,,,,,,2.994271497414047e-10,-3.6493030819428895e-10,-5.0084936198402374e-11,0.0,-1.0363931934875836e-10,2.871953785898995e-10,-7.239911496981222e-07,-7.255249556692434e-07,1.6402779010604718e-06,2.2317274215311045e-06,-8.184524347143451e-08,0.0,-3.2985836284638026e-09,1.1033682412175949e-08,6.998891421972075e-07,6.588117571482144e-07,,,,,,,,,,,,,,,,,,,,,,,,,,,,,,,,,,,,,,,,,,,,,,,,,,,,,,,,,,,,,,,,,,,,,,,,,,
113,3.5773415565490723,0.6159536838531494,1.5646017789840698,0.38930496484041216,0.0,-2.1855695031547384e-08,-4.709409251457686e-11,0.5000001192092896,0.5000001192092896,0.6236631870269775,1.5887255668640137,0.388620420396328,0.0,-2.1855695031547384e-08,-1.1418073153635078e-09,0.5000001192092896,0.5000001192092896,,,,,,,,,,,,,,,,,,,,,,,,,,,,,,,,,,,,,,,,,,,,,,,,,,,,,,,,,,,,,,,,,,,,,,,,,,,,,,,,,,,,,,,,,,,,,,,,,,,,,,,,,,,,,,,,,,,,,,,,,,,,,,,,,,,,,,2.4752422334017865e-10,-3.0164759579065503e-10,-4.14668299697496e-11,0.0,-8.493206138382448e-11,2.371338403417411e-10,-5.985663165120059e-07,-5.999116297061846e-07,1.356297957499919e-06,1.8453658867656486e-06,-6.765014148868431e-08,0.0,-2.604527704619386e-09,8.584943422818014e-09,5.779867251476389e-07,5.459525596052117e-07,,,,,,,,,,,,,,,,,,,,,,,,,,,,,,,,,,,,,,,,,,,,,,,,,,,,,,,,,,,,,,,,,,,,,,,,,,
114,3.599518060684204,0.6159536838531494,1.5646017789840698,0.38930496484041216,0.0,-2.1855695031547384e-08,-3.892377739567188e-11,0.5000001192092896,0.5000001192092896,0.6236631870269775,1.5887255668640137,0.388620420396328,0.0,-2.1855695031547384e-08,-1.1418073153635078e-09,0.5000001192092896,0.5000001192092896,,,,,,,,,,,,,,,,,,,,,,,,,,,,,,,,,,,,,,,,,,,,,,,,,,,,,,,,,,,,,,,,,,,,,,,,,,,,,,,,,,,,,,,,,,,,,,,,,,,,,,,,,,,,,,,,,,,,,,,,,,,,,,,,,,,,,,2.0478063689211012e-10,-2.495781359357352e-10,-3.4160174688935285e-11,0.0,-7.061018436615996e-11,1.9658624728080554e-10,-4.948705054630409e-07,-4.96046993703203e-07,1.356297957499919e-06,1.8453658867656486e-06,-6.765014148868431e-08,0.0,-2.604527704619386e-09,8.584943422818014e-09,5.779867251476389e-07,5.459525596052117e-07,,,,,,,,,,,,,,,,,,,,,,,,,,,,,,,,,,,,,,,,,,,,,,,,,,,,,,,,,,,,,,,,,,,,,,,,,,
115,3.6214511394500732,0.6159536838531494,1.5646017789840698,0.38930496484041216,0.0,-2.1855695031547384e-08,-3.892377739567188e-11,0.5000001192092896,0.5000001192092896,0.6236632466316223,1.5887255668640137,0.3886204129457474,0.0,-2.1855695031547384e-08,-8.556597652642495e-10,0.5000001192092896,0.5000001192092896,,,,,,,,,,,,,,,,,,,,,,,,,,,,,,,,,,,,,,,,,,,,,,,,,,,,,,,,,,,,,,,,,,,,,,,,,,,,,,,,,,,,,,,,,,,,,,,,,,,,,,,,,,,,,,,,,,,,,,,,,,,,,,,,,,,,,,2.0478063689211012e-10,-2.495781359357352e-10,-3.4160174688935285e-11,0.0,-7.061018436615996e-11,1.9658624728080554e-10,-4.948705054630409e-07,-4.96046993703203e-07,1.1214833648409694e-06,1.5258921166605433e-06,-5.591707008534286e-08,0.0,-2.052025216414677e-09,6.653566586578563e-09,4.773153250425821e-07,4.524252119608718e-07,,,,,,,,,,,,,,,,,,,,,,,,,,,,,,,,,,,,,,,,,,,,,,,,,,,,,,,,,,,,,,,,,,,,,,,,,,
