MHC-RobotSimulators-Research/Data_Analysis_MotionReplication/mai_plotter/offset_fixed/cube__a2.csv
,time,jpos0,jpos1,jpos2,jpos3,jpos4,jpos5,jpos6,jpos7,jpos8,jpos9,jpos10,jpos11,jpos12,jpos13,jpos14,jpos15,runlevel,sublevel,last_seq,type0,type1,pos0,pos1,pos2,pos3,pos4,pos5,ori0,ori1,ori2,ori3,ori4,ori5,ori6,ori7,ori8,ori9,ori10,ori11,ori12,ori13,ori14,ori15,ori16,ori17,ori_d0,ori_d1,ori_d2,ori_d3,ori_d4,ori_d5,ori_d6,ori_d7,ori_d8,ori_d9,ori_d10,ori_d11,ori_d12,ori_d13,ori_d14,ori_d15,ori_d16,ori_d17,pos_d0,pos_d1,pos_d2,pos_d3,pos_d4,pos_d5,encVals0,encVals1,encVals2,encVals3,encVals4,encVals5,encVals6,encVals7,encVals8,encVals9,encVals10,encVals11,encVals12,encVals13,encVals14,encVals15,dac_vals0,dac_vals1,dac_vals2,dac_vals3,dac_vals4,dac_vals5,dac_vals6,dac_vals7,dac_vals8,dac_vals9,dac_vals10,dac_vals11,dac_vals12,dac_vals13,dac_vals14,dac_vals15,Tau0,Tau1,Tau2,Tau3,Tau4,Tau5,Tau6,Tau7,Tau8,Tau9,Tau10,Tau11,Tau12,Tau13,Tau14,Tau15,mpos0,mpos1,mpos2,mpos3,mpos4,mpos5,mpos6,mpos7,mpos8,mpos9,mpos10,mpos11,mpos12,mpos13,mpos14,mpos15,mvel0,mvel1,mvel2,mvel3,mvel4,mvel5,mvel6,mvel7,mvel8,mvel9,mvel10,mvel11,mvel12,mvel13,mvel14,mvel15,jvel0,jvel1,jvel2,jvel3,jvel4,jvel5,jvel6,jvel7,jvel8,jvel9,jvel10,jvel11,jvel12,jvel13,jvel14,jvel15,mpos_d0,mpos_d1,mpos_d2,mpos_d3,mpos_d4,mpos_d5,mpos_d6,mpos_d7,mpos_d8,mpos_d9,mpos_d10,mpos_d11,mpos_d12,mpos_d13,mpos_d14,mpos_d15,jpos_d0,jpos_d1,jpos_d2,jpos_d3,jpos_d4,jpos_d5,jpos_d6,jpos_d7,jpos_d8,jpos_d9,jpos_d10,jpos_d11,jpos_d12,jpos_d13,jpos_d14,jpos_d15,grasp_d0,grasp_d1,encoffsets0,encoffsets1,encoffsets2,encoffsets3,encoffsets4,encoffsets5,encoffsets6,encoffsets7,encoffsets8,encoffsets9,encoffsets10,encoffsets11,encoffsets12,encoffsets13,encoffsets14,encoffsets15,jac_vel0,jac_vel1,jac_vel2,jac_vel3,jac_vel4,jac_vel5,jac_vel6,jac_vel7,jac_vel8,jac_vel9,jac_vel10,jac_vel11,jac_f0,jac_f1,jac_f2,jac_f3,jac_f4,jac_f5,jac_f6,jac_f7,jac_f8,jac_f9,jac_f10,jac_f11
0,0.0,0.6109491586685181,1.5706862211227417,0.3899888610839844,0.0,-2.1855695031547384e-08,8.114557635246068e-16,0.7852293848991394,0.7852293848991394,0.6109870672225952,1.5709707736968994,0.3899830421805382,0.0,-2.1855695031547384e-08,2.8970807432307554e-15,0.7852293848991394,0.7852293848991394,,,,,,,,,,,,,,,,,,,,,,,,,,,,,,,,,,,,,,,,,,,,,,,,,,,,,,,,,,,,,,,,,,,,,,,,,,,,,,,,,,,,,,,,,,,,,,,,,,,,,,,,,,,,,,,,,,,,,,,,,,,,,,,,,,,,,,0.0,0.0,0.0,0.0,-2.7755575615628914e-13,6.552527617720294e-14,-1.6653345369377348e-13,1.1102230246251565e-13,0.0,0.0,0.0,0.0,0.0,0.0,0.0,0.0,,,,,,,,,,,,,,,,,,,,,,,,,,,,,,,,,,,,,,,,,,,,,,,,,,,,,,,,,,,,,,,,,,,,,,,,,,
1,1.0996911525726318,0.616574764251709,1.5633506774902344,0.3892634651064873,0.0,2.739628090164814e-05,-2.7295833206153475e-05,0.5351857542991638,0.5348477363586426,0.6180957555770874,1.5811522006988525,0.38899163067340853,0.0,-5.938808189132061e-05,-7.476985501853051e-06,0.5341960191726685,0.5340349674224854,,,,,,,,,,,,,,,,,,,,,,,,,,,,,,,,,,,,,,,,,,,,,,,,,,,,,,,,,,,,,,,,,,,,,,,,,,,,,,,,,,,,,,,,,,,,,,,,,,,,,,,,,,,,,,,,,,,,,,,,,,,,,,,,,,,,,,7.315995026146993e-05,-0.00011271779658272862,-7.85473093856126e-06,0.0,0.014507117681205273,0.0019047504756599665,-0.334713876247406,-0.39250171184539795,0.00011451985483290628,9.439939458388835e-05,-2.0839868739130907e-05,0.0,-0.00023295798746403307,0.001899399678222835,0.20775766670703888,0.18321801722049713,,,,,,,,,,,,,,,,,,,,,,,,,,,,,,,,,,,,,,,,,,,,,,,,,,,,,,,,,,,,,,,,,,,,,,,,,,
2,1.1208686828613281,0.6165770292282104,1.5633476972579956,0.38926308512687685,0.0,-8.247296674035454e-06,-2.458642120473087e-05,0.526210606098175,0.5258357524871826,0.6180998086929321,1.5811563730239868,0.388990975022316,0.0,-6.004373298384991e-05,-2.0959030734957196e-05,0.5250053405761719,0.5248454213142395,,,,,,,,,,,,,,,,,,,,,,,,,,,,,,,,,,,,,,,,,,,,,,,,,,,,,,,,,,,,,,,,,,,,,,,,,,,,,,,,,,,,,,,,,,,,,,,,,,,,,,,,,,,,,,,,,,,,,,,,,,,,,,,,,,,,,,5.528112160391174e-05,-6.828162440797314e-05,-8.336075552506372e-06,0.0,-0.017028486356139183,-0.002170220483094454,-0.3101552426815033,-0.318744421005249,9.938193397829309e-05,0.00011138002446386963,-1.4650599041488022e-05,0.0,-0.008692655712366104,-0.006194029003381729,0.2405974268913269,0.2531305253505707,,,,,,,,,,,,,,,,,,,,,,,,,,,,,,,,,,,,,,,,,,,,,,,,,,,,,,,,,,,,,,,,,,,,,,,,,,
3,1.1421377658843994,0.616578996181488,1.563345193862915,0.3892627573013306,0.0,3.6140276362672807e-06,-1.7930253306985833e-05,0.5212173461914062,0.5211219787597656,0.6180998086929321,1.5811563730239868,0.388990975022316,0.0,-6.004373298384991e-05,-2.0959030734957196e-05,0.5250053405761719,0.5248454213142395,,,,,,,,,,,,,,,,,,,,,,,,,,,,,,,,,,,,,,,,,,,,,,,,,,,,,,,,,,,,,,,,,,,,,,,,,,,,,,,,,,,,,,,,,,,,,,,,,,,,,,,,,,,,,,,,,,,,,,,,,,,,,,,,,,,,,,4.894778976449743e-05,-6.37001430732198e-05,-8.15702060208423e-06,0.0,-7.58156820666045e-05,8.981218707049266e-05,-0.10672875493764877,-0.10625293850898743,9.938193397829309e-05,0.00011138002446386963,-1.4650599041488022e-05,0.0,-0.008692655712366104,-0.006194029003381729,0.2405974268913269,0.2531305253505707,,,,,,,,,,,,,,,,,,,,,,,,,,,,,,,,,,,,,,,,,,,,,,,,,,,,,,,,,,,,,,,,,,,,,,,,,,
4,1.1642405986785889,0.6165790557861328,1.5633450746536255,0.3892627424001694,0.0,3.55442299149189e-06,-1.7752694475348108e-05,0.5210059881210327,0.5209115743637085,0.6181029677391052,1.5811597108840942,0.3889904609322548,0.0,-2.3386876446984672e-05,4.609896222973475e-06,0.5206126570701599,0.5205783247947693,,,,,,,,,,,,,,,,,,,,,,,,,,,,,,,,,,,,,,,,,,,,,,,,,,,,,,,,,,,,,,,,,,,,,,,,,,,,,,,,,,,,,,,,,,,,,,,,,,,,,,,,,,,,,,,,,,,,,,,,,,,,,,,,,,,,,,4.8447571316501126e-05,-6.308122829068452e-05,-8.087937203526963e-06,0.0,-5.0689963245531544e-05,8.877906657289714e-05,-0.10566531866788864,-0.10520602017641068,8.13668011687696e-05,8.394138421863317e-05,-1.3200624380260706e-05,0.0,7.0956077252049e-05,-4.578767766361125e-05,0.10368622094392776,0.10353303700685501,,,,,,,,,,,,,,,,,,,,,,,,,,,,,,,,,,,,,,,,,,,,,,,,,,,,,,,,,,,,,,,,,,,,,,,,,,
5,1.185272216796875,0.6165807247161865,1.5633429288864136,0.3892624667286873,0.0,2.958376543737984e-06,-1.4705625289934687e-05,0.5173671245574951,0.517290472984314,0.6181056499481201,1.581162452697754,0.3889900287985802,0.0,-1.9989411694787407e-05,3.855111572192982e-06,0.5172135829925537,0.5171860456466675,,,,,,,,,,,,,,,,,,,,,,,,,,,,,,,,,,,,,,,,,,,,,,,,,,,,,,,,,,,,,,,,,,,,,,,,,,,,,,,,,,,,,,,,,,,,,,,,,,,,,,,,,,,,,,,,,,,,,,,,,,,,,,,,,,,,,,4.0103350329445675e-05,-5.2219540521036834e-05,-6.6661773416853976e-06,0.0,-1.528090979263652e-05,7.402543269563466e-05,-0.08738241344690323,-0.08693854510784149,6.797577225370333e-05,7.014664879534394e-05,-1.1019649718946312e-05,0.0,0.00010899418703047559,-1.2110657735320274e-05,0.08660154044628143,0.08641993254423141,,,,,,,,,,,,,,,,,,,,,,,,,,,,,,,,,,,,,,,,,,,,,,,,,,,,,,,,,,,,,,,,,,,,,,,,,,
6,1.2067546844482422,0.6165807247161865,1.5633429288864136,0.3892624667286873,0.0,2.958376543737984e-06,-1.4705625289934687e-05,0.5173671245574951,0.517290472984314,0.6181057691574097,1.5811625719070435,0.3889900064468384,0.0,-1.9750993115685844e-05,3.831223693850916e-06,0.5170421600341797,0.5170149207115173,,,,,,,,,,,,,,,,,,,,,,,,,,,,,,,,,,,,,,,,,,,,,,,,,,,,,,,,,,,,,,,,,,,,,,,,,,,,,,,,,,,,,,,,,,,,,,,,,,,,,,,,,,,,,,,,,,,,,,,,,,,,,,,,,,,,,,4.0103350329445675e-05,-5.2219540521036834e-05,-6.6661773416853976e-06,0.0,-1.528090979263652e-05,7.402543269563466e-05,-0.08738241344690323,-0.08693854510784149,6.729915912728757e-05,6.944853521417826e-05,-1.0909695447480772e-05,0.0,0.00010820994793903083,-1.1943897334276699e-05,0.08573891967535019,0.08555944263935089,,,,,,,,,,,,,,,,,,,,,,,,,,,,,,,,,,,,,,,,,,,,,,,,,,,,,,,,,,,,,,,,,,,,,,,,,,
7,1.228036642074585,0.6165820360183716,1.5633412599563599,0.3892622432112694,0.0,2.4219347407594682e-06,-1.2278423128009308e-05,0.5145029425621033,0.514440655708313,0.6181080937385559,1.5811649560928345,0.38898962646722796,0.0,-1.6055505139611626e-05,3.397152113393531e-06,0.5140900015830994,0.5140688419342041,,,,,,,,,,,,,,,,,,,,,,,,,,,,,,,,,,,,,,,,,,,,,,,,,,,,,,,,,,,,,,,,,,,,,,,,,,,,,,,,,,,,,,,,,,,,,,,,,,,,,,,,,,,,,,,,,,,,,,,,,,,,,,,,,,,,,,3.349453618284315e-05,-4.361566243460402e-05,-5.565432275034254e-06,0.0,-1.2419091945048422e-05,6.182760989759117e-05,-0.07297152280807495,-0.0726085901260376,5.5647993576712906e-05,5.7427365391049534e-05,-9.017480806505773e-06,0.0,8.750090637477115e-05,-1.106086801883066e-05,0.0708870142698288,0.07074481248855591,,,,,,,,,,,,,,,,,,,,,,,,,,,,,,,,,,,,,,,,,,,,,,,,,,,,,,,,,,,,,,,,,,,,,,,,,,
8,1.2491257190704346,0.6165820360183716,1.5633412599563599,0.3892622432112694,0.0,2.4219347407594682e-06,-1.2278423128009308e-05,0.5145029425621033,0.514440655708313,0.6181080937385559,1.5811649560928345,0.38898962646722796,0.0,-1.6055505139611626e-05,3.397152113393531e-06,0.5140900015830994,0.5140688419342041,,,,,,,,,,,,,,,,,,,,,,,,,,,,,,,,,,,,,,,,,,,,,,,,,,,,,,,,,,,,,,,,,,,,,,,,,,,,,,,,,,,,,,,,,,,,,,,,,,,,,,,,,,,,,,,,,,,,,,,,,,,,,,,,,,,,,,3.349453618284315e-05,-4.361566243460402e-05,-5.565432275034254e-06,0.0,-1.2419091945048422e-05,6.182760989759117e-05,-0.07297152280807495,-0.0726085901260376,5.5647993576712906e-05,5.7427365391049534e-05,-9.017480806505773e-06,0.0,8.750090637477115e-05,-1.106086801883066e-05,0.0708870142698288,0.07074481248855591,,,,,,,,,,,,,,,,,,,,,,,,,,,,,,,,,,,,,,,,,,,,,,,,,,,,,,,,,,,,,,,,,,,,,,,,,,
9,1.2718210220336914,0.6165831089019775,1.5633398294448853,0.38926207184791567,0.0,2.0643068721071245e-06,-1.0355305676057469e-05,0.5122329592704773,0.5121818780899048,0.6181100010871887,1.5811669826507568,0.3889893209934235,0.0,-1.3075272900842094e-05,2.9965460726089077e-06,0.5116492509841919,0.5116329193115234,,,,,,,,,,,,,,,,,,,,,,,,,,,,,,,,,,,,,,,,,,,,,,,,,,,,,,,,,,,,,,,,,,,,,,,,,,,,,,,,,,,,,,,,,,,,,,,,,,,,,,,,,,,,,,,,,,,,,,,,,,,,,,,,,,,,,,2.825609772116877e-05,-3.67951397493016e-05,-4.6932500481489114e-06,0.0,-1.0494535672478378e-05,5.214145494392142e-05,-0.061550237238407135,-0.06125115975737572,4.601366163115017e-05,4.748646460939199e-05,-7.45346460462315e-06,0.0,7.128918514354154e-05,-1.0072162694996223e-05,0.058607593178749084,0.05849560722708702,,,,,,,,,,,,,,,,,,,,,,,,,,,,,,,,,,,,,,,,,,,,,,,,,,,,,,,,,,,,,,,,,,,,,,,,,,
10,1.2934596538543701,0.616584062576294,1.5633386373519897,0.38926190793514254,0.0,1.7066790034547807e-06,-8.560181413486134e-06,0.5101137161254883,0.5100727677345276,0.6181100010871887,1.5811669826507568,0.3889893209934235,0.0,-1.3075272900842094e-05,2.9965460726089077e-06,0.5116492509841919,0.5116329193115234,,,,,,,,,,,,,,,,,,,,,,,,,,,,,,,,,,,,,,,,,,,,,,,,,,,,,,,,,,,,,,,,,,,,,,,,,,,,,,,,,,,,,,,,,,,,,,,,,,,,,,,,,,,,,,,,,,,,,,,,,,,,,,,,,,,,,,2.3364727894659154e-05,-3.042639946215786e-05,-3.8791808947280515e-06,0.0,-8.689229616720695e-06,4.310060467105359e-05,-0.05088726058602333,-0.05064653977751732,4.601366163115017e-05,4.748646460939199e-05,-7.45346460462315e-06,0.0,7.128918514354154e-05,-1.0072162694996223e-05,0.058607593178749084,0.05849560722708702,,,,,,,,,,,,,,,,,,,,,,,,,,,,,,,,,,,,,,,,,,,,,,,,,,,,,,,,,,,,,,,,,,,,,,,,,,
11,1.3154559135437012,0.616584062576294,1.5633386373519897,0.38926190793514254,0.0,1.7066790034547807e-06,-8.560181413486134e-06,0.5101137161254883,0.5100727677345276,0.6181116104125977,1.581168532371521,0.3889890602231026,0.0,-1.0631482465051079e-05,2.6333489131502574e-06,0.509631335735321,0.5096186995506287,,,,,,,,,,,,,,,,,,,,,,,,,,,,,,,,,,,,,,,,,,,,,,,,,,,,,,,,,,,,,,,,,,,,,,,,,,,,,,,,,,,,,,,,,,,,,,,,,,,,,,,,,,,,,,,,,,,,,,,,,,,,,,,,,,,,,,2.3364727894659154e-05,-3.042639946215786e-05,-3.8791808947280515e-06,0.0,-8.689229616720695e-06,4.310060467105359e-05,-0.05088726058602333,-0.05064653977751732,3.804731750278734e-05,3.926637509721331e-05,-6.16071929471218e-06,0.0,5.8070829254575074e-05,-9.09953723748913e-06,0.04845527186989784,0.04836731776595116,,,,,,,,,,,,,,,,,,,,,,,,,,,,,,,,,,,,,,,,,,,,,,,,,,,,,,,,,,,,,,,,,,,,,,,,,,
12,1.3368709087371826,0.6165848970413208,1.5633375644683838,0.3892617738246918,0.0,1.4086557795778276e-06,-7.076305791997584e-06,0.5083616375923157,0.5083288550376892,0.6181128621101379,1.581169843673706,0.3889888590574265,0.0,-8.78373847701397e-06,2.322732598258881e-06,0.5080430507659912,0.5080332159996033,,,,,,,,,,,,,,,,,,,,,,,,,,,,,,,,,,,,,,,,,,,,,,,,,,,,,,,,,,,,,,,,,,,,,,,,,,,,,,,,,,,,,,,,,,,,,,,,,,,,,,,,,,,,,,,,,,,,,,,,,,,,,,,,,,,,,,1.932009581651073e-05,-2.5160014047287405e-05,-3.2063185244624037e-06,0.0,-7.190070846263552e-06,3.562785423127934e-05,-0.04207153618335724,-0.041877929121255875,3.177654434693977e-05,3.279565498814918e-05,-5.143502221471863e-06,0.0,4.7806923248572275e-05,-8.213094588427339e-06,0.04046469181776047,0.04039490967988968,,,,,,,,,,,,,,,,,,,,,,,,,,,,,,,,,,,,,,,,,,,,,,,,,,,,,,,,,,,,,,,,,,,,,,,,,,
13,1.358750820159912,0.6165848970413208,1.5633375644683838,0.3892617738246918,0.0,1.4086557795778276e-06,-7.076305791997584e-06,0.5083616375923157,0.5083288550376892,0.6181129217147827,1.5811699628829956,0.3889888516068459,0.0,-8.664529187463188e-06,2.3064023935148725e-06,0.5079629421234131,0.5079532861709595,,,,,,,,,,,,,,,,,,,,,,,,,,,,,,,,,,,,,,,,,,,,,,,,,,,,,,,,,,,,,,,,,,,,,,,,,,,,,,,,,,,,,,,,,,,,,,,,,,,,,,,,,,,,,,,,,,,,,,,,,,,,,,,,,,,,,,1.932009581651073e-05,-2.5160014047287405e-05,-3.2063185244624037e-06,0.0,-7.190070846263552e-06,3.562785423127934e-05,-0.04207153618335724,-0.041877929121255875,3.146018570987508e-05,3.2469200959894806e-05,-5.092193532618694e-06,0.0,4.72928695671726e-05,-8.16513602330815e-06,0.0400615930557251,0.03999270498752594,,,,,,,,,,,,,,,,,,,,,,,,,,,,,,,,,,,,,,,,,,,,,,,,,,,,,,,,,,,,,,,,,,,,,,,,,,
14,1.3807358741760254,0.6165855526924133,1.563336730003357,0.38926166951656344,0.0,1.1702372004762651e-06,-5.849694844073383e-06,0.5069130659103394,0.5068868398666382,0.6181139945983887,1.5811710357666016,0.38898867279291155,0.0,-7.055203778527641e-06,2.013939365497208e-06,0.5065835118293762,0.5065761804580688,,,,,,,,,,,,,,,,,,,,,,,,,,,,,,,,,,,,,,,,,,,,,,,,,,,,,,,,,,,,,,,,,,,,,,,,,,,,,,,,,,,,,,,,,,,,,,,,,,,,,,,,,,,,,,,,,,,,,,,,,,,,,,,,,,,,,,1.5975623682606965e-05,-2.080517151625827e-05,-2.6501688807911705e-06,0.0,-5.94712537349551e-06,2.9451131922542118e-05,-0.034783050417900085,-0.034627459943294525,2.6013482056441717e-05,2.6848640118259937e-05,-4.208996415400179e-06,0.0,3.850674329441972e-05,-7.2837533480196726e-06,0.03312190622091293,0.03306812420487404,,,,,,,,,,,,,,,,,,,,,,,,,,,,,,,,,,,,,,,,,,,,,,,,,,,,,,,,,,,,,,,,,,,,,,,,,,
15,1.402134656906128,0.6165860295295715,1.5633360147476196,0.3892615801095963,0.0,9.318186213747026e-07,-4.8844235607248265e-06,0.5057729482650757,0.5057517886161804,0.6181139945983887,1.5811710357666016,0.38898867279291155,0.0,-7.055203778527641e-06,2.013939365497208e-06,0.5065835118293762,0.5065761804580688,,,,,,,,,,,,,,,,,,,,,,,,,,,,,,,,,,,,,,,,,,,,,,,,,,,,,,,,,,,,,,,,,,,,,,,,,,,,,,,,,,,,,,,,,,,,,,,,,,,,,,,,,,,,,,,,,,,,,,,,,,,,,,,,,,,,,,1.3342929378268309e-05,-1.7377051335643046e-05,-2.21255982069124e-06,0.0,-4.966861979482928e-06,2.45906958298292e-05,-0.02904660254716873,-0.028920220211148262,2.6013482056441717e-05,2.6848640118259937e-05,-4.208996415400179e-06,0.0,3.850674329441972e-05,-7.2837533480196726e-06,0.03312190622091293,0.03306812420487404,,,,,,,,,,,,,,,,,,,,,,,,,,,,,,,,,,,,,,,,,,,,,,,,,,,,,,,,,,,,,,,,,,,,,,,,,,
16,1.4233207702636719,0.6165860295295715,1.5633360147476196,0.3892615801095963,0.0,9.318186213747026e-07,-4.8844235607248265e-06,0.5057729482650757,0.5057517886161804,0.6181148886680603,1.581171989440918,0.3889885312318802,0.0,-5.743901593469047e-06,1.7537503254061448e-06,0.5054430961608887,0.5054375529289246,,,,,,,,,,,,,,,,,,,,,,,,,,,,,,,,,,,,,,,,,,,,,,,,,,,,,,,,,,,,,,,,,,,,,,,,,,,,,,,,,,,,,,,,,,,,,,,,,,,,,,,,,,,,,,,,,,,,,,,,,,,,,,,,,,,,,,1.3342929378268309e-05,-1.7377051335643046e-05,-2.21255982069124e-06,0.0,-4.966861979482928e-06,2.45906958298292e-05,-0.02904660254716873,-0.028920220211148262,2.150976433767937e-05,2.220101850980427e-05,-3.4789834444381995e-06,0.0,3.134566577500664e-05,-6.4643177211110014e-06,0.027384351938962936,0.027342505753040314,,,,,,,,,,,,,,,,,,,,,,,,,,,,,,,,,,,,,,,,,,,,,,,,,,,,,,,,,,,,,,,,,,,,,,,,,,
17,1.4443621635437012,0.6165865063667297,1.5633354187011719,0.3892615056037903,0.0,8.126093318239214e-07,-4.078450729139149e-06,0.5048208832740784,0.5048037767410278,0.6181148886680603,1.581171989440918,0.3889885312318802,0.0,-5.743901593469047e-06,1.7537503254061448e-06,0.5054430961608887,0.5054375529289246,,,,,,,,,,,,,,,,,,,,,,,,,,,,,,,,,,,,,,,,,,,,,,,,,,,,,,,,,,,,,,,,,,,,,,,,,,,,,,,,,,,,,,,,,,,,,,,,,,,,,,,,,,,,,,,,,,,,,,,,,,,,,,,,,,,,,,1.1144087693537585e-05,-1.4513792848447338e-05,-1.847211592576059e-06,0.0,-4.14711985285976e-06,2.0532572307274677e-05,-0.024256214499473572,-0.024153638631105423,2.150976433767937e-05,2.220101850980427e-05,-3.4789834444381995e-06,0.0,3.134566577500664e-05,-6.4643177211110014e-06,0.027384351938962936,0.027342505753040314,,,,,,,,,,,,,,,,,,,,,,,,,,,,,,,,,,,,,,,,,,,,,,,,,,,,,,,,,,,,,,,,,,,,,,,,,,
18,1.4654831886291504,0.6165865063667297,1.5633354187011719,0.3892615056037903,0.0,8.126093318239214e-07,-4.078450729139149e-06,0.5048208832740784,0.5048037767410278,0.6181156635284424,1.5811727046966553,0.38898841202259066,0.0,-4.671017987512016e-06,1.5233797512337333e-06,0.5045002102851868,0.5044960379600525,,,,,,,,,,,,,,,,,,,,,,,,,,,,,,,,,,,,,,,,,,,,,,,,,,,,,,,,,,,,,,,,,,,,,,,,,,,,,,,,,,,,,,,,,,,,,,,,,,,,,,,,,,,,,,,,,,,,,,,,,,,,,,,,,,,,,,1.1144087693537585e-05,-1.4513792848447338e-05,-1.847211592576059e-06,0.0,-4.14711985285976e-06,2.0532572307274677e-05,-0.024256214499473572,-0.024153638631105423,1.77857782546198e-05,1.83579159056535e-05,-2.8755855510098627e-06,0.0,2.5510213163215667e-05,-5.711306130251614e-06,0.022640686482191086,0.022608255967497826,,,,,,,,,,,,,,,,,,,,,,,,,,,,,,,,,,,,,,,,,,,,,,,,,,,,,,,,,,,,,,,,,,,,,,,,,,
19,1.487093210220337,0.6165868639945984,1.5633349418640137,0.38926144599914553,0.0,6.337953974977495e-07,-3.371536422491772e-06,0.5039857029914856,0.503972053527832,0.6181161999702454,1.581173300743103,0.3889883226156235,0.0,-3.896157605431938e-06,1.3404428500507493e-06,0.5037959218025208,0.5037927031517029,,,,,,,,,,,,,,,,,,,,,,,,,,,,,,,,,,,,,,,,,,,,,,,,,,,,,,,,,,,,,,,,,,,,,,,,,,,,,,,,,,,,,,,,,,,,,,,,,,,,,,,,,,,,,,,,,,,,,,,,,,,,,,,,,,,,,,9.214952115144115e-06,-1.2001670256722718e-05,-1.5268067272700137e-06,0.0,-3.4273591609235154e-06,1.69733557413565e-05,-0.020054055377840996,-0.019971836358308792,1.5003785847511608e-05,1.5486855772905983e-05,-2.4249809484899743e-06,0.0,2.121175202773884e-05,-5.094922471471364e-06,0.019097335636615753,0.01907161809504032,,,,,,,,,,,,,,,,,,,,,,,,,,,,,,,,,,,,,,,,,,,,,,,,,,,,,,,,,,,,,,,,,,,,,,,,,,
20,1.5095961093902588,0.6165868639945984,1.5633349418640137,0.38926144599914553,0.0,6.337953974977495e-07,-3.371536422491772e-06,0.5039857029914856,0.503972053527832,0.6181161999702454,1.581173300743103,0.3889883151650429,0.0,-3.836552960656547e-06,1.3303222203830956e-06,0.5037581324577332,0.5037549734115601,,,,,,,,,,,,,,,,,,,,,,,,,,,,,,,,,,,,,,,,,,,,,,,,,,,,,,,,,,,,,,,,,,,,,,,,,,,,,,,,,,,,,,,,,,,,,,,,,,,,,,,,,,,,,,,,,,,,,,,,,,,,,,,,,,,,,,9.214952115144115e-06,-1.2001670256722718e-05,-1.5268067272700137e-06,0.0,-3.4273591609235154e-06,1.69733557413565e-05,-0.020054055377840996,-0.019971836358308792,1.4854411347187124e-05,1.5332696420955472e-05,-2.4007908905332442e-06,0.0,2.098262484651059e-05,-5.060343028162606e-06,0.0189070925116539,0.018881727010011673,,,,,,,,,,,,,,,,,,,,,,,,,,,,,,,,,,,,,,,,,,,,,,,,,,,,,,,,,,,,,,,,,,,,,,,,,,
21,1.5316507816314697,0.616587221622467,1.563334584236145,0.38926139384508135,0.0,5.145861079469682e-07,-2.7871597012563143e-06,0.5032952427864075,0.5032843947410583,0.6181167364120483,1.5811738967895508,0.38898823320865633,0.0,-3.12129722335186e-06,1.1506809869388235e-06,0.5031071305274963,0.5031048059463501,,,,,,,,,,,,,,,,,,,,,,,,,,,,,,,,,,,,,,,,,,,,,,,,,,,,,,,,,,,,,,,,,,,,,,,,,,,,,,,,,,,,,,,,,,,,,,,,,,,,,,,,,,,,,,,,,,,,,,,,,,,,,,,,,,,,,,7.61976571084233e-06,-9.924359801516403e-06,-1.2619774452105048e-06,0.0,-2.831965730365482e-06,1.40312040457502e-05,-0.016579879447817802,-0.016514044255018234,1.2282665011298377e-05,1.267853076569736e-05,-1.9843964764731936e-06,0.0,1.7068005035980605e-05,-4.438110408955254e-06,0.01563190296292305,0.01561242900788784,,,,,,,,,,,,,,,,,,,,,,,,,,,,,,,,,,,,,,,,,,,,,,,,,,,,,,,,,,,,,,,,,,,,,,,,,,
22,1.5528311729431152,0.6165874600410461,1.5633342266082764,0.38926134914159777,0.0,4.549814631715776e-07,-2.3272752969205612e-06,0.5027517676353455,0.5027430653572083,0.6181167364120483,1.5811738967895508,0.38898823320865633,0.0,-3.12129722335186e-06,1.1506809869388235e-06,0.5031071305274963,0.5031048059463501,,,,,,,,,,,,,,,,,,,,,,,,,,,,,,,,,,,,,,,,,,,,,,,,,,,,,,,,,,,,,,,,,,,,,,,,,,,,,,,,,,,,,,,,,,,,,,,,,,,,,,,,,,,,,,,,,,,,,,,,,,,,,,,,,,,,,,6.364070486597484e-06,-8.289102879643906e-06,-1.0535947012613178e-06,0.0,-2.363269686611602e-06,1.1715897016983945e-05,-0.013845511712133884,-0.01379222609102726,1.2282665011298377e-05,1.267853076569736e-05,-1.9843964764731936e-06,0.0,1.7068005035980605e-05,-4.438110408955254e-06,0.01563190296292305,0.01561242900788784,,,,,,,,,,,,,,,,,,,,,,,,,,,,,,,,,,,,,,,,,,,,,,,,,,,,,,,,,,,,,,,,,,,,,,,,,,
23,1.574944257736206,0.6165874600410461,1.5633342266082764,0.38926134914159777,0.0,4.549814631715776e-07,-2.3272752969205612e-06,0.5027517676353455,0.5027430653572083,0.6181171536445618,1.581174373626709,0.38898816615343096,0.0,-2.5252507755979536e-06,9.933928595273755e-07,0.5025689005851746,0.5025672316551208,,,,,,,,,,,,,,,,,,,,,,,,,,,,,,,,,,,,,,,,,,,,,,,,,,,,,,,,,,,,,,,,,,,,,,,,,,,,,,,,,,,,,,,,,,,,,,,,,,,,,,,,,,,,,,,,,,,,,,,,,,,,,,,,,,,,,,6.364070486597484e-06,-8.289102879643906e-06,-1.0535947012613178e-06,0.0,-2.363269686611602e-06,1.1715897016983945e-05,-0.013845511712133884,-0.01379222609102726,1.0156165444641374e-05,1.0483812729944475e-05,-1.6402219671363127e-06,0.0,1.3880019650969189e-05,-3.879960331687471e-06,0.01292405929416418,0.012909197248518467,,,,,,,,,,,,,,,,,,,,,,,,,,,,,,,,,,,,,,,,,,,,,,,,,,,,,,,,,,,,,,,,,,,,,,,,,,
24,1.5970854759216309,0.6165876388549805,1.5633339881896973,0.3892613118886948,0.0,3.95376818396187e-07,-1.943276402016636e-06,0.5022979378700256,0.5022909641265869,0.6181171536445618,1.581174373626709,0.38898816615343096,0.0,-2.5252507755979536e-06,9.933928595273755e-07,0.5025689005851746,0.5025672316551208,,,,,,,,,,,,,,,,,,,,,,,,,,,,,,,,,,,,,,,,,,,,,,,,,,,,,,,,,,,,,,,,,,,,,,,,,,,,,,,,,,,,,,,,,,,,,,,,,,,,,,,,,,,,,,,,,,,,,,,,,,,,,,,,,,,,,,5.315306680131471e-06,-6.923291948623955e-06,-8.796209840511438e-07,0.0,-1.9719052488653688e-06,9.782682354853023e-06,-0.011562097817659378,-0.011519013904035091,1.0156165444641374e-05,1.0483812729944475e-05,-1.6402219671363127e-06,0.0,1.3880019650969189e-05,-3.879960331687471e-06,0.01292405929416418,0.012909197248518467,,,,,,,,,,,,,,,,,,,,,,,,,,,,,,,,,,,,,,,,,,,,,,,,,,,,,,,,,,,,,,,,,,,,,,,,,,
25,1.6184113025665283,0.6165876388549805,1.5633339881896973,0.3892613118886948,0.0,3.95376818396187e-07,-1.943276402016636e-06,0.5022979378700256,0.5022909641265869,0.6181175112724304,1.5811747312545776,0.3889881065487862,0.0,-2.0484136173948286e-06,8.560929813938856e-07,0.5021238923072815,0.502122700214386,,,,,,,,,,,,,,,,,,,,,,,,,,,,,,,,,,,,,,,,,,,,,,,,,,,,,,,,,,,,,,,,,,,,,,,,,,,,,,,,,,,,,,,,,,,,,,,,,,,,,,,,,,,,,,,,,,,,,,,,,,,,,,,,,,,,,,5.315306680131471e-06,-6.923291948623955e-06,-8.796209840511438e-07,0.0,-1.9719052488653688e-06,9.782682354853023e-06,-0.011562097817659378,-0.011519013904035091,8.397826604777947e-06,8.669011549500283e-06,-1.3557414604292717e-06,0.0,1.1284380889264867e-05,-3.3822504974523326e-06,0.01068528275936842,0.01067401934415102,,,,,,,,,,,,,,,,,,,,,,,,,,,,,,,,,,,,,,,,,,,,,,,,,,,,,,,,,,,,,,,,,,,,,,,,,,
26,1.6408982276916504,0.6165878176689148,1.5633337497711182,0.389261289536953,0.0,2.7616752884540574e-07,-1.6226396155616385e-06,0.5019189715385437,0.5019133687019348,0.6181178092956543,1.5811749696731567,0.3889880618453026,0.0,-1.6907857487424849e-06,7.365684950855211e-07,0.501755952835083,0.5017551779747009,,,,,,,,,,,,,,,,,,,,,,,,,,,,,,,,,,,,,,,,,,,,,,,,,,,,,,,,,,,,,,,,,,,,,,,,,,,,,,,,,,,,,,,,,,,,,,,,,,,,,,,,,,,,,,,,,,,,,,,,,,,,,,,,,,,,,,4.439373697096016e-06,-5.782528660347452e-06,-7.343746801780071e-07,0.0,-1.645185307097563e-06,8.168490239768289e-06,-0.00965526606887579,-0.009620468132197857,6.943909738765797e-06,7.168360752984881e-06,-1.1206013823539251e-06,0.0,9.17152010515565e-06,-2.940712874988094e-06,0.00883432012051344,0.008825854398310184,,,,,,,,,,,,,,,,,,,,,,,,,,,,,,,,,,,,,,,,,,,,,,,,,,,,,,,,,,,,,,,,,,,,,,,,,,
27,1.6623544692993164,0.6165879964828491,1.563333511352539,0.3892612597346306,0.0,2.7616752884540574e-07,-1.3549091590903117e-06,0.5016024708747864,0.5015980005264282,0.6181178092956543,1.5811749696731567,0.3889880618453026,0.0,-1.6907857487424849e-06,7.365684950855211e-07,0.501755952835083,0.5017551779747009,,,,,,,,,,,,,,,,,,,,,,,,,,,,,,,,,,,,,,,,,,,,,,,,,,,,,,,,,,,,,,,,,,,,,,,,,,,,,,,,,,,,,,,,,,,,,,,,,,,,,,,,,,,,,,,,,,,,,,,,,,,,,,,,,,,,,,3.707789574036724e-06,-4.8297310968337115e-06,-6.131120926511358e-07,0.0,-1.3724818472837796e-06,6.820667294960003e-06,-0.008062910288572311,-0.008034838363528252,6.943909738765797e-06,7.168360752984881e-06,-1.1206013823539251e-06,0.0,9.17152010515565e-06,-2.940712874988094e-06,0.00883432012051344,0.008825854398310184,,,,,,,,,,,,,,,,,,,,,,,,,,,,,,,,,,,,,,,,,,,,,,,,,,,,,,,,,,,,,,,,,,,,,,,,,,
28,1.6842925548553467,0.6165879964828491,1.563333511352539,0.3892612597346306,0.0,2.7616752884540574e-07,-1.3549091590903117e-06,0.5016024708747864,0.5015980005264282,0.6181180477142334,1.5811752080917358,0.3889880245923996,0.0,-1.3927625248655318e-06,6.327758228508173e-07,0.5014517903327942,0.5014512538909912,,,,,,,,,,,,,,,,,,,,,,,,,,,,,,,,,,,,,,,,,,,,,,,,,,,,,,,,,,,,,,,,,,,,,,,,,,,,,,,,,,,,,,,,,,,,,,,,,,,,,,,,,,,,,,,,,,,,,,,,,,,,,,,,,,,,,,3.707789574036724e-06,-4.8297310968337115e-06,-6.131120926511358e-07,0.0,-1.3724818472837796e-06,6.820667294960003e-06,-0.008062910288572311,-0.008034838363528252,5.741709628637182e-06,5.927479378442513e-06,-9.262442404178728e-07,0.0,7.452060344803613e-06,-2.5507688405923545e-06,0.007303990423679352,0.007297691889107227,,,,,,,,,,,,,,,,,,,,,,,,,,,,,,,,,,,,,,,,,,,,,,,,,,,,,,,,,,,,,,,,,,,,,,,,,,
29,1.705777883529663,0.6165881156921387,1.5633333921432495,0.3892612373828888,0.0,2.1656288407001512e-07,-1.1200777407793794e-06,0.5013248920440674,0.5013213157653809,0.6181180477142334,1.5811752080917358,0.3889880245923996,0.0,-1.3927625248655318e-06,6.327758228508173e-07,0.5014517903327942,0.5014512538909912,,,,,,,,,,,,,,,,,,,,,,,,,,,,,,,,,,,,,,,,,,,,,,,,,,,,,,,,,,,,,,,,,,,,,,,,,,,,,,,,,,,,,,,,,,,,,,,,,,,,,,,,,,,,,,,,,,,,,,,,,,,,,,,,,,,,,,3.0659396088594804e-06,-3.993778591393493e-06,-5.067662982582988e-07,0.0,-1.1334244618410594e-06,5.638482889480656e-06,-0.006666087079793215,-0.0066437385976314545,5.741709628637182e-06,5.927479378442513e-06,-9.262442404178728e-07,0.0,7.452060344803613e-06,-2.5507688405923545e-06,0.007303990423679352,0.007297691889107227,,,,,,,,,,,,,,,,,,,,,,,,,,,,,,,,,,,,,,,,,,,,,,,,,,,,,,,,,,,,,,,,,,,,,,,,,,
30,1.7849864959716797,0.616588294506073,1.5633331537246704,0.3892612075805664,0.0,1.569582392946245e-07,-7.731716777925612e-07,0.5009146928787231,0.5009124875068665,0.6193948984146118,1.5828964710235596,0.3889217665791512,0.0,0.00012711485161087666,-0.00018921252922154963,0.5013394951820374,0.5005233883857727,,,,,,,,,,,,,,,,,,,,,,,,,,,,,,,,,,,,,,,,,,,,,,,,,,,,,,,,,,,,,,,,,,,,,,,,,,,,,,,,,,,,,,,,,,,,,,,,,,,,,,,,,,,,,,,,,,,,,,,,,,,,,,,,,,,,,,2.1174128050915897e-06,-2.758356231424841e-06,-3.4970187812177755e-07,0.0,-7.806572170920845e-07,3.892120275850175e-06,-0.0046023293398320675,-0.004588057287037373,0.11979276686906815,0.15379521250724792,-0.00780976377427578,0.0,0.06053175404667854,-0.041949063539505005,-0.12642911076545715,0.11665498465299606,,,,,,,,,,,,,,,,,,,,,,,,,,,,,,,,,,,,,,,,,,,,,,,,,,,,,,,,,,,,,,,,,,,,,,,,,,
31,1.8065567016601562,0.6165883541107178,1.5633330345153809,0.38926120012998583,0.0,9.735359451923387e-08,-6.456030519075284e-07,0.5007638335227966,0.5007621049880981,0.6207122206687927,1.5847097635269165,0.38885813117027285,0.0,1.028974785111103e-05,-0.0001263625454157591,0.5009355545043945,0.5005173087120056,,,,,,,,,,,,,,,,,,,,,,,,,,,,,,,,,,,,,,,,,,,,,,,,,,,,,,,,,,,,,,,,,,,,,,,,,,,,,,,,,,,,,,,,,,,,,,,,,,,,,,,,,,,,,,,,,,,,,,,,,,,,,,,,,,,,,,1.768474817254173e-06,-2.3038573999656364e-06,-2.919580310845049e-07,0.0,-6.511079959636845e-07,3.249934025006951e-06,-0.0038433086592704058,-0.0038318608421832323,0.011391756124794483,0.014413096010684967,-0.000928250839933753,0.0,-0.01991611160337925,0.02728721871972084,0.04686412960290909,-0.06409615278244019,,,,,,,,,,,,,,,,,,,,,,,,,,,,,,,,,,,,,,,,,,,,,,,,,,,,,,,,,,,,,,,,,,,,,,,,,,
32,1.8277862071990967,0.6165883541107178,1.5633330345153809,0.38926120012998583,0.0,9.735359451923387e-08,-6.391679789885529e-07,0.5007562637329102,0.5007545351982117,0.6212125420570374,1.5853923559188843,0.38883022129535677,0.0,8.203585283972359e-06,-3.57232493115589e-05,0.5007399916648865,0.5006060004234314,,,,,,,,,,,,,,,,,,,,,,,,,,,,,,,,,,,,,,,,,,,,,,,,,,,,,,,,,,,,,,,,,,,,,,,,,,,,,,,,,,,,,,,,,,,,,,,,,,,,,,,,,,,,,,,,,,,,,,,,,,,,,,,,,,,,,,1.7508706378066563e-06,-2.280926992170862e-06,-2.890453458803677e-07,0.0,-6.445764597629022e-07,3.2175400974665536e-06,-0.0038050187285989523,-0.003793710609897971,0.008432488888502121,0.01151900552213192,-0.00042783221579156816,0.0,0.00011429464939283207,-0.00031406147172674537,0.003638786729425192,0.003392542712390423,,,,,,,,,,,,,,,,,,,,,,,,,,,,,,,,,,,,,,,,,,,,,,,,,,,,,,,,,,,,,,,,,,,,,,,,,,
33,1.8494198322296143,0.6165884137153625,1.5633329153060913,0.38926118522882464,0.0,9.735359451923387e-08,-5.283896484797879e-07,0.5006252527236938,0.500623881816864,0.6212292909622192,1.5854151248931885,0.3888294315338135,0.0,8.442003863073921e-06,-3.586346429074183e-05,0.5007328987121582,0.5005994439125061,,,,,,,,,,,,,,,,,,,,,,,,,,,,,,,,,,,,,,,,,,,,,,,,,,,,,,,,,,,,,,,,,,,,,,,,,,,,,,,,,,,,,,,,,,,,,,,,,,,,,,,,,,,,,,,,,,,,,,,,,,,,,,,,,,,,,,1.447780277885613e-06,-1.8861341004594578e-06,-2.389098199273576e-07,0.0,-5.321959406501264e-07,2.6598806925903773e-06,-0.0031458346638828516,-0.0031368921045213938,0.008376204408705235,0.011396494694054127,-0.00039464174187742174,0.0,0.00012317961954977363,-7.010772242210805e-05,0.0035691624507308006,0.003264795057475567,,,,,,,,,,,,,,,,,,,,,,,,,,,,,,,,,,,,,,,,,,,,,,,,,,,,,,,,,,,,,,,,,,,,,,,,,,
34,1.8711135387420654,0.6165884137153625,1.5633329153060913,0.38926118522882464,0.0,9.735359451923387e-08,-5.283896484797879e-07,0.5006252527236938,0.500623881816864,0.621518075466156,1.585808515548706,0.38881479859352114,0.0,7.726748125769234e-06,-3.0467001124634407e-05,0.5006060004234314,0.5004945397377014,,,,,,,,,,,,,,,,,,,,,,,,,,,,,,,,,,,,,,,,,,,,,,,,,,,,,,,,,,,,,,,,,,,,,,,,,,,,,,,,,,,,,,,,,,,,,,,,,,,,,,,,,,,,,,,,,,,,,,,,,,,,,,,,,,,,,,1.447780277885613e-06,-1.8861341004594578e-06,-2.389098199273576e-07,0.0,-5.321959406501264e-07,2.6598806925903773e-06,-0.0031458346638828516,-0.0031368921045213938,0.006939568091183901,0.009451455436646938,-0.0003506446082610637,0.0,-4.3597639887593687e-05,0.00016717310063540936,0.0030684052035212517,0.0024532636161893606,,,,,,,,,,,,,,,,,,,,,,,,,,,,,,,,,,,,,,,,,,,,,,,,,,,,,,,,,,,,,,,,,,,,,,,,,,
35,1.8932890892028809,0.6165884733200073,1.5633329153060913,0.38926117777824404,0.0,3.774894974384324e-08,-4.412089538163855e-07,0.5005221366882324,0.5005210638046265,0.621518075466156,1.585808515548706,0.38881479859352114,0.0,7.726748125769234e-06,-3.0467001124634407e-05,0.5006060004234314,0.5004945397377014,,,,,,,,,,,,,,,,,,,,,,,,,,,,,,,,,,,,,,,,,,,,,,,,,,,,,,,,,,,,,,,,,,,,,,,,,,,,,,,,,,,,,,,,,,,,,,,,,,,,,,,,,,,,,,,,,,,,,,,,,,,,,,,,,,,,,,1.2091938970115734e-06,-1.5753528259665472e-06,-1.9946021723171725e-07,0.0,-4.4384862007973425e-07,2.2210140286915703e-06,-0.002627020701766014,-0.002619874430820346,0.006939568091183901,0.009451455436646938,-0.0003506446082610637,0.0,-4.3597639887593687e-05,0.00016717310063540936,0.0030684052035212517,0.0024532636161893606,,,,,,,,,,,,,,,,,,,,,,,,,,,,,,,,,,,,,,,,,,,,,,,,,,,,,,,,,,,,,,,,,,,,,,,,,,
36,1.91593337059021,0.6165885329246521,1.5633327960968018,0.38926117032766344,0.0,3.774894974384324e-08,-3.721217183283443e-07,0.5004404187202454,0.5004395246505737,0.6217570304870605,1.5861340761184692,0.3888027286529541,0.0,6.296236651159859e-06,-2.4729133656364866e-05,0.5005004405975342,0.5004099607467651,,,,,,,,,,,,,,,,,,,,,,,,,,,,,,,,,,,,,,,,,,,,,,,,,,,,,,,,,,,,,,,,,,,,,,,,,,,,,,,,,,,,,,,,,,,,,,,,,,,,,,,,,,,,,,,,,,,,,,,,,,,,,,,,,,,,,,1.0200797078141477e-06,-1.3290068636706565e-06,-1.6820271753203997e-07,0.0,-3.739102965027996e-07,1.873231212812243e-06,-0.0022158457431942225,-0.0022100741043686867,0.005738715175539255,0.007815726101398468,-0.00028978163027204573,0.0,-3.444054163992405e-05,0.00013657586532644928,0.002532718935981393,0.0020342760253697634,,,,,,,,,,,,,,,,,,,,,,,,,,,,,,,,,,,,,,,,,,,,,,,,,,,,,,,,,,,,,,,,,,,,,,,,,,
37,1.9371201992034912,0.6165885329246521,1.5633327960968018,0.38926117032766344,0.0,3.774894974384324e-08,-3.647404582807212e-07,0.5004316568374634,0.5004308223724365,0.6217570304870605,1.5861340761184692,0.3888027286529541,0.0,6.296236651159859e-06,-2.4729133656364866e-05,0.5005004405975342,0.5004099607467651,,,,,,,,,,,,,,,,,,,,,,,,,,,,,,,,,,,,,,,,,,,,,,,,,,,,,,,,,,,,,,,,,,,,,,,,,,,,,,,,,,,,,,,,,,,,,,,,,,,,,,,,,,,,,,,,,,,,,,,,,,,,,,,,,,,,,,9.998719860959682e-07,-1.302683585890918e-06,-1.6486342246935237e-07,0.0,-3.664427197236364e-07,1.8360739204581478e-06,-0.0021719138603657484,-0.0021662861108779907,0.005738715175539255,0.007815726101398468,-0.00028978163027204573,0.0,-3.444054163992405e-05,0.00013657586532644928,0.002532718935981393,0.0020342760253697634,,,,,,,,,,,,,,,,,,,,,,,,,,,,,,,,,,,,,,,,,,,,,,,,,,,,,,,,,,,,,,,,,,,,,,,,,,
38,1.9593327045440674,0.6165885329246521,1.5633327960968018,0.38926117032766344,0.0,3.774894974384324e-08,-3.015252332261298e-07,0.5003568530082703,0.5003562569618225,0.6219451427459717,1.5863902568817139,0.38879322916269304,0.0,5.163748400427437e-06,-2.0291010514483787e-05,0.5004174709320068,0.5003432035446167,,,,,,,,,,,,,,,,,,,,,,,,,,,,,,,,,,,,,,,,,,,,,,,,,,,,,,,,,,,,,,,,,,,,,,,,,,,,,,,,,,,,,,,,,,,,,,,,,,,,,,,,,,,,,,,,,,,,,,,,,,,,,,,,,,,,,,8.267858788713056e-07,-1.077209276445501e-06,-1.3626755901441356e-07,0.0,-3.0252965643740026e-07,1.5178519561231951e-06,-0.0017956499941647053,-0.0017912292387336493,0.004792892839759588,0.006527643650770187,-0.00024193388526327908,0.0,-2.8367194317979738e-05,0.00011216825078008696,0.0021128172520548105,0.001703036716207862,,,,,,,,,,,,,,,,,,,,,,,,,,,,,,,,,,,,,,,,,,,,,,,,,,,,,,,,,,,,,,,,,,,,,,,,,,
39,1.9812672138214111,0.6165885329246521,1.5633327960968018,0.38926117032766344,0.0,3.774894974384324e-08,-3.015252332261298e-07,0.5003568530082703,0.5003562569618225,0.6221101880073547,1.586614966392517,0.3887849068641663,0.0,4.210074084021187e-06,-1.6462614439660683e-05,0.5003448128700256,0.5002844929695129,,,,,,,,,,,,,,,,,,,,,,,,,,,,,,,,,,,,,,,,,,,,,,,,,,,,,,,,,,,,,,,,,,,,,,,,,,,,,,,,,,,,,,,,,,,,,,,,,,,,,,,,,,,,,,,,,,,,,,,,,,,,,,,,,,,,,,8.267858788713056e-07,-1.077209276445501e-06,-1.3626755901441356e-07,0.0,-3.0252965643740026e-07,1.5178519561231951e-06,-0.0017956499941647053,-0.0017912292387336493,0.003963093273341656,0.005397563334554434,-0.00019997208437416703,0.0,-2.310828131157905e-05,9.115305874729529e-05,0.0017448841826990247,0.001411709119565785,,,,,,,,,,,,,,,,,,,,,,,,,,,,,,,,,,,,,,,,,,,,,,,,,,,,,,,,,,,,,,,,,,,,,,,,,,
40,2.0024657249450684,0.6165885925292969,1.5633327960968018,0.38926116287708284,0.0,3.774894974384324e-08,-2.5177581619573175e-07,0.500298023223877,0.5002975463867188,0.6221101880073547,1.586614966392517,0.3887849068641663,0.0,4.210074084021187e-06,-1.6462614439660683e-05,0.5003448128700256,0.5002844929695129,,,,,,,,,,,,,,,,,,,,,,,,,,,,,,,,,,,,,,,,,,,,,,,,,,,,,,,,,,,,,,,,,,,,,,,,,,,,,,,,,,,,,,,,,,,,,,,,,,,,,,,,,,,,,,,,,,,,,,,,,,,,,,,,,,,,,,6.905362965881068e-07,-8.997164400170732e-07,-1.1376666719797868e-07,0.0,-2.522911302094144e-07,1.2674167919612955e-06,-0.001499509671702981,-0.0014960014959797263,0.003963093273341656,0.005397563334554434,-0.00019997208437416703,0.0,-2.310828131157905e-05,9.115305874729529e-05,0.0017448841826990247,0.001411709119565785,,,,,,,,,,,,,,,,,,,,,,,,,,,,,,,,,,,,,,,,,,,,,,,,,,,,,,,,,,,,,,,,,,,,,,,,,,
41,2.0240519046783447,0.6165885925292969,1.5633327960968018,0.38926116287708284,0.0,3.774894974384324e-08,-2.5177581619573175e-07,0.500298023223877,0.5002975463867188,0.6222466230392456,1.5868008136749268,0.3887780225276947,0.0,3.435213701941109e-06,-1.335187153017614e-05,0.500284731388092,0.5002357959747314,,,,,,,,,,,,,,,,,,,,,,,,,,,,,,,,,,,,,,,,,,,,,,,,,,,,,,,,,,,,,,,,,,,,,,,,,,,,,,,,,,,,,,,,,,,,,,,,,,,,,,,,,,,,,,,,,,,,,,,,,,,,,,,,,,,,,,6.905362965881068e-07,-8.997164400170732e-07,-1.1376666719797868e-07,0.0,-2.522911302094144e-07,1.2674167919612955e-06,-0.001499509671702981,-0.0014960014959797263,0.0032769590616226196,0.004463125020265579,-0.00016528846754226834,0.0,-1.881806383607909e-05,7.405602082144469e-05,0.0014410217991098762,0.001170214032754302,,,,,,,,,,,,,,,,,,,,,,,,,,,,,,,,,,,,,,,,,,,,,,,,,,,,,,,,,,,,,,,,,,,,,,,,,,
42,2.045647144317627,0.6165885925292969,1.5633326768875122,0.38926116287708284,0.0,3.774894974384324e-08,-2.1023470253567211e-07,0.5002488493919373,0.5002484917640686,0.6222466230392456,1.5868008136749268,0.3887780225276947,0.0,3.435213701941109e-06,-1.335187153017614e-05,0.500284731388092,0.5002357959747314,,,,,,,,,,,,,,,,,,,,,,,,,,,,,,,,,,,,,,,,,,,,,,,,,,,,,,,,,,,,,,,,,,,,,,,,,,,,,,,,,,,,,,,,,,,,,,,,,,,,,,,,,,,,,,,,,,,,,,,,,,,,,,,,,,,,,,5.767394668509951e-07,-7.514684625675727e-07,-9.498112518713242e-08,0.0,-2.1039225828189956e-07,1.0583019047771813e-06,-0.0012522090692073107,-0.00124943268019706,0.0032769590616226196,0.004463125020265579,-0.00016528846754226834,0.0,-1.881806383607909e-05,7.405602082144469e-05,0.0014410217991098762,0.001170214032754302,,,,,,,,,,,,,,,,,,,,,,,,,,,,,,,,,,,,,,,,,,,,,,,,,,,,,,,,,,,,,,,,,,,,,,,,,,
43,2.0670106410980225,0.6165885925292969,1.5633326768875122,0.38926115542650225,0.0,3.774894974384324e-08,-1.755475835807374e-07,0.5002078413963318,0.5002075433731079,0.6223595142364502,1.5869545936584473,0.3887723302841187,0.0,2.779562609411812e-06,-1.08249641925795e-05,0.5002351403236389,0.5001954436302185,,,,,,,,,,,,,,,,,,,,,,,,,,,,,,,,,,,,,,,,,,,,,,,,,,,,,,,,,,,,,,,,,,,,,,,,,,,,,,,,,,,,,,,,,,,,,,,,,,,,,,,,,,,,,,,,,,,,,,,,,,,,,,,,,,,,,,4.816962473341846e-07,-6.276480348788027e-07,-7.929750722723838e-08,0.0,-1.7544971342431381e-07,8.836896085995249e-07,-0.0010456935269758105,-0.001043502939864993,0.002709616906940937,0.0036904586013406515,-0.00013662059791386127,0.0,-1.5319630620069802e-05,6.014826794853434e-05,0.0011900733225047588,0.000970026885624975,,,,,,,,,,,,,,,,,,,,,,,,,,,,,,,,,,,,,,,,,,,,,,,,,,,,,,,,,,,,,,,,,,,,,,,,,,
44,2.088735342025757,0.6165885925292969,1.5633326768875122,0.38926115542650225,0.0,3.774894974384324e-08,-1.737978152505093e-07,0.5002057552337646,0.5002054572105408,0.6223595142364502,1.5869545936584473,0.3887723302841187,0.0,2.779562609411812e-06,-1.08249641925795e-05,0.5002351403236389,0.5001954436302185,,,,,,,,,,,,,,,,,,,,,,,,,,,,,,,,,,,,,,,,,,,,,,,,,,,,,,,,,,,,,,,,,,,,,,,,,,,,,,,,,,,,,,,,,,,,,,,,,,,,,,,,,,,,,,,,,,,,,,,,,,,,,,,,,,,,,,4.769012207361811e-07,-6.214011705196754e-07,-7.850641026152516e-08,0.0,-1.7368762428304763e-07,8.748816640036239e-07,-0.0010352755198255181,-0.0010331139201298356,0.002709616906940937,0.0036904586013406515,-0.00013662059791386127,0.0,-1.5319630620069802e-05,6.014826794853434e-05,0.0011900733225047588,0.000970026885624975,,,,,,,,,,,,,,,,,,,,,,,,,,,,,,,,,,,,,,,,,,,,,,,,,,,,,,,,,,,,,,,,,,,,,,,,,,
45,2.111323356628418,0.6165886521339417,1.5633326768875122,0.38926115542650225,0.0,-2.1855695031547384e-08,-1.4367601863796153e-07,0.500170111656189,0.5001698732376099,0.6224527955055237,1.5870816707611084,0.388767628967762,0.0,2.2431208064332964e-06,-8.772927685640752e-06,0.5001941919326782,0.5001620054244995,,,,,,,,,,,,,,,,,,,,,,,,,,,,,,,,,,,,,,,,,,,,,,,,,,,,,,,,,,,,,,,,,,,,,,,,,,,,,,,,,,,,,,,,,,,,,,,,,,,,,,,,,,,,,,,,,,,,,,,,,,,,,,,,,,,,,,3.943455055832601e-07,-5.138462029208313e-07,-6.488932058346109e-08,0.0,-1.4338485243570176e-07,7.232509346977167e-07,-0.0008559236885048449,-0.0008542470750398934,0.002240499947220087,0.003051558043807745,-0.00011292500130366534,0.0,-1.2467750821087975e-05,4.883747169515118e-05,0.0009828248294070363,0.0008040820830501616,,,,,,,,,,,,,,,,,,,,,,,,,,,,,,,,,,,,,,,,,,,,,,,,,,,,,,,,,,,,,,,,,,,,,,,,,,
46,2.133108139038086,0.6165886521339417,1.5633326768875122,0.38926115542650225,0.0,-2.1855695031547384e-08,-1.4367601863796153e-07,0.500170111656189,0.5001698732376099,0.622526228427887,1.5871816873550415,0.38876392602920534,0.0,1.825888293005562e-06,-7.1863241828395985e-06,0.5001620054244995,0.5001356601715088,,,,,,,,,,,,,,,,,,,,,,,,,,,,,,,,,,,,,,,,,,,,,,,,,,,,,,,,,,,,,,,,,,,,,,,,,,,,,,,,,,,,,,,,,,,,,,,,,,,,,,,,,,,,,,,,,,,,,,,,,,,,,,,,,,,,,,3.943455055832601e-07,-5.138462029208313e-07,-6.488932058346109e-08,0.0,-1.4338485243570176e-07,7.232509346977167e-07,-0.0008559236885048449,-0.0008542470750398934,0.0018712312448769808,0.0025486380327492952,-9.427971963305026e-05,0.0,-1.0254464541503694e-05,4.0078997699311e-05,0.0008198821451514959,0.0006731374305672944,,,,,,,,,,,,,,,,,,,,,,,,,,,,,,,,,,,,,,,,,,,,,,,,,,,,,,,,,,,,,,,,,,,,,,,,,,
47,2.155083179473877,0.6165886521339417,1.5633326768875122,0.38926114797592165,0.0,-2.1855695031547384e-08,-1.1877478556243659e-07,0.5001406669616699,0.5001404881477356,0.622526228427887,1.5871816873550415,0.38876392602920534,0.0,1.825888293005562e-06,-7.1863241828395985e-06,0.5001620054244995,0.5001356601715088,,,,,,,,,,,,,,,,,,,,,,,,,,,,,,,,,,,,,,,,,,,,,,,,,,,,,,,,,,,,,,,,,,,,,,,,,,,,,,,,,,,,,,,,,,,,,,,,,,,,,,,,,,,,,,,,,,,,,,,,,,,,,,,,,,,,,,3.2608082278784423e-07,-4.249073413120641e-07,-5.363413180248244e-08,0.0,-1.1836753799343569e-07,5.979003958600515e-07,-0.0007076428737491369,-0.0007063481607474387,0.0018712312448769808,0.0025486380327492952,-9.427971963305026e-05,0.0,-1.0254464541503694e-05,4.0078997699311e-05,0.0008198821451514959,0.0006731374305672944,,,,,,,,,,,,,,,,,,,,,,,,,,,,,,,,,,,,,,,,,,,,,,,,,,,,,,,,,,,,,,,,,,,,,,,,,,
48,2.1767356395721436,0.6165886521339417,1.5633326768875122,0.38926114797592165,0.0,-2.1855695031547384e-08,-1.1877478556243659e-07,0.5001406669616699,0.5001404881477356,0.6225906610488892,1.5872694253921509,0.3887606775760651,0.0,1.4682604243532182e-06,-5.81941640120931e-06,0.5001338124275208,0.5001124143600464,,,,,,,,,,,,,,,,,,,,,,,,,,,,,,,,,,,,,,,,,,,,,,,,,,,,,,,,,,,,,,,,,,,,,,,,,,,,,,,,,,,,,,,,,,,,,,,,,,,,,,,,,,,,,,,,,,,,,,,,,,,,,,,,,,,,,,3.2608082278784423e-07,-4.249073413120641e-07,-5.363413180248244e-08,0.0,-1.1836753799343569e-07,5.979003958600515e-07,-0.0007076428737491369,-0.0007063481607474387,0.001547264982946217,0.002107412088662386,-7.792785618221387e-05,0.0,-8.340487511304673e-06,3.252151873311959e-05,0.0006770994514226913,0.0005579769494943321,,,,,,,,,,,,,,,,,,,,,,,,,,,,,,,,,,,,,,,,,,,,,,,,,,,,,,,,,,,,,,,,,,,,,,,,,,
49,2.1990199089050293,0.6165886521339417,1.5633326768875122,0.38926114797592165,0.0,-2.1855695031547384e-08,-9.818931090421756e-08,0.5001162886619568,0.5001161694526672,0.6225906610488892,1.5872694253921509,0.3887606775760651,0.0,1.4682604243532182e-06,-5.81941640120931e-06,0.5001338124275208,0.5001124143600464,,,,,,,,,,,,,,,,,,,,,,,,,,,,,,,,,,,,,,,,,,,,,,,,,,,,,,,,,,,,,,,,,,,,,,,,,,,,,,,,,,,,,,,,,,,,,,,,,,,,,,,,,,,,,,,,,,,,,,,,,,,,,,,,,,,,,,2.696337730867526e-07,-3.513623880735395e-07,-4.4331134319008925e-08,0.0,-9.77139507085667e-08,4.942752980241494e-07,-0.0005850503221154213,-0.0005840554949827492,0.001547264982946217,0.002107412088662386,-7.792785618221387e-05,0.0,-8.340487511304673e-06,3.252151873311959e-05,0.0006770994514226913,0.0005579769494943321,,,,,,,,,,,,,,,,,,,,,,,,,,,,,,,,,,,,,,,,,,,,,,,,,,,,,,,,,,,,,,,,,,,,,,,,,,
50,2.2205429077148438,0.6165886521339417,1.5633325576782227,0.38926114797592165,0.0,-2.1855695031547384e-08,-8.117161343079715e-08,0.5000961422920227,0.5000960230827332,0.6226439476013184,1.5873420238494873,0.3887579953670502,0.0,1.2298418452516557e-06,-4.710453595180297e-06,0.5001105070114136,0.5000931620597839,,,,,,,,,,,,,,,,,,,,,,,,,,,,,,,,,,,,,,,,,,,,,,,,,,,,,,,,,,,,,,,,,,,,,,,,,,,,,,,,,,,,,,,,,,,,,,,,,,,,,,,,,,,,,,,,,,,,,,,,,,,,,,,,,,,,,,2.2295759549706418e-07,-2.9054726269350795e-07,-3.664187531171592e-08,0.0,-8.066391643524184e-08,4.0860996364244784e-07,-0.0004836958250962198,-0.00048293580766767263,0.0012793871574103832,0.0017425721744075418,-6.441208097385243e-05,0.0,-6.781623142160242e-06,2.6379924747743644e-05,0.0005591815570369363,0.00046251568710431457,,,,,,,,,,,,,,,,,,,,,,,,,,,,,,,,,,,,,,,,,,,,,,,,,,,,,,,,,,,,,,,,,,,,,,,,,,
51,2.2426209449768066,0.6165886521339417,1.5633325576782227,0.38926114797592165,0.0,-2.1855695031547384e-08,-8.117161343079715e-08,0.5000961422920227,0.5000960230827332,0.6226879954338074,1.5874019861221313,0.3887557750940323,0.0,9.914232661500932e-07,-3.8110808873170754e-06,0.5000912547111511,0.5000772476196289,,,,,,,,,,,,,,,,,,,,,,,,,,,,,,,,,,,,,,,,,,,,,,,,,,,,,,,,,,,,,,,,,,,,,,,,,,,,,,,,,,,,,,,,,,,,,,,,,,,,,,,,,,,,,,,,,,,,,,,,,,,,,,,,,,,,,,2.2295759549706418e-07,-2.9054726269350795e-07,-3.664187531171592e-08,0.0,-8.066391643524184e-08,4.0860996364244784e-07,-0.0004836958250962198,-0.00048293580766767263,0.0010578871006146073,0.0014408942079171538,-5.3240499255480245e-05,0.0,-5.512357802217593e-06,2.1390378606156446e-05,0.0004617984814103693,0.0003833842638414353,,,,,,,,,,,,,,,,,,,,,,,,,,,,,,,,,,,,,,,,,,,,,,,,,,,,,,,,,,,,,,,,,,,,,,,,,,
52,2.2637593746185303,0.6165886521339417,1.5633325576782227,0.38926114797592165,0.0,-2.1855695031547384e-08,-6.710334332638013e-08,0.5000794529914856,0.5000793933868408,0.6226879954338074,1.5874019861221313,0.3887557750940323,0.0,9.914232661500932e-07,-3.8110808873170754e-06,0.5000912547111511,0.5000772476196289,,,,,,,,,,,,,,,,,,,,,,,,,,,,,,,,,,,,,,,,,,,,,,,,,,,,,,,,,,,,,,,,,,,,,,,,,,,,,,,,,,,,,,,,,,,,,,,,,,,,,,,,,,,,,,,,,,,,,,,,,,,,,,,,,,,,,,1.843619088504056e-07,-2.4025803213589825e-07,-3.028623751788473e-08,0.0,-6.658851248175779e-08,3.377918176283856e-07,-0.00039990004734136164,-0.000399323325837031,0.0010578871006146073,0.0014408942079171538,-5.3240499255480245e-05,0.0,-5.512357802217593e-06,2.1390378606156446e-05,0.0004617984814103693,0.0003833842638414353,,,,,,,,,,,,,,,,,,,,,,,,,,,,,,,,,,,,,,,,,,,,,,,,,,,,,,,,,,,,,,,,,,,,,,,,,,
53,2.285327434539795,0.6165886521339417,1.5633325576782227,0.38926114797592165,0.0,-2.1855695031547384e-08,-6.710334332638013e-08,0.5000794529914856,0.5000793933868408,0.6227226853370667,1.5874491930007935,0.3887540316581726,0.0,8.126093318239214e-07,-3.116632569799549e-06,0.5000761151313782,0.5000646710395813,,,,,,,,,,,,,,,,,,,,,,,,,,,,,,,,,,,,,,,,,,,,,,,,,,,,,,,,,,,,,,,,,,,,,,,,,,,,,,,,,,,,,,,,,,,,,,,,,,,,,,,,,,,,,,,,,,,,,,,,,,,,,,,,,,,,,,1.843619088504056e-07,-2.4025803213589825e-07,-3.028623751788473e-08,0.0,-6.658851248175779e-08,3.377918176283856e-07,-0.00039990004734136164,-0.000399323325837031,0.0008835316984914243,0.0012034238316118717,-4.4449920096667483e-05,0.0,-4.528430054051569e-06,1.7530886907479726e-05,0.00038523459807038307,0.00032094374182634056,,,,,,,,,,,,,,,,,,,,,,,,,,,,,,,,,,,,,,,,,,,,,,,,,,,,,,,,,,,,,,,,,,,,,,,,,,
54,2.307271718978882,0.6165886521339417,1.5633325576782227,0.38926114797592165,0.0,-2.1855695031547384e-08,-5.547331127786492e-08,0.5000656843185425,0.5000656843185425,0.6227226853370667,1.5874491930007935,0.3887540316581726,0.0,8.126093318239214e-07,-3.116632569799549e-06,0.5000761151313782,0.5000646710395813,,,,,,,,,,,,,,,,,,,,,,,,,,,,,,,,,,,,,,,,,,,,,,,,,,,,,,,,,,,,,,,,,,,,,,,,,,,,,,,,,,,,,,,,,,,,,,,,,,,,,,,,,,,,,,,,,,,,,,,,,,,,,,,,,,,,,,1.5244738449382567e-07,-1.9867330536271766e-07,-2.503303875300844e-08,0.0,-5.496853106023991e-08,2.792472457713302e-07,-0.00033062108559533954,-0.00033018700196407735,0.0008835316984914243,0.0012034238316118717,-4.4449920096667483e-05,0.0,-4.528430054051569e-06,1.7530886907479726e-05,0.00038523459807038307,0.00032094374182634056,,,,,,,,,,,,,,,,,,,,,,,,,,,,,,,,,,,,,,,,,,,,,,,,,,,,,,,,,,,,,,,,,,,,,,,,,,
55,2.329197406768799,0.6165886521339417,1.5633325576782227,0.38926114797592165,0.0,-2.1855695031547384e-08,-5.547331127786492e-08,0.5000656843185425,0.5000656843185425,0.6227516531944275,1.5874886512756348,0.3887525787949562,0.0,6.337953974977495e-07,-2.547586973378202e-06,0.5000634789466858,0.500054121017456,,,,,,,,,,,,,,,,,,,,,,,,,,,,,,,,,,,,,,,,,,,,,,,,,,,,,,,,,,,,,,,,,,,,,,,,,,,,,,,,,,,,,,,,,,,,,,,,,,,,,,,,,,,,,,,,,,,,,,,,,,,,,,,,,,,,,,1.5244738449382567e-07,-1.9867330536271766e-07,-2.503303875300844e-08,0.0,-5.496853106023991e-08,2.792472457713302e-07,-0.00033062108559533954,-0.00033018700196407735,0.0007379127200692892,0.0010050904238596559,-3.711076715262607e-05,0.0,-3.719018422998488e-06,1.4362674846779555e-05,0.00032136417576111853,0.00026867128326557577,,,,,,,,,,,,,,,,,,,,,,,,,,,,,,,,,,,,,,,,,,,,,,,,,,,,,,,,,,,,,,,,,,,,,,,,,,
56,2.3503353595733643,0.6165887117385864,1.5633325576782227,0.38926114797592165,0.0,-2.1855695031547384e-08,-4.585893975672661e-08,0.5000542998313904,0.5000542998313904,0.6227758526802063,1.5875215530395508,0.38875135689973833,0.0,5.145861079469682e-07,-2.08146775548812e-06,0.5000529885292053,0.5000452995300293,,,,,,,,,,,,,,,,,,,,,,,,,,,,,,,,,,,,,,,,,,,,,,,,,,,,,,,,,,,,,,,,,,,,,,,,,,,,,,,,,,,,,,,,,,,,,,,,,,,,,,,,,,,,,,,,,,,,,,,,,,,,,,,,,,,,,,1.2605705990154092e-07,-1.64285921755436e-07,-2.069102578161619e-08,0.0,-4.537581332897389e-08,2.3084974998255348e-07,-0.00027334404876455665,-0.0002730204723775387,0.000616293924394995,0.0008394438191317022,-3.098339220741764e-05,0.0,-3.053347654713434e-06,1.1762682333937846e-05,0.000268082891125232,0.00022491133131552488,,,,,,,,,,,,,,,,,,,,,,,,,,,,,,,,,,,,,,,,,,,,,,,,,,,,,,,,,,,,,,,,,,,,,,,,,,
57,2.3725316524505615,0.6165887117385864,1.5633325576782227,0.38926114052534105,0.0,-2.1855695031547384e-08,-3.791088332150139e-08,0.5000449419021606,0.5000448822975159,0.6227770447731018,1.5875232219696045,0.38875129729509356,0.0,5.145861079469682e-07,-2.058202198895742e-06,0.5000524520874023,0.5000448822975159,,,,,,,,,,,,,,,,,,,,,,,,,,,,,,,,,,,,,,,,,,,,,,,,,,,,,,,,,,,,,,,,,,,,,,,,,,,,,,,,,,,,,,,,,,,,,,,,,,,,,,,,,,,,,,,,,,,,,,,,,,,,,,,,,,,,,,1.04235731157587e-07,-1.3585055569365068e-07,-1.710211172678555e-08,0.0,-3.745709165059452e-08,1.908395148575437e-07,-0.0002259897446492687,-0.0002257514133816585,0.0006101582548581064,0.0008310868870466948,-3.067432771786116e-05,0.0,-3.0200485525710974e-06,1.1632772839220706e-05,0.00026539654936641455,0.0002227008226327598,,,,,,,,,,,,,,,,,,,,,,,,,,,,,,,,,,,,,,,,,,,,,,,,,,,,,,,,,,,,,,,,,,,,,,,,,,
58,2.3941662311553955,0.6165887117385864,1.5633325576782227,0.38926114052534105,0.0,-2.1855695031547384e-08,-3.791088332150139e-08,0.5000449419021606,0.5000448822975159,0.6227980852127075,1.5875518321990967,0.3887502393126488,0.0,3.95376818396187e-07,-1.661920350670698e-06,0.5000433325767517,0.5000371932983398,,,,,,,,,,,,,,,,,,,,,,,,,,,,,,,,,,,,,,,,,,,,,,,,,,,,,,,,,,,,,,,,,,,,,,,,,,,,,,,,,,,,,,,,,,,,,,,,,,,,,,,,,,,,,,,,,,,,,,,,,,,,,,,,,,,,,,1.04235731157587e-07,-1.3585055569365068e-07,-1.710211172678555e-08,0.0,-3.745709165059452e-08,1.908395148575437e-07,-0.0002259897446492687,-0.0002257514133816585,0.0005045218858867884,0.0006872072699479759,-2.5354218450956978e-05,0.0,-2.451587533869315e-06,9.41769394557923e-06,0.00021917572303209454,0.0001845949300331995,,,,,,,,,,,,,,,,,,,,,,,,,,,,,,,,,,,,,,,,,,,,,,,,,,,,,,,,,,,,,,,,,,,,,,,,,,
59,2.4152815341949463,0.6165887117385864,1.5633325576782227,0.38926114052534105,0.0,-2.1855695031547384e-08,-3.165587258990854e-08,0.5000374913215637,0.5000374913215637,0.6227980852127075,1.5875518321990967,0.3887502393126488,0.0,3.95376818396187e-07,-1.661920350670698e-06,0.5000433325767517,0.5000371932983398,,,,,,,,,,,,,,,,,,,,,,,,,,,,,,,,,,,,,,,,,,,,,,,,,,,,,,,,,,,,,,,,,,,,,,,,,,,,,,,,,,,,,,,,,,,,,,,,,,,,,,,,,,,,,,,,,,,,,,,,,,,,,,,,,,,,,,8.705830367716771e-08,-1.1346634920528231e-07,-1.427821771926574e-08,0.0,-3.1234126396384454e-08,1.593528793364385e-07,-0.00018871929205488414,-0.00018854335939977318,0.0005045218858867884,0.0006872072699479759,-2.5354218450956978e-05,0.0,-2.451587533869315e-06,9.41769394557923e-06,0.00021917572303209454,0.0001845949300331995,,,,,,,,,,,,,,,,,,,,,,,,,,,,,,,,,,,,,,,,,,,,,,,,,,,,,,,,,,,,,,,,,,,,,,,,,,
60,2.436875820159912,0.6165887117385864,1.5633325576782227,0.38926114052534105,0.0,-2.1855695031547384e-08,-3.165587258990854e-08,0.5000374913215637,0.5000374913215637,0.6228154301643372,1.5875755548477173,0.38874936759471895,0.0,3.3577217362079637e-07,-1.3411701047516544e-06,0.5000357627868652,0.5000308156013489,,,,,,,,,,,,,,,,,,,,,,,,,,,,,,,,,,,,,,,,,,,,,,,,,,,,,,,,,,,,,,,,,,,,,,,,,,,,,,,,,,,,,,,,,,,,,,,,,,,,,,,,,,,,,,,,,,,,,,,,,,,,,,,,,,,,,,8.705830367716771e-08,-1.1346634920528231e-07,-1.427821771926574e-08,0.0,-3.1234126396384454e-08,1.593528793364385e-07,-0.00018871929205488414,-0.00018854335939977318,0.0004171743057668209,0.0005682363989762962,-2.095682248182129e-05,0.0,-1.9894089291483397e-06,7.620980341016548e-06,0.00018100433226209134,0.00015300832455977798,,,,,,,,,,,,,,,,,,,,,,,,,,,,,,,,,,,,,,,,,,,,,,,,,,,,,,,,,,,,,,,,,,,,,,,,,,
61,2.4583468437194824,0.6165887117385864,1.5633325576782227,0.38926114052534105,0.0,-2.1855695031547384e-08,-2.6169420408450605e-08,0.5000309944152832,0.5000309944152832,0.6228154301643372,1.5875755548477173,0.38874936759471895,0.0,3.3577217362079637e-07,-1.3411701047516544e-06,0.5000357627868652,0.5000308156013489,,,,,,,,,,,,,,,,,,,,,,,,,,,,,,,,,,,,,,,,,,,,,,,,,,,,,,,,,,,,,,,,,,,,,,,,,,,,,,,,,,,,,,,,,,,,,,,,,,,,,,,,,,,,,,,,,,,,,,,,,,,,,,,,,,,,,,7.198780593853371e-08,-9.382728194395895e-08,-1.1801552624035594e-08,0.0,-2.5782764367932032e-08,1.3173442425795656e-07,-0.0001560254313517362,-0.00015590013936161995,0.0004171743057668209,0.0005682363989762962,-2.095682248182129e-05,0.0,-1.9894089291483397e-06,7.620980341016548e-06,0.00018100433226209134,0.00015300832455977798,,,,,,,,,,,,,,,,,,,,,,,,,,,,,,,,,,,,,,,,,,,,,,,,,,,,,,,,,,,,,,,,,,,,,,,,,,
62,2.4793715476989746,0.6165887117385864,1.5633325576782227,0.38926114052534105,0.0,-2.1855695031547384e-08,-2.6169420408450605e-08,0.5000309944152832,0.5000309944152832,0.622829794883728,1.5875951051712036,0.38874864488840105,0.0,2.7616752884540574e-07,-1.0816743269970175e-06,0.5000295042991638,0.5000255703926086,,,,,,,,,,,,,,,,,,,,,,,,,,,,,,,,,,,,,,,,,,,,,,,,,,,,,,,,,,,,,,,,,,,,,,,,,,,,,,,,,,,,,,,,,,,,,,,,,,,,,,,,,,,,,,,,,,,,,,,,,,,,,,,,,,,,,,7.198780593853371e-08,-9.382728194395895e-08,-1.1801552624035594e-08,0.0,-2.5782764367932032e-08,1.3173442425795656e-07,-0.0001560254313517362,-0.00015590013936161995,0.00034494916326366365,0.0004698620759882033,-1.7322108760708943e-05,0.0,-1.6137597640408785e-06,6.164151727716671e-06,0.0001494806056143716,0.0001268258347408846,,,,,,,,,,,,,,,,,,,,,,,,,,,,,,,,,,,,,,,,,,,,,,,,,,,,,,,,,,,,,,,,,,,,,,,,,,
63,2.5023727416992188,0.6165887117385864,1.5633325576782227,0.38926114052534105,0.0,-2.1855695031547384e-08,-2.1633853819480464e-08,0.5000256299972534,0.5000256299972534,0.6228411197662354,1.5876104831695557,0.3887480786442757,0.0,2.1656288407001512e-07,-8.818026344670216e-07,0.5000246167182922,0.5000213980674744,,,,,,,,,,,,,,,,,,,,,,,,,,,,,,,,,,,,,,,,,,,,,,,,,,,,,,,,,,,,,,,,,,,,,,,,,,,,,,,,,,,,,,,,,,,,,,,,,,,,,,,,,,,,,,,,,,,,,,,,,,,,,,,,,,,,,,5.9526271911636286e-08,-7.758738007623833e-08,-9.754558050190099e-09,0.0,-2.1283252493731197e-08,1.0890297374999136e-07,-0.00012899548164568841,-0.00012890854850411415,0.00028809657669626176,0.00039242522325366735,-1.4462054423347581e-05,0.0,-1.323069568570645e-06,5.03951241626055e-06,0.00012469645298551768,0.00010616656800266355,,,,,,,,,,,,,,,,,,,,,,,,,,,,,,,,,,,,,,,,,,,,,,,,,,,,,,,,,,,,,,,,,,,,,,,,,,
64,2.524351119995117,0.6165887117385864,1.5633325576782227,0.38926114052534105,0.0,-2.1855695031547384e-08,-1.8246295141466362e-08,0.5000216364860535,0.5000216364860535,0.6228416562080383,1.5876113176345825,0.3887480488419533,0.0,2.1656288407001512e-07,-8.718358799342241e-07,0.5000243782997131,0.5000211596488953,,,,,,,,,,,,,,,,,,,,,,,,,,,,,,,,,,,,,,,,,,,,,,,,,,,,,,,,,,,,,,,,,,,,,,,,,,,,,,,,,,,,,,,,,,,,,,,,,,,,,,,,,,,,,,,,,,,,,,,,,,,,,,,,,,,,,,5.021616544809149e-08,-6.545452890804881e-08,-8.225884862156363e-09,0.0,-1.792671611156038e-08,9.185051652593756e-08,-0.00010880542686209083,-0.00010874466534005478,0.00028522833599708974,0.00038851849967613816,-1.4317793102236465e-05,0.0,-1.3085386854072567e-06,4.983363396604545e-06,0.00012344688002485782,0.00010512299195397645,,,,,,,,,,,,,,,,,,,,,,,,,,,,,,,,,,,,,,,,,,,,,,,,,,,,,,,,,,,,,,,,,,,,,,,,,,
65,2.5468695163726807,0.6165887117385864,1.5633325576782227,0.38926114052534105,0.0,-2.1855695031547384e-08,-1.8246295141466362e-08,0.5000216364860535,0.5000216364860535,0.6228514909744263,1.5876246690750122,0.3887475571036339,0.0,1.569582392946245e-07,-7.022375143606041e-07,0.5000201463699341,0.500017523765564,,,,,,,,,,,,,,,,,,,,,,,,,,,,,,,,,,,,,,,,,,,,,,,,,,,,,,,,,,,,,,,,,,,,,,,,,,,,,,,,,,,,,,,,,,,,,,,,,,,,,,,,,,,,,,,,,,,,,,,,,,,,,,,,,,,,,,5.021616544809149e-08,-6.545452890804881e-08,-8.225884862156363e-09,0.0,-1.792671611156038e-08,9.185051652593756e-08,-0.00010880542686209083,-0.00010874466534005478,0.0002358469646424055,0.0003212573064956814,-1.1834541510324925e-05,0.0,-1.0606210025798646e-06,4.026693204650655e-06,0.00010194708011113107,8.713347051525488e-05,,,,,,,,,,,,,,,,,,,,,,,,,,,,,,,,,,,,,,,,,,,,,,,,,,,,,,,,,,,,,,,,,,,,,,,,,,
66,2.5683844089508057,0.6165887117385864,1.5633325576782227,0.38926114052534105,0.0,-2.1855695031547384e-08,-1.508392699633987e-08,0.5000178813934326,0.5000178813934326,0.6228514909744263,1.5876246690750122,0.3887475571036339,0.0,1.569582392946245e-07,-7.022375143606041e-07,0.5000201463699341,0.500017523765564,,,,,,,,,,,,,,,,,,,,,,,,,,,,,,,,,,,,,,,,,,,,,,,,,,,,,,,,,,,,,,,,,,,,,,,,,,,,,,,,,,,,,,,,,,,,,,,,,,,,,,,,,,,,,,,,,,,,,,,,,,,,,,,,,,,,,,4.152344956764864e-08,-5.412503867319174e-08,-6.799165230830795e-09,0.0,-1.4798384739833637e-08,7.593117601345512e-08,-8.9955901785288e-05,-8.991728827822953e-05,0.0002358469646424055,0.0003212573064956814,-1.1834541510324925e-05,0.0,-1.0606210025798646e-06,4.026693204650655e-06,0.00010194708011113107,8.713347051525488e-05,,,,,,,,,,,,,,,,,,,,,,,,,,,,,,,,,,,,,,,,,,,,,,,,,,,,,,,,,,,,,,,,,,,,,,,,,,
67,2.589338779449463,0.6165887117385864,1.5633325576782227,0.38926114052534105,0.0,-2.1855695031547384e-08,-1.508392699633987e-08,0.5000178813934326,0.5000178813934326,0.6228595972061157,1.5876357555389404,0.38874715477228167,0.0,1.569582392946245e-07,-5.652346430906618e-07,0.5000166296958923,0.5000145435333252,,,,,,,,,,,,,,,,,,,,,,,,,,,,,,,,,,,,,,,,,,,,,,,,,,,,,,,,,,,,,,,,,,,,,,,,,,,,,,,,,,,,,,,,,,,,,,,,,,,,,,,,,,,,,,,,,,,,,,,,,,,,,,,,,,,,,,4.152344956764864e-08,-5.412503867319174e-08,-6.799165230830795e-09,0.0,-1.4798384739833637e-08,7.593117601345512e-08,-8.9955901785288e-05,-8.991728827822953e-05,0.0001950149453477934,0.00026564052677713335,-9.781981134437956e-06,0.0,-8.59318220136629e-07,3.2519258184038335e-06,8.419161167694256e-05,7.222202111734077e-05,,,,,,,,,,,,,,,,,,,,,,,,,,,,,,,,,,,,,,,,,,,,,,,,,,,,,,,,,,,,,,,,,,,,,,,,,,
68,2.6102054119110107,0.6165887117385864,1.5633325576782227,0.38926114052534105,0.0,-2.1855695031547384e-08,-1.2469644872226127e-08,0.5000147819519043,0.5000147819519043,0.6228595972061157,1.5876357555389404,0.38874715477228167,0.0,1.569582392946245e-07,-5.652346430906618e-07,0.5000166296958923,0.5000145435333252,,,,,,,,,,,,,,,,,,,,,,,,,,,,,,,,,,,,,,,,,,,,,,,,,,,,,,,,,,,,,,,,,,,,,,,,,,,,,,,,,,,,,,,,,,,,,,,,,,,,,,,,,,,,,,,,,,,,,,,,,,,,,,,,,,,,,,3.4335368326310345e-08,-4.475708692552871e-08,-5.619775311771491e-09,0.0,-1.2215394917802769e-08,6.277128505871588e-08,-7.437187741743401e-05,-7.434955477947369e-05,0.0001950149453477934,0.00026564052677713335,-9.781981134437956e-06,0.0,-8.59318220136629e-07,3.2519258184038335e-06,8.419161167694256e-05,7.222202111734077e-05,,,,,,,,,,,,,,,,,,,,,,,,,,,,,,,,,,,,,,,,,,,,,,,,,,,,,,,,,,,,,,,,,,,,,,,,,,
69,2.631673574447632,0.6165887117385864,1.5633325576782227,0.38926114052534105,0.0,-2.1855695031547384e-08,-1.0517070769822112e-08,0.5000124573707581,0.5000124573707581,0.6228663325309753,1.5876449346542358,0.3887468120455742,0.0,9.735359451923387e-08,-4.546237448721513e-07,0.5000137090682983,0.5000120401382446,,,,,,,,,,,,,,,,,,,,,,,,,,,,,,,,,,,,,,,,,,,,,,,,,,,,,,,,,,,,,,,,,,,,,,,,,,,,,,,,,,,,,,,,,,,,,,,,,,,,,,,,,,,,,,,,,,,,,,,,,,,,,,,,,,,,,,2.896555173492743e-08,-3.775813084416768e-08,-4.739105108342301e-09,0.0,-1.0289324947621026e-08,5.294213778483936e-08,-6.273137114476413e-05,-6.271979509619996e-05,0.0001612521446077153,0.00021965225460007787,-8.085414265224244e-06,0.0,-6.959216989343986e-07,2.624746457513538e-06,6.952839612495154e-05,5.98620499658864e-05,,,,,,,,,,,,,,,,,,,,,,,,,,,,,,,,,,,,,,,,,,,,,,,,,,,,,,,,,,,,,,,,,,,,,,,,,,
70,2.653071165084839,0.6165887117385864,1.5633325576782227,0.38926114052534105,0.0,-2.1855695031547384e-08,-1.0517070769822112e-08,0.5000124573707581,0.5000124573707581,0.6228663325309753,1.5876449346542358,0.3887468120455742,0.0,9.735359451923387e-08,-4.546237448721513e-07,0.5000137090682983,0.5000120401382446,,,,,,,,,,,,,,,,,,,,,,,,,,,,,,,,,,,,,,,,,,,,,,,,,,,,,,,,,,,,,,,,,,,,,,,,,,,,,,,,,,,,,,,,,,,,,,,,,,,,,,,,,,,,,,,,,,,,,,,,,,,,,,,,,,,,,,2.896555173492743e-08,-3.775813084416768e-08,-4.739105108342301e-09,0.0,-1.0289324947621026e-08,5.294213778483936e-08,-6.273137114476413e-05,-6.271979509619996e-05,0.0001612521446077153,0.00021965225460007787,-8.085414265224244e-06,0.0,-6.959216989343986e-07,2.624746457513538e-06,6.952839612495154e-05,5.98620499658864e-05,,,,,,,,,,,,,,,,,,,,,,,,,,,,,,,,,,,,,,,,,,,,,,,,,,,,,,,,,,,,,,,,,,,,,,,,,,
71,2.6754329204559326,0.6165887117385864,1.5633325576782227,0.38926114052534105,0.0,-2.1855695031547384e-08,-8.694295061673074e-09,0.5000103116035461,0.5000103116035461,0.6228718757629395,1.5876524448394775,0.3887465363740921,0.0,9.735359451923387e-08,-3.653723865681968e-07,0.5000113248825073,0.5000100135803223,,,,,,,,,,,,,,,,,,,,,,,,,,,,,,,,,,,,,,,,,,,,,,,,,,,,,,,,,,,,,,,,,,,,,,,,,,,,,,,,,,,,,,,,,,,,,,,,,,,,,,,,,,,,,,,,,,,,,,,,,,,,,,,,,,,,,,2.3951285399448352e-08,-3.122280034517644e-08,-3.917068003289614e-09,0.0,-8.49287307147506e-09,4.376647311232773e-08,-5.1863746193703264e-05,-5.186087219044566e-05,0.00013333468814380467,0.00018162556807510555,-6.6830957621277776e-06,0.0,-5.63342155146529e-07,2.117271833412815e-06,5.741891800425947e-05,4.9617039621807635e-05,,,,,,,,,,,,,,,,,,,,,,,,,,,,,,,,,,,,,,,,,,,,,,,,,,,,,,,,,,,,,,,,,,,,,,,,,,
72,2.6973915100097656,0.6165887117385864,1.5633325576782227,0.38926114052534105,0.0,-2.1855695031547384e-08,-8.694295061673074e-09,0.5000103116035461,0.5000103116035461,0.6228764653205872,1.5876586437225342,0.3887463054060936,0.0,3.774894974384324e-08,-2.9339972229536215e-07,0.5000093579292297,0.5000082850456238,,,,,,,,,,,,,,,,,,,,,,,,,,,,,,,,,,,,,,,,,,,,,,,,,,,,,,,,,,,,,,,,,,,,,,,,,,,,,,,,,,,,,,,,,,,,,,,,,,,,,,,,,,,,,,,,,,,,,,,,,,,,,,,,,,,,,,2.3951285399448352e-08,-3.122280034517644e-08,-3.917068003289614e-09,0.0,-8.49287307147506e-09,4.376647311232773e-08,-5.1863746193703264e-05,-5.186087219044566e-05,0.00011025054845958948,0.00015018215344753116,-5.523993422684725e-06,0.0,-4.5580651431009755e-07,1.7068496163119562e-06,4.741842712974176e-05,4.112514579901472e-05,,,,,,,,,,,,,,,,,,,,,,,,,,,,,,,,,,,,,,,,,,,,,,,,,,,,,,,,,,,,,,,,,,,,,,,,,,
73,2.719820499420166,0.6165887117385864,1.5633325576782227,0.38926114052534105,0.0,-2.1855695031547384e-08,-7.259797207836982e-09,0.5000085830688477,0.5000086426734924,0.6228764653205872,1.5876586437225342,0.3887463054060936,0.0,3.774894974384324e-08,-2.9339972229536215e-07,0.5000093579292297,0.5000082850456238,,,,,,,,,,,,,,,,,,,,,,,,,,,,,,,,,,,,,,,,,,,,,,,,,,,,,,,,,,,,,,,,,,,,,,,,,,,,,,,,,,,,,,,,,,,,,,,,,,,,,,,,,,,,,,,,,,,,,,,,,,,,,,,,,,,,,,2.0004275569363017e-08,-2.6078028625420302e-08,-3.270252069142998e-09,0.0,-7.08194614063018e-09,3.6545579007452034e-08,-4.331032687332481e-05,-4.3313222704455256e-05,0.00011025054845958948,0.00015018215344753116,-5.523993422684725e-06,0.0,-4.5580651431009755e-07,1.7068496163119562e-06,4.741842712974176e-05,4.112514579901472e-05,,,,,,,,,,,,,,,,,,,,,,,,,,,,,,,,,,,,,,,,,,,,,,,,,,,,,,,,,,,,,,,,,,,,,,,,,,
74,2.7423059940338135,0.6165887117385864,1.5633325576782227,0.38926114052534105,0.0,-2.1855695031547384e-08,-6.06198069519337e-09,0.5000072121620178,0.5000072121620178,0.6228802800178528,1.5876638889312744,0.3887461191415787,0.0,3.774894974384324e-08,-2.3539779192560673e-07,0.5000077486038208,0.5000068545341492,,,,,,,,,,,,,,,,,,,,,,,,,,,,,,,,,,,,,,,,,,,,,,,,,,,,,,,,,,,,,,,,,,,,,,,,,,,,,,,,,,,,,,,,,,,,,,,,,,,,,,,,,,,,,,,,,,,,,,,,,,,,,,,,,,,,,,1.6707524252979056e-08,-2.1781353609640064e-08,-2.730301984499306e-09,0.0,-5.904998712225051e-09,3.051573926882156e-08,-3.616754474933259e-05,-3.617438778746873e-05,9.116295404965058e-05,0.00012418227561283857,-4.565923518384807e-06,0.0,-3.6861879948446585e-07,1.375083115817688e-06,3.915964043699205e-05,3.4086417144862935e-05,,,,,,,,,,,,,,,,,,,,,,,,,,,,,,,,,,,,,,,,,,,,,,,,,,,,,,,,,,,,,,,,,,,,,,,,,,
75,2.7638163566589355,0.6165887117385864,1.5633325576782227,0.38926114052534105,0.0,-2.1855695031547384e-08,-6.06198069519337e-09,0.5000072121620178,0.5000072121620178,0.6228802800178528,1.5876638889312744,0.3887461191415787,0.0,3.774894974384324e-08,-2.3539779192560673e-07,0.5000077486038208,0.5000068545341492,,,,,,,,,,,,,,,,,,,,,,,,,,,,,,,,,,,,,,,,,,,,,,,,,,,,,,,,,,,,,,,,,,,,,,,,,,,,,,,,,,,,,,,,,,,,,,,,,,,,,,,,,,,,,,,,,,,,,,,,,,,,,,,,,,,,,,1.6707524252979056e-08,-2.1781353609640064e-08,-2.730301984499306e-09,0.0,-5.904998712225051e-09,3.051573926882156e-08,-3.616754474933259e-05,-3.617438778746873e-05,9.116295404965058e-05,0.00012418227561283857,-4.565923518384807e-06,0.0,-3.6861879948446585e-07,1.375083115817688e-06,3.915964043699205e-05,3.4086417144862935e-05,,,,,,,,,,,,,,,,,,,,,,,,,,,,,,,,,,,,,,,,,,,,,,,,,,,,,,,,,,,,,,,,,,,,,,,,,,
76,2.7856740951538086,0.6165887117385864,1.5633325576782227,0.38926114052534105,0.0,-2.1855695031547384e-08,-5.011342008032216e-09,0.5000059604644775,0.5000059604644775,0.6228833794593811,1.5876681804656982,0.38874596267938616,0.0,3.774894974384324e-08,-1.8868614404254913e-07,0.500006377696991,0.5000056624412537,,,,,,,,,,,,,,,,,,,,,,,,,,,,,,,,,,,,,,,,,,,,,,,,,,,,,,,,,,,,,,,,,,,,,,,,,,,,,,,,,,,,,,,,,,,,,,,,,,,,,,,,,,,,,,,,,,,,,,,,,,,,,,,,,,,,,,1.3815559363195007e-08,-1.8011258262617957e-08,-2.25672258657994e-09,0.0,-4.8741566338605935e-09,2.522677000627027e-08,-2.9901853849878535e-05,-2.9911374440416694e-05,7.537998317275196e-05,0.00010268356709275395,-3.774019205593504e-06,0.0,-2.9795717182423687e-07,1.1070382015532232e-06,3.2339223253075033e-05,2.825221963576041e-05,,,,,,,,,,,,,,,,,,,,,,,,,,,,,,,,,,,,,,,,,,,,,,,,,,,,,,,,,,,,,,,,,,,,,,,,,,
77,2.808566093444824,0.6165887117385864,1.5633325576782227,0.38926114052534105,0.0,-2.1855695031547384e-08,-5.011342008032216e-09,0.5000059604644775,0.5000059604644775,0.6228860020637512,1.5876716375350952,0.3887458285689354,0.0,3.774894974384324e-08,-1.510938147930574e-07,0.500005304813385,0.5000047087669373,,,,,,,,,,,,,,,,,,,,,,,,,,,,,,,,,,,,,,,,,,,,,,,,,,,,,,,,,,,,,,,,,,,,,,,,,,,,,,,,,,,,,,,,,,,,,,,,,,,,,,,,,,,,,,,,,,,,,,,,,,,,,,,,,,,,,,1.3815559363195007e-08,-1.8011258262617957e-08,-2.25672258657994e-09,0.0,-4.8741566338605935e-09,2.522677000627027e-08,-2.9901853849878535e-05,-2.9911374440416694e-05,6.232950545381755e-05,8.490675827488303e-05,-3.119461325695738e-06,0.0,-2.4071260895652813e-07,8.905939239411964e-07,2.6706678909249604e-05,2.3416454496327788e-05,,,,,,,,,,,,,,,,,,,,,,,,,,,,,,,,,,,,,,,,,,,,,,,,,,,,,,,,,,,,,,,,,,,,,,,,,,
78,2.83144211769104,0.6165887117385864,1.5633325576782227,0.38926114052534105,0.0,-2.1855695031547384e-08,-4.1427945518535125e-09,0.5000048875808716,0.5000049471855164,0.6228860020637512,1.5876716375350952,0.3887458285689354,0.0,3.774894974384324e-08,-1.510938147930574e-07,0.500005304813385,0.5000047087669373,,,,,,,,,,,,,,,,,,,,,,,,,,,,,,,,,,,,,,,,,,,,,,,,,,,,,,,,,,,,,,,,,,,,,,,,,,,,,,,,,,,,,,,,,,,,,,,,,,,,,,,,,,,,,,,,,,,,,,,,,,,,,,,,,,,,,,1.1423972878787936e-08,-1.48938639199514e-08,-1.865299470438231e-09,0.0,-4.02355926354403e-09,2.0854415083704225e-08,-2.472163578204345e-05,-2.4732698875595815e-05,6.232950545381755e-05,8.490675827488303e-05,-3.119461325695738e-06,0.0,-2.4071260895652813e-07,8.905939239411964e-07,2.6706678909249604e-05,2.3416454496327788e-05,,,,,,,,,,,,,,,,,,,,,,,,,,,,,,,,,,,,,,,,,,,,,,,,,,,,,,,,,,,,,,,,,,,,,,,,,,
79,2.852729558944702,0.6165887117385864,1.5633325576782227,0.38926114052534105,0.0,-2.1855695031547384e-08,-3.4247809033161047e-09,0.5000040531158447,0.5000040531158447,0.6228881478309631,1.587674617767334,0.38874572426080706,0.0,3.774894974384324e-08,-1.2086313461168174e-07,0.5000043511390686,0.5000039339065552,,,,,,,,,,,,,,,,,,,,,,,,,,,,,,,,,,,,,,,,,,,,,,,,,,,,,,,,,,,,,,,,,,,,,,,,,,,,,,,,,,,,,,,,,,,,,,,,,,,,,,,,,,,,,,,,,,,,,,,,,,,,,,,,,,,,,,9.44611056041822e-09,-1.2315926056771787e-08,-1.5417667142969549e-09,0.0,-3.3211766670149245e-09,1.72401097842112e-08,-2.0438843421288766e-05,-2.045062865363434e-05,5.1538449042709544e-05,7.020751218078658e-05,-2.578428393462673e-06,0.0,-1.943577530028051e-07,7.159165988923633e-07,2.2055126464692876e-05,1.9408280422794633e-05,,,,,,,,,,,,,,,,,,,,,,,,,,,,,,,,,,,,,,,,,,,,,,,,,,,,,,,,,,,,,,,,,,,,,,,,,,
80,2.873882293701172,0.6165887117385864,1.5633325576782227,0.38926114052534105,0.0,-2.1855695031547384e-08,-3.4247809033161047e-09,0.5000040531158447,0.5000040531158447,0.6228881478309631,1.587674617767334,0.38874572426080706,0.0,3.774894974384324e-08,-1.2086313461168174e-07,0.5000043511390686,0.5000039339065552,,,,,,,,,,,,,,,,,,,,,,,,,,,,,,,,,,,,,,,,,,,,,,,,,,,,,,,,,,,,,,,,,,,,,,,,,,,,,,,,,,,,,,,,,,,,,,,,,,,,,,,,,,,,,,,,,,,,,,,,,,,,,,,,,,,,,,9.44611056041822e-09,-1.2315926056771787e-08,-1.5417667142969549e-09,0.0,-3.3211766670149245e-09,1.72401097842112e-08,-2.0438843421288766e-05,-2.045062865363434e-05,5.1538449042709544e-05,7.020751218078658e-05,-2.578428393462673e-06,0.0,-1.943577530028051e-07,7.159165988923633e-07,2.2055126464692876e-05,1.9408280422794633e-05,,,,,,,,,,,,,,,,,,,,,,,,,,,,,,,,,,,,,,,,,,,,,,,,,,,,,,,,,,,,,,,,,,,,,,,,,,
81,2.896146059036255,0.6165887117385864,1.5633325576782227,0.38926114052534105,0.0,-2.1855695031547384e-08,-2.8312094890736716e-09,0.5000033378601074,0.5000033378601074,0.6228899359703064,1.587677001953125,0.3887456348538399,0.0,-2.1855695031547384e-08,-9.657172483912291e-08,0.5000035762786865,0.5000032186508179,,,,,,,,,,,,,,,,,,,,,,,,,,,,,,,,,,,,,,,,,,,,,,,,,,,,,,,,,,,,,,,,,,,,,,,,,,,,,,,,,,,,,,,,,,,,,,,,,,,,,,,,,,,,,,,,,,,,,,,,,,,,,,,,,,,,,,7.81102915681231e-09,-1.0183964782584098e-08,-1.2743556210281781e-09,0.0,-2.7417512704630553e-09,1.4252363733646689e-08,-1.6898004105314612e-05,-1.690992939984426e-05,4.2615636630216613e-05,5.805303226225078e-05,-2.131231440216652e-06,0.0,-1.568377143712496e-07,5.750310378971335e-07,1.8213717339676805e-05,1.608608363312669e-05,,,,,,,,,,,,,,,,,,,,,,,,,,,,,,,,,,,,,,,,,,,,,,,,,,,,,,,,,,,,,,,,,,,,,,,,,,
82,2.9178671836853027,0.6165887117385864,1.5633325576782227,0.38926114052534105,0.0,-2.1855695031547384e-08,-2.8312094890736716e-09,0.5000033378601074,0.5000033378601074,0.6228899359703064,1.587677001953125,0.3887456348538399,0.0,-2.1855695031547384e-08,-9.657172483912291e-08,0.5000035762786865,0.5000032186508179,,,,,,,,,,,,,,,,,,,,,,,,,,,,,,,,,,,,,,,,,,,,,,,,,,,,,,,,,,,,,,,,,,,,,,,,,,,,,,,,,,,,,,,,,,,,,,,,,,,,,,,,,,,,,,,,,,,,,,,,,,,,,,,,,,,,,,7.81102915681231e-09,-1.0183964782584098e-08,-1.2743556210281781e-09,0.0,-2.7417512704630553e-09,1.4252363733646689e-08,-1.6898004105314612e-05,-1.690992939984426e-05,4.2615636630216613e-05,5.805303226225078e-05,-2.131231440216652e-06,0.0,-1.568377143712496e-07,5.750310378971335e-07,1.8213717339676805e-05,1.608608363312669e-05,,,,,,,,,,,,,,,,,,,,,,,,,,,,,,,,,,,,,,,,,,,,,,,,,,,,,,,,,,,,,,,,,,,,,,,,,,
83,2.9404666423797607,0.6165887117385864,1.5633325576782227,0.38926114052534105,0.0,-2.1855695031547384e-08,-2.3878792276832428e-09,0.5000028610229492,0.5000028610229492,0.622891366481781,1.5876790285110474,0.3887455603480339,0.0,-2.1855695031547384e-08,-7.706911731020227e-08,0.5000029802322388,0.5000026822090149,,,,,,,,,,,,,,,,,,,,,,,,,,,,,,,,,,,,,,,,,,,,,,,,,,,,,,,,,,,,,,,,,,,,,,,,,,,,,,,,,,,,,,,,,,,,,,,,,,,,,,,,,,,,,,,,,,,,,,,,,,,,,,,,,,,,,,6.589229162301535e-09,-8.591460876061774e-09,-1.0746333822808651e-09,0.0,-2.309152868917863e-09,1.2020665351997195e-08,-1.4253169865696691e-05,-1.4264875062508509e-05,3.523762643453665e-05,4.8002762923715636e-05,-1.7615951719562872e-06,0.0,-1.2648304448248382e-07,4.614717283857317e-07,1.5041356164147146e-05,1.333248019363964e-05,,,,,,,,,,,,,,,,,,,,,,,,,,,,,,,,,,,,,,,,,,,,,,,,,,,,,,,,,,,,,,,,,,,,,,,,,,
84,2.9621694087982178,0.6165887117385864,1.5633325576782227,0.38926114052534105,0.0,-2.1855695031547384e-08,-1.9740200585260936e-09,0.5000023245811462,0.5000023245811462,0.6228925585746765,1.5876805782318115,0.38874550074338915,0.0,-2.1855695031547384e-08,-6.216517078883044e-08,0.5000025033950806,0.5000022649765015,,,,,,,,,,,,,,,,,,,,,,,,,,,,,,,,,,,,,,,,,,,,,,,,,,,,,,,,,,,,,,,,,,,,,,,,,,,,,,,,,,,,,,,,,,,,,,,,,,,,,,,,,,,,,,,,,,,,,,,,,,,,,,,,,,,,,,5.4488080714065745e-09,-7.104539179181302e-09,-8.882339308513565e-10,0.0,-1.9059753775252375e-09,9.937102696255806e-09,-1.1783940863097087e-05,-1.1795139471360017e-05,2.9429960704874247e-05,4.0091541450237855e-05,-1.4707387663293048e-06,0.0,-1.0310302656080239e-07,3.743355989627162e-07,1.2547266123874579e-05,1.1159910172864329e-05,,,,,,,,,,,,,,,,,,,,,,,,,,,,,,,,,,,,,,,,,,,,,,,,,,,,,,,,,,,,,,,,,,,,,,,,,,
85,2.984339714050293,0.6165887117385864,1.5633325576782227,0.38926114052534105,0.0,-2.1855695031547384e-08,-1.9740200585260936e-09,0.5000023245811462,0.5000023245811462,0.6228925585746765,1.5876805782318115,0.38874550074338915,0.0,-2.1855695031547384e-08,-6.216517078883044e-08,0.5000025033950806,0.5000022649765015,,,,,,,,,,,,,,,,,,,,,,,,,,,,,,,,,,,,,,,,,,,,,,,,,,,,,,,,,,,,,,,,,,,,,,,,,,,,,,,,,,,,,,,,,,,,,,,,,,,,,,,,,,,,,,,,,,,,,,,,,,,,,,,,,,,,,,5.4488080714065745e-09,-7.104539179181302e-09,-8.882339308513565e-10,0.0,-1.9059753775252375e-09,9.937102696255806e-09,-1.1783940863097087e-05,-1.1795139471360017e-05,2.9429960704874247e-05,4.0091541450237855e-05,-1.4707387663293048e-06,0.0,-1.0310302656080239e-07,3.743355989627162e-07,1.2547266123874579e-05,1.1159910172864329e-05,,,,,,,,,,,,,,,,,,,,,,,,,,,,,,,,,,,,,,,,,,,,,,,,,,,,,,,,,,,,,,,,,,,,,,,,,,
86,3.0054945945739746,0.6165887117385864,1.5633325576782227,0.38926114052534105,0.0,-2.1855695031547384e-08,-1.6318886242316921e-09,0.5000019073486328,0.5000019669532776,0.6228935718536377,1.5876820087432861,0.38874544858932497,0.0,-2.1855695031547384e-08,-4.948103793367409e-08,0.5000020265579224,0.500001847743988,,,,,,,,,,,,,,,,,,,,,,,,,,,,,,,,,,,,,,,,,,,,,,,,,,,,,,,,,,,,,,,,,,,,,,,,,,,,,,,,,,,,,,,,,,,,,,,,,,,,,,,,,,,,,,,,,,,,,,,,,,,,,,,,,,,,,,4.5055625896850415e-09,-5.875078201711403e-09,-7.342113028663277e-10,0.0,-1.5731860258938468e-09,8.214777302839593e-09,-9.74248268903466e-06,-9.75299917627126e-06,2.433477493468672e-05,3.3150805393233895e-05,-1.215657107422885e-06,0.0,-8.304174059503566e-08,2.998584136548743e-07,1.036182584357448e-05,9.249456525139976e-06,,,,,,,,,,,,,,,,,,,,,,,,,,,,,,,,,,,,,,,,,,,,,,,,,,,,,,,,,,,,,,,,,,,,,,,,,,
87,3.0267066955566406,0.6165887117385864,1.5633325576782227,0.38926114052534105,0.0,-2.1855695031547384e-08,-1.6318886242316921e-09,0.5000019073486328,0.5000019669532776,0.6228935718536377,1.5876820087432861,0.38874544858932497,0.0,-2.1855695031547384e-08,-4.948103793367409e-08,0.5000020265579224,0.500001847743988,,,,,,,,,,,,,,,,,,,,,,,,,,,,,,,,,,,,,,,,,,,,,,,,,,,,,,,,,,,,,,,,,,,,,,,,,,,,,,,,,,,,,,,,,,,,,,,,,,,,,,,,,,,,,,,,,,,,,,,,,,,,,,,,,,,,,,4.5055625896850415e-09,-5.875078201711403e-09,-7.342113028663277e-10,0.0,-1.5731860258938468e-09,8.214777302839593e-09,-9.74248268903466e-06,-9.75299917627126e-06,2.433477493468672e-05,3.3150805393233895e-05,-1.215657107422885e-06,0.0,-8.304174059503566e-08,2.998584136548743e-07,1.036182584357448e-05,9.249456525139976e-06,,,,,,,,,,,,,,,,,,,,,,,,,,,,,,,,,,,,,,,,,,,,,,,,,,,,,,,,,,,,,,,,,,,,,,,,,,
88,3.0477638244628906,0.6165887117385864,1.5633325576782227,0.38926114052534105,0.0,-2.1855695031547384e-08,-1.349054867816335e-09,0.5000016093254089,0.5000016093254089,0.6228943467140198,1.587683081626892,0.388745411336422,0.0,-2.1855695031547384e-08,-3.980570184580756e-08,0.5000017285346985,0.5000015497207642,,,,,,,,,,,,,,,,,,,,,,,,,,,,,,,,,,,,,,,,,,,,,,,,,,,,,,,,,,,,,,,,,,,,,,,,,,,,,,,,,,,,,,,,,,,,,,,,,,,,,,,,,,,,,,,,,,,,,,,,,,,,,,,,,,,,,,3.725630914885869e-09,-4.8582249334572225e-09,-6.067993330027832e-10,0.0,-1.2990164499626644e-09,6.791177842302432e-09,-8.05468880571425e-06,-8.064423127507325e-06,2.0324056094978005e-05,2.768729791569058e-05,-1.0149402669412666e-06,0.0,-6.760569704056252e-08,2.427883316613588e-07,8.643652108730748e-06,7.742141860944685e-06,,,,,,,,,,,,,,,,,,,,,,,,,,,,,,,,,,,,,,,,,,,,,,,,,,,,,,,,,,,,,,,,,,,,,,,,,,
89,3.0697522163391113,0.6165887117385864,1.5633325576782227,0.38926114052534105,0.0,-2.1855695031547384e-08,-1.349054867816335e-09,0.5000016093254089,0.5000016093254089,0.6228950023651123,1.587683916091919,0.3887453815340996,0.0,-2.1855695031547384e-08,-3.197571274426991e-08,0.5000014305114746,0.5000013113021851,,,,,,,,,,,,,,,,,,,,,,,,,,,,,,,,,,,,,,,,,,,,,,,,,,,,,,,,,,,,,,,,,,,,,,,,,,,,,,,,,,,,,,,,,,,,,,,,,,,,,,,,,,,,,,,,,,,,,,,,,,,,,,,,,,,,,,3.725630914885869e-09,-4.8582249334572225e-09,-6.067993330027832e-10,0.0,-1.2990164499626644e-09,6.791177842302432e-09,-8.05468880571425e-06,-8.064423127507325e-06,1.6974359823507257e-05,2.3124219296732917e-05,-8.473638786199444e-07,0.0,-5.50007257515972e-08,1.9638584092263045e-07,7.210371222754475e-06,6.480428965005558e-06,,,,,,,,,,,,,,,,,,,,,,,,,,,,,,,,,,,,,,,,,,,,,,,,,,,,,,,,,,,,,,,,,,,,,,,,,,
90,3.09169864654541,0.6165887117385864,1.5633325576782227,0.38926114052534105,0.0,-2.1855695031547384e-08,-1.126468585077589e-09,0.5000013113021851,0.5000013113021851,0.6228950619697571,1.5876840353012085,0.388745374083519,0.0,-2.1855695031547384e-08,-3.1587553905865207e-08,0.5000014305114746,0.5000013113021851,,,,,,,,,,,,,,,,,,,,,,,,,,,,,,,,,,,,,,,,,,,,,,,,,,,,,,,,,,,,,,,,,,,,,,,,,,,,,,,,,,,,,,,,,,,,,,,,,,,,,,,,,,,,,,,,,,,,,,,,,,,,,,,,,,,,,,3.1117330934193888e-09,-4.057643110400022e-09,-5.066086439242667e-10,0.0,-1.0828560270681464e-09,5.67054359024155e-09,-6.7263013079355005e-06,-6.7352534642850515e-06,1.6805368431960233e-05,2.289401163579896e-05,-8.389112622353423e-07,0.0,-5.437411587649876e-08,1.9407967499773804e-07,7.138110049709212e-06,6.4166983975155745e-06,,,,,,,,,,,,,,,,,,,,,,,,,,,,,,,,,,,,,,,,,,,,,,,,,,,,,,,,,,,,,,,,,,,,,,,,,,
91,3.1134467124938965,0.6165887117385864,1.5633325576782227,0.38926114052534105,0.0,-2.1855695031547384e-08,-9.40607924881931e-10,0.5000011324882507,0.5000011324882507,0.6228956580162048,1.5876847505569458,0.3887453442811966,0.0,-2.1855695031547384e-08,-2.5022039551458874e-08,0.5000011920928955,0.500001072883606,,,,,,,,,,,,,,,,,,,,,,,,,,,,,,,,,,,,,,,,,,,,,,,,,,,,,,,,,,,,,,,,,,,,,,,,,,,,,,,,,,,,,,,,,,,,,,,,,,,,,,,,,,,,,,,,,,,,,,,,,,,,,,,,,,,,,,2.5988100560425664e-09,-3.388844760365828e-09,-4.2300885016999246e-10,0.0,-9.025002967177898e-10,4.735061231997406e-09,-5.616992893919814e-06,-5.625155608868226e-06,1.3895868505642284e-05,1.8930548321804963e-05,-6.934123462087882e-07,0.0,-4.3696378071445e-08,1.5495992045089224e-07,5.894792593608145e-06,5.318136572896037e-06,,,,,,,,,,,,,,,,,,,,,,,,,,,,,,,,,,,,,,,,,,,,,,,,,,,,,,,,,,,,,,,,,,,,,,,,,,
92,3.135000705718994,0.6165887117385864,1.5633325576782227,0.38926114052534105,0.0,-2.1855695031547384e-08,-9.40607924881931e-10,0.5000011324882507,0.5000011324882507,0.6228956580162048,1.5876847505569458,0.3887453442811966,0.0,-2.1855695031547384e-08,-2.5022039551458874e-08,0.5000011920928955,0.500001072883606,,,,,,,,,,,,,,,,,,,,,,,,,,,,,,,,,,,,,,,,,,,,,,,,,,,,,,,,,,,,,,,,,,,,,,,,,,,,,,,,,,,,,,,,,,,,,,,,,,,,,,,,,,,,,,,,,,,,,,,,,,,,,,,,,,,,,,2.5988100560425664e-09,-3.388844760365828e-09,-4.2300885016999246e-10,0.0,-9.025002967177898e-10,4.735061231997406e-09,-5.616992893919814e-06,-5.625155608868226e-06,1.3895868505642284e-05,1.8930548321804963e-05,-6.934123462087882e-07,0.0,-4.3696378071445e-08,1.5495992045089224e-07,5.894792593608145e-06,5.318136572896037e-06,,,,,,,,,,,,,,,,,,,,,,,,,,,,,,,,,,,,,,,,,,,,,,,,,,,,,,,,,,,,,,,,,,,,,,,,,,
93,3.156257390975952,0.6165887117385864,1.5633325576782227,0.38926114052534105,0.0,-2.1855695031547384e-08,-7.775848853697198e-10,0.5000008940696716,0.5000009536743164,0.622896134853363,1.587685465812683,0.3887453219294548,0.0,-2.1855695031547384e-08,-1.978322217155437e-08,0.5000009536743164,0.5000008940696716,,,,,,,,,,,,,,,,,,,,,,,,,,,,,,,,,,,,,,,,,,,,,,,,,,,,,,,,,,,,,,,,,,,,,,,,,,,,,,,,,,,,,,,,,,,,,,,,,,,,,,,,,,,,,,,,,,,,,,,,,,,,,,,,,,,,,,2.1488921753132217e-09,-2.8023139364563576e-09,-3.496161693483657e-10,0.0,-7.452927164308676e-10,3.914137458593814e-09,-4.643901320378063e-06,-4.651249128073687e-06,1.1490087672427762e-05,1.5653249647584744e-05,-5.731484407078824e-07,0.0,-3.508748847025345e-08,1.2356946399449953e-07,4.86803037347272e-06,4.4076264202885795e-06,,,,,,,,,,,,,,,,,,,,,,,,,,,,,,,,,,,,,,,,,,,,,,,,,,,,,,,,,,,,,,,,,,,,,,,,,,
94,3.177422285079956,0.6165887117385864,1.5633325576782227,0.38926114052534105,0.0,-2.1855695031547384e-08,-7.775848853697198e-10,0.5000008940696716,0.5000009536743164,0.622896134853363,1.587685465812683,0.3887453219294548,0.0,-2.1855695031547384e-08,-1.978322217155437e-08,0.5000009536743164,0.5000008940696716,,,,,,,,,,,,,,,,,,,,,,,,,,,,,,,,,,,,,,,,,,,,,,,,,,,,,,,,,,,,,,,,,,,,,,,,,,,,,,,,,,,,,,,,,,,,,,,,,,,,,,,,,,,,,,,,,,,,,,,,,,,,,,,,,,,,,,2.1488921753132217e-09,-2.8023139364563576e-09,-3.496161693483657e-10,0.0,-7.452927164308676e-10,3.914137458593814e-09,-4.643901320378063e-06,-4.651249128073687e-06,1.1490087672427762e-05,1.5653249647584744e-05,-5.731484407078824e-07,0.0,-3.508748847025345e-08,1.2356946399449953e-07,4.86803037347272e-06,4.4076264202885795e-06,,,,,,,,,,,,,,,,,,,,,,,,,,,,,,,,,,,,,,,,,,,,,,,,,,,,,,,,,,,,,,,,,,,,,,,,,,
95,3.1992061138153076,0.6165887117385864,1.5633325576782227,0.38926114052534105,0.0,-2.1855695031547384e-08,-6.428161336557991e-10,0.5000007748603821,0.5000007748603821,0.6228964924812317,1.5876859426498413,0.38874530702829363,0.0,-2.1855695031547384e-08,-1.560849050008528e-08,0.5000007748603821,0.5000007152557373,,,,,,,,,,,,,,,,,,,,,,,,,,,,,,,,,,,,,,,,,,,,,,,,,,,,,,,,,,,,,,,,,,,,,,,,,,,,,,,,,,,,,,,,,,,,,,,,,,,,,,,,,,,,,,,,,,,,,,,,,,,,,,,,,,,,,,1.777133995517488e-09,-2.3174795416025518e-09,-2.889563588404087e-10,0.0,-6.153966225497243e-10,3.235767653819721e-09,-3.839388682536082e-06,-3.845959327009041e-06,9.50081812334247e-06,1.2943324691150337e-05,-4.7374282985401805e-07,0.0,-2.8148539499284198e-08,9.840396586469069e-08,4.020104370283661e-06,3.65298228643951e-06,,,,,,,,,,,,,,,,,,,,,,,,,,,,,,,,,,,,,,,,,,,,,,,,,,,,,,,,,,,,,,,,,,,,,,,,,,
96,3.220179319381714,0.6165887117385864,1.5633325576782227,0.38926114052534105,0.0,-2.1855695031547384e-08,-6.428161336557991e-10,0.5000007748603821,0.5000007748603821,0.6228967905044556,1.5876864194869995,0.38874529212713244,0.0,-2.1855695031547384e-08,-1.2601305776627214e-08,0.5000006556510925,0.5000005960464478,,,,,,,,,,,,,,,,,,,,,,,,,,,,,,,,,,,,,,,,,,,,,,,,,,,,,,,,,,,,,,,,,,,,,,,,,,,,,,,,,,,,,,,,,,,,,,,,,,,,,,,,,,,,,,,,,,,,,,,,,,,,,,,,,,,,,,1.777133995517488e-09,-2.3174795416025518e-09,-2.889563588404087e-10,0.0,-6.153966225497243e-10,3.235767653819721e-09,-3.839388682536082e-06,-3.845959327009041e-06,8.014740160433576e-06,1.091886679205345e-05,-3.9950847963154956e-07,0.0,-2.309319313553715e-08,8.016517227815712e-08,3.3874259770527715e-06,3.0879705263942014e-06,,,,,,,,,,,,,,,,,,,,,,,,,,,,,,,,,,,,,,,,,,,,,,,,,,,,,,,,,,,,,,,,,,,,,,,,,,
97,3.243046998977661,0.6165887117385864,1.5633325576782227,0.38926114052534105,0.0,-2.1855695031547384e-08,-5.314040874004888e-10,0.5000006556510925,0.5000006556510925,0.6228967905044556,1.5876864194869995,0.38874529212713244,0.0,-2.1855695031547384e-08,-1.2601305776627214e-08,0.5000006556510925,0.5000005960464478,,,,,,,,,,,,,,,,,,,,,,,,,,,,,,,,,,,,,,,,,,,,,,,,,,,,,,,,,,,,,,,,,,,,,,,,,,,,,,,,,,,,,,,,,,,,,,,,,,,,,,,,,,,,,,,,,,,,,,,,,,,,,,,,,,,,,,1.4693246619401634e-09,-1.9164669851079452e-09,-2.3877427812735164e-10,0.0,-5.079270337660091e-10,2.6748485648653286e-09,-3.1742504233989166e-06,-3.1800923352420796e-06,8.014740160433576e-06,1.091886679205345e-05,-3.9950847963154956e-07,0.0,-2.309319313553715e-08,8.016517227815712e-08,3.3874259770527715e-06,3.0879705263942014e-06,,,,,,,,,,,,,,,,,,,,,,,,,,,,,,,,,,,,,,,,,,,,,,,,,,,,,,,,,,,,,,,,,,,,,,,,,,
98,3.266350507736206,0.6165887117385864,1.5633325576782227,0.38926114052534105,0.0,-2.1855695031547384e-08,-4.3930176163442525e-10,0.500000536441803,0.500000536441803,0.6228970885276794,1.5876867771148682,0.38874527722597124,0.0,-2.1855695031547384e-08,-1.0024176155809528e-08,0.500000536441803,0.500000536441803,,,,,,,,,,,,,,,,,,,,,,,,,,,,,,,,,,,,,,,,,,,,,,,,,,,,,,,,,,,,,,,,,,,,,,,,,,,,,,,,,,,,,,,,,,,,,,,,,,,,,,,,,,,,,,,,,,,,,,,,,,,,,,,,,,,,,,1.2150280781497713e-09,-1.5845103007450234e-09,-1.9743234824787237e-10,0.0,-4.193867475521529e-10,2.2115600462058183e-09,-2.624341504997574e-06,-2.629509481266723e-06,6.693796422041487e-06,9.119353308051359e-06,-3.3354569950461155e-07,0.0,-1.871092081273673e-08,6.443546851642168e-08,2.825708179443609e-06,2.5846622975223e-06,,,,,,,,,,,,,,,,,,,,,,,,,,,,,,,,,,,,,,,,,,,,,,,,,,,,,,,,,,,,,,,,,,,,,,,,,,
99,3.2884790897369385,0.6165887117385864,1.5633325576782227,0.38926114052534105,0.0,-2.1855695031547384e-08,-4.3930176163442525e-10,0.500000536441803,0.500000536441803,0.6228970885276794,1.5876867771148682,0.38874527722597124,0.0,-2.1855695031547384e-08,-1.0024176155809528e-08,0.500000536441803,0.500000536441803,,,,,,,,,,,,,,,,,,,,,,,,,,,,,,,,,,,,,,,,,,,,,,,,,,,,,,,,,,,,,,,,,,,,,,,,,,,,,,,,,,,,,,,,,,,,,,,,,,,,,,,,,,,,,,,,,,,,,,,,,,,,,,,,,,,,,,1.2150280781497713e-09,-1.5845103007450234e-09,-1.9743234824787237e-10,0.0,-4.193867475521529e-10,2.2115600462058183e-09,-2.624341504997574e-06,-2.629509481266723e-06,6.693796422041487e-06,9.119353308051359e-06,-3.3354569950461155e-07,0.0,-1.871092081273673e-08,6.443546851642168e-08,2.825708179443609e-06,2.5846622975223e-06,,,,,,,,,,,,,,,,,,,,,,,,,,,,,,,,,,,,,,,,,,,,,,,,,,,,,,,,,,,,,,,,,,,,,,,,,,
100,3.310732841491699,0.6165887117385864,1.5633325576782227,0.38926114052534105,0.0,-2.1855695031547384e-08,-3.631629996725394e-10,0.5000004172325134,0.5000004172325134,0.6228973269462585,1.5876870155334473,0.38874526232481005,0.0,-2.1855695031547384e-08,-7.852132277719193e-09,0.5000004768371582,0.5000004172325134,,,,,,,,,,,,,,,,,,,,,,,,,,,,,,,,,,,,,,,,,,,,,,,,,,,,,,,,,,,,,,,,,,,,,,,,,,,,,,,,,,,,,,,,,,,,,,,,,,,,,,,,,,,,,,,,,,,,,,,,,,,,,,,,,,,,,,1.0044742815296104e-09,-1.3099521467552222e-09,-1.631889068320902e-10,0.0,-3.460565167756613e-10,1.8282648728273898e-09,-2.1696987460018136e-06,-2.174251676478889e-06,5.534904630621895e-06,7.54059101382154e-06,-2.756962942385144e-07,0.0,-1.4967692862910553e-08,5.1083098639992386e-08,2.333509655727539e-06,2.1420983102871105e-06,,,,,,,,,,,,,,,,,,,,,,,,,,,,,,,,,,,,,,,,,,,,,,,,,,,,,,,,,,,,,,,,,,,,,,,,,,
101,3.33164381980896,0.6165887117385864,1.5633325576782227,0.38926114052534105,0.0,-2.1855695031547384e-08,-3.631629996725394e-10,0.5000004172325134,0.5000004172325134,0.6228975057601929,1.587687373161316,0.38874525487422945,0.0,-2.1855695031547384e-08,-6.131765317718418e-09,0.5000003576278687,0.5000003576278687,,,,,,,,,,,,,,,,,,,,,,,,,,,,,,,,,,,,,,,,,,,,,,,,,,,,,,,,,,,,,,,,,,,,,,,,,,,,,,,,,,,,,,,,,,,,,,,,,,,,,,,,,,,,,,,,,,,,,,,,,,,,,,,,,,,,,,1.0044742815296104e-09,-1.3099521467552222e-09,-1.631889068320902e-10,0.0,-3.460565167756613e-10,1.8282648728273898e-09,-2.1696987460018136e-06,-2.174251676478889e-06,4.5766510083922185e-06,6.235146884137066e-06,-2.2788013609442714e-07,0.0,-1.1959655488169574e-08,4.0423319802584956e-08,1.9270419215899892e-06,1.7753023939803825e-06,,,,,,,,,,,,,,,,,,,,,,,,,,,,,,,,,,,,,,,,,,,,,,,,,,,,,,,,,,,,,,,,,,,,,,,,,,
102,3.3529982566833496,0.6165887117385864,1.5633325576782227,0.38926114052534105,0.0,-2.1855695031547384e-08,-3.0021979346983585e-10,0.5000003576278687,0.5000003576278687,0.6228975057601929,1.587687373161316,0.38874525487422945,0.0,-2.1855695031547384e-08,-6.131765317718418e-09,0.5000003576278687,0.5000003576278687,,,,,,,,,,,,,,,,,,,,,,,,,,,,,,,,,,,,,,,,,,,,,,,,,,,,,,,,,,,,,,,,,,,,,,,,,,,,,,,,,,,,,,,,,,,,,,,,,,,,,,,,,,,,,,,,,,,,,,,,,,,,,,,,,,,,,,8.307798893270046e-10,-1.0834666497316903e-09,-1.3490597527976433e-10,0.0,-2.853828284798965e-10,1.5113728046856068e-09,-1.7938183418664266e-06,-1.7978144342123414e-06,4.5766510083922185e-06,6.235146884137066e-06,-2.2788013609442714e-07,0.0,-1.1959655488169574e-08,4.0423319802584956e-08,1.9270419215899892e-06,1.7753023939803825e-06,,,,,,,,,,,,,,,,,,,,,,,,,,,,,,,,,,,,,,,,,,,,,,,,,,,,,,,,,,,,,,,,,,,,,,,,,,
103,3.3741207122802734,0.6165887117385864,1.5633325576782227,0.38926114052534105,0.0,-2.1855695031547384e-08,-2.5068441766862293e-10,0.5000002980232239,0.5000002980232239,0.6228976249694824,1.5876874923706055,0.38874524742364885,0.0,-2.1855695031547384e-08,-4.835620792675854e-09,0.5000002980232239,0.5000002980232239,,,,,,,,,,,,,,,,,,,,,,,,,,,,,,,,,,,,,,,,,,,,,,,,,,,,,,,,,,,,,,,,,,,,,,,,,,,,,,,,,,,,,,,,,,,,,,,,,,,,,,,,,,,,,,,,,,,,,,,,,,,,,,,,,,,,,,6.939449015419541e-10,-9.050538096744276e-10,-1.1259049248479869e-10,0.0,-2.380873276308648e-10,1.2619766343036076e-09,-1.4979798379499698e-06,-1.5015006056273705e-06,3.8223533920245245e-06,5.207547019381309e-06,-1.9025495134883386e-07,0.0,-9.658940314238862e-09,3.232424816701496e-08,1.6074844779723207e-06,1.4859224393148907e-06,,,,,,,,,,,,,,,,,,,,,,,,,,,,,,,,,,,,,,,,,,,,,,,,,,,,,,,,,,,,,,,,,,,,,,,,,,
104,3.3961033821105957,0.6165887117385864,1.5633325576782227,0.38926114052534105,0.0,-2.1855695031547384e-08,-2.4818558319594786e-10,0.5000002980232239,0.5000002980232239,0.6228976249694824,1.5876874923706055,0.38874524742364885,0.0,-2.1855695031547384e-08,-4.835620792675854e-09,0.5000002980232239,0.5000002980232239,,,,,,,,,,,,,,,,,,,,,,,,,,,,,,,,,,,,,,,,,,,,,,,,,,,,,,,,,,,,,,,,,,,,,,,,,,,,,,,,,,,,,,,,,,,,,,,,,,,,,,,,,,,,,,,,,,,,,,,,,,,,,,,,,,,,,,6.869504964868156e-10,-8.960610031749638e-10,-1.114525138845579e-10,0.0,-2.356448369766895e-10,1.2494147938468814e-09,-1.4830559393885778e-06,-1.4865514685880044e-06,3.8223533920245245e-06,5.207547019381309e-06,-1.9025495134883386e-07,0.0,-9.658940314238862e-09,3.232424816701496e-08,1.6074844779723207e-06,1.4859224393148907e-06,,,,,,,,,,,,,,,,,,,,,,,,,,,,,,,,,,,,,,,,,,,,,,,,,,,,,,,,,,,,,,,,,,,,,,,,,,
105,3.418391227722168,0.6165887117385864,1.5633325576782227,0.38926114052534105,0.0,-2.1855695031547384e-08,-2.0517089416305367e-10,0.5000002384185791,0.5000002384185791,0.622897744178772,1.5876877307891846,0.38874523997306826,0.0,-2.1855695031547384e-08,-3.749244026352017e-09,0.5000002384185791,0.5000002384185791,,,,,,,,,,,,,,,,,,,,,,,,,,,,,,,,,,,,,,,,,,,,,,,,,,,,,,,,,,,,,,,,,,,,,,,,,,,,,,,,,,,,,,,,,,,,,,,,,,,,,,,,,,,,,,,,,,,,,,,,,,,,,,,,,,,,,,5.679900993982301e-10,-7.40851824332367e-10,-9.209299989265674e-11,0.0,-1.9473311851925246e-10,1.0327750876726327e-09,-1.226130507347989e-06,-1.2291785651541431e-06,3.160592768836068e-06,4.306004939280683e-06,-1.5725750301953667e-07,0.0,-7.699285653472998e-09,2.5474223619426084e-08,1.3274777757033007e-06,1.231471287610475e-06,,,,,,,,,,,,,,,,,,,,,,,,,,,,,,,,,,,,,,,,,,,,,,,,,,,,,,,,,,,,,,,,,,,,,,,,,,
106,3.4398813247680664,0.6165887117385864,1.5633325576782227,0.38926114052534105,0.0,-2.1855695031547384e-08,-2.0517089416305367e-10,0.5000002384185791,0.5000002384185791,0.622897744178772,1.5876877307891846,0.38874523997306826,0.0,-2.1855695031547384e-08,-3.749244026352017e-09,0.5000002384185791,0.5000002384185791,,,,,,,,,,,,,,,,,,,,,,,,,,,,,,,,,,,,,,,,,,,,,,,,,,,,,,,,,,,,,,,,,,,,,,,,,,,,,,,,,,,,,,,,,,,,,,,,,,,,,,,,,,,,,,,,,,,,,,,,,,,,,,,,,,,,,,5.679900993982301e-10,-7.40851824332367e-10,-9.209299989265674e-11,0.0,-1.9473311851925246e-10,1.0327750876726327e-09,-1.226130507347989e-06,-1.2291785651541431e-06,3.160592768836068e-06,4.306004939280683e-06,-1.5725750301953667e-07,0.0,-7.699285653472998e-09,2.5474223619426084e-08,1.3274777757033007e-06,1.231471287610475e-06,,,,,,,,,,,,,,,,,,,,,,,,,,,,,,,,,,,,,,,,,,,,,,,,,,,,,,,,,,,,,,,,,,,,,,,,,,
107,3.4626080989837646,0.6165887117385864,1.5633325576782227,0.38926114052534105,0.0,-2.1855695031547384e-08,-1.696102702730684e-10,0.5000001788139343,0.5000001788139343,0.6228978633880615,1.5876878499984741,0.38874523252248766,0.0,-2.1855695031547384e-08,-2.894120942897871e-09,0.5000002384185791,0.5000001788139343,,,,,,,,,,,,,,,,,,,,,,,,,,,,,,,,,,,,,,,,,,,,,,,,,,,,,,,,,,,,,,,,,,,,,,,,,,,,,,,,,,,,,,,,,,,,,,,,,,,,,,,,,,,,,,,,,,,,,,,,,,,,,,,,,,,,,,4.697353617189037e-10,-6.127320872906239e-10,-7.610578833805448e-11,0.0,-1.6037171590710386e-10,8.538817986014635e-10,-1.0137150638911407e-06,-1.0163655588257825e-06,2.613401647977298e-06,3.560539880709257e-06,-1.2998313536627393e-07,0.0,-6.128875185140714e-09,2.002713017645874e-08,1.0962429541905294e-06,1.0205873195445747e-06,,,,,,,,,,,,,,,,,,,,,,,,,,,,,,,,,,,,,,,,,,,,,,,,,,,,,,,,,,,,,,,,,,,,,,,,,,
108,3.485100030899048,0.6165887117385864,1.5633325576782227,0.38926114052534105,0.0,-2.1855695031547384e-08,-1.696102702730684e-10,0.5000001788139343,0.5000001788139343,0.6228979825973511,1.5876879692077637,0.38874523252248766,0.0,-2.1855695031547384e-08,-2.2227375495731394e-09,0.5000001788139343,0.5000001788139343,,,,,,,,,,,,,,,,,,,,,,,,,,,,,,,,,,,,,,,,,,,,,,,,,,,,,,,,,,,,,,,,,,,,,,,,,,,,,,,,,,,,,,,,,,,,,,,,,,,,,,,,,,,,,,,,,,,,,,,,,,,,,,,,,,,,,,4.697353617189037e-10,-6.127320872906239e-10,-7.610578833805448e-11,0.0,-1.6037171590710386e-10,8.538817986014635e-10,-1.0137150638911407e-06,-1.0163655588257825e-06,2.1609459963656263e-06,2.9441312108247075e-06,-1.0743919176547934e-07,0.0,-4.871270053996568e-09,1.5702672939710283e-08,9.052862992575683e-07,8.458104616693163e-07,,,,,,,,,,,,,,,,,,,,,,,,,,,,,,,,,,,,,,,,,,,,,,,,,,,,,,,,,,,,,,,,,,,,,,,,,,
109,3.5075533390045166,0.6165887117385864,1.5633325576782227,0.38926114052534105,0.0,-2.1855695031547384e-08,-1.416256278918837e-10,0.5000001788139343,0.5000001788139343,0.6228979825973511,1.5876879692077637,0.38874523252248766,0.0,-2.1855695031547384e-08,-2.2227375495731394e-09,0.5000001788139343,0.5000001788139343,,,,,,,,,,,,,,,,,,,,,,,,,,,,,,,,,,,,,,,,,,,,,,,,,,,,,,,,,,,,,,,,,,,,,,,,,,,,,,,,,,,,,,,,,,,,,,,,,,,,,,,,,,,,,,,,,,,,,,,,,,,,,,,,,,,,,,3.924083280537616e-10,-5.118128143521972e-10,-6.361577931102147e-11,0.0,-1.3383738561856262e-10,7.127096135484123e-10,-8.465320320283354e-07,-8.488491403113585e-07,2.1609459963656263e-06,2.9441312108247075e-06,-1.0743919176547934e-07,0.0,-4.871270053996568e-09,1.5702672939710283e-08,9.052862992575683e-07,8.458104616693163e-07,,,,,,,,,,,,,,,,,,,,,,,,,,,,,,,,,,,,,,,,,,,,,,,,,,,,,,,,,,,,,,,,,,,,,,,,,,
110,3.5294172763824463,0.6165887117385864,1.5633325576782227,0.38926114052534105,0.0,-2.1855695031547384e-08,-1.1707923519566066e-10,0.5000001192092896,0.5000001192092896,0.6228980422019958,1.5876880884170532,0.38874522507190706,0.0,-2.1855695031547384e-08,-1.6970977956276556e-09,0.5000001192092896,0.5000001192092896,,,,,,,,,,,,,,,,,,,,,,,,,,,,,,,,,,,,,,,,,,,,,,,,,,,,,,,,,,,,,,,,,,,,,,,,,,,,,,,,,,,,,,,,,,,,,,,,,,,,,,,,,,,,,,,,,,,,,,,,,,,,,,,,,,,,,,3.2451819009793326e-10,-4.2321701698710967e-10,-5.2582938003808977e-11,0.0,-1.1068923555512811e-10,5.892017984621134e-10,-6.998780008871108e-07,-7.018844598860596e-07,1.7868228496809024e-06,2.434436737530632e-06,-8.880513036046978e-08,0.0,-3.864741859871401e-09,1.227569601525147e-08,7.475916277144279e-07,7.009606406427338e-07,,,,,,,,,,,,,,,,,,,,,,,,,,,,,,,,,,,,,,,,,,,,,,,,,,,,,,,,,,,,,,,,,,,,,,,,,,
111,3.5504274368286133,0.6165887117385864,1.5633325576782227,0.38926114052534105,0.0,-2.1855695031547384e-08,-1.1707923519566066e-10,0.5000001192092896,0.5000001192092896,0.6228980422019958,1.5876880884170532,0.38874522507190706,0.0,-2.1855695031547384e-08,-1.6970977956276556e-09,0.5000001192092896,0.5000001192092896,,,,,,,,,,,,,,,,,,,,,,,,,,,,,,,,,,,,,,,,,,,,,,,,,,,,,,,,,,,,,,,,,,,,,,,,,,,,,,,,,,,,,,,,,,,,,,,,,,,,,,,,,,,,,,,,,,,,,,,,,,,,,,,,,,,,,,3.2451819009793326e-10,-4.2321701698710967e-10,-5.2582938003808977e-11,0.0,-1.1068923555512811e-10,5.892017984621134e-10,-6.998780008871108e-07,-7.018844598860596e-07,1.7868228496809024e-06,2.434436737530632e-06,-8.880513036046978e-08,0.0,-3.864741859871401e-09,1.227569601525147e-08,7.475916277144279e-07,7.009606406427338e-07,,,,,,,,,,,,,,,,,,,,,,,,,,,,,,,,,,,,,,,,,,,,,,,,,,,,,,,,,,,,,,,,,,,,,,,,,,
112,3.572376251220703,0.6165887117385864,1.5633325576782227,0.38926114052534105,0.0,-2.1855695031547384e-08,-9.678691875736334e-11,0.5000001192092896,0.5000001192092896,0.6228981018066406,1.5876882076263428,0.38874522507190706,0.0,-2.1855695031547384e-08,-1.2868572873969697e-09,0.5000001192092896,0.5000001192092896,,,,,,,,,,,,,,,,,,,,,,,,,,,,,,,,,,,,,,,,,,,,,,,,,,,,,,,,,,,,,,,,,,,,,,,,,,,,,,,,,,,,,,,,,,,,,,,,,,,,,,,,,,,,,,,,,,,,,,,,,,,,,,,,,,,,,,2.682298827494378e-10,-3.4983127505938683e-10,-4.3402781368939714e-11,0.0,-9.10937991704941e-11,4.872798275989965e-10,-5.786313295175205e-07,-5.803634053336282e-07,1.4774717556065298e-06,2.012981440202566e-06,-7.340305785419332e-08,0.0,-3.0617175461600254e-09,9.56469836665974e-09,6.173649467200448e-07,5.80914786496578e-07,,,,,,,,,,,,,,,,,,,,,,,,,,,,,,,,,,,,,,,,,,,,,,,,,,,,,,,,,,,,,,,,,,,,,,,,,,
113,3.5932507514953613,0.6165887117385864,1.5633325576782227,0.38926114052534105,0.0,-2.1855695031547384e-08,-9.678691875736334e-11,0.5000001192092896,0.5000001192092896,0.6228981614112854,1.5876882076263428,0.38874522507190706,0.0,-2.1855695031547384e-08,-9.82660064430263e-10,0.5000001192092896,0.5000001192092896,,,,,,,,,,,,,,,,,,,,,,,,,,,,,,,,,,,,,,,,,,,,,,,,,,,,,,,,,,,,,,,,,,,,,,,,,,,,,,,,,,,,,,,,,,,,,,,,,,,,,,,,,,,,,,,,,,,,,,,,,,,,,,,,,,,,,,2.682298827494378e-10,-3.4983127505938683e-10,-4.3402781368939714e-11,0.0,-9.10937991704941e-11,4.872798275989965e-10,-5.786313295175205e-07,-5.803634053336282e-07,1.233963189406495e-06,1.6812268768262584e-06,-6.128340857003423e-08,0.0,-2.4500956818940267e-09,7.52476925214296e-09,5.149846629137755e-07,4.862079663325858e-07,,,,,,,,,,,,,,,,,,,,,,,,,,,,,,,,,,,,,,,,,,,,,,,,,,,,,,,,,,,,,,,,,,,,,,,,,,
114,3.614377021789551,0.6165887117385864,1.5633325576782227,0.38926114052534105,0.0,-2.1855695031547384e-08,-8.163042464204295e-11,0.5000001192092896,0.5000001192092896,0.6228981614112854,1.5876882076263428,0.38874522507190706,0.0,-2.1855695031547384e-08,-9.678110535205064e-10,0.5000001192092896,0.5000001192092896,,,,,,,,,,,,,,,,,,,,,,,,,,,,,,,,,,,,,,,,,,,,,,,,,,,,,,,,,,,,,,,,,,,,,,,,,,,,,,,,,,,,,,,,,,,,,,,,,,,,,,,,,,,,,,,,,,,,,,,,,,,,,,,,,,,,,,2.262634524186069e-10,-2.952083022478291e-10,-3.6616543130918444e-11,0.0,-7.710498906021712e-11,4.109975693111778e-10,-4.880650408267684e-07,-4.895832148577028e-07,1.221678303409135e-06,1.6644896732032066e-06,-6.067212865445981e-08,0.0,-2.4201751713803787e-09,7.424465930938595e-09,5.098226552036067e-07,4.814239673578413e-07,,,,,,,,,,,,,,,,,,,,,,,,,,,,,,,,,,,,,,,,,,,,,,,,,,,,,,,,,,,,,,,,,,,,,,,,,,
115,3.6359803676605225,0.6165887117385864,1.5633325576782227,0.38926114052534105,0.0,-2.1855695031547384e-08,-6.748168690506873e-11,0.5000000596046448,0.5000000596046448,0.6228982210159302,1.5876883268356323,0.38874521762132647,0.0,-2.1855695031547384e-08,-7.206771290846348e-10,0.5000000596046448,0.5000000596046448,,,,,,,,,,,,,,,,,,,,,,,,,,,,,,,,,,,,,,,,,,,,,,,,,,,,,,,,,,,,,,,,,,,,,,,,,,,,,,,,,,,,,,,,,,,,,,,,,,,,,,,,,,,,,,,,,,,,,,,,,,,,,,,,,,,,,,1.8707257964933888e-10,-2.4424906541753444e-10,-3.036459972349803e-11,0.0,-6.350475700855895e-11,3.3990682490880886e-10,-4.0351238794755773e-07,-4.048193318340054e-07,1.0101699672304676e-06,1.3763293509327923e-06,-5.0149239427810244e-08,0.0,-1.909528091204038e-09,5.738781894137901e-09,4.210132260595856e-07,3.9897085457596404e-07,,,,,,,,,,,,,,,,,,,,,,,,,,,,,,,,,,,,,,,,,,,,,,,,,,,,,,,,,,,,,,,,,,,,,,,,,,
