MHC-RobotSimulators-Research/Data_Analysis_MotionReplication/mai_plotter/offset_fixed/cube__a1.csv
,time,jpos0,jpos1,jpos2,jpos3,jpos4,jpos5,jpos6,jpos7,jpos8,jpos9,jpos10,jpos11,jpos12,jpos13,jpos14,jpos15,runlevel,sublevel,last_seq,type0,type1,pos0,pos1,pos2,pos3,pos4,pos5,ori0,ori1,ori2,ori3,ori4,ori5,ori6,ori7,ori8,ori9,ori10,ori11,ori12,ori13,ori14,ori15,ori16,ori17,ori_d0,ori_d1,ori_d2,ori_d3,ori_d4,ori_d5,ori_d6,ori_d7,ori_d8,ori_d9,ori_d10,ori_d11,ori_d12,ori_d13,ori_d14,ori_d15,ori_d16,ori_d17,pos_d0,pos_d1,pos_d2,pos_d3,pos_d4,pos_d5,encVals0,encVals1,encVals2,encVals3,encVals4,encVals5,encVals6,encVals7,encVals8,encVals9,encVals10,encVals11,encVals12,encVals13,encVals14,encVals15,dac_vals0,dac_vals1,dac_vals2,dac_vals3,dac_vals4,dac_vals5,dac_vals6,dac_vals7,dac_vals8,dac_vals9,dac_vals10,dac_vals11,dac_vals12,dac_vals13,dac_vals14,dac_vals15,Tau0,Tau1,Tau2,Tau3,Tau4,Tau5,Tau6,Tau7,Tau8,Tau9,Tau10,Tau11,Tau12,Tau13,Tau14,Tau15,mpos0,mpos1,mpos2,mpos3,mpos4,mpos5,mpos6,mpos7,mpos8,mpos9,mpos10,mpos11,mpos12,mpos13,mpos14,mpos15,mvel0,mvel1,mvel2,mvel3,mvel4,mvel5,mvel6,mvel7,mvel8,mvel9,mvel10,mvel11,mvel12,mvel13,mvel14,mvel15,jvel0,jvel1,jvel2,jvel3,jvel4,jvel5,jvel6,jvel7,jvel8,jvel9,jvel10,jvel11,jvel12,jvel13,jvel14,jvel15,mpos_d0,mpos_d1,mpos_d2,mpos_d3,mpos_d4,mpos_d5,mpos_d6,mpos_d7,mpos_d8,mpos_d9,mpos_d10,mpos_d11,mpos_d12,mpos_d13,mpos_d14,mpos_d15,jpos_d0,jpos_d1,jpos_d2,jpos_d3,jpos_d4,jpos_d5,jpos_d6,jpos_d7,jpos_d8,jpos_d9,jpos_d10,jpos_d11,jpos_d12,jpos_d13,jpos_d14,jpos_d15,grasp_d0,grasp_d1,encoffsets0,encoffsets1,encoffsets2,encoffsets3,encoffsets4,encoffsets5,encoffsets6,encoffsets7,encoffsets8,encoffsets9,encoffsets10,encoffsets11,encoffsets12,encoffsets13,encoffsets14,encoffsets15,jac_vel0,jac_vel1,jac_vel2,jac_vel3,jac_vel4,jac_vel5,jac_vel6,jac_vel7,jac_vel8,jac_vel9,jac_vel10,jac_vel11,jac_f0,jac_f1,jac_f2,jac_f3,jac_f4,jac_f5,jac_f6,jac_f7,jac_f8,jac_f9,jac_f10,jac_f11
0,0.0,0.6107973456382751,1.5706218481063843,0.39000777810812,0.0,8.723934425614033e-05,-3.158622530197164e-10,0.7853109240531921,0.7853109240531921,0.6107973456382751,1.5706218481063843,0.39000777810812,0.0,8.723934425614033e-05,-1.2495462997641482e-10,0.7853109240531921,0.7853109240531921,,,,,,,,,,,,,,,,,,,,,,,,,,,,,,,,,,,,,,,,,,,,,,,,,,,,,,,,,,,,,,,,,,,,,,,,,,,,,,,,,,,,,,,,,,,,,,,,,,,,,,,,,,,,,,,,,,,,,,,,,,,,,,,,,,,,,,0.0,0.0,0.0,0.0,0.0,0.0,0.0,0.0,0.0,0.0,0.0,0.0,0.0,0.0,0.0,0.0,,,,,,,,,,,,,,,,,,,,,,,,,,,,,,,,,,,,,,,,,,,,,,,,,,,,,,,,,,,,,,,,,,,,,,,,,,
1,1.1495630741119385,0.6062148213386536,1.5588845014572144,0.39053178489208223,0.0,0.0006793518854548708,1.019020055537112e-05,0.5315446257591248,0.5312115550041199,0.6070233583450317,1.560966968536377,0.3904255843162537,0.0,0.0005684276415278688,-7.240521517815068e-05,0.5349249839782715,0.534501314163208,,,,,,,,,,,,,,,,,,,,,,,,,,,,,,,,,,,,,,,,,,,,,,,,,,,,,,,,,,,,,,,,,,,,,,,,,,,,,,,,,,,,,,,,,,,,,,,,,,,,,,,,,,,,,,,,,,,,,,,,,,,,,,,,,,,,,,-4.561557943816297e-05,-0.00017703291086945683,8.58271505421726e-06,0.0,-0.004918729420751333,0.0012619142653420568,-0.3348068594932556,-0.394568532705307,-4.472305954550393e-05,-0.0001332847896264866,2.981809984703432e-06,0.0,-0.007872778922319412,0.0025180079974234104,0.20977894961833954,0.18267375230789185,,,,,,,,,,,,,,,,,,,,,,,,,,,,,,,,,,,,,,,,,,,,,,,,,,,,,,,,,,,,,,,,,,,,,,,,,,
2,1.1709315776824951,0.6062133312225342,1.5588796138763428,0.39053194880485537,0.0,0.000510313112871863,6.3051943470782135e-06,0.5238210558891296,0.5236760377883911,0.6070219278335571,1.5609632730484009,0.3904257482290268,0.0,0.0003767391039302126,-7.65727018006146e-05,0.5255924463272095,0.5252087116241455,,,,,,,,,,,,,,,,,,,,,,,,,,,,,,,,,,,,,,,,,,,,,,,,,,,,,,,,,,,,,,,,,,,,,,,,,,,,,,,,,,,,,,,,,,,,,,,,,,,,,,,,,,,,,,,,,,,,,,,,,,,,,,,,,,,,,,-4.0953076677396894e-05,-0.000133225490571931,3.8678740565956105e-06,0.0,-0.0025837612338364124,5.088901161798276e-05,-0.12436285614967346,-0.110539510846138,-3.126478986814618e-05,-6.78705982863903e-05,5.371154657041188e-06,0.0,-0.02717924304306507,-0.008920376189053059,0.29907989501953125,0.3213315010070801,,,,,,,,,,,,,,,,,,,,,,,,,,,,,,,,,,,,,,,,,,,,,,,,,,,,,,,,,,,,,,,,,,,,,,,,,,
3,1.192350149154663,0.6062133312225342,1.5588796138763428,0.39053194880485537,0.0,0.000510313112871863,6.3051943470782135e-06,0.5238210558891296,0.5236760377883911,0.6070219278335571,1.5609632730484009,0.3904257482290268,0.0,0.0003767391039302126,-7.65727018006146e-05,0.5255924463272095,0.5252087116241455,,,,,,,,,,,,,,,,,,,,,,,,,,,,,,,,,,,,,,,,,,,,,,,,,,,,,,,,,,,,,,,,,,,,,,,,,,,,,,,,,,,,,,,,,,,,,,,,,,,,,,,,,,,,,,,,,,,,,,,,,,,,,,,,,,,,,,-4.0953076677396894e-05,-0.000133225490571931,3.8678740565956105e-06,0.0,-0.0025837612338364124,5.088901161798276e-05,-0.12436285614967346,-0.110539510846138,-3.126478986814618e-05,-6.78705982863903e-05,5.371154657041188e-06,0.0,-0.02717924304306507,-0.008920376189053059,0.29907989501953125,0.3213315010070801,,,,,,,,,,,,,,,,,,,,,,,,,,,,,,,,,,,,,,,,,,,,,,,,,,,,,,,,,,,,,,,,,,,,,,,,,,
4,1.2142276763916016,0.6062119007110596,1.5588750839233398,0.3905321052670479,0.0,0.00042150219215653095,5.103898274683161e-06,0.5196860432624817,0.51960289478302,0.6070207357406616,1.560960292816162,0.39042587488889696,0.0,0.00034961899055740986,-3.427726187510416e-05,0.5207666158676147,0.5205757021903992,,,,,,,,,,,,,,,,,,,,,,,,,,,,,,,,,,,,,,,,,,,,,,,,,,,,,,,,,,,,,,,,,,,,,,,,,,,,,,,,,,,,,,,,,,,,,,,,,,,,,,,,,,,,,,,,,,,,,,,,,,,,,,,,,,,,,,-3.36984230671078e-05,-0.00010857691086130217,3.733473477041116e-06,0.0,-0.0021009992342442274,-2.7575340936891735e-05,-0.09904387593269348,-0.0985817015171051,-2.833598045981489e-05,-7.255746459122747e-05,3.1694250992586603e-06,0.0,-0.0017897362122312188,0.00015036595868878067,0.10445806384086609,0.10352891683578491,,,,,,,,,,,,,,,,,,,,,,,,,,,,,,,,,,,,,,,,,,,,,,,,,,,,,,,,,,,,,,,,,,,,,,,,,,
5,1.2363066673278809,0.6062119007110596,1.5588750839233398,0.3905321052670479,0.0,0.00042150219215653095,5.103898274683161e-06,0.5196860432624817,0.51960289478302,0.6070197820663452,1.5609577894210815,0.3904259866476059,0.0,0.00028870304359696064,-2.8322654543444514e-05,0.5171694755554199,0.5170127153396606,,,,,,,,,,,,,,,,,,,,,,,,,,,,,,,,,,,,,,,,,,,,,,,,,,,,,,,,,,,,,,,,,,,,,,,,,,,,,,,,,,,,,,,,,,,,,,,,,,,,,,,,,,,,,,,,,,,,,,,,,,,,,,,,,,,,,,-3.36984230671078e-05,-0.00010857691086130217,3.733473477041116e-06,0.0,-0.0021009992342442274,-2.7575340936891735e-05,-0.09904387593269348,-0.0985817015171051,-2.3406772015732713e-05,-5.995236278977245e-05,2.6241223167744465e-06,0.0,-0.001443501329049468,0.00014949757314752787,0.08637908101081848,0.08554824441671371,,,,,,,,,,,,,,,,,,,,,,,,,,,,,,,,,,,,,,,,,,,,,,,,,,,,,,,,,,,,,,,,,,,,,,,,,,
6,1.2577593326568604,0.6062108278274536,1.5588715076446533,0.39053222447633745,0.0,0.0003520627809932009,4.2590891098370776e-06,0.5164394378662109,0.5163718461990356,0.6070197820663452,1.5609577894210815,0.3904259866476059,0.0,0.00028870304359696064,-2.8322654543444514e-05,0.5171694755554199,0.5170127153396606,,,,,,,,,,,,,,,,,,,,,,,,,,,,,,,,,,,,,,,,,,,,,,,,,,,,,,,,,,,,,,,,,,,,,,,,,,,,,,,,,,,,,,,,,,,,,,,,,,,,,,,,,,,,,,,,,,,,,,,,,,,,,,,,,,,,,,-2.8136835680925287e-05,-9.069187217392027e-05,3.1150209451880073e-06,0.0,-0.001771714654751122,-2.118113116011955e-05,-0.08271488547325134,-0.0823192149400711,-2.3406772015732713e-05,-5.995236278977245e-05,2.6241223167744465e-06,0.0,-0.001443501329049468,0.00014949757314752787,0.08637908101081848,0.08554824441671371,,,,,,,,,,,,,,,,,,,,,,,,,,,,,,,,,,,,,,,,,,,,,,,,,,,,,,,,,,,,,,,,,,,,,,,,,,
7,1.2785778045654297,0.606209933757782,1.5588687658309937,0.3905323213338852,0.0,0.00029698808922073994,3.5985212889499962e-06,0.5138663649559021,0.5138109922409058,0.6070190072059631,1.5609557628631592,0.3904260760545731,0.0,0.00023899276985428486,-2.3195081666926853e-05,0.5141953229904175,0.5140670537948608,,,,,,,,,,,,,,,,,,,,,,,,,,,,,,,,,,,,,,,,,,,,,,,,,,,,,,,,,,,,,,,,,,,,,,,,,,,,,,,,,,,,,,,,,,,,,,,,,,,,,,,,,,,,,,,,,,,,,,,,,,,,,,,,,,,,,,-2.373351890128106e-05,-7.650674524484202e-05,2.6270151920471108e-06,0.0,-0.0014937504893168807,-1.7936414224095643e-05,-0.06976868957281113,-0.06944247335195541,-1.9353989046067e-05,-4.9571783165447414e-05,2.1690702851628885e-06,0.0,-0.001195243326947093,0.0001225200539920479,0.07141637057065964,0.07073561102151871,,,,,,,,,,,,,,,,,,,,,,,,,,,,,,,,,,,,,,,,,,,,,,,,,,,,,,,,,,,,,,,,,,,,,,,,,,
8,1.3001484870910645,0.6062098741531372,1.5588685274124146,0.3905323287844658,0.0,0.0002940078569819704,3.5630025649879826e-06,0.5137282609939575,0.5136734843254089,0.6070190072059631,1.5609557628631592,0.3904260760545731,0.0,0.00023899276985428486,-2.3195081666926853e-05,0.5141953229904175,0.5140670537948608,,,,,,,,,,,,,,,,,,,,,,,,,,,,,,,,,,,,,,,,,,,,,,,,,,,,,,,,,,,,,,,,,,,,,,,,,,,,,,,,,,,,,,,,,,,,,,,,,,,,,,,,,,,,,,,,,,,,,,,,,,,,,,,,,,,,,,-2.3497101210523397e-05,-7.574508344987407e-05,2.6008167424151907e-06,0.0,-0.0014788778498768806,-1.7759386537363753e-05,-0.06907360255718231,-0.06875110417604446,-1.9353989046067e-05,-4.9571783165447414e-05,2.1690702851628885e-06,0.0,-0.001195243326947093,0.0001225200539920479,0.07141637057065964,0.07073561102151871,,,,,,,,,,,,,,,,,,,,,,,,,,,,,,,,,,,,,,,,,,,,,,,,,,,,,,,,,,,,,,,,,,,,,,,,,,
9,1.3215808868408203,0.6062090992927551,1.5588659048080444,0.390532418191433,0.0,0.0002431054903437868,2.950982889160514e-06,0.5113499760627747,0.5113061666488647,0.6070182919502258,1.560953974723816,0.39042615056037905,0.0,0.00019780596031448994,-1.8995580830960535e-05,0.5117363333702087,0.5116313695907593,,,,,,,,,,,,,,,,,,,,,,,,,,,,,,,,,,,,,,,,,,,,,,,,,,,,,,,,,,,,,,,,,,,,,,,,,,,,,,,,,,,,,,,,,,,,,,,,,,,,,,,,,,,,,,,,,,,,,,,,,,,,,,,,,,,,,,-1.9426968719926663e-05,-6.263177056098357e-05,2.1498346995940665e-06,0.0,-0.0012227990664541721,-1.4708773960592225e-05,-0.05710728093981743,-0.05684798210859299,-1.600321957084816e-05,-4.0989027183968574e-05,1.7929198747879127e-06,0.0,-0.0009893235983327031,0.00010040323104476556,0.059045325964689255,0.05848800763487816,,,,,,,,,,,,,,,,,,,,,,,,,,,,,,,,,,,,,,,,,,,,,,,,,,,,,,,,,,,,,,,,,,,,,,,,,,
10,1.342900037765503,0.6062090992927551,1.5588659048080444,0.390532418191433,0.0,0.0002431054903437868,2.950982889160514e-06,0.5113499760627747,0.5113061666488647,0.6070182919502258,1.560953974723816,0.39042615056037905,0.0,0.00019780596031448994,-1.8995580830960535e-05,0.5117363333702087,0.5116313695907593,,,,,,,,,,,,,,,,,,,,,,,,,,,,,,,,,,,,,,,,,,,,,,,,,,,,,,,,,,,,,,,,,,,,,,,,,,,,,,,,,,,,,,,,,,,,,,,,,,,,,,,,,,,,,,,,,,,,,,,,,,,,,,,,,,,,,,-1.9426968719926663e-05,-6.263177056098357e-05,2.1498346995940665e-06,0.0,-0.0012227990664541721,-1.4708773960592225e-05,-0.05710728093981743,-0.05684798210859299,-1.600321957084816e-05,-4.0989027183968574e-05,1.7929198747879127e-06,0.0,-0.0009893235983327031,0.00010040323104476556,0.059045325964689255,0.05848800763487816,,,,,,,,,,,,,,,,,,,,,,,,,,,,,,,,,,,,,,,,,,,,,,,,,,,,,,,,,,,,,,,,,,,,,,,,,,
11,1.3661353588104248,0.6062084436416626,1.558863878250122,0.39053248524665835,0.0,0.00020299156440994892,2.4684293293830706e-06,0.5094780921936035,0.5094426870346069,0.6070177555084229,1.5609526634216309,0.3904262176156044,0.0,0.0001637121035029665,-1.5554336641798727e-05,0.5097033381462097,0.5096174478530884,,,,,,,,,,,,,,,,,,,,,,,,,,,,,,,,,,,,,,,,,,,,,,,,,,,,,,,,,,,,,,,,,,,,,,,,,,,,,,,,,,,,,,,,,,,,,,,,,,,,,,,,,,,,,,,,,,,,,,,,,,,,,,,,,,,,,,-1.6223470083787106e-05,-5.230947499512695e-05,1.794951003830647e-06,0.0,-0.0010212096385657787,-1.2304527444939595e-05,-0.04768911376595497,-0.047478385269641876,-1.3232573110144585e-05,-3.389227276784368e-05,1.481995695939986e-06,0.0,-0.0008188739884644747,8.22671499918215e-05,0.04881724342703819,0.04836104437708855,,,,,,,,,,,,,,,,,,,,,,,,,,,,,,,,,,,,,,,,,,,,,,,,,,,,,,,,,,,,,,,,,,,,,,,,,,
12,1.3872873783111572,0.6062084436416626,1.558863878250122,0.39053248524665835,0.0,0.00020299156440994892,2.4684293293830706e-06,0.5094780921936035,0.5094426870346069,0.6070173382759094,1.5609514713287354,0.390426262319088,0.0,0.00013689001335404072,-1.2869700185547117e-05,0.5081031918525696,0.5080322027206421,,,,,,,,,,,,,,,,,,,,,,,,,,,,,,,,,,,,,,,,,,,,,,,,,,,,,,,,,,,,,,,,,,,,,,,,,,,,,,,,,,,,,,,,,,,,,,,,,,,,,,,,,,,,,,,,,,,,,,,,,,,,,,,,,,,,,,-1.6223470083787106e-05,-5.230947499512695e-05,1.794951003830647e-06,0.0,-0.0010212096385657787,-1.2304527444939595e-05,-0.04768911376595497,-0.047478385269641876,-1.1051641195081174e-05,-2.830606717907358e-05,1.237329911418783e-06,0.0,-0.0006845702882856131,6.810845661675557e-05,0.04076702147722244,0.04038967564702034,,,,,,,,,,,,,,,,,,,,,,,,,,,,,,,,,,,,,,,,,,,,,,,,,,,,,,,,,,,,,,,,,,,,,,,,,,
13,1.4100511074066162,0.6062079071998596,1.5588620901107788,0.3905325448513031,0.0,0.00016788442863724384,2.0443746961973375e-06,0.507836103439331,0.5078078508377075,0.6070173382759094,1.5609514713287354,0.390426262319088,0.0,0.00013551910652420673,-1.2734904885292053e-05,0.5080224871635437,0.5079522132873535,,,,,,,,,,,,,,,,,,,,,,,,,,,,,,,,,,,,,,,,,,,,,,,,,,,,,,,,,,,,,,,,,,,,,,,,,,,,,,,,,,,,,,,,,,,,,,,,,,,,,,,,,,,,,,,,,,,,,,,,,,,,,,,,,,,,,,-1.3413266970019322e-05,-4.325346526456997e-05,1.483701908000512e-06,0.0,-0.0008443595143035054,-1.0191434739681426e-05,-0.039427436888217926,-0.039258286356925964,-1.094161325454479e-05,-2.8024243874824606e-05,1.2249887504367507e-06,0.0,-0.0006777911330573261,6.739729724358767e-05,0.040360912680625916,0.03998752310872078,,,,,,,,,,,,,,,,,,,,,,,,,,,,,,,,,,,,,,,,,,,,,,,,,,,,,,,,,,,,,,,,,,,,,,,,,,
14,1.4325180053710938,0.6062074303627014,1.5588606595993042,0.3905325970053673,0.0,0.00013879736198685322,1.693148533377098e-06,0.5064786076545715,0.5064560174942017,0.607016921043396,1.560950517654419,0.3904263070225716,0.0,0.00011215408577225361,-1.0425248547107913e-05,0.5066328048706055,0.506575345993042,,,,,,,,,,,,,,,,,,,,,,,,,,,,,,,,,,,,,,,,,,,,,,,,,,,,,,,,,,,,,,,,,,,,,,,,,,,,,,,,,,,,,,,,,,,,,,,,,,,,,,,,,,,,,,,,,,,,,,,,,,,,,,,,,,,,,,-1.1089842701039743e-05,-3.576527160475962e-05,1.2264227962077712e-06,0.0,-0.0006981345359236002,-8.441043064522091e-06,-0.03259701281785965,-0.03246136009693146,-9.04728858586168e-06,-2.317220059921965e-05,1.0125500011781696e-06,0.0,-0.0005610149237327278,5.5207703553605825e-05,0.03336942195892334,0.033063847571611404,,,,,,,,,,,,,,,,,,,,,,,,,,,,,,,,,,,,,,,,,,,,,,,,,,,,,,,,,,,,,,,,,,,,,,,,,,
15,1.453526258468628,0.6062074303627014,1.5588606595993042,0.3905325970053673,0.0,0.00013879736198685322,1.693148533377098e-06,0.5064786076545715,0.5064560174942017,0.607016921043396,1.560950517654419,0.3904263070225716,0.0,0.00011215408577225361,-1.0425248547107913e-05,0.5066328048706055,0.506575345993042,,,,,,,,,,,,,,,,,,,,,,,,,,,,,,,,,,,,,,,,,,,,,,,,,,,,,,,,,,,,,,,,,,,,,,,,,,,,,,,,,,,,,,,,,,,,,,,,,,,,,,,,,,,,,,,,,,,,,,,,,,,,,,,,,,,,,,-1.1089842701039743e-05,-3.576527160475962e-05,1.2264227962077712e-06,0.0,-0.0006981345359236002,-8.441043064522091e-06,-0.03259701281785965,-0.03246136009693146,-9.04728858586168e-06,-2.317220059921965e-05,1.0125500011781696e-06,0.0,-0.0005610149237327278,5.5207703553605825e-05,0.03336942195892334,0.033063847571611404,,,,,,,,,,,,,,,,,,,,,,,,,,,,,,,,,,,,,,,,,,,,,,,,,,,,,,,,,,,,,,,,,,,,,,,,,,
16,1.4753093719482422,0.6062070727348328,1.5588594675064087,0.3905326342582703,0.0,0.00011704166664383564,1.430352654097078e-06,0.5054645538330078,0.505446195602417,0.6070166230201721,1.560949683189392,0.39042634427547457,0.0,9.284218086502705e-05,-8.533446816727519e-06,0.5054838061332703,0.5054368376731873,,,,,,,,,,,,,,,,,,,,,,,,,,,,,,,,,,,,,,,,,,,,,,,,,,,,,,,,,,,,,,,,,,,,,,,,,,,,,,,,,,,,,,,,,,,,,,,,,,,,,,,,,,,,,,,,,,,,,,,,,,,,,,,,,,,,,,-9.354313078802079e-06,-3.0171204343787394e-05,1.0342829455112224e-06,0.0,-0.0005889030871912837,-7.131232905521756e-06,-0.027495013549923897,-0.02738376334309578,-7.480929525627289e-06,-1.9160233932780102e-05,8.369513011530216e-07,0.0,-0.00046435772674158216,4.521687515079975e-05,0.02758902497589588,0.02733897790312767,,,,,,,,,,,,,,,,,,,,,,,,,,,,,,,,,,,,,,,,,,,,,,,,,,,,,,,,,,,,,,,,,,,,,,,,,,
17,1.4962873458862305,0.6062070727348328,1.5588594675064087,0.3905326342582703,0.0,0.00011704166664383564,1.430352654097078e-06,0.5054645538330078,0.505446195602417,0.6070166230201721,1.560949683189392,0.39042634427547457,0.0,9.284218086502705e-05,-8.533446816727519e-06,0.5054838061332703,0.5054368376731873,,,,,,,,,,,,,,,,,,,,,,,,,,,,,,,,,,,,,,,,,,,,,,,,,,,,,,,,,,,,,,,,,,,,,,,,,,,,,,,,,,,,,,,,,,,,,,,,,,,,,,,,,,,,,,,,,,,,,,,,,,,,,,,,,,,,,,-9.354313078802079e-06,-3.0171204343787394e-05,1.0342829455112224e-06,0.0,-0.0005889030871912837,-7.131232905521756e-06,-0.027495013549923897,-0.02738376334309578,-7.480929525627289e-06,-1.9160233932780102e-05,8.369513011530216e-07,0.0,-0.00046435772674158216,4.521687515079975e-05,0.02758902497589588,0.02733897790312767,,,,,,,,,,,,,,,,,,,,,,,,,,,,,,,,,,,,,,,,,,,,,,,,,,,,,,,,,,,,,,,,,,,,,,,,,,
18,1.5181536674499512,0.6062067747116089,1.5588585138320923,0.39053267151117327,0.0,9.778936638138447e-05,1.1964065151914838e-06,0.5045633316040039,0.5045485496520996,0.607016384601593,1.5609489679336548,0.39042637407779696,0.0,7.680853142044697e-05,-6.9840994001424406e-06,0.5045338869094849,0.5044955015182495,,,,,,,,,,,,,,,,,,,,,,,,,,,,,,,,,,,,,,,,,,,,,,,,,,,,,,,,,,,,,,,,,,,,,,,,,,,,,,,,,,,,,,,,,,,,,,,,,,,,,,,,,,,,,,,,,,,,,,,,,,,,,,,,,,,,,,-7.811790055711754e-06,-2.5198725779773667e-05,8.635454946670507e-07,0.0,-0.0004918144550174475,-5.965121999906842e-06,-0.022960513830184937,-0.022870413959026337,-6.1857554101152346e-06,-1.5842888387851417e-05,6.918045301063103e-07,0.0,-0.0003843532467726618,3.7029436498414725e-05,0.022809933871030807,0.022605346515774727,,,,,,,,,,,,,,,,,,,,,,,,,,,,,,,,,,,,,,,,,,,,,,,,,,,,,,,,,,,,,,,,,,,,,,,,,,
19,1.5404303073883057,0.6062065362930298,1.5588576793670654,0.39053270131349566,0.0,8.080204262039814e-05,9.908361562338541e-07,0.5037727952003479,0.5037610530853271,0.6070161461830139,1.5609484910964966,0.39042639642953875,0.0,6.357630028031025e-05,-5.71537202631589e-06,0.5037485361099243,0.5037171244621277,,,,,,,,,,,,,,,,,,,,,,,,,,,,,,,,,,,,,,,,,,,,,,,,,,,,,,,,,,,,,,,,,,,,,,,,,,,,,,,,,,,,,,,,,,,,,,,,,,,,,,,,,,,,,,,,,,,,,,,,,,,,,,,,,,,,,,-6.458644293161342e-06,-2.0836239855270833e-05,7.138021373975789e-07,0.0,-0.0004066413384862244,-4.940375674777897e-06,-0.018982822075486183,-0.018910778686404228,-5.114814939588541e-06,-1.3099902389512863e-05,5.718290481127042e-07,0.0,-0.00031813254463486373,3.032081622222904e-05,0.01885869726538658,0.018691323697566986,,,,,,,,,,,,,,,,,,,,,,,,,,,,,,,,,,,,,,,,,,,,,,,,,,,,,,,,,,,,,,,,,,,,,,,,,,
20,1.5611095428466797,0.6062065362930298,1.5588576793670654,0.39053270131349566,0.0,8.080204262039814e-05,9.908361562338541e-07,0.5037727952003479,0.5037610530853271,0.6070161461830139,1.5609484910964966,0.39042639642953875,0.0,6.357630028031025e-05,-5.71537202631589e-06,0.5037485361099243,0.5037171244621277,,,,,,,,,,,,,,,,,,,,,,,,,,,,,,,,,,,,,,,,,,,,,,,,,,,,,,,,,,,,,,,,,,,,,,,,,,,,,,,,,,,,,,,,,,,,,,,,,,,,,,,,,,,,,,,,,,,,,,,,,,,,,,,,,,,,,,-6.458644293161342e-06,-2.0836239855270833e-05,7.138021373975789e-07,0.0,-0.0004066413384862244,-4.940375674777897e-06,-0.018982822075486183,-0.018910778686404228,-5.114814939588541e-06,-1.3099902389512863e-05,5.718290481127042e-07,0.0,-0.00031813254463486373,3.032081622222904e-05,0.01885869726538658,0.018691323697566986,,,,,,,,,,,,,,,,,,,,,,,,,,,,,,,,,,,,,,,,,,,,,,,,,,,,,,,,,,,,,,,,,,,,,,,,,,
21,1.5833191871643066,0.6062062978744507,1.5588569641113281,0.39053272366523745,0.0,6.685455574295673e-05,8.205817607631616e-07,0.503119170665741,0.503109872341156,0.6070159673690796,1.5609480142593384,0.39042641133069994,0.0,5.2609045641638374e-05,-4.6765635488554835e-06,0.5030992031097412,0.503073513507843,,,,,,,,,,,,,,,,,,,,,,,,,,,,,,,,,,,,,,,,,,,,,,,,,,,,,,,,,,,,,,,,,,,,,,,,,,,,,,,,,,,,,,,,,,,,,,,,,,,,,,,,,,,,,,,,,,,,,,,,,,,,,,,,,,,,,,-5.339888048183639e-06,-1.722900378808845e-05,5.900246264900488e-07,0.0,-0.00033621833426877856,-4.091622031410225e-06,-0.015694227069616318,-0.015636689960956573,-4.229286787449382e-06,-1.083182814909378e-05,4.7265967850762536e-07,0.0,-0.0002633208059705794,2.4824641513987444e-05,0.015591911040246487,0.015454997308552265,,,,,,,,,,,,,,,,,,,,,,,,,,,,,,,,,,,,,,,,,,,,,,,,,,,,,,,,,,,,,,,,,,,,,,,,,,
22,1.6047718524932861,0.6062062978744507,1.5588569641113281,0.39053272366523745,0.0,6.685455574295673e-05,8.205817607631616e-07,0.503119170665741,0.503109872341156,0.6070159673690796,1.5609480142593384,0.39042641133069994,0.0,5.2609045641638374e-05,-4.6765635488554835e-06,0.5030992031097412,0.503073513507843,,,,,,,,,,,,,,,,,,,,,,,,,,,,,,,,,,,,,,,,,,,,,,,,,,,,,,,,,,,,,,,,,,,,,,,,,,,,,,,,,,,,,,,,,,,,,,,,,,,,,,,,,,,,,,,,,,,,,,,,,,,,,,,,,,,,,,-5.339888048183639e-06,-1.722900378808845e-05,5.900246264900488e-07,0.0,-0.00033621833426877856,-4.091622031410225e-06,-0.015694227069616318,-0.015636689960956573,-4.229286787449382e-06,-1.083182814909378e-05,4.7265967850762536e-07,0.0,-0.0002633208059705794,2.4824641513987444e-05,0.015591911040246487,0.015454997308552265,,,,,,,,,,,,,,,,,,,,,,,,,,,,,,,,,,,,,,,,,,,,,,,,,,,,,,,,,,,,,,,,,,,,,,,,,,
23,1.6265294551849365,0.6062061190605164,1.5588563680648804,0.39053274601697924,0.0,5.582769645950947e-05,6.863550083835435e-07,0.5026047825813293,0.5025973320007324,0.60701584815979,1.5609476566314697,0.39042643368244173,0.0,4.3549139635779e-05,-3.826107331406092e-06,0.5025623440742493,0.5025413632392883,,,,,,,,,,,,,,,,,,,,,,,,,,,,,,,,,,,,,,,,,,,,,,,,,,,,,,,,,,,,,,,,,,,,,,,,,,,,,,,,,,,,,,,,,,,,,,,,,,,,,,,,,,,,,,,,,,,,,,,,,,,,,,,,,,,,,,-4.459342108020792e-06,-1.438951676391298e-05,4.926236556457297e-07,0.0,-0.0002807875571306795,-3.4224369755975204e-06,-0.013105921447277069,-0.013059474527835846,-3.4970703381986823e-06,-8.956442798080388e-06,3.9068854107426887e-07,0.0,-0.00021795251814182848,2.0322362615843304e-05,0.01289101131260395,0.01277902815490961,,,,,,,,,,,,,,,,,,,,,,,,,,,,,,,,,,,,,,,,,,,,,,,,,,,,,,,,,,,,,,,,,,,,,,,,,,
24,1.6495552062988281,0.606205940246582,1.5588558912277222,0.39053276091814043,0.0,4.658897651932392e-05,5.740815822719014e-07,0.5021752119064331,0.5021692514419556,0.60701584815979,1.5609476566314697,0.39042643368244173,0.0,4.3549139635779e-05,-3.826107331406092e-06,0.5025623440742493,0.5025413632392883,,,,,,,,,,,,,,,,,,,,,,,,,,,,,,,,,,,,,,,,,,,,,,,,,,,,,,,,,,,,,,,,,,,,,,,,,,,,,,,,,,,,,,,,,,,,,,,,,,,,,,,,,,,,,,,,,,,,,,,,,,,,,,,,,,,,,,-3.7239979064906947e-06,-1.2018002053082455e-05,4.1130152794721653e-07,0.0,-0.00023449526634067297,-2.862674364223494e-06,-0.010944481007754803,-0.01090703159570694,-3.4970703381986823e-06,-8.956442798080388e-06,3.9068854107426887e-07,0.0,-0.00021795251814182848,2.0322362615843304e-05,0.01289101131260395,0.01277902815490961,,,,,,,,,,,,,,,,,,,,,,,,,,,,,,,,,,,,,,,,,,,,,,,,,,,,,,,,,,,,,,,,,,,,,,,,,,
25,1.670375108718872,0.606205940246582,1.5588558912277222,0.39053276091814043,0.0,4.658897651932392e-05,5.740815822719014e-07,0.5021752119064331,0.5021692514419556,0.6070157289505005,1.560947299003601,0.39042644113302233,0.0,3.603895439407978e-05,-3.129934384560329e-06,0.5021184682846069,0.5021013021469116,,,,,,,,,,,,,,,,,,,,,,,,,,,,,,,,,,,,,,,,,,,,,,,,,,,,,,,,,,,,,,,,,,,,,,,,,,,,,,,,,,,,,,,,,,,,,,,,,,,,,,,,,,,,,,,,,,,,,,,,,,,,,,,,,,,,,,-3.7239979064906947e-06,-1.2018002053082455e-05,4.1130152794721653e-07,0.0,-0.00023449526634067297,-2.862674364223494e-06,-0.010944481007754803,-0.01090703159570694,-2.8916226710862247e-06,-7.405756150546949e-06,3.2293309004671755e-07,0.0,-0.00018040066061075777,1.663469993218314e-05,0.01065797358751297,0.010566391982138157,,,,,,,,,,,,,,,,,,,,,,,,,,,,,,,,,,,,,,,,,,,,,,,,,,,,,,,,,,,,,,,,,,,,,,,,,,
26,1.6925134658813477,0.6062058210372925,1.5588555335998535,0.3905327758193016,0.0,3.889997734329853e-05,4.801715363100811e-07,0.50181645154953,0.501811683177948,0.6070156097412109,1.560947060585022,0.3904264560341835,0.0,2.9840071337439156e-05,-2.560121401984361e-06,0.5017514824867249,0.5017374753952026,,,,,,,,,,,,,,,,,,,,,,,,,,,,,,,,,,,,,,,,,,,,,,,,,,,,,,,,,,,,,,,,,,,,,,,,,,,,,,,,,,,,,,,,,,,,,,,,,,,,,,,,,,,,,,,,,,,,,,,,,,,,,,,,,,,,,,-3.1099116313271224e-06,-1.003733450488653e-05,3.434040536376415e-07,0.0,-0.00019583491666708142,-2.394447619735729e-06,-0.009139507077634335,-0.00910935178399086,-2.3909960873425007e-06,-6.123550065240124e-06,2.6692802634897816e-07,0.0,-0.0001493185991421342,1.361462000204483e-05,0.008811752311885357,0.008736864663660526,,,,,,,,,,,,,,,,,,,,,,,,,,,,,,,,,,,,,,,,,,,,,,,,,,,,,,,,,,,,,,,,,,,,,,,,,,
27,1.7155897617340088,0.6062058210372925,1.5588555335998535,0.3905327758193016,0.0,3.889997734329853e-05,4.801715363100811e-07,0.50181645154953,0.501811683177948,0.6070156097412109,1.560947060585022,0.3904264560341835,0.0,2.9840071337439156e-05,-2.560121401984361e-06,0.5017514824867249,0.5017374753952026,,,,,,,,,,,,,,,,,,,,,,,,,,,,,,,,,,,,,,,,,,,,,,,,,,,,,,,,,,,,,,,,,,,,,,,,,,,,,,,,,,,,,,,,,,,,,,,,,,,,,,,,,,,,,,,,,,,,,,,,,,,,,,,,,,,,,,-3.1099116313271224e-06,-1.003733450488653e-05,3.434040536376415e-07,0.0,-0.00019583491666708142,-2.394447619735729e-06,-0.009139507077634335,-0.00910935178399086,-2.3909960873425007e-06,-6.123550065240124e-06,2.6692802634897816e-07,0.0,-0.0001493185991421342,1.361462000204483e-05,0.008811752311885357,0.008736864663660526,,,,,,,,,,,,,,,,,,,,,,,,,,,,,,,,,,,,,,,,,,,,,,,,,,,,,,,,,,,,,,,,,,,,,,,,,,
28,1.7379868030548096,0.6062057614326477,1.5588551759719849,0.3905327832698822,0.0,3.2522280352331734e-05,4.01621889523085e-07,0.5015168786048889,0.5015131235122681,0.6070155501365662,1.5609468221664429,0.3904264634847641,0.0,2.4714071886755562e-05,-2.0937870885973098e-06,0.5014480948448181,0.5014366507530212,,,,,,,,,,,,,,,,,,,,,,,,,,,,,,,,,,,,,,,,,,,,,,,,,,,,,,,,,,,,,,,,,,,,,,,,,,,,,,,,,,,,,,,,,,,,,,,,,,,,,,,,,,,,,,,,,,,,,,,,,,,,,,,,,,,,,,-2.5970882688852726e-06,-8.383097338082734e-06,2.8671476570707455e-07,0.0,-0.00016354830586351454,-2.0027923710586037e-06,-0.007632210850715637,-0.007607962004840374,-1.9770432118093595e-06,-5.0633411774470005e-06,2.206356555234379e-07,0.0,-0.00012359167158138007,1.1141556569782551e-05,0.007285341154783964,0.0072241127490997314,,,,,,,,,,,,,,,,,,,,,,,,,,,,,,,,,,,,,,,,,,,,,,,,,,,,,,,,,,,,,,,,,,,,,,,,,,
29,1.759289026260376,0.6062056422233582,1.5588549375534058,0.3905327981710434,0.0,2.6859839098669624e-05,3.326033777284465e-07,0.5012540817260742,0.5012511014938354,0.6070155501365662,1.5609468221664429,0.3904264634847641,0.0,2.4714071886755562e-05,-2.0937870885973098e-06,0.5014480948448181,0.5014366507530212,,,,,,,,,,,,,,,,,,,,,,,,,,,,,,,,,,,,,,,,,,,,,,,,,,,,,,,,,,,,,,,,,,,,,,,,,,,,,,,,,,,,,,,,,,,,,,,,,,,,,,,,,,,,,,,,,,,,,,,,,,,,,,,,,,,,,,-2.1472246771736536e-06,-6.931789812369971e-06,2.369963709725198e-07,0.0,-0.0001352243561996147,-1.658650035096798e-06,-0.006310001481324434,-0.006290768273174763,-1.9770432118093595e-06,-5.0633411774470005e-06,2.206356555234379e-07,0.0,-0.00012359167158138007,1.1141556569782551e-05,0.007285341154783964,0.0072241127490997314,,,,,,,,,,,,,,,,,,,,,,,,,,,,,,,,,,,,,,,,,,,,,,,,,,,,,,,,,,,,,,,,,,,,,,,,,,
30,1.843337059020996,0.6062055230140686,1.5588544607162476,0.3905328130722046,0.0,1.8515188830114937e-05,2.3038305130285153e-07,0.5008658170700073,0.5008640289306641,0.6092652678489685,1.5640947818756104,0.39032081425189974,0.0,2.465446724198017e-05,-0.00012279760267119855,0.5009347796440125,0.5005300045013428,,,,,,,,,,,,,,,,,,,,,,,,,,,,,,,,,,,,,,,,,,,,,,,,,,,,,,,,,,,,,,,,,,,,,,,,,,,,,,,,,,,,,,,,,,,,,,,,,,,,,,,,,,,,,,,,,,,,,,,,,,,,,,,,,,,,,,-1.4825416201347252e-06,-4.787099442182807e-06,1.6356031551367778e-07,0.0,-9.337255323771387e-05,-1.1489333928693668e-06,-0.004356484394520521,-0.0043443008325994015,0.010387972928583622,0.013050260953605175,-0.00020528574532363564,0.0,-0.01876673847436905,0.02561122551560402,0.04728681594133377,-0.061206620186567307,,,,,,,,,,,,,,,,,,,,,,,,,,,,,,,,,,,,,,,,,,,,,,,,,,,,,,,,,,,,,,,,,,,,,,,,,,
31,1.8650107383728027,0.6062055230140686,1.5588544607162476,0.3905328130722046,0.0,1.8515188830114937e-05,2.3038305130285153e-07,0.5008658170700073,0.5008640289306641,0.6095058917999268,1.5644155740737915,0.39030460923910143,0.0,0.00014749964012406025,-0.0002061010163743049,0.5011919140815735,0.500293493270874,,,,,,,,,,,,,,,,,,,,,,,,,,,,,,,,,,,,,,,,,,,,,,,,,,,,,,,,,,,,,,,,,,,,,,,,,,,,,,,,,,,,,,,,,,,,,,,,,,,,,,,,,,,,,,,,,,,,,,,,,,,,,,,,,,,,,,-1.4825416201347252e-06,-4.787099442182807e-06,1.6356031551367778e-07,0.0,-9.337255323771387e-05,-1.1489333928693668e-06,-0.004356484394520521,-0.0043443008325994015,0.12030815333127975,0.1603860706090927,-0.008103489875793457,0.0,0.06141477823257446,-0.04165170341730118,-0.12856589257717133,0.11825351417064667,,,,,,,,,,,,,,,,,,,,,,,,,,,,,,,,,,,,,,,,,,,,,,,,,,,,,,,,,,,,,,,,,,,,,,,,,,
32,1.8862411975860596,0.6062054634094238,1.558854341506958,0.3905328130722046,0.0,1.5356142657019234e-05,1.9078981949860463e-07,0.5007158517837524,0.5007144212722778,0.6101309061050415,1.5653067827224731,0.39027651309967043,0.0,2.0124514239050484e-05,-3.654375177575275e-05,0.500726044178009,0.5005825757980347,,,,,,,,,,,,,,,,,,,,,,,,,,,,,,,,,,,,,,,,,,,,,,,,,,,,,,,,,,,,,,,,,,,,,,,,,,,,,,,,,,,,,,,,,,,,,,,,,,,,,,,,,,,,,,,,,,,,,,,,,,,,,,,,,,,,,,-1.2257378330104984e-06,-3.958342858823016e-06,1.35197723238889e-07,0.0,-7.720186840742826e-05,-9.514960765955038e-07,-0.0036017640959471464,-0.0035921563394367695,0.00853252224624157,0.011968125589191914,-0.00038152054185047746,0.0,9.219015191774815e-05,-0.0004663757572416216,0.003586008446291089,0.003400794230401516,,,,,,,,,,,,,,,,,,,,,,,,,,,,,,,,,,,,,,,,,,,,,,,,,,,,,,,,,,,,,,,,,,,,,,,,,,
33,1.908644676208496,0.606205403804779,1.558854103088379,0.3905328205227852,0.0,1.2673933642126656e-05,1.580005033474663e-07,0.5005918145179749,0.5005907416343689,0.6101309061050415,1.5653067827224731,0.39027651309967043,0.0,2.0124514239050484e-05,-3.654375177575275e-05,0.500726044178009,0.5005825757980347,,,,,,,,,,,,,,,,,,,,,,,,,,,,,,,,,,,,,,,,,,,,,,,,,,,,,,,,,,,,,,,,,,,,,,,,,,,,,,,,,,,,,,,,,,,,,,,,,,,,,,,,,,,,,,,,,,,,,,,,,,,,,,,,,,,,,,-1.0134174317499856e-06,-3.2730631573940627e-06,1.117534509376128e-07,0.0,-6.383168511092663e-05,-7.879841064095672e-07,-0.0029777921736240387,-0.002970233326777816,0.00853252224624157,0.011968125589191914,-0.00038152054185047746,0.0,9.219015191774815e-05,-0.0004663757572416216,0.003586008446291089,0.003400794230401516,,,,,,,,,,,,,,,,,,,,,,,,,,,,,,,,,,,,,,,,,,,,,,,,,,,,,,,,,,,,,,,,,,,,,,,,,,
34,1.9300501346588135,0.606205403804779,1.558854103088379,0.3905328205227852,0.0,1.2673933642126656e-05,1.580005033474663e-07,0.5005918145179749,0.5005907416343689,0.6104263067245483,1.5657199621200562,0.39026244640350344,0.0,1.8097956316687203e-05,-3.191996438545175e-05,0.5006009340286255,0.5004794001579285,,,,,,,,,,,,,,,,,,,,,,,,,,,,,,,,,,,,,,,,,,,,,,,,,,,,,,,,,,,,,,,,,,,,,,,,,,,,,,,,,,,,,,,,,,,,,,,,,,,,,,,,,,,,,,,,,,,,,,,,,,,,,,,,,,,,,,-1.0134174317499856e-06,-3.2730631573940627e-06,1.117534509376128e-07,0.0,-6.383168511092663e-05,-7.879841064095672e-07,-0.0029777921736240387,-0.002970233326777816,0.00710161542519927,0.009931983426213264,-0.00033864882425405085,0.0,-9.62450067163445e-05,0.00017375859897583723,0.003044120967388153,0.0023750828113406897,,,,,,,,,,,,,,,,,,,,,,,,,,,,,,,,,,,,,,,,,,,,,,,,,,,,,,,,,,,,,,,,,,,,,,,,,,
35,1.9515016078948975,0.606205403804779,1.558854103088379,0.3905328279733658,0.0,1.0468561785437203e-05,1.3084599004287156e-07,0.5004892945289612,0.5004884600639343,0.6104263067245483,1.5657199621200562,0.39026244640350344,0.0,1.8097956316687203e-05,-3.191996438545175e-05,0.5006009340286255,0.5004794001579285,,,,,,,,,,,,,,,,,,,,,,,,,,,,,,,,,,,,,,,,,,,,,,,,,,,,,,,,,,,,,,,,,,,,,,,,,,,,,,,,,,,,,,,,,,,,,,,,,,,,,,,,,,,,,,,,,,,,,,,,,,,,,,,,,,,,,,-8.37874893022672e-07,-2.7064209007221507e-06,9.237453468813328e-08,0.0,-5.277700620354153e-05,-6.525685307678941e-07,-0.0024619174655526876,-0.0024559858720749617,0.00710161542519927,0.009931983426213264,-0.00033864882425405085,0.0,-9.62450067163445e-05,0.00017375859897583723,0.003044120967388153,0.0023750828113406897,,,,,,,,,,,,,,,,,,,,,,,,,,,,,,,,,,,,,,,,,,,,,,,,,,,,,,,,,,,,,,,,,,,,,,,,,,
36,1.974435567855835,0.606205403804779,1.558854103088379,0.3905328279733658,0.0,1.0468561785437203e-05,1.3084599004287156e-07,0.5004892945289612,0.5004884600639343,0.610659122467041,1.5660455226898193,0.3902513524889946,0.0,1.499851478836689e-05,-2.6214373065158725e-05,0.500501275062561,0.5004014372825623,,,,,,,,,,,,,,,,,,,,,,,,,,,,,,,,,,,,,,,,,,,,,,,,,,,,,,,,,,,,,,,,,,,,,,,,,,,,,,,,,,,,,,,,,,,,,,,,,,,,,,,,,,,,,,,,,,,,,,,,,,,,,,,,,,,,,,-8.37874893022672e-07,-2.7064209007221507e-06,9.237453468813328e-08,0.0,-5.277700620354153e-05,-6.525685307678941e-07,-0.0024619174655526876,-0.0024559858720749617,0.00593202468007803,0.008295928128063679,-0.00028258393285796046,0.0,-7.844116043997929e-05,0.00014436597120948136,0.002537658903747797,0.0019894903525710106,,,,,,,,,,,,,,,,,,,,,,,,,,,,,,,,,,,,,,,,,,,,,,,,,,,,,,,,,,,,,,,,,,,,,,,,,,
37,1.9958724975585938,0.6062053442001343,1.5588539838790894,0.3905328279733658,0.0,8.680422442175484e-06,1.0835804431508222e-07,0.5004045367240906,0.500403881072998,0.6108536124229431,1.5663175582885742,0.39024209141731264,0.0,1.2435515063025093e-05,-2.1522873794310726e-05,0.5004181265830994,0.5003361105918884,,,,,,,,,,,,,,,,,,,,,,,,,,,,,,,,,,,,,,,,,,,,,,,,,,,,,,,,,,,,,,,,,,,,,,,,,,,,,,,,,,,,,,,,,,,,,,,,,,,,,,,,,,,,,,,,,,,,,,,,,,,,,,,,,,,,,,-6.927392632860574e-07,-2.2378776520781685e-06,7.635603083144815e-08,0.0,-4.363682819530368e-05,-5.404224907579191e-07,-0.002035413170233369,-0.0020307721570134163,0.004954345524311066,0.006928705610334873,-0.00023592404613737017,0.0,-6.507601938210428e-05,0.00011858963989652693,0.00211678771302104,0.0016659232787787914,,,,,,,,,,,,,,,,,,,,,,,,,,,,,,,,,,,,,,,,,,,,,,,,,,,,,,,,,,,,,,,,,,,,,,,,,,
38,2.016849994659424,0.6062053442001343,1.5588539838790894,0.3905328279733658,0.0,8.680422442175484e-06,1.0835804431508222e-07,0.5004045367240906,0.500403881072998,0.6108536124229431,1.5663175582885742,0.39024209141731264,0.0,1.2435515063025093e-05,-2.1522873794310726e-05,0.5004181265830994,0.5003361105918884,,,,,,,,,,,,,,,,,,,,,,,,,,,,,,,,,,,,,,,,,,,,,,,,,,,,,,,,,,,,,,,,,,,,,,,,,,,,,,,,,,,,,,,,,,,,,,,,,,,,,,,,,,,,,,,,,,,,,,,,,,,,,,,,,,,,,,-6.927392632860574e-07,-2.2378776520781685e-06,7.635603083144815e-08,0.0,-4.363682819530368e-05,-5.404224907579191e-07,-0.002035413170233369,-0.0020307721570134163,0.004954345524311066,0.006928705610334873,-0.00023592404613737017,0.0,-6.507601938210428e-05,0.00011858963989652693,0.00211678771302104,0.0016659232787787914,,,,,,,,,,,,,,,,,,,,,,,,,,,,,,,,,,,,,,,,,,,,,,,,,,,,,,,,,,,,,,,,,,,,,,,,,,
39,2.038750410079956,0.6062053442001343,1.5588538646697998,0.3905328279733658,0.0,7.130701678015328e-06,8.973475473794679e-08,0.5003344416618347,0.5003339648246765,0.6110242009162903,1.5665560960769653,0.390233970284462,0.0,1.023014320633564e-05,-1.747419810271822e-05,0.5003452897071838,0.500278651714325,,,,,,,,,,,,,,,,,,,,,,,,,,,,,,,,,,,,,,,,,,,,,,,,,,,,,,,,,,,,,,,,,,,,,,,,,,,,,,,,,,,,,,,,,,,,,,,,,,,,,,,,,,,,,,,,,,,,,,,,,,,,,,,,,,,,,,-5.727439997826878e-07,-1.8504498484617216e-06,6.311538669478978e-08,0.0,-3.607958569773473e-05,-4.475475066101353e-07,-0.001682796748355031,-0.0016791770467534661,0.004096586257219315,0.0057291858829557896,-0.00019500443886499852,0.0,-5.3445983212441206e-05,9.642461373005062e-05,0.0017480511451140046,0.0013812498655170202,,,,,,,,,,,,,,,,,,,,,,,,,,,,,,,,,,,,,,,,,,,,,,,,,,,,,,,,,,,,,,,,,,,,,,,,,,
40,2.0602922439575195,0.6062053442001343,1.5588538646697998,0.3905328354239464,0.0,5.938608782507515e-06,7.431201964891443e-08,0.500276505947113,0.5002761483192444,0.6110242009162903,1.5665560960769653,0.390233970284462,0.0,1.023014320633564e-05,-1.747419810271822e-05,0.5003452897071838,0.500278651714325,,,,,,,,,,,,,,,,,,,,,,,,,,,,,,,,,,,,,,,,,,,,,,,,,,,,,,,,,,,,,,,,,,,,,,,,,,,,,,,,,,,,,,,,,,,,,,,,,,,,,,,,,,,,,,,,,,,,,,,,,,,,,,,,,,,,,,-4.7353415766338003e-07,-1.530094436930085e-06,5.2170623376923686e-08,0.0,-2.983114063681569e-05,-3.7063244917590055e-07,-0.0013912678696215153,-0.001388454926200211,0.004096586257219315,0.0057291858829557896,-0.00019500443886499852,0.0,-5.3445983212441206e-05,9.642461373005062e-05,0.0017480511451140046,0.0013812498655170202,,,,,,,,,,,,,,,,,,,,,,,,,,,,,,,,,,,,,,,,,,,,,,,,,,,,,,,,,,,,,,,,,,,,,,,,,,
41,2.082298755645752,0.6062053442001343,1.5588538646697998,0.3905328354239464,0.0,5.938608782507515e-06,7.431201964891443e-08,0.500276505947113,0.5002761483192444,0.6111652255058289,1.5667533874511719,0.39022725731134417,0.0,8.38239921829853e-06,-1.4182570339471567e-05,0.5002851486206055,0.5002310276031494,,,,,,,,,,,,,,,,,,,,,,,,,,,,,,,,,,,,,,,,,,,,,,,,,,,,,,,,,,,,,,,,,,,,,,,,,,,,,,,,,,,,,,,,,,,,,,,,,,,,,,,,,,,,,,,,,,,,,,,,,,,,,,,,,,,,,,-4.7353415766338003e-07,-1.530094436930085e-06,5.2170623376923686e-08,0.0,-2.983114063681569e-05,-3.7063244917590055e-07,-0.0013912678696215153,-0.001388454926200211,0.003387334058061242,0.004737330600619316,-0.00016118229541461915,0.0,-4.3889427615795285e-05,7.838521560188383e-05,0.0014435447519645095,0.0011452178005129099,,,,,,,,,,,,,,,,,,,,,,,,,,,,,,,,,,,,,,,,,,,,,,,,,,,,,,,,,,,,,,,,,,,,,,,,,,
42,2.1044416427612305,0.6062052845954895,1.5588537454605103,0.3905328354239464,0.0,4.865725176550484e-06,6.153982923251533e-08,0.5002285838127136,0.5002283453941345,0.6112762689590454,1.5669087171554565,0.39022197484970095,0.0,6.951887743689156e-06,-1.1634518159553409e-05,0.5002378821372986,0.5001934766769409,,,,,,,,,,,,,,,,,,,,,,,,,,,,,,,,,,,,,,,,,,,,,,,,,,,,,,,,,,,,,,,,,,,,,,,,,,,,,,,,,,,,,,,,,,,,,,,,,,,,,,,,,,,,,,,,,,,,,,,,,,,,,,,,,,,,,,-3.9150927477749065e-07,-1.2652001259993995e-06,4.312381562954215e-08,0.0,-2.466483238094952e-05,-3.0693527719449776e-07,-0.0011502436827868223,-0.0011480665998533368,0.0028290431946516037,0.003956577740609646,-0.00013456889428198338,0.0,-3.641452713054605e-05,6.440323340939358e-05,0.0012041499139741063,0.0009589266264811158,,,,,,,,,,,,,,,,,,,,,,,,,,,,,,,,,,,,,,,,,,,,,,,,,,,,,,,,,,,,,,,,,,,,,,,,,,
43,2.125880002975464,0.6062052845954895,1.5588537454605103,0.3905328354239464,0.0,4.865725176550484e-06,6.153982923251533e-08,0.5002285838127136,0.5002283453941345,0.6112818717956543,1.5669164657592773,0.39022170662879946,0.0,6.892283098913765e-06,-1.1507111594255548e-05,0.5002354979515076,0.5001915693283081,,,,,,,,,,,,,,,,,,,,,,,,,,,,,,,,,,,,,,,,,,,,,,,,,,,,,,,,,,,,,,,,,,,,,,,,,,,,,,,,,,,,,,,,,,,,,,,,,,,,,,,,,,,,,,,,,,,,,,,,,,,,,,,,,,,,,,-3.9150927477749065e-07,-1.2652001259993995e-06,4.312381562954215e-08,0.0,-2.466483238094952e-05,-3.0693527719449776e-07,-0.0011502436827868223,-0.0011480665998533368,0.0028008774388581514,0.003917188383638859,-0.000133226509205997,0.0,-3.603869117796421e-05,6.370362098095939e-05,0.001192080439068377,0.0009495149715803564,,,,,,,,,,,,,,,,,,,,,,,,,,,,,,,,,,,,,,,,,,,,,,,,,,,,,,,,,,,,,,,,,,,,,,,,,,
44,2.147373676300049,0.6062052845954895,1.5588537454605103,0.3905328354239464,0.0,4.090864794470406e-06,5.1471072737285795e-08,0.5001909136772156,0.5001906752586365,0.6113783121109009,1.5670514106750488,0.39021712452173235,0.0,5.640585558630562e-06,-9.333076377515681e-06,0.5001944303512573,0.5001587867736816,,,,,,,,,,,,,,,,,,,,,,,,,,,,,,,,,,,,,,,,,,,,,,,,,,,,,,,,,,,,,,,,,,,,,,,,,,,,,,,,,,,,,,,,,,,,,,,,,,,,,,,,,,,,,,,,,,,,,,,,,,,,,,,,,,,,,,-3.269497028668411e-07,-1.056684482136916e-06,3.6004919934384816e-08,0.0,-2.0598394257831387e-05,-2.567194883340562e-07,-0.0009605443337932229,-0.000958843796979636,0.0023159561678767204,0.0032390321139246225,-0.00011011953029083088,0.0,-2.9589935365947895e-05,5.175732439965941e-05,0.0009844193700700998,0.0007872508722357452,,,,,,,,,,,,,,,,,,,,,,,,,,,,,,,,,,,,,,,,,,,,,,,,,,,,,,,,,,,,,,,,,,,,,,,,,,
45,2.1687238216400146,0.6062052845954895,1.5588536262512207,0.3905328354239464,0.0,3.435213701941109e-06,4.3479044364858055e-08,0.5001610517501831,0.5001608729362488,0.6113783121109009,1.5670514106750488,0.39021712452173235,0.0,5.640585558630562e-06,-9.333076377515681e-06,0.5001944303512573,0.5001587867736816,,,,,,,,,,,,,,,,,,,,,,,,,,,,,,,,,,,,,,,,,,,,,,,,,,,,,,,,,,,,,,,,,,,,,,,,,,,,,,,,,,,,,,,,,,,,,,,,,,,,,,,,,,,,,,,,,,,,,,,,,,,,,,,,,,,,,,-2.757827815003111e-07,-8.91408831193985e-07,3.036396023503585e-08,0.0,-1.7375428797095083e-05,-2.168605561791992e-07,-0.0008102022693492472,-0.0008088615140877664,0.0023159561678767204,0.0032390321139246225,-0.00011011953029083088,0.0,-2.9589935365947895e-05,5.175732439965941e-05,0.0009844193700700998,0.0007872508722357452,,,,,,,,,,,,,,,,,,,,,,,,,,,,,,,,,,,,,,,,,,,,,,,,,,,,,,,,,,,,,,,,,,,,,,,,,,
46,2.1913063526153564,0.6062052845954895,1.5588536262512207,0.3905328354239464,0.0,3.3756090571657182e-06,4.2624410667713164e-08,0.5001578330993652,0.5001576542854309,0.6114580631256104,1.5671628713607788,0.3902133321762085,0.0,4.627306597448921e-06,-7.56699955672957e-06,0.5001605749130249,0.5001316666603088,,,,,,,,,,,,,,,,,,,,,,,,,,,,,,,,,,,,,,,,,,,,,,,,,,,,,,,,,,,,,,,,,,,,,,,,,,,,,,,,,,,,,,,,,,,,,,,,,,,,,,,,,,,,,,,,,,,,,,,,,,,,,,,,,,,,,,-2.7031572358282574e-07,-8.737484336052148e-07,2.9761325848198794e-08,0.0,-1.7031059542205185e-05,-2.1259853610899881e-07,-0.0007941389922052622,-0.0007928356062620878,0.001914990833029151,0.0026782804634422064,-9.102031617658213e-05,0.0,-2.429330015729647e-05,4.203891512588598e-05,0.000812931451946497,0.0006527125369757414,,,,,,,,,,,,,,,,,,,,,,,,,,,,,,,,,,,,,,,,,,,,,,,,,,,,,,,,,,,,,,,,,,,,,,,,,,
47,2.2130815982818604,0.6062052845954895,1.5588536262512207,0.3905328354239464,0.0,2.779562609411812e-06,3.529819281311575e-08,0.5001304745674133,0.5001303553581238,0.6114580631256104,1.5671628713607788,0.3902133321762085,0.0,4.627306597448921e-06,-7.56699955672957e-06,0.5001605749130249,0.5001316666603088,,,,,,,,,,,,,,,,,,,,,,,,,,,,,,,,,,,,,,,,,,,,,,,,,,,,,,,,,,,,,,,,,,,,,,,,,,,,,,,,,,,,,,,,,,,,,,,,,,,,,,,,,,,,,,,,,,,,,,,,,,,,,,,,,,,,,,-2.2349183836922748e-07,-7.224828664220695e-07,2.4600579351385932e-08,0.0,-1.408153275406221e-05,-1.7605943014586956e-07,-0.000656561809591949,-0.000655568961519748,0.001914990833029151,0.0026782804634422064,-9.102031617658213e-05,0.0,-2.429330015729647e-05,4.203891512588598e-05,0.000812931451946497,0.0006527125369757414,,,,,,,,,,,,,,,,,,,,,,,,,,,,,,,,,,,,,,,,,,,,,,,,,,,,,,,,,,,,,,,,,,,,,,,,,,
48,2.234999656677246,0.6062052845954895,1.5588536262512207,0.3905328354239464,0.0,2.779562609411812e-06,3.529819281311575e-08,0.5001304745674133,0.5001303553581238,0.6115239858627319,1.5672551393508911,0.3902101954817772,0.0,3.7928415705934526e-06,-6.132760518084979e-06,0.5001326203346252,0.5001091361045837,,,,,,,,,,,,,,,,,,,,,,,,,,,,,,,,,,,,,,,,,,,,,,,,,,,,,,,,,,,,,,,,,,,,,,,,,,,,,,,,,,,,,,,,,,,,,,,,,,,,,,,,,,,,,,,,,,,,,,,,,,,,,,,,,,,,,,-2.2349183836922748e-07,-7.224828664220695e-07,2.4600579351385932e-08,0.0,-1.408153275406221e-05,-1.7605943014586956e-07,-0.000656561809591949,-0.000655568961519748,0.0015834455844014883,0.002214607782661915,-7.523373642470688e-05,0.0,-1.9943336155847646e-05,3.413479862501845e-05,0.0006713159964419901,0.000541162968147546,,,,,,,,,,,,,,,,,,,,,,,,,,,,,,,,,,,,,,,,,,,,,,,,,,,,,,,,,,,,,,,,,,,,,,,,,,
49,2.2579050064086914,0.6062052845954895,1.5588536262512207,0.3905328354239464,0.0,2.302725451208687e-06,2.9231127740558804e-08,0.5001078844070435,0.5001078248023987,0.6115759015083313,1.5673277378082275,0.39020772933959963,0.0,3.1371904780641557e-06,-5.023790436098352e-06,0.5001106262207031,0.5000913739204407,,,,,,,,,,,,,,,,,,,,,,,,,,,,,,,,,,,,,,,,,,,,,,,,,,,,,,,,,,,,,,,,,,,,,,,,,,,,,,,,,,,,,,,,,,,,,,,,,,,,,,,,,,,,,,,,,,,,,,,,,,,,,,,,,,,,,,-1.8477913954484393e-07,-5.97404437030491e-07,2.033460155814737e-08,0.0,-1.164281911769649e-05,-1.4580044194190123e-07,-0.0005428185686469078,-0.0005420678644441068,0.0013224678114056587,0.0018496215343475342,-6.281177775235847e-05,0.0,-1.6542118828510866e-05,2.8014002964482643e-05,0.0005599825526587665,0.00045312230940908194,,,,,,,,,,,,,,,,,,,,,,,,,,,,,,,,,,,,,,,,,,,,,,,,,,,,,,,,,,,,,,,,,,,,,,,,,,
50,2.279996156692505,0.6062052845954895,1.5588536262512207,0.3905328354239464,0.0,2.302725451208687e-06,2.9231127740558804e-08,0.5001078844070435,0.5001078248023987,0.6115785241127014,1.5673314332962036,0.3902076101303101,0.0,3.1371904780641557e-06,-4.9683749239193276e-06,0.5001094937324524,0.500090479850769,,,,,,,,,,,,,,,,,,,,,,,,,,,,,,,,,,,,,,,,,,,,,,,,,,,,,,,,,,,,,,,,,,,,,,,,,,,,,,,,,,,,,,,,,,,,,,,,,,,,,,,,,,,,,,,,,,,,,,,,,,,,,,,,,,,,,,-1.8477913954484393e-07,-5.97404437030491e-07,2.033460155814737e-08,0.0,-1.164281911769649e-05,-1.4580044194190123e-07,-0.0005428185686469078,-0.0005420678644441068,0.0013093015877529979,0.0018312078900635242,-6.218520866241306e-05,0.0,-1.6371139281545766e-05,2.7707892513717525e-05,0.000554369471501559,0.0004486744583118707,,,,,,,,,,,,,,,,,,,,,,,,,,,,,,,,,,,,,,,,,,,,,,,,,,,,,,,,,,,,,,,,,,,,,,,,,,
51,2.3010799884796143,0.6062052845954895,1.5588536262512207,0.390532842874527,0.0,1.8854929377809526e-06,2.4448295832257827e-08,0.5000900626182556,0.5000900626182556,0.6116236448287964,1.567394495010376,0.39020546436309816,0.0,2.5411440303102495e-06,-4.0233803701994475e-06,0.5000904202461243,0.5000750422477722,,,,,,,,,,,,,,,,,,,,,,,,,,,,,,,,,,,,,,,,,,,,,,,,,,,,,,,,,,,,,,,,,,,,,,,,,,,,,,,,,,,,,,,,,,,,,,,,,,,,,,,,,,,,,,,,,,,,,,,,,,,,,,,,,,,,,,-1.543091769917737e-07,-4.989470880900626e-07,1.697771701003603e-08,0.0,-9.723291441332549e-06,-1.219455043610651e-07,-0.00045329637941904366,-0.0004527249257080257,0.001082620583474636,0.001514183240942657,-5.139983841218054e-05,0.0,-1.3437872439681087e-05,2.248349665023852e-05,0.0004577948711812496,0.00037199040525592864,,,,,,,,,,,,,,,,,,,,,,,,,,,,,,,,,,,,,,,,,,,,,,,,,,,,,,,,,,,,,,,,,,,,,,,,,,
52,2.32238507270813,0.6062052249908447,1.5588536262512207,0.390532842874527,0.0,1.5874697139039995e-06,2.0447995296990484e-08,0.5000752210617065,0.5000752210617065,0.6116236448287964,1.567394495010376,0.39020546436309816,0.0,2.5411440303102495e-06,-4.0233803701994475e-06,0.5000904202461243,0.5000750422477722,,,,,,,,,,,,,,,,,,,,,,,,,,,,,,,,,,,,,,,,,,,,,,,,,,,,,,,,,,,,,,,,,,,,,,,,,,,,,,,,,,,,,,,,,,,,,,,,,,,,,,,,,,,,,,,,,,,,,,,,,,,,,,,,,,,,,,-1.2886364686437446e-07,-4.167165457147348e-07,1.4175050466747052e-08,0.0,-8.120232450892217e-06,-1.0199395461540917e-07,-0.00037853827234357595,-0.000378107390133664,0.001082620583474636,0.001514183240942657,-5.139983841218054e-05,0.0,-1.3437872439681087e-05,2.248349665023852e-05,0.0004577948711812496,0.00037199040525592864,,,,,,,,,,,,,,,,,,,,,,,,,,,,,,,,,,,,,,,,,,,,,,,,,,,,,,,,,,,,,,,,,,,,,,,,,,
53,2.344143867492676,0.6062052249908447,1.5588536262512207,0.390532842874527,0.0,1.5874697139039995e-06,2.0447995296990484e-08,0.5000752210617065,0.5000752210617065,0.611660897731781,1.5674465894699097,0.3902036985754967,0.0,2.0643068721071245e-06,-3.2567027119512204e-06,0.5000746846199036,0.5000622272491455,,,,,,,,,,,,,,,,,,,,,,,,,,,,,,,,,,,,,,,,,,,,,,,,,,,,,,,,,,,,,,,,,,,,,,,,,,,,,,,,,,,,,,,,,,,,,,,,,,,,,,,,,,,,,,,,,,,,,,,,,,,,,,,,,,,,,,-1.2886364686437446e-07,-4.167165457147348e-07,1.4175050466747052e-08,0.0,-8.120232450892217e-06,-1.0199395461540917e-07,-0.00037853827234357595,-0.000378107390133664,0.0008951852796599269,0.0012520430609583855,-4.2485091398702934e-05,0.0,-1.1029434062947985e-05,1.8237788026453927e-05,0.00037804353632964194,0.00030841052648611367,,,,,,,,,,,,,,,,,,,,,,,,,,,,,,,,,,,,,,,,,,,,,,,,,,,,,,,,,,,,,,,,,,,,,,,,,,
54,2.3671116828918457,0.6062052249908447,1.5588536262512207,0.390532842874527,0.0,1.2894464900270464e-06,1.6933272561914237e-08,0.5000622272491455,0.5000621676445007,0.611660897731781,1.5674465894699097,0.3902036985754967,0.0,2.0643068721071245e-06,-3.2567027119512204e-06,0.5000746846199036,0.5000622272491455,,,,,,,,,,,,,,,,,,,,,,,,,,,,,,,,,,,,,,,,,,,,,,,,,,,,,,,,,,,,,,,,,,,,,,,,,,,,,,,,,,,,,,,,,,,,,,,,,,,,,,,,,,,,,,,,,,,,,,,,,,,,,,,,,,,,,,-1.0654193971504355e-07,-3.445735785589932e-07,1.1716995373944883e-08,0.0,-6.713928542012582e-06,-8.446354371471898e-08,-0.0003129600372631103,-0.0003126442024949938,0.0008951852796599269,0.0012520430609583855,-4.2485091398702934e-05,0.0,-1.1029434062947985e-05,1.8237788026453927e-05,0.00037804353632964194,0.00030841052648611367,,,,,,,,,,,,,,,,,,,,,,,,,,,,,,,,,,,,,,,,,,,,,,,,,,,,,,,,,,,,,,,,,,,,,,,,,,
55,2.389094591140747,0.6062052249908447,1.5588536262512207,0.390532842874527,0.0,1.2894464900270464e-06,1.6933272561914237e-08,0.5000622272491455,0.5000621676445007,0.6116902232170105,1.5674875974655151,0.39020230531692507,0.0,1.7066790034547807e-06,-2.664493422344094e-06,0.5000622868537903,0.5000520944595337,,,,,,,,,,,,,,,,,,,,,,,,,,,,,,,,,,,,,,,,,,,,,,,,,,,,,,,,,,,,,,,,,,,,,,,,,,,,,,,,,,,,,,,,,,,,,,,,,,,,,,,,,,,,,,,,,,,,,,,,,,,,,,,,,,,,,,-1.0654193971504355e-07,-3.445735785589932e-07,1.1716995373944883e-08,0.0,-6.713928542012582e-06,-8.446354371471898e-08,-0.0003129600372631103,-0.0003126442024949938,0.0007476444006897509,0.0010456956224516034,-3.547034793882631e-05,0.0,-9.146695447270758e-06,1.4952648598409723e-05,0.0003153459692839533,0.00025823089526966214,,,,,,,,,,,,,,,,,,,,,,,,,,,,,,,,,,,,,,,,,,,,,,,,,,,,,,,,,,,,,,,,,,,,,,,,,,
56,2.4107208251953125,0.6062052249908447,1.5588535070419312,0.390532842874527,0.0,1.1106325557008745e-06,1.4022650596245967e-08,0.5000514388084412,0.5000514388084412,0.6117159724235535,1.5675235986709595,0.3902010834217072,0.0,1.4086557795778276e-06,-2.1548014501604484e-06,0.5000514388084412,0.5000431537628174,,,,,,,,,,,,,,,,,,,,,,,,,,,,,,,,,,,,,,,,,,,,,,,,,,,,,,,,,,,,,,,,,,,,,,,,,,,,,,,,,,,,,,,,,,,,,,,,,,,,,,,,,,,,,,,,,,,,,,,,,,,,,,,,,,,,,,-8.808687113059932e-08,-2.849200768650917e-07,9.685176216578384e-09,0.0,-5.551175036089262e-06,-6.994592638420727e-08,-0.0002587426279205829,-0.0002585149195510894,0.0006182040087878704,0.0008646614733152092,-2.93184129986912e-05,0.0,-7.506400834245142e-06,1.2120246537961066e-05,0.0002604094916023314,0.00021409163309726864,,,,,,,,,,,,,,,,,,,,,,,,,,,,,,,,,,,,,,,,,,,,,,,,,,,,,,,,,,,,,,,,,,,,,,,,,,
57,2.4328389167785645,0.6062052249908447,1.5588535070419312,0.390532842874527,0.0,8.72213976599312e-07,1.1728150006717897e-08,0.5000429153442383,0.5000429153442383,0.6117159724235535,1.5675235986709595,0.3902010834217072,0.0,1.4086557795778276e-06,-2.1548014501604484e-06,0.5000514388084412,0.5000431537628174,,,,,,,,,,,,,,,,,,,,,,,,,,,,,,,,,,,,,,,,,,,,,,,,,,,,,,,,,,,,,,,,,,,,,,,,,,,,,,,,,,,,,,,,,,,,,,,,,,,,,,,,,,,,,,,,,,,,,,,,,,,,,,,,,,,,,,-7.356160125482347e-08,-2.379628654125554e-07,8.08627476089896e-09,0.0,-4.635964160115691e-06,-5.8501779420794264e-08,-0.00021607053349725902,-0.00021590680989902467,0.0006182040087878704,0.0008646614733152092,-2.93184129986912e-05,0.0,-7.506400834245142e-06,1.2120246537961066e-05,0.0002604094916023314,0.00021409163309726864,,,,,,,,,,,,,,,,,,,,,,,,,,,,,,,,,,,,,,,,,,,,,,,,,,,,,,,,,,,,,,,,,,,,,,,,,,
58,2.4542720317840576,0.6062052249908447,1.5588535070419312,0.390532842874527,0.0,8.72213976599312e-07,1.1728150006717897e-08,0.5000429153442383,0.5000429153442383,0.6117372512817383,1.5675534009933472,0.3902000775933266,0.0,1.1702372004762651e-06,-1.7417403341823956e-06,0.5000424981117249,0.50003582239151,,,,,,,,,,,,,,,,,,,,,,,,,,,,,,,,,,,,,,,,,,,,,,,,,,,,,,,,,,,,,,,,,,,,,,,,,,,,,,,,,,,,,,,,,,,,,,,,,,,,,,,,,,,,,,,,,,,,,,,,,,,,,,,,,,,,,,-7.356160125482347e-08,-2.379628654125554e-07,8.08627476089896e-09,0.0,-4.635964160115691e-06,-5.8501779420794264e-08,-0.00021607053349725902,-0.00021590680989902467,0.0005111737991683185,0.0007149684824980795,-2.4233468138845637e-05,0.0,-6.159864369692514e-06,9.820480045164004e-06,0.00021504316828213632,0.00017749580729287118,,,,,,,,,,,,,,,,,,,,,,,,,,,,,,,,,,,,,,,,,,,,,,,,,,,,,,,,,,,,,,,,,,,,,,,,,,
59,2.4762322902679443,0.6062052249908447,1.5588535070419312,0.390532842874527,0.0,7.530046870485307e-07,9.809075329769712e-09,0.5000358819961548,0.5000358819961548,0.6117372512817383,1.5675534009933472,0.3902000775933266,0.0,1.1702372004762651e-06,-1.7417403341823956e-06,0.5000424981117249,0.50003582239151,,,,,,,,,,,,,,,,,,,,,,,,,,,,,,,,,,,,,,,,,,,,,,,,,,,,,,,,,,,,,,,,,,,,,,,,,,,,,,,,,,,,,,,,,,,,,,,,,,,,,,,,,,,,,,,,,,,,,,,,,,,,,,,,,,,,,,-6.143102382338839e-08,-1.9874480017278984e-07,6.751453618392134e-09,0.0,-3.871641638397705e-06,-4.892964966529689e-08,-0.00018043596355710179,-0.00018032130901701748,0.0005111737991683185,0.0007149684824980795,-2.4233468138845637e-05,0.0,-6.159864369692514e-06,9.820480045164004e-06,0.00021504316828213632,0.00017749580729287118,,,,,,,,,,,,,,,,,,,,,,,,,,,,,,,,,,,,,,,,,,,,,,,,,,,,,,,,,,,,,,,,,,,,,,,,,,
60,2.4983091354370117,0.6062052249908447,1.5588535070419312,0.390532842874527,0.0,7.530046870485307e-07,9.809075329769712e-09,0.5000358819961548,0.5000358819961548,0.6117548942565918,1.5675780773162842,0.39019924312829973,0.0,9.318186213747026e-07,-1.4071257510295254e-06,0.5000350475311279,0.5000296831130981,,,,,,,,,,,,,,,,,,,,,,,,,,,,,,,,,,,,,,,,,,,,,,,,,,,,,,,,,,,,,,,,,,,,,,,,,,,,,,,,,,,,,,,,,,,,,,,,,,,,,,,,,,,,,,,,,,,,,,,,,,,,,,,,,,,,,,-6.143102382338839e-08,-1.9874480017278984e-07,6.751453618392134e-09,0.0,-3.871641638397705e-06,-4.892964966529689e-08,-0.00018043596355710179,-0.00018032130901701748,0.00042267388198524714,0.0005911908810958266,-2.0030453015351668e-05,0.0,-5.054550456407014e-06,7.953795829962473e-06,0.0001775799028109759,0.0001471544528612867,,,,,,,,,,,,,,,,,,,,,,,,,,,,,,,,,,,,,,,,,,,,,,,,,,,,,,,,,,,,,,,,,,,,,,,,,,
61,2.519385576248169,0.6062052249908447,1.5588535070419312,0.390532842874527,0.0,6.337953974977495e-07,8.204002810430211e-09,0.5000299215316772,0.500029981136322,0.6117548942565918,1.5675780773162842,0.39019924312829973,0.0,9.318186213747026e-07,-1.4071257510295254e-06,0.5000350475311279,0.5000296831130981,,,,,,,,,,,,,,,,,,,,,,,,,,,,,,,,,,,,,,,,,,,,,,,,,,,,,,,,,,,,,,,,,,,,,,,,,,,,,,,,,,,,,,,,,,,,,,,,,,,,,,,,,,,,,,,,,,,,,,,,,,,,,,,,,,,,,,-5.1301242365298094e-08,-1.6598977481407928e-07,5.636893618543581e-09,0.0,-3.2333318813471124e-06,-4.092361294283364e-08,-0.0001506782864453271,-0.00015060095756780356,0.00042267388198524714,0.0005911908810958266,-2.0030453015351668e-05,0.0,-5.054550456407014e-06,7.953795829962473e-06,0.0001775799028109759,0.0001471544528612867,,,,,,,,,,,,,,,,,,,,,,,,,,,,,,,,,,,,,,,,,,,,,,,,,,,,,,,,,,,,,,,,,,,,,,,,,,
62,2.5404863357543945,0.6062052249908447,1.5588535070419312,0.390532842874527,0.0,5.145861079469682e-07,6.86155487983342e-09,0.5000250339508057,0.5000250339508057,0.611769437789917,1.5675983428955078,0.3901985502243042,0.0,7.530046870485307e-07,-1.1361740916981944e-06,0.5000289678573608,0.5000246167182922,,,,,,,,,,,,,,,,,,,,,,,,,,,,,,,,,,,,,,,,,,,,,,,,,,,,,,,,,,,,,,,,,,,,,,,,,,,,,,,,,,,,,,,,,,,,,,,,,,,,,,,,,,,,,,,,,,,,,,,,,,,,,,,,,,,,,,-4.284162002932135e-08,-1.3863332526398153e-07,4.706353529115859e-09,0.0,-2.700259074117639e-06,-3.4227731759983726e-08,-0.0001258282718481496,-0.00012577908637467772,0.00034949599648825824,0.0004888420226052403,-1.655640335229691e-05,0.0,-4.14730448028422e-06,6.439153821702348e-06,0.00014664296759292483,0.0001219988043885678,,,,,,,,,,,,,,,,,,,,,,,,,,,,,,,,,,,,,,,,,,,,,,,,,,,,,,,,,,,,,,,,,,,,,,,,,,
63,2.5620179176330566,0.6062052249908447,1.5588535070419312,0.390532842874527,0.0,5.145861079469682e-07,6.86155487983342e-09,0.5000250339508057,0.5000250339508057,0.6117814779281616,1.567615270614624,0.39019798398017885,0.0,6.337953974977495e-07,-9.168696806227672e-07,0.5000239014625549,0.5000203847885132,,,,,,,,,,,,,,,,,,,,,,,,,,,,,,,,,,,,,,,,,,,,,,,,,,,,,,,,,,,,,,,,,,,,,,,,,,,,,,,,,,,,,,,,,,,,,,,,,,,,,,,,,,,,,,,,,,,,,,,,,,,,,,,,,,,,,,-4.284162002932135e-08,-1.3863332526398153e-07,4.706353529115859e-09,0.0,-2.700259074117639e-06,-3.4227731759983726e-08,-0.0001258282718481496,-0.00012577908637467772,0.0002889875031542033,0.0004042121290694922,-1.368488938169321e-05,0.0,-3.402680022190907e-06,5.2105965551163536e-06,0.00012109550152672455,0.00010114270844496787,,,,,,,,,,,,,,,,,,,,,,,,,,,,,,,,,,,,,,,,,,,,,,,,,,,,,,,,,,,,,,,,,,,,,,,,,,
64,2.5832817554473877,0.6062052249908447,1.5588535070419312,0.390532842874527,0.0,3.95376818396187e-07,5.682077919288986e-09,0.5000206828117371,0.5000206828117371,0.6117814779281616,1.567615270614624,0.39019798398017885,0.0,6.337953974977495e-07,-9.168696806227672e-07,0.5000239014625549,0.5000203847885132,,,,,,,,,,,,,,,,,,,,,,,,,,,,,,,,,,,,,,,,,,,,,,,,,,,,,,,,,,,,,,,,,,,,,,,,,,,,,,,,,,,,,,,,,,,,,,,,,,,,,,,,,,,,,,,,,,,,,,,,,,,,,,,,,,,,,,-3.5420555377640994e-08,-1.1463274773859666e-07,3.89027698943778e-09,0.0,-2.232614178865333e-06,-2.834416257257999e-08,-0.00010402969201095402,-0.00010400246537756175,0.0002889875031542033,0.0004042121290694922,-1.368488938169321e-05,0.0,-3.402680022190907e-06,5.2105965551163536e-06,0.00012109550152672455,0.00010114270844496787,,,,,,,,,,,,,,,,,,,,,,,,,,,,,,,,,,,,,,,,,,,,,,,,,,,,,,,,,,,,,,,,,,,,,,,,,,
65,2.6048569679260254,0.6062052249908447,1.5588535070419312,0.390532842874527,0.0,3.95376818396187e-07,5.682077919288986e-09,0.5000206828117371,0.5000206828117371,0.6117914319038391,1.567629098892212,0.39019750714302065,0.0,5.145861079469682e-07,-7.394496606139e-07,0.5000197291374207,0.5000169277191162,,,,,,,,,,,,,,,,,,,,,,,,,,,,,,,,,,,,,,,,,,,,,,,,,,,,,,,,,,,,,,,,,,,,,,,,,,,,,,,,,,,,,,,,,,,,,,,,,,,,,,,,,,,,,,,,,,,,,,,,,,,,,,,,,,,,,,-3.5420555377640994e-08,-1.1463274773859666e-07,3.89027698943778e-09,0.0,-2.232614178865333e-06,-2.834416257257999e-08,-0.00010402969201095402,-0.00010400246537756175,0.00023895488993730396,0.0003342336567584425,-1.131140652432805e-05,0.0,-2.7915668852074305e-06,4.214456566842273e-06,9.999863686971366e-05,8.385143155464903e-05,,,,,,,,,,,,,,,,,,,,,,,,,,,,,,,,,,,,,,,,,,,,,,,,,,,,,,,,,,,,,,,,,,,,,,,,,,
66,2.6265108585357666,0.6062052249908447,1.5588535070419312,0.390532842874527,0.0,3.3577217362079637e-07,4.752282123376972e-09,0.5000172853469849,0.5000172853469849,0.6117914319038391,1.567629098892212,0.39019750714302065,0.0,5.145861079469682e-07,-7.394496606139e-07,0.5000197291374207,0.5000169277191162,,,,,,,,,,,,,,,,,,,,,,,,,,,,,,,,,,,,,,,,,,,,,,,,,,,,,,,,,,,,,,,,,,,,,,,,,,,,,,,,,,,,,,,,,,,,,,,,,,,,,,,,,,,,,,,,,,,,,,,,,,,,,,,,,,,,,,-2.9579783955568928e-08,-9.574052484140338e-08,3.2479920974992638e-09,0.0,-1.8645276895767893e-06,-2.3706125062972205e-08,-8.687301306053996e-05,-8.686089859111235e-05,0.00023895488993730396,0.0003342336567584425,-1.131140652432805e-05,0.0,-2.7915668852074305e-06,4.214456566842273e-06,9.999863686971366e-05,8.385143155464903e-05,,,,,,,,,,,,,,,,,,,,,,,,,,,,,,,,,,,,,,,,,,,,,,,,,,,,,,,,,,,,,,,,,,,,,,,,,,
67,2.6499385833740234,0.6062052249908447,1.5588535070419312,0.390532842874527,0.0,2.7616752884540574e-07,3.97462818213512e-09,0.5000144243240356,0.5000144243240356,0.6117996573448181,1.5676406621932983,0.3901971197128296,0.0,3.95376818396187e-07,-5.959836926194839e-07,0.5000163316726685,0.5000140070915222,,,,,,,,,,,,,,,,,,,,,,,,,,,,,,,,,,,,,,,,,,,,,,,,,,,,,,,,,,,,,,,,,,,,,,,,,,,,,,,,,,,,,,,,,,,,,,,,,,,,,,,,,,,,,,,,,,,,,,,,,,,,,,,,,,,,,,-2.470190807457584e-08,-7.996181494718257e-08,2.711900259910749e-09,0.0,-1.5571263247693423e-06,-1.9827080421919163e-08,-7.254582305904478e-05,-7.254458614625037e-05,0.0001975844643311575,0.0002763700613286346,-9.349577339889947e-06,0.0,-2.290057182108285e-06,3.407075837458251e-06,8.257706940639764e-05,6.951574323466048e-05,,,,,,,,,,,,,,,,,,,,,,,,,,,,,,,,,,,,,,,,,,,,,,,,,,,,,,,,,,,,,,,,,,,,,,,,,,
68,2.671689033508301,0.6062052249908447,1.5588535070419312,0.390532842874527,0.0,2.7616752884540574e-07,3.935365366913857e-09,0.5000142455101013,0.5000143051147461,0.6117996573448181,1.5676406621932983,0.3901971197128296,0.0,3.95376818396187e-07,-5.959836926194839e-07,0.5000163316726685,0.5000140070915222,,,,,,,,,,,,,,,,,,,,,,,,,,,,,,,,,,,,,,,,,,,,,,,,,,,,,,,,,,,,,,,,,,,,,,,,,,,,,,,,,,,,,,,,,,,,,,,,,,,,,,,,,,,,,,,,,,,,,,,,,,,,,,,,,,,,,,-2.4456159763985852e-08,-7.916523259154928e-08,2.684831468258153e-09,0.0,-1.5416184169225744e-06,-1.9631409386988707e-08,-7.182307308539748e-05,-7.182233093772084e-05,0.0001975844643311575,0.0002763700613286346,-9.349577339889947e-06,0.0,-2.290057182108285e-06,3.407075837458251e-06,8.257706940639764e-05,6.951574323466048e-05,,,,,,,,,,,,,,,,,,,,,,,,,,,,,,,,,,,,,,,,,,,,,,,,,,,,,,,,,,,,,,,,,,,,,,,,,,
69,2.694333553314209,0.6062052249908447,1.5588535070419312,0.390532842874527,0.0,2.1656288407001512e-07,3.2588693965607263e-09,0.5000118017196655,0.5000118017196655,0.6118064522743225,1.5676501989364624,0.39019679933786394,0.0,3.3577217362079637e-07,-4.800322699338722e-07,0.5000134706497192,0.5000116229057312,,,,,,,,,,,,,,,,,,,,,,,,,,,,,,,,,,,,,,,,,,,,,,,,,,,,,,,,,,,,,,,,,,,,,,,,,,,,,,,,,,,,,,,,,,,,,,,,,,,,,,,,,,,,,,,,,,,,,,,,,,,,,,,,,,,,,,-2.0219715679559158e-08,-6.546030562049054e-08,2.2192456761160884e-09,0.0,-1.2746330639856751e-06,-1.6256963775163058e-08,-5.938039248576388e-05,-5.938744288869202e-05,0.00016337652050424367,0.00022852398979011923,-7.728003765805624e-06,0.0,-1.8785207203109167e-06,2.7529483759280993e-06,6.819054397055879e-05,5.7630546507425606e-05,,,,,,,,,,,,,,,,,,,,,,,,,,,,,,,,,,,,,,,,,,,,,,,,,,,,,,,,,,,,,,,,,,,,,,,,,,
70,2.716724395751953,0.6062052249908447,1.5588535070419312,0.390532842874527,0.0,2.1656288407001512e-07,3.2588693965607263e-09,0.5000118017196655,0.5000118017196655,0.6118118166923523,1.567657709121704,0.39019654601812365,0.0,2.7616752884540574e-07,-3.9081442082533613e-07,0.5000112056732178,0.5000097155570984,,,,,,,,,,,,,,,,,,,,,,,,,,,,,,,,,,,,,,,,,,,,,,,,,,,,,,,,,,,,,,,,,,,,,,,,,,,,,,,,,,,,,,,,,,,,,,,,,,,,,,,,,,,,,,,,,,,,,,,,,,,,,,,,,,,,,,-2.0219715679559158e-08,-6.546030562049054e-08,2.2192456761160884e-09,0.0,-1.2746330639856751e-06,-1.6256963775163058e-08,-5.938039248576388e-05,-5.938744288869202e-05,0.00013644951104652137,0.00019086127576883882,-6.452034540416207e-06,0.0,-1.5569931974823703e-06,2.24838709073083e-06,5.6880544434534386e-05,4.8250880354316905e-05,,,,,,,,,,,,,,,,,,,,,,,,,,,,,,,,,,,,,,,,,,,,,,,,,,,,,,,,,,,,,,,,,,,,,,,,,,
71,2.739022970199585,0.6062052249908447,1.5588535070419312,0.390532842874527,0.0,2.1656288407001512e-07,2.698658185806835e-09,0.5000097751617432,0.5000097751617432,0.6118118166923523,1.567657709121704,0.39019654601812365,0.0,2.7616752884540574e-07,-3.9081442082533613e-07,0.5000112056732178,0.5000097155570984,,,,,,,,,,,,,,,,,,,,,,,,,,,,,,,,,,,,,,,,,,,,,,,,,,,,,,,,,,,,,,,,,,,,,,,,,,,,,,,,,,,,,,,,,,,,,,,,,,,,,,,,,,,,,,,,,,,,,,,,,,,,,,,,,,,,,,-1.6717294215595757e-08,-5.4127479387489075e-08,1.8344284979932013e-09,0.0,-1.0538850574448588e-06,-1.3462424952592755e-08,-4.909329072688706e-05,-4.9105459765996784e-05,0.00013644951104652137,0.00019086127576883882,-6.452034540416207e-06,0.0,-1.5569931974823703e-06,2.24838709073083e-06,5.6880544434534386e-05,4.8250880354316905e-05,,,,,,,,,,,,,,,,,,,,,,,,,,,,,,,,,,,,,,,,,,,,,,,,,,,,,,,,,,,,,,,,,,,,,,,,,,
72,2.761018991470337,0.6062052249908447,1.5588535070419312,0.390532842874527,0.0,2.1656288407001512e-07,2.698658185806835e-09,0.5000097751617432,0.5000097751617432,0.6118165254592896,1.5676642656326294,0.39019632250070574,0.0,2.1656288407001512e-07,-3.143376545722276e-07,0.500009298324585,0.5000080466270447,,,,,,,,,,,,,,,,,,,,,,,,,,,,,,,,,,,,,,,,,,,,,,,,,,,,,,,,,,,,,,,,,,,,,,,,,,,,,,,,,,,,,,,,,,,,,,,,,,,,,,,,,,,,,,,,,,,,,,,,,,,,,,,,,,,,,,-1.6717294215595757e-08,-5.4127479387489075e-08,1.8344284979932013e-09,0.0,-1.0538850574448588e-06,-1.3462424952592755e-08,-4.909329072688706e-05,-4.9105459765996784e-05,0.00011282591731287539,0.00015781876572873443,-5.333006356522674e-06,0.0,-1.2770243529303116e-06,1.8147637774745817e-06,4.697070471593179e-05,4.000079934485257e-05,,,,,,,,,,,,,,,,,,,,,,,,,,,,,,,,,,,,,,,,,,,,,,,,,,,,,,,,,,,,,,,,,,,,,,,,,,
73,2.783651828765869,0.6062052249908447,1.5588535070419312,0.390532842874527,0.0,1.569582392946245e-07,2.2570414426326124e-09,0.5000081658363342,0.5000081658363342,0.6118165254592896,1.5676642656326294,0.39019632250070574,0.0,2.1656288407001512e-07,-3.143376545722276e-07,0.500009298324585,0.5000080466270447,,,,,,,,,,,,,,,,,,,,,,,,,,,,,,,,,,,,,,,,,,,,,,,,,,,,,,,,,,,,,,,,,,,,,,,,,,,,,,,,,,,,,,,,,,,,,,,,,,,,,,,,,,,,,,,,,,,,,,,,,,,,,,,,,,,,,,-1.3960721467753956e-08,-4.520705942923087e-08,1.5315387846825956e-09,0.0,-8.801334843155928e-07,-1.1259557730625147e-08,-4.099677607882768e-05,-4.101195008843206e-05,0.00011282591731287539,0.00015781876572873443,-5.333006356522674e-06,0.0,-1.2770243529303116e-06,1.8147637774745817e-06,4.697070471593179e-05,4.000079934485257e-05,,,,,,,,,,,,,,,,,,,,,,,,,,,,,,,,,,,,,,,,,,,,,,,,,,,,,,,,,,,,,,,,,,,,,,,,,,
74,2.804857015609741,0.6062052249908447,1.5588535070419312,0.390532842874527,0.0,9.735359451923387e-08,1.869040255897403e-09,0.5000067353248596,0.5000067353248596,0.6118203997612,1.5676696300506592,0.3901961362361908,0.0,1.569582392946245e-07,-2.5262863800890045e-07,0.500007688999176,0.5000066757202148,,,,,,,,,,,,,,,,,,,,,,,,,,,,,,,,,,,,,,,,,,,,,,,,,,,,,,,,,,,,,,,,,,,,,,,,,,,,,,,,,,,,,,,,,,,,,,,,,,,,,,,,,,,,,,,,,,,,,,,,,,,,,,,,,,,,,,-1.1542600653058344e-08,-3.738032106070932e-08,1.2660428261312973e-09,0.0,-7.277071745193098e-07,-9.323988692244711e-09,-3.3894466469064355e-05,-3.391138670849614e-05,9.329229214927182e-05,0.0001304966863244772,-4.408060249261325e-06,0.0,-1.047326804837212e-06,1.4639003893535119e-06,3.8787315133959055e-05,3.316110451123677e-05,,,,,,,,,,,,,,,,,,,,,,,,,,,,,,,,,,,,,,,,,,,,,,,,,,,,,,,,,,,,,,,,,,,,,,,,,,
75,2.8258652687072754,0.6062052249908447,1.5588535070419312,0.390532842874527,0.0,9.735359451923387e-08,1.869040255897403e-09,0.5000067353248596,0.5000067353248596,0.6118234395980835,1.567673921585083,0.3901959946751595,0.0,1.569582392946245e-07,-2.0522625732155575e-07,0.500006377696991,0.5000056028366089,,,,,,,,,,,,,,,,,,,,,,,,,,,,,,,,,,,,,,,,,,,,,,,,,,,,,,,,,,,,,,,,,,,,,,,,,,,,,,,,,,,,,,,,,,,,,,,,,,,,,,,,,,,,,,,,,,,,,,,,,,,,,,,,,,,,,,-1.1542600653058344e-08,-3.738032106070932e-08,1.2660428261312973e-09,0.0,-7.277071745193098e-07,-9.323988692244711e-09,-3.3894466469064355e-05,-3.391138670849614e-05,7.791625830577686e-05,0.00010898971231654286,-3.6802464364882326e-06,0.0,-8.67899530021532e-07,1.1936153896385804e-06,3.2353957067243755e-05,2.776340625132434e-05,,,,,,,,,,,,,,,,,,,,,,,,,,,,,,,,,,,,,,,,,,,,,,,,,,,,,,,,,,,,,,,,,,,,,,,,,,
76,2.848381757736206,0.6062052249908447,1.5588535070419312,0.390532842874527,0.0,9.735359451923387e-08,1.5477361614557594e-09,0.5000055432319641,0.5000056028366089,0.6118234395980835,1.567673921585083,0.3901959946751595,0.0,1.569582392946245e-07,-2.0522625732155575e-07,0.500006377696991,0.5000056028366089,,,,,,,,,,,,,,,,,,,,,,,,,,,,,,,,,,,,,,,,,,,,,,,,,,,,,,,,,,,,,,,,,,,,,,,,,,,,,,,,,,,,,,,,,,,,,,,,,,,,,,,,,,,,,,,,,,,,,,,,,,,,,,,,,,,,,,-9.542977963405974e-09,-3.090916322889825e-08,1.0464893396289199e-09,0.0,-6.016788347551483e-07,-7.72114017166814e-09,-2.8022564947605133e-05,-2.8040170946042053e-05,7.791625830577686e-05,0.00010898971231654286,-3.6802464364882326e-06,0.0,-8.67899530021532e-07,1.1936153896385804e-06,3.2353957067243755e-05,2.776340625132434e-05,,,,,,,,,,,,,,,,,,,,,,,,,,,,,,,,,,,,,,,,,,,,,,,,,,,,,,,,,,,,,,,,,,,,,,,,,,
77,2.870288372039795,0.6062052249908447,1.5588535070419312,0.390532842874527,0.0,9.735359451923387e-08,1.5477361614557594e-09,0.5000055432319641,0.5000056028366089,0.6118261218070984,1.5676777362823486,0.3901958680152893,0.0,9.735359451923387e-08,-1.6466412944282638e-07,0.500005304813385,0.5000046491622925,,,,,,,,,,,,,,,,,,,,,,,,,,,,,,,,,,,,,,,,,,,,,,,,,,,,,,,,,,,,,,,,,,,,,,,,,,,,,,,,,,,,,,,,,,,,,,,,,,,,,,,,,,,,,,,,,,,,,,,,,,,,,,,,,,,,,,-9.542977963405974e-09,-3.090916322889825e-08,1.0464893396289199e-09,0.0,-6.016788347551483e-07,-7.72114017166814e-09,-2.8022564947605133e-05,-2.8040170946042053e-05,6.442656740546227e-05,9.012106602312997e-05,-3.0419521408475703e-06,0.0,-7.11694042365707e-07,9.616472880225047e-07,2.6717061700765043e-05,2.3015849365037866e-05,,,,,,,,,,,,,,,,,,,,,,,,,,,,,,,,,,,,,,,,,,,,,,,,,,,,,,,,,,,,,,,,,,,,,,,,,,
78,2.8922581672668457,0.6062052249908447,1.5588535070419312,0.390532842874527,0.0,9.735359451923387e-08,1.2944527671976402e-09,0.5000046491622925,0.5000046491622925,0.6118261218070984,1.5676777362823486,0.3901958680152893,0.0,9.735359451923387e-08,-1.6466412944282638e-07,0.500005304813385,0.5000046491622925,,,,,,,,,,,,,,,,,,,,,,,,,,,,,,,,,,,,,,,,,,,,,,,,,,,,,,,,,,,,,,,,,,,,,,,,,,,,,,,,,,,,,,,,,,,,,,,,,,,,,,,,,,,,,,,,,,,,,,,,,,,,,,,,,,,,,,-7.969402915364299e-09,-2.5815127813189065e-08,8.736969481226708e-10,0.0,-5.024809297538013e-07,-6.4576788361137005e-09,-2.340105493203737e-05,-2.3418619093718007e-05,6.442656740546227e-05,9.012106602312997e-05,-3.0419521408475703e-06,0.0,-7.11694042365707e-07,9.616472880225047e-07,2.6717061700765043e-05,2.3015849365037866e-05,,,,,,,,,,,,,,,,,,,,,,,,,,,,,,,,,,,,,,,,,,,,,,,,,,,,,,,,,,,,,,,,,,,,,,,,,,
79,2.9140772819519043,0.6062052249908447,1.5588535070419312,0.390532842874527,0.0,3.774894974384324e-08,1.082616107872525e-09,0.5000038743019104,0.5000038743019104,0.6118283271789551,1.567680835723877,0.39019576370716097,0.0,9.735359451923387e-08,-1.3199621662352e-07,0.5000043511390686,0.5000038743019104,,,,,,,,,,,,,,,,,,,,,,,,,,,,,,,,,,,,,,,,,,,,,,,,,,,,,,,,,,,,,,,,,,,,,,,,,,,,,,,,,,,,,,,,,,,,,,,,,,,,,,,,,,,,,,,,,,,,,,,,,,,,,,,,,,,,,,-6.655287432266732e-09,-2.1560753182825465e-08,7.295414272689982e-10,0.0,-4.1963849639614637e-07,-5.401157299189663e-09,-1.954172876139637e-05,-1.9558787244022824e-05,5.327235703589395e-05,7.451901910826564e-05,-2.514362222427735e-06,0.0,-5.835603928971977e-07,7.742261800558481e-07,2.206222416134551e-05,1.907999103423208e-05,,,,,,,,,,,,,,,,,,,,,,,,,,,,,,,,,,,,,,,,,,,,,,,,,,,,,,,,,,,,,,,,,,,,,,,,,,
80,2.935014486312866,0.6062052249908447,1.5588535070419312,0.390532842874527,0.0,3.774894974384324e-08,1.082616107872525e-09,0.5000038743019104,0.5000038743019104,0.6118301153182983,1.567683219909668,0.3901956817507744,0.0,9.735359451923387e-08,-1.069505373152424e-07,0.5000036358833313,0.5000032186508179,,,,,,,,,,,,,,,,,,,,,,,,,,,,,,,,,,,,,,,,,,,,,,,,,,,,,,,,,,,,,,,,,,,,,,,,,,,,,,,,,,,,,,,,,,,,,,,,,,,,,,,,,,,,,,,,,,,,,,,,,,,,,,,,,,,,,,-6.655287432266732e-09,-2.1560753182825465e-08,7.295414272689982e-10,0.0,-4.1963849639614637e-07,-5.401157299189663e-09,-1.954172876139637e-05,-1.9558787244022824e-05,4.4492237066151574e-05,6.223764648893848e-05,-2.0992165445932187e-06,0.0,-4.834897708860808e-07,6.300636528067116e-07,1.8402846762910485e-05,1.597398477315437e-05,,,,,,,,,,,,,,,,,,,,,,,,,,,,,,,,,,,,,,,,,,,,,,,,,,,,,,,,,,,,,,,,,,,,,,,,,,
81,2.957969903945923,0.6062052249908447,1.5588535070419312,0.390532842874527,0.0,3.774894974384324e-08,8.965000408700519e-10,0.5000032186508179,0.5000032186508179,0.6118301749229431,1.5676833391189575,0.3901956743001938,0.0,9.735359451923387e-08,-1.0570477115834365e-07,0.5000035762786865,0.5000031590461731,,,,,,,,,,,,,,,,,,,,,,,,,,,,,,,,,,,,,,,,,,,,,,,,,,,,,,,,,,,,,,,,,,,,,,,,,,,,,,,,,,,,,,,,,,,,,,,,,,,,,,,,,,,,,,,,,,,,,,,,,,,,,,,,,,,,,,-5.502542865798432e-09,-1.782785119530672e-08,6.03003758037346e-10,0.0,-3.469629632490978e-07,-4.472637371577548e-09,-1.6156307538039982e-05,-1.6172494724742137e-05,4.4049280404578894e-05,6.161804776638746e-05,-2.0782765659532743e-06,0.0,-4.784606062457897e-07,6.228802362784336e-07,1.821835758164525e-05,1.58170769282151e-05,,,,,,,,,,,,,,,,,,,,,,,,,,,,,,,,,,,,,,,,,,,,,,,,,,,,,,,,,,,,,,,,,,,,,,,,,,
82,2.979480266571045,0.6062052249908447,1.5588535070419312,0.390532842874527,0.0,3.774894974384324e-08,8.965000408700519e-10,0.5000032186508179,0.5000032186508179,0.6118316650390625,1.5676854848861694,0.39019560724496843,0.0,3.774894974384324e-08,-8.456096622921905e-08,0.5000029802322388,0.5000026226043701,,,,,,,,,,,,,,,,,,,,,,,,,,,,,,,,,,,,,,,,,,,,,,,,,,,,,,,,,,,,,,,,,,,,,,,,,,,,,,,,,,,,,,,,,,,,,,,,,,,,,,,,,,,,,,,,,,,,,,,,,,,,,,,,,,,,,,-5.502542865798432e-09,-1.782785119530672e-08,6.03003758037346e-10,0.0,-3.469629632490978e-07,-4.472637371577548e-09,-1.6156307538039982e-05,-1.6172494724742137e-05,3.642300362116657e-05,5.0950537115568295e-05,-1.7178244888782501e-06,0.0,-3.9226151216098515e-07,5.00734813613235e-07,1.5044176507217344e-05,1.311206870013848e-05,,,,,,,,,,,,,,,,,,,,,,,,,,,,,,,,,,,,,,,,,,,,,,,,,,,,,,,,,,,,,,,,,,,,,,,,,,
83,3.0015275478363037,0.6062052249908447,1.5588535070419312,0.390532842874527,0.0,3.774894974384324e-08,7.423774373016556e-10,0.5000026822090149,0.5000026822090149,0.6118316650390625,1.5676854848861694,0.39019560724496843,0.0,3.774894974384324e-08,-8.456096622921905e-08,0.5000029802322388,0.5000026226043701,,,,,,,,,,,,,,,,,,,,,,,,,,,,,,,,,,,,,,,,,,,,,,,,,,,,,,,,,,,,,,,,,,,,,,,,,,,,,,,,,,,,,,,,,,,,,,,,,,,,,,,,,,,,,,,,,,,,,,,,,,,,,,,,,,,,,,-4.5492498657040414e-09,-1.4741319276367904e-08,4.984485046932718e-10,0.0,-2.868741262318508e-07,-3.703684026135079e-09,-1.3357376701605972e-05,-1.3372484318097122e-05,3.642300362116657e-05,5.0950537115568295e-05,-1.7178244888782501e-06,0.0,-3.9226151216098515e-07,5.00734813613235e-07,1.5044176507217344e-05,1.311206870013848e-05,,,,,,,,,,,,,,,,,,,,,,,,,,,,,,,,,,,,,,,,,,,,,,,,,,,,,,,,,,,,,,,,,,,,,,,,,,
84,3.0230424404144287,0.6062052249908447,1.5588535070419312,0.390532842874527,0.0,3.774894974384324e-08,7.423774373016556e-10,0.5000026822090149,0.5000026822090149,0.611832857131958,1.5676871538162231,0.39019554764032366,0.0,3.774894974384324e-08,-6.837479560317661e-08,0.5000025033950806,0.5000022053718567,,,,,,,,,,,,,,,,,,,,,,,,,,,,,,,,,,,,,,,,,,,,,,,,,,,,,,,,,,,,,,,,,,,,,,,,,,,,,,,,,,,,,,,,,,,,,,,,,,,,,,,,,,,,,,,,,,,,,,,,,,,,,,,,,,,,,,-4.5492498657040414e-09,-1.4741319276367904e-08,4.984485046932718e-10,0.0,-2.868741262318508e-07,-3.703684026135079e-09,-1.3357376701605972e-05,-1.3372484318097122e-05,3.041992022190243e-05,4.2553452658466995e-05,-1.434195041838393e-06,0.0,-3.249495250656764e-07,4.0688826175028225e-07,1.2548818631330505e-05,1.0977425517921802e-05,,,,,,,,,,,,,,,,,,,,,,,,,,,,,,,,,,,,,,,,,,,,,,,,,,,,,,,,,,,,,,,,,,,,,,,,,,
85,3.0450644493103027,0.6062052249908447,1.5588535070419312,0.390532842874527,0.0,3.774894974384324e-08,6.1475036172709e-10,0.5000022053718567,0.5000022053718567,0.6118338108062744,1.5676884651184082,0.3901955029368401,0.0,3.774894974384324e-08,-5.588806928358281e-08,0.5000020861625671,0.500001847743988,,,,,,,,,,,,,,,,,,,,,,,,,,,,,,,,,,,,,,,,,,,,,,,,,,,,,,,,,,,,,,,,,,,,,,,,,,,,,,,,,,,,,,,,,,,,,,,,,,,,,,,,,,,,,,,,,,,,,,,,,,,,,,,,,,,,,,-3.761324585127568e-09,-1.2189249609662056e-08,4.120037644383956e-10,0.0,-2.3719188391169155e-07,-3.0671643003188365e-09,-1.1043335689464584e-05,-1.105725095840171e-05,2.566172588558402e-05,3.589765401557088e-05,-1.2094600378986797e-06,0.0,-2.7200135832572414e-07,3.342283605434204e-07,1.0573347935860511e-05,9.281421625928488e-06,,,,,,,,,,,,,,,,,,,,,,,,,,,,,,,,,,,,,,,,,,,,,,,,,,,,,,,,,,,,,,,,,,,,,,,,,,
86,3.067105770111084,0.6062052249908447,1.5588535070419312,0.390532842874527,0.0,3.774894974384324e-08,5.090641796989814e-10,0.5000017881393433,0.500001847743988,0.6118338704109192,1.5676885843276978,0.3901955029368401,0.0,3.774894974384324e-08,-5.52273178300311e-08,0.5000020861625671,0.500001847743988,,,,,,,,,,,,,,,,,,,,,,,,,,,,,,,,,,,,,,,,,,,,,,,,,,,,,,,,,,,,,,,,,,,,,,,,,,,,,,,,,,,,,,,,,,,,,,,,,,,,,,,,,,,,,,,,,,,,,,,,,,,,,,,,,,,,,,-3.1095681585213697e-09,-1.0079270751361946e-08,3.406025461671902e-10,0.0,-1.9611346147030417e-07,-2.5398312342161944e-09,-9.130180842475966e-06,-9.142863746092189e-06,2.540624154789839e-05,3.554028080543503e-05,-1.1973954769928241e-06,0.0,-2.6916930551124096e-07,3.303755704564537e-07,1.0467346328368876e-05,9.19024387258105e-06,,,,,,,,,,,,,,,,,,,,,,,,,,,,,,,,,,,,,,,,,,,,,,,,,,,,,,,,,,,,,,,,,,,,,,,,,,
87,3.088970184326172,0.6062052249908447,1.5588535070419312,0.390532842874527,0.0,3.774894974384324e-08,5.090641796989814e-10,0.5000017881393433,0.500001847743988,0.611834704875946,1.5676896572113037,0.3901954656839371,0.0,3.774894974384324e-08,-4.4556525580219386e-08,0.5000017285346985,0.5000015497207642,,,,,,,,,,,,,,,,,,,,,,,,,,,,,,,,,,,,,,,,,,,,,,,,,,,,,,,,,,,,,,,,,,,,,,,,,,,,,,,,,,,,,,,,,,,,,,,,,,,,,,,,,,,,,,,,,,,,,,,,,,,,,,,,,,,,,,-3.1095681585213697e-09,-1.0079270751361946e-08,3.406025461671902e-10,0.0,-1.9611346147030417e-07,-2.5398312342161944e-09,-9.130180842475966e-06,-9.142863746092189e-06,2.1218895199126564e-05,2.968293847516179e-05,-9.996938388212584e-07,0.0,-2.2294899792996148e-07,2.6803274977282854e-07,8.731115485716145e-06,7.693975931033492e-06,,,,,,,,,,,,,,,,,,,,,,,,,,,,,,,,,,,,,,,,,,,,,,,,,,,,,,,,,,,,,,,,,,,,,,,,,,
88,3.110816478729248,0.6062052249908447,1.5588535070419312,0.390532842874527,0.0,3.774894974384324e-08,4.215453819345072e-10,0.5000014901161194,0.5000014901161194,0.611834704875946,1.5676896572113037,0.3901954656839371,0.0,3.774894974384324e-08,-4.4556525580219386e-08,0.5000017285346985,0.5000015497207642,,,,,,,,,,,,,,,,,,,,,,,,,,,,,,,,,,,,,,,,,,,,,,,,,,,,,,,,,,,,,,,,,,,,,,,,,,,,,,,,,,,,,,,,,,,,,,,,,,,,,,,,,,,,,,,,,,,,,,,,,,,,,,,,,,,,,,-2.5712765250318625e-09,-8.334111178953663e-09,2.8152480346932407e-10,0.0,-1.621499023940487e-07,-2.103103913242421e-09,-7.5484613262233324e-06,-7.559921414213022e-06,2.1218895199126564e-05,2.968293847516179e-05,-9.996938388212584e-07,0.0,-2.2294899792996148e-07,2.6803274977282854e-07,8.731115485716145e-06,7.693975931033492e-06,,,,,,,,,,,,,,,,,,,,,,,,,,,,,,,,,,,,,,,,,,,,,,,,,,,,,,,,,,,,,,,,,,,,,,,,,,
89,3.1329166889190674,0.6062052249908447,1.5588535070419312,0.390532842874527,0.0,3.774894974384324e-08,4.215453819345072e-10,0.5000014901161194,0.5000014901161194,0.6118354201316833,1.5676907300949097,0.3901954284310341,0.0,3.774894974384324e-08,-3.547364713085699e-08,0.5000014305114746,0.5000013113021851,,,,,,,,,,,,,,,,,,,,,,,,,,,,,,,,,,,,,,,,,,,,,,,,,,,,,,,,,,,,,,,,,,,,,,,,,,,,,,,,,,,,,,,,,,,,,,,,,,,,,,,,,,,,,,,,,,,,,,,,,,,,,,,,,,,,,,-2.5712765250318625e-09,-8.334111178953663e-09,2.8152480346932407e-10,0.0,-1.621499023940487e-07,-2.103103913242421e-09,-7.5484613262233324e-06,-7.559921414213022e-06,1.7545255104778334e-05,2.4544133339077234e-05,-8.263090762739012e-07,0.0,-1.8272855584200443e-07,2.1474075140304194e-07,7.209850082290359e-06,6.3779948504816275e-06,,,,,,,,,,,,,,,,,,,,,,,,,,,,,,,,,,,,,,,,,,,,,,,,,,,,,,,,,,,,,,,,,,,,,,,,,,
90,3.1538021564483643,0.6062052249908447,1.5588535070419312,0.390532842874527,0.0,-2.1855695031547384e-08,3.490720212884213e-10,0.5000012516975403,0.5000012516975403,0.6118354201316833,1.5676907300949097,0.3901954284310341,0.0,3.774894974384324e-08,-3.547364713085699e-08,0.5000014305114746,0.5000013113021851,,,,,,,,,,,,,,,,,,,,,,,,,,,,,,,,,,,,,,,,,,,,,,,,,,,,,,,,,,,,,,,,,,,,,,,,,,,,,,,,,,,,,,,,,,,,,,,,,,,,,,,,,,,,,,,,,,,,,,,,,,,,,,,,,,,,,,-2.125688514098556e-09,-6.891154313848347e-09,2.3272356264314453e-10,0.0,-1.3406787502390216e-07,-1.7413542829913808e-09,-6.24076119493111e-06,-6.251040304050548e-06,1.7545255104778334e-05,2.4544133339077234e-05,-8.263090762739012e-07,0.0,-1.8272855584200443e-07,2.1474075140304194e-07,7.209850082290359e-06,6.3779948504816275e-06,,,,,,,,,,,,,,,,,,,,,,,,,,,,,,,,,,,,,,,,,,,,,,,,,,,,,,,,,,,,,,,,,,,,,,,,,,
91,3.1759140491485596,0.6062052249908447,1.5588535070419312,0.390532842874527,0.0,-2.1855695031547384e-08,2.919425534653186e-10,0.5000010132789612,0.5000010132789612,0.6118360161781311,1.5676915645599365,0.3901953986287117,0.0,-2.1855695031547384e-08,-2.8544166141841743e-08,0.5000011920928955,0.500001072883606,,,,,,,,,,,,,,,,,,,,,,,,,,,,,,,,,,,,,,,,,,,,,,,,,,,,,,,,,,,,,,,,,,,,,,,,,,,,,,,,,,,,,,,,,,,,,,,,,,,,,,,,,,,,,,,,,,,,,,,,,,,,,,,,,,,,,,-1.7751355940731628e-09,-5.755507181959274e-09,1.942057625825555e-10,0.0,-1.1196460292239863e-07,-1.45665790540761e-09,-5.21152833243832e-06,-5.220749699219596e-06,1.4653523066954222e-05,2.049905015155673e-05,-6.898773676766723e-07,0.0,-1.5132972919218446e-07,1.7389949391599657e-07,6.013926395098679e-06,5.339522431313526e-06,,,,,,,,,,,,,,,,,,,,,,,,,,,,,,,,,,,,,,,,,,,,,,,,,,,,,,,,,,,,,,,,,,,,,,,,,,
92,3.1974809169769287,0.6062052249908447,1.5588535070419312,0.390532842874527,0.0,-2.1855695031547384e-08,2.890586381365523e-10,0.5000010132789612,0.5000010132789612,0.6118364930152893,1.5676921606063843,0.39019537627696993,0.0,-2.1855695031547384e-08,-2.2935365606713276e-08,0.5000010132789612,0.5000008940696716,,,,,,,,,,,,,,,,,,,,,,,,,,,,,,,,,,,,,,,,,,,,,,,,,,,,,,,,,,,,,,,,,,,,,,,,,,,,,,,,,,,,,,,,,,,,,,,,,,,,,,,,,,,,,,,,,,,,,,,,,,,,,,,,,,,,,,-1.757538559132854e-09,-5.6983306961910785e-09,1.9230450565288493e-10,0.0,-1.1084866713417796e-07,-1.441951336111913e-09,-5.159607098903507e-06,-5.168772077013273e-06,1.2238392628205474e-05,1.712063021841459e-05,-5.759719670095365e-07,0.0,-1.2531708648566564e-07,1.4068787379528658e-07,5.0163671403424814e-06,4.470107796805678e-06,,,,,,,,,,,,,,,,,,,,,,,,,,,,,,,,,,,,,,,,,,,,,,,,,,,,,,,,,,,,,,,,,,,,,,,,,,
93,3.2190656661987305,0.6062052249908447,1.5588535070419312,0.390532842874527,0.0,-2.1855695031547384e-08,2.393616971296808e-10,0.5000008344650269,0.5000008344650269,0.6118364930152893,1.5676921606063843,0.39019537627696993,0.0,-2.1855695031547384e-08,-2.2935365606713276e-08,0.5000010132789612,0.5000008940696716,,,,,,,,,,,,,,,,,,,,,,,,,,,,,,,,,,,,,,,,,,,,,,,,,,,,,,,,,,,,,,,,,,,,,,,,,,,,,,,,,,,,,,,,,,,,,,,,,,,,,,,,,,,,,,,,,,,,,,,,,,,,,,,,,,,,,,-1.4532264280830987e-09,-4.711675494206702e-09,1.5894230376289897e-10,0.0,-9.165129455368515e-08,-1.1943037669936984e-09,-4.265752977516968e-06,-4.2738811316667125e-06,1.2238392628205474e-05,1.712063021841459e-05,-5.759719670095365e-07,0.0,-1.2531708648566564e-07,1.4068787379528658e-07,5.0163671403424814e-06,4.470107796805678e-06,,,,,,,,,,,,,,,,,,,,,,,,,,,,,,,,,,,,,,,,,,,,,,,,,,,,,,,,,,,,,,,,,,,,,,,,,,
94,3.2406373023986816,0.6062052249908447,1.5588535070419312,0.390532842874527,0.0,-2.1855695031547384e-08,2.393616971296808e-10,0.5000008344650269,0.5000008344650269,0.6118369102478027,1.567692756652832,0.39019536137580874,0.0,-2.1855695031547384e-08,-1.8175402516362738e-08,0.5000008344650269,0.5000007748603821,,,,,,,,,,,,,,,,,,,,,,,,,,,,,,,,,,,,,,,,,,,,,,,,,,,,,,,,,,,,,,,,,,,,,,,,,,,,,,,,,,,,,,,,,,,,,,,,,,,,,,,,,,,,,,,,,,,,,,,,,,,,,,,,,,,,,,-1.4532264280830987e-09,-4.711675494206702e-09,1.5894230376289897e-10,0.0,-9.165129455368515e-08,-1.1943037669936984e-09,-4.265752977516968e-06,-4.2738811316667125e-06,1.0119551916432101e-05,1.4156652468955144e-05,-4.760766216804768e-07,0.0,-1.0268497163679058e-07,1.1235999153313969e-07,4.142320904065855e-06,3.705464678205317e-06,,,,,,,,,,,,,,,,,,,,,,,,,,,,,,,,,,,,,,,,,,,,,,,,,,,,,,,,,,,,,,,,,,,,,,,,,,
95,3.262542724609375,0.6062052249908447,1.5588535070419312,0.390532842874527,0.0,-2.1855695031547384e-08,1.9820980967644175e-10,0.5000007152557373,0.5000007152557373,0.6118369102478027,1.567692756652832,0.39019536137580874,0.0,-2.1855695031547384e-08,-1.8175402516362738e-08,0.5000008344650269,0.5000007748603821,,,,,,,,,,,,,,,,,,,,,,,,,,,,,,,,,,,,,,,,,,,,,,,,,,,,,,,,,,,,,,,,,,,,,,,,,,,,,,,,,,,,,,,,,,,,,,,,,,,,,,,,,,,,,,,,,,,,,,,,,,,,,,,,,,,,,,-1.2012613126444194e-09,-3.896216682619524e-09,1.313324449192521e-10,0.0,-7.577894223231851e-08,-9.888674323832447e-10,-3.526751243043691e-06,-3.5339257919986267e-06,1.0119551916432101e-05,1.4156652468955144e-05,-4.760766216804768e-07,0.0,-1.0268497163679058e-07,1.1235999153313969e-07,4.142320904065855e-06,3.705464678205317e-06,,,,,,,,,,,,,,,,,,,,,,,,,,,,,,,,,,,,,,,,,,,,,,,,,,,,,,,,,,,,,,,,,,,,,,,,,,
96,3.284055471420288,0.6062052249908447,1.5588535070419312,0.390532842874527,0.0,-2.1855695031547384e-08,1.9820980967644175e-10,0.5000007152557373,0.5000007152557373,0.6118372678756714,1.5676932334899902,0.39019533902406695,0.0,-2.1855695031547384e-08,-1.4376251300518561e-08,0.5000006556510925,0.5000005960464478,,,,,,,,,,,,,,,,,,,,,,,,,,,,,,,,,,,,,,,,,,,,,,,,,,,,,,,,,,,,,,,,,,,,,,,,,,,,,,,,,,,,,,,,,,,,,,,,,,,,,,,,,,,,,,,,,,,,,,,,,,,,,,,,,,,,,,-1.2012613126444194e-09,-3.896216682619524e-09,1.313324449192521e-10,0.0,-7.577894223231851e-08,-9.888674323832447e-10,-3.526751243043691e-06,-3.5339257919986267e-06,8.367547707166523e-06,1.1705807992257178e-05,-3.93506923046516e-07,0.0,-8.413386609618101e-08,8.962437192394646e-08,3.4205629617645172e-06,3.0715975753992097e-06,,,,,,,,,,,,,,,,,,,,,,,,,,,,,,,,,,,,,,,,,,,,,,,,,,,,,,,,,,,,,,,,,,,,,,,,,,
97,3.3064048290252686,0.6062052249908447,1.5588535070419312,0.390532842874527,0.0,-2.1855695031547384e-08,1.6577017536434369e-10,0.5000005960464478,0.5000005960464478,0.6118375658988953,1.5676937103271484,0.39019533157348635,0.0,-2.1855695031547384e-08,-1.1347880857215387e-08,0.500000536441803,0.500000536441803,,,,,,,,,,,,,,,,,,,,,,,,,,,,,,,,,,,,,,,,,,,,,,,,,,,,,,,,,,,,,,,,,,,,,,,,,,,,,,,,,,,,,,,,,,,,,,,,,,,,,,,,,,,,,,,,,,,,,,,,,,,,,,,,,,,,,,-1.0031975250512914e-09,-3.2541747074787963e-09,1.0973860709029282e-10,0.0,-6.328565405055997e-08,-8.271821561045556e-10,-2.9451157388393767e-06,-2.9514674224628834e-06,6.918869530636584e-06,9.679260983830318e-06,-3.2525795745641517e-07,0.0,-6.892803128266678e-08,7.139337299122417e-08,2.8245588055142434e-06,2.5461447421548655e-06,,,,,,,,,,,,,,,,,,,,,,,,,,,,,,,,,,,,,,,,,,,,,,,,,,,,,,,,,,,,,,,,,,,,,,,,,,
98,3.327930450439453,0.6062052249908447,1.5588535070419312,0.390532842874527,0.0,-2.1855695031547384e-08,1.3726986214379622e-10,0.5000004768371582,0.5000004768371582,0.6118375658988953,1.5676937103271484,0.39019533157348635,0.0,-2.1855695031547384e-08,-1.1347880857215387e-08,0.500000536441803,0.500000536441803,,,,,,,,,,,,,,,,,,,,,,,,,,,,,,,,,,,,,,,,,,,,,,,,,,,,,,,,,,,,,,,,,,,,,,,,,,,,,,,,,,,,,,,,,,,,,,,,,,,,,,,,,,,,,,,,,,,,,,,,,,,,,,,,,,,,,,-8.294476216974545e-10,-2.690403455574142e-09,9.07121600057792e-11,0.0,-5.232519839637462e-08,-6.848297484651766e-10,-2.4349021714442642e-06,-2.4404666874033865e-06,6.918869530636584e-06,9.679260983830318e-06,-3.2525795745641517e-07,0.0,-6.892803128266678e-08,7.139337299122417e-08,2.8245588055142434e-06,2.5461447421548655e-06,,,,,,,,,,,,,,,,,,,,,,,,,,,,,,,,,,,,,,,,,,,,,,,,,,,,,,,,,,,,,,,,,,,,,,,,,,
99,3.3502020835876465,0.6062052249908447,1.5588535070419312,0.390532842874527,0.0,-2.1855695031547384e-08,1.3726986214379622e-10,0.5000004768371582,0.5000004768371582,0.6118378043174744,1.567694067955017,0.39019531667232515,0.0,-2.1855695031547384e-08,-8.937261597452562e-09,0.5000004768371582,0.5000004172325134,,,,,,,,,,,,,,,,,,,,,,,,,,,,,,,,,,,,,,,,,,,,,,,,,,,,,,,,,,,,,,,,,,,,,,,,,,,,,,,,,,,,,,,,,,,,,,,,,,,,,,,,,,,,,,,,,,,,,,,,,,,,,,,,,,,,,,-8.294476216974545e-10,-2.690403455574142e-09,9.07121600057792e-11,0.0,-5.232519839637462e-08,-6.848297484651766e-10,-2.4349021714442642e-06,-2.4404666874033865e-06,5.721001798519865e-06,8.003557013580576e-06,-2.6884583803621354e-07,0.0,-5.646577605489256e-08,5.678919379192848e-08,2.332399844817701e-06,2.110565674229292e-06,,,,,,,,,,,,,,,,,,,,,,,,,,,,,,,,,,,,,,,,,,,,,,,,,,,,,,,,,,,,,,,,,,,,,,,,,,
100,3.3712427616119385,0.6062052249908447,1.5588535070419312,0.390532842874527,0.0,-2.1855695031547384e-08,1.13668498225028e-10,0.5000004172325134,0.5000004172325134,0.6118378043174744,1.567694067955017,0.39019531667232515,0.0,-2.1855695031547384e-08,-8.937261597452562e-09,0.5000004768371582,0.5000004172325134,,,,,,,,,,,,,,,,,,,,,,,,,,,,,,,,,,,,,,,,,,,,,,,,,,,,,,,,,,,,,,,,,,,,,,,,,,,,,,,,,,,,,,,,,,,,,,,,,,,,,,,,,,,,,,,,,,,,,,,,,,,,,,,,,,,,,,-6.858957846134217e-10,-2.224775919046351e-09,7.498862641952542e-11,0.0,-4.326355806938409e-08,-5.669508196248785e-10,-2.0130780740146292e-06,-2.017938641074579e-06,5.721001798519865e-06,8.003557013580576e-06,-2.6884583803621354e-07,0.0,-5.646577605489256e-08,5.678919379192848e-08,2.332399844817701e-06,2.110565674229292e-06,,,,,,,,,,,,,,,,,,,,,,,,,,,,,,,,,,,,,,,,,,,,,,,,,,,,,,,,,,,,,,,,,,,,,,,,,,
101,3.3932547569274902,0.6062052249908447,1.5588535070419312,0.390532842874527,0.0,-2.1855695031547384e-08,1.13668498225028e-10,0.5000004172325134,0.5000004172325134,0.6118379831314087,1.5676943063735962,0.39019530922174456,0.0,-2.1855695031547384e-08,-7.021254244676811e-09,0.5000003576278687,0.5000003576278687,,,,,,,,,,,,,,,,,,,,,,,,,,,,,,,,,,,,,,,,,,,,,,,,,,,,,,,,,,,,,,,,,,,,,,,,,,,,,,,,,,,,,,,,,,,,,,,,,,,,,,,,,,,,,,,,,,,,,,,,,,,,,,,,,,,,,,-6.858957846134217e-10,-2.224775919046351e-09,7.498862641952542e-11,0.0,-4.326355806938409e-08,-5.669508196248785e-10,-2.0130780740146292e-06,-2.017938641074579e-06,4.730521141027566e-06,6.617955477850046e-06,-2.222178068223002e-07,0.0,-4.6252001340008064e-08,4.5101977264039306e-08,1.9259923647041433e-06,1.7494918438387685e-06,,,,,,,,,,,,,,,,,,,,,,,,,,,,,,,,,,,,,,,,,,,,,,,,,,,,,,,,,,,,,,,,,,,,,,,,,,
102,3.4150454998016357,0.6062052249908447,1.5588535070419312,0.390532842874527,0.0,-2.1855695031547384e-08,9.601358597066678e-11,0.5000003576278687,0.5000003576278687,0.6118379831314087,1.5676943063735962,0.39019530922174456,0.0,-2.1855695031547384e-08,-7.021254244676811e-09,0.5000003576278687,0.5000003576278687,,,,,,,,,,,,,,,,,,,,,,,,,,,,,,,,,,,,,,,,,,,,,,,,,,,,,,,,,,,,,,,,,,,,,,,,,,,,,,,,,,,,,,,,,,,,,,,,,,,,,,,,,,,,,,,,,,,,,,,,,,,,,,,,,,,,,,-5.78315173527244e-10,-1.877054067733752e-09,6.322026235849876e-11,0.0,-3.649414281881036e-08,-4.789087459933228e-10,-1.6979956853901967e-06,-1.7022915699271834e-06,4.730521141027566e-06,6.617955477850046e-06,-2.222178068223002e-07,0.0,-4.6252001340008064e-08,4.5101977264039306e-08,1.9259923647041433e-06,1.7494918438387685e-06,,,,,,,,,,,,,,,,,,,,,,,,,,,,,,,,,,,,,,,,,,,,,,,,,,,,,,,,,,,,,,,,,,,,,,,,,,
103,3.438258409500122,0.6062052249908447,1.5588535070419312,0.390532842874527,0.0,-2.1855695031547384e-08,7.950493041697371e-11,0.5000002980232239,0.5000002980232239,0.611838161945343,1.5676945447921753,0.39019530177116396,0.0,-2.1855695031547384e-08,-5.500840671857077e-09,0.5000002980232239,0.5000002980232239,,,,,,,,,,,,,,,,,,,,,,,,,,,,,,,,,,,,,,,,,,,,,,,,,,,,,,,,,,,,,,,,,,,,,,,,,,,,,,,,,,,,,,,,,,,,,,,,,,,,,,,,,,,,,,,,,,,,,,,,,,,,,,,,,,,,,,-4.783395901597487e-10,-1.5518697438210438e-09,5.2187421051286265e-11,0.0,-3.017353122913846e-08,-3.966285078149667e-10,-1.4038334938959451e-06,-1.4075666285862098e-06,3.911523435817799e-06,5.472234079206828e-06,-1.8367681775544042e-07,0.0,-3.788241897950684e-08,3.575973650526976e-08,1.5903965504548978e-06,1.450179979656241e-06,,,,,,,,,,,,,,,,,,,,,,,,,,,,,,,,,,,,,,,,,,,,,,,,,,,,,,,,,,,,,,,,,,,,,,,,,,
104,3.4589791297912598,0.6062052249908447,1.5588535070419312,0.390532842874527,0.0,-2.1855695031547384e-08,7.950493041697371e-11,0.5000002980232239,0.5000002980232239,0.6118382811546326,1.5676946640014648,0.39019529432058336,0.0,-2.1855695031547384e-08,-4.296465405673189e-09,0.5000002384185791,0.5000002384185791,,,,,,,,,,,,,,,,,,,,,,,,,,,,,,,,,,,,,,,,,,,,,,,,,,,,,,,,,,,,,,,,,,,,,,,,,,,,,,,,,,,,,,,,,,,,,,,,,,,,,,,,,,,,,,,,,,,,,,,,,,,,,,,,,,,,,,-4.783395901597487e-10,-1.5518697438210438e-09,5.2187421051286265e-11,0.0,-3.017353122913846e-08,-3.966285078149667e-10,-1.4038334938959451e-06,-1.4075666285862098e-06,3.2343189104722114e-06,4.524863015831215e-06,-1.5182033052951738e-07,0.0,-3.102468326687813e-08,2.830071110793142e-08,1.3132747653799015e-06,1.2020678923363448e-06,,,,,,,,,,,,,,,,,,,,,,,,,,,,,,,,,,,,,,,,,,,,,,,,,,,,,,,,,,,,,,,,,,,,,,,,,,
105,3.481586456298828,0.6062052249908447,1.5588535070419312,0.390532842874527,0.0,-2.1855695031547384e-08,6.583575351548632e-11,0.5000002384185791,0.5000002384185791,0.6118382811546326,1.5676946640014648,0.39019529432058336,0.0,-2.1855695031547384e-08,-4.296465405673189e-09,0.5000002384185791,0.5000002384185791,,,,,,,,,,,,,,,,,,,,,,,,,,,,,,,,,,,,,,,,,,,,,,,,,,,,,,,,,,,,,,,,,,,,,,,,,,,,,,,,,,,,,,,,,,,,,,,,,,,,,,,,,,,,,,,,,,,,,,,,,,,,,,,,,,,,,,-3.9518388561532447e-10,-1.283195771861756e-09,4.318073676401468e-11,0.0,-2.494809869801884e-08,-3.285135219410762e-10,-1.160632223218272e-06,-1.1638687738013687e-06,3.2343189104722114e-06,4.524863015831215e-06,-1.5182033052951738e-07,0.0,-3.102468326687813e-08,2.830071110793142e-08,1.3132747653799015e-06,1.2020678923363448e-06,,,,,,,,,,,,,,,,,,,,,,,,,,,,,,,,,,,,,,,,,,,,,,,,,,,,,,,,,,,,,,,,,,,,,,,,,,
106,3.502929925918579,0.6062052249908447,1.5588535070419312,0.390532842874527,0.0,-2.1855695031547384e-08,6.583575351548632e-11,0.5000002384185791,0.5000002384185791,0.6118384003639221,1.567694902420044,0.39019528687000277,0.0,-2.1855695031547384e-08,-3.3442637548120047e-09,0.5000002384185791,0.5000001788139343,,,,,,,,,,,,,,,,,,,,,,,,,,,,,,,,,,,,,,,,,,,,,,,,,,,,,,,,,,,,,,,,,,,,,,,,,,,,,,,,,,,,,,,,,,,,,,,,,,,,,,,,,,,,,,,,,,,,,,,,,,,,,,,,,,,,,,-3.9518388561532447e-10,-1.283195771861756e-09,4.318073676401468e-11,0.0,-2.494809869801884e-08,-3.285135219410762e-10,-1.160632223218272e-06,-1.1638687738013687e-06,2.674359620868927e-06,3.7415049973787973e-06,-1.2548890993002715e-07,0.0,-2.540617671797918e-08,2.235273477424471e-08,1.0844389635167317e-06,9.96398739516735e-07,,,,,,,,,,,,,,,,,,,,,,,,,,,,,,,,,,,,,,,,,,,,,,,,,,,,,,,,,,,,,,,,,,,,,,,,,,
107,3.5249547958374023,0.6062052249908447,1.5588535070419312,0.390532842874527,0.0,-2.1855695031547384e-08,5.5610155369478775e-11,0.5000001788139343,0.5000001788139343,0.6118384003639221,1.567694902420044,0.39019528687000277,0.0,-2.1855695031547384e-08,-3.3442637548120047e-09,0.5000002384185791,0.5000001788139343,,,,,,,,,,,,,,,,,,,,,,,,,,,,,,,,,,,,,,,,,,,,,,,,,,,,,,,,,,,,,,,,,,,,,,,,,,,,,,,,,,,,,,,,,,,,,,,,,,,,,,,,,,,,,,,,,,,,,,,,,,,,,,,,,,,,,,-3.336775300510908e-10,-1.0823564267070651e-09,3.6359804056473877e-11,0.0,-2.1044833431460575e-08,-2.772696239272676e-10,-9.789733894649544e-07,-9.81815446721157e-07,2.674359620868927e-06,3.7415049973787973e-06,-1.2548890993002715e-07,0.0,-2.540617671797918e-08,2.235273477424471e-08,1.0844389635167317e-06,9.96398739516735e-07,,,,,,,,,,,,,,,,,,,,,,,,,,,,,,,,,,,,,,,,,,,,,,,,,,,,,,,,,,,,,,,,,,,,,,,,,,
108,3.5473694801330566,0.6062052249908447,1.5588535070419312,0.390532842874527,0.0,-2.1855695031547384e-08,4.650872048594934e-11,0.5000001788139343,0.5000001788139343,0.6118385195732117,1.5676950216293335,0.39019528687000277,0.0,-2.1855695031547384e-08,-2.593012471407974e-09,0.5000001788139343,0.5000001788139343,,,,,,,,,,,,,,,,,,,,,,,,,,,,,,,,,,,,,,,,,,,,,,,,,,,,,,,,,,,,,,,,,,,,,,,,,,,,,,,,,,,,,,,,,,,,,,,,,,,,,,,,,,,,,,,,,,,,,,,,,,,,,,,,,,,,,,-2.784994457272205e-10,-9.041656312547275e-10,3.039929419301757e-11,0.0,-1.7574720345692185e-08,-2.3177956776088138e-10,-8.175201742233185e-07,-8.199936019082088e-07,2.211346100011724e-06,3.0937633255234687e-06,-1.0372441039407931e-07,0.0,-2.080319205788328e-08,1.76162036069627e-08,8.954757504398003e-07,8.259134460786299e-07,,,,,,,,,,,,,,,,,,,,,,,,,,,,,,,,,,,,,,,,,,,,,,,,,,,,,,,,,,,,,,,,,,,,,,,,,,
109,3.5695152282714844,0.6062052249908447,1.5588535070419312,0.390532842874527,0.0,-2.1855695031547384e-08,4.604915060379966e-11,0.5000001788139343,0.5000001788139343,0.6118385195732117,1.5676950216293335,0.39019528687000277,0.0,-2.1855695031547384e-08,-2.593012471407974e-09,0.5000001788139343,0.5000001788139343,,,,,,,,,,,,,,,,,,,,,,,,,,,,,,,,,,,,,,,,,,,,,,,,,,,,,,,,,,,,,,,,,,,,,,,,,,,,,,,,,,,,,,,,,,,,,,,,,,,,,,,,,,,,,,,,,,,,,,,,,,,,,,,,,,,,,,-2.757793993168889e-10,-8.950618024528012e-10,3.017031069418863e-11,0.0,-1.740013644280225e-08,-2.2978537128626186e-10,-8.09375194421591e-07,-8.118294658743253e-07,2.211346100011724e-06,3.0937633255234687e-06,-1.0372441039407931e-07,0.0,-2.080319205788328e-08,1.76162036069627e-08,8.954757504398003e-07,8.259134460786299e-07,,,,,,,,,,,,,,,,,,,,,,,,,,,,,,,,,,,,,,,,,,,,,,,,,,,,,,,,,,,,,,,,,,,,,,,,,,
110,3.5925159454345703,0.6062052249908447,1.5588535070419312,0.390532842874527,0.0,-2.1855695031547384e-08,3.813159857313231e-11,0.5000001192092896,0.5000001192092896,0.6118385791778564,1.567695140838623,0.39019527941942217,0.0,-2.1855695031547384e-08,-2.0016692747759635e-09,0.5000001192092896,0.5000001192092896,,,,,,,,,,,,,,,,,,,,,,,,,,,,,,,,,,,,,,,,,,,,,,,,,,,,,,,,,,,,,,,,,,,,,,,,,,,,,,,,,,,,,,,,,,,,,,,,,,,,,,,,,,,,,,,,,,,,,,,,,,,,,,,,,,,,,,-2.279842981067759e-10,-7.399636459126668e-10,2.4855117963795692e-11,0.0,-1.4386491997697703e-08,-1.900328921999872e-10,-6.69158680466353e-07,-6.712738809255825e-07,1.82849430530041e-06,2.5581614409020403e-06,-8.573464072014758e-08,0.0,-1.703215346537945e-08,1.3849660085440973e-08,7.394380645564524e-07,6.845943971711677e-07,,,,,,,,,,,,,,,,,,,,,,,,,,,,,,,,,,,,,,,,,,,,,,,,,,,,,,,,,,,,,,,,,,,,,,,,,,
111,3.615046501159668,0.6062052249908447,1.5588535070419312,0.390532842874527,0.0,-2.1855695031547384e-08,3.813159857313231e-11,0.5000001192092896,0.5000001192092896,0.6118386387825012,1.567695140838623,0.39019527941942217,0.0,-2.1855695031547384e-08,-1.559097406733656e-09,0.5000001192092896,0.5000001192092896,,,,,,,,,,,,,,,,,,,,,,,,,,,,,,,,,,,,,,,,,,,,,,,,,,,,,,,,,,,,,,,,,,,,,,,,,,,,,,,,,,,,,,,,,,,,,,,,,,,,,,,,,,,,,,,,,,,,,,,,,,,,,,,,,,,,,,-2.279842981067759e-10,-7.399636459126668e-10,2.4855117963795692e-11,0.0,-1.4386491997697703e-08,-1.900328921999872e-10,-6.69158680466353e-07,-6.712738809255825e-07,1.527130052636494e-06,2.136554257958778e-06,-7.157901649179621e-08,0.0,-1.4090895561480465e-08,1.1000018673712475e-08,6.16773547790217e-07,5.73084491861664e-07,,,,,,,,,,,,,,,,,,,,,,,,,,,,,,,,,,,,,,,,,,,,,,,,,,,,,,,,,,,,,,,,,,,,,,,,,,
112,3.636913537979126,0.6062052249908447,1.5588535070419312,0.390532842874527,0.0,-2.1855695031547384e-08,3.1575922432303116e-11,0.5000001192092896,0.5000001192092896,0.6118386387825012,1.567695140838623,0.39019527941942217,0.0,-2.1855695031547384e-08,-1.559097406733656e-09,0.5000001192092896,0.5000001192092896,,,,,,,,,,,,,,,,,,,,,,,,,,,,,,,,,,,,,,,,,,,,,,,,,,,,,,,,,,,,,,,,,,,,,,,,,,,,,,,,,,,,,,,,,,,,,,,,,,,,,,,,,,,,,,,,,,,,,,,,,,,,,,,,,,,,,,-1.8846035843012032e-10,-6.120659534758488e-10,2.0643209364124004e-11,0.0,-1.1895207485679293e-08,-1.5748601034371035e-10,-5.532327804758097e-07,-5.550535888687591e-07,1.527130052636494e-06,2.136554257958778e-06,-7.157901649179621e-08,0.0,-1.4090895561480465e-08,1.1000018673712475e-08,6.16773547790217e-07,5.73084491861664e-07,,,,,,,,,,,,,,,,,,,,,,,,,,,,,,,,,,,,,,,,,,,,,,,,,,,,,,,,,,,,,,,,,,,,,,,,,,
113,3.6577556133270264,0.6062052249908447,1.5588535070419312,0.390532842874527,0.0,-2.1855695031547384e-08,3.1575922432303116e-11,0.5000001192092896,0.5000001192092896,0.611838698387146,1.5676952600479126,0.39019527941942217,0.0,-2.1855695031547384e-08,-1.2080477729270456e-09,0.5000001192092896,0.5000001192092896,,,,,,,,,,,,,,,,,,,,,,,,,,,,,,,,,,,,,,,,,,,,,,,,,,,,,,,,,,,,,,,,,,,,,,,,,,,,,,,,,,,,,,,,,,,,,,,,,,,,,,,,,,,,,,,,,,,,,,,,,,,,,,,,,,,,,,-1.8846035843012032e-10,-6.120659534758488e-10,2.0643209364124004e-11,0.0,-1.1895207485679293e-08,-1.5748601034371035e-10,-5.532327804758097e-07,-5.550535888687591e-07,1.2754350109389634e-06,1.7844316744231037e-06,-5.976066574930883e-08,0.0,-1.1657341758564144e-08,8.713595178733158e-09,5.144565875525586e-07,4.797346946361358e-07,,,,,,,,,,,,,,,,,,,,,,,,,,,,,,,,,,,,,,,,,,,,,,,,,,,,,,,,,,,,,,,,,,,,,,,,,,
114,3.6792495250701904,0.6062052249908447,1.5588535070419312,0.390532842874527,0.0,-2.1855695031547384e-08,2.61469318418861e-11,0.5000001192092896,0.5000001192092896,0.611838698387146,1.5676952600479126,0.3901952719688416,0.0,-2.1855695031547384e-08,-9.441387671671464e-10,0.5000000596046448,0.5000000596046448,,,,,,,,,,,,,,,,,,,,,,,,,,,,,,,,,,,,,,,,,,,,,,,,,,,,,,,,,,,,,,,,,,,,,,,,,,,,,,,,,,,,,,,,,,,,,,,,,,,,,,,,,,,,,,,,,,,,,,,,,,,,,,,,,,,,,,-1.5593082380860324e-10,-5.061506769266089e-10,1.68962066560141e-11,0.0,-9.835021685944412e-09,-1.302863927854503e-10,-4.573903993332351e-07,-4.5895427547293366e-07,1.0759350743683171e-06,1.5053284414534573e-06,-5.039632000602978e-08,0.0,-9.744427487134999e-09,6.9737571273265075e-09,4.3345866629351804e-07,4.055755766785296e-07,,,,,,,,,,,,,,,,,,,,,,,,,,,,,,,,,,,,,,,,,,,,,,,,,,,,,,,,,,,,,,,,,,,,,,,,,,
115,3.6999754905700684,0.6062052249908447,1.5588535070419312,0.390532842874527,0.0,-2.1855695031547384e-08,2.1867207697368052e-11,0.5000000596046448,0.5000000596046448,0.611838698387146,1.5676953792572021,0.3901952719688416,0.0,-2.1855695031547384e-08,-9.303748327305073e-10,0.5000000596046448,0.5000000596046448,,,,,,,,,,,,,,,,,,,,,,,,,,,,,,,,,,,,,,,,,,,,,,,,,,,,,,,,,,,,,,,,,,,,,,,,,,,,,,,,,,,,,,,,,,,,,,,,,,,,,,,,,,,,,,,,,,,,,,,,,,,,,,,,,,,,,,-1.3039569424222464e-10,-4.225508831723346e-10,1.4162282457874653e-11,0.0,-8.213374869114887e-09,-1.0896814006677857e-10,-3.819571361418639e-07,-3.8331049267981143e-07,1.0652235005181865e-06,1.4903421288181562e-06,-4.989356128248801e-08,0.0,-9.64206492426456e-09,6.8819909770923005e-09,4.291125321742584e-07,4.0158886349672684e-07,,,,,,,,,,,,,,,,,,,,,,,,,,,,,,,,,,,,,,,,,,,,,,,,,,,,,,,,,,,,,,,,,,,,,,,,,,
