MHC-RobotSimulators-Research/Data_Analysis_MotionReplication/2023-10-28 17_54_29/ambf_mai_1.csv
time,jpos0,jpos1,jpos2,jpos3,jpos4,jpos5,jpos6,jpos7,jpos8,jpos9,jpos10,jpos11,jpos12,jpos13,jpos14,jpos15,runlevel,sublevel,last_seq,type0,type1,pos0,pos1,pos2,pos3,pos4,pos5,ori0,ori1,ori2,ori3,ori4,ori5,ori6,ori7,ori8,ori9,ori10,ori11,ori12,ori13,ori14,ori15,ori16,ori17,ori_d0,ori_d1,ori_d2,ori_d3,ori_d4,ori_d5,ori_d6,ori_d7,ori_d8,ori_d9,ori_d10,ori_d11,ori_d12,ori_d13,ori_d14,ori_d15,ori_d16,ori_d17,pos_d0,pos_d1,pos_d2,pos_d3,pos_d4,pos_d5,encVals0,encVals1,encVals2,encVals3,encVals4,encVals5,encVals6,encVals7,encVals8,encVals9,encVals10,encVals11,encVals12,encVals13,encVals14,encVals15,dac_vals0,dac_vals1,dac_vals2,dac_vals3,dac_vals4,dac_vals5,dac_vals6,dac_vals7,dac_vals8,dac_vals9,dac_vals10,dac_vals11,dac_vals12,dac_vals13,dac_vals14,dac_vals15,Tau0,Tau1,Tau2,Tau3,Tau4,Tau5,Tau6,Tau7,Tau8,Tau9,Tau10,Tau11,Tau12,Tau13,Tau14,Tau15,mpos0,mpos1,mpos2,mpos3,mpos4,mpos5,mpos6,mpos7,mpos8,mpos9,mpos10,mpos11,mpos12,mpos13,mpos14,mpos15,mvel0,mvel1,mvel2,mvel3,mvel4,mvel5,mvel6,mvel7,mvel8,mvel9,mvel10,mvel11,mvel12,mvel13,mvel14,mvel15,jvel0,jvel1,jvel2,jvel3,jvel4,jvel5,jvel6,jvel7,jvel8,jvel9,jvel10,jvel11,jvel12,jvel13,jvel14,jvel15,jpos_d0,jpos_d1,jpos_d2,jpos_d3,jpos_d4,jpos_d5,jpos_d6,jpos_d7,jpos_d8,jpos_d9,jpos_d10,jpos_d11,jpos_d12,jpos_d13,jpos_d14,jpos_d15,grasp_d0,grasp_d1,grasp_d2,grasp_d3,grasp_d4,grasp_d5,grasp_d6,grasp_d7,grasp_d8,grasp_d9,grasp_d10,grasp_d11,grasp_d12,grasp_d13,grasp_d14,grasp_d15,encoffsets0,encoffsets1,encoffsets2,encoffsets3,encoffsets4,encoffsets5,encoffsets6,encoffsets7,encoffsets8,encoffsets9,encoffsets10,encoffsets11,encoffsets12,encoffsets13,encoffsets14,encoffsets15,jac_vel0,jac_vel1,jac_vel2,jac_vel3,jac_vel4,jac_vel5,jac_vel6,jac_vel7,jac_vel8,jac_vel9,jac_vel10,jac_vel11,jac_f0,jac_f1,jac_f2,jac_f3,jac_f4,jac_f5,jac_f6,jac_f7,jac_f8,jac_f9,jac_f10,jac_f11
1698698815.1369762,1.0467129945755005,1.8840833902359009,-0.029986117035150528,0.0,2.3551042079925537,6.187022461298989e-16,0.5233564972877502,0.5233564972877502,1.0467129945755005,1.8840833902359009,-0.029986117035150528,0.0,2.3551042079925537,-4.3861043134063235e-15,0.5233564972877502,0.5233564972877502,,,,,,,,,,,,,,,,,,,,,,,,,,,,,,,,,,,,,,,,,,,,,,,,,,,,,,,,,,,,,,,,,,,,,,,,,,,,,,,,,,,,,,,,,,,,,,,,,,,,,,,,,,,,,,,,,,,,,,,,,,,,,,,,,,,,,,0.0,0.0,0.0,0.0,0.0,0.0,0.0,-2.220446049250313e-14,0.0,0.0,0.0,0.0,0.0,0.0,0.0,0.0,,,,,,,,,,,,,,,,,,,,,,,,,,,,,,,,,,,,,,,,,,,,,,,,,,,,,,,,,,,,,,,,,,,,,,,,
1698698818.317313,1.0540192127227783,1.8858020305633545,-0.02983676828444004,0.0,0.8554832339286804,-1.1815084690169897e-05,0.5010254383087158,0.5012111067771912,1.051586389541626,1.8353849649429321,-0.02975660189986229,0.0,0.8431640863418579,8.241529576480389e-05,-0.46203330159187317,-0.4628831148147583,,,,,,,,,,,,,,,,,,,,,,,,,,,,,,,,,,,,,,,,,,,,,,,,,,,,,,,,,,,,,,,,,,,,,,,,,,,,,,,,,,,,,,,,,,,,,,,,,,,,,,,,,,,,,,,,,,,,,,,,,,,,,,,,,,,,,,0.0037277420051395893,0.0004701430443674326,9.910064545692876e-05,0.0,-0.5862576961517334,-0.005300892982631922,-0.015342934057116508,-0.003859165357425809,0.00218773540109396,-0.026219725608825684,9.843001316767186e-05,0.0,-0.5030261278152466,0.007695799693465233,-0.6150511503219604,-0.5992579460144043,,,,,,,,,,,,,,,,,,,,,,,,,,,,,,,,,,,,,,,,,,,,,,,,,,,,,,,,,,,,,,,,,,,,,,,,
1698698818.4907103,1.0542285442352295,1.8858296871185303,-0.029831890016794205,0.0,0.8089341521263123,-3.5056066280958476e-06,0.5003549456596375,0.5003829598426819,1.0516777038574219,1.8343919515609741,-0.029751727357506752,0.0,0.811437726020813,1.592869739397429e-05,-0.48293453454971313,-0.4830690622329712,,,,,,,,,,,,,,,,,,,,,,,,,,,,,,,,,,,,,,,,,,,,,,,,,,,,,,,,,,,,,,,,,,,,,,,,,,,,,,,,,,,,,,,,,,,,,,,,,,,,,,,,,,,,,,,,,,,,,,,,,,,,,,,,,,,,,,0.0005405674455687404,6.825292075518519e-05,1.2813889952667523e-05,0.0,-0.11925946921110153,1.914997847052291e-05,-0.001790246577002108,-0.001953965052962303,0.0003826518659479916,-0.004295606631785631,2.0982259229640476e-05,0.0,-0.13194477558135986,-8.675378194311634e-05,-0.08652636408805847,-0.08579101413488388,,,,,,,,,,,,,,,,,,,,,,,,,,,,,,,,,,,,,,,,,,,,,,,,,,,,,,,,,,,,,,,,,,,,,,,,
1698698818.653617,1.0542808771133423,1.8858363628387451,-0.029830649495124817,0.0,0.7973753213882446,-1.6887096307982574e-06,0.5001810789108276,0.5001939535140991,1.051722526550293,1.8338885307312012,-0.029749270528554916,0.0,0.7959774732589722,5.997504104016116e-06,-0.4930705428123474,-0.49312105774879456,,,,,,,,,,,,,,,,,,,,,,,,,,,,,,,,,,,,,,,,,,,,,,,,,,,,,,,,,,,,,,,,,,,,,,,,,,,,,,,,,,,,,,,,,,,,,,,,,,,,,,,,,,,,,,,,,,,,,,,,,,,,,,,,,,,,,,0.0002751291904132813,3.4705888538155705e-05,6.513547305075917e-06,0.0,-0.06068871170282364,9.305941603088286e-06,-0.0009145312942564487,-0.0009899726137518883,0.00015545777569059283,-0.0017459368100389838,8.512188287568279e-06,0.0,-0.053606994450092316,-3.318090966786258e-05,-0.035134367644786835,-0.03485376015305519,,,,,,,,,,,,,,,,,,,,,,,,,,,,,,,,,,,,,,,,,,,,,,,,,,,,,,,,,,,,,,,,,,,,,,,,
1698698818.8155608,1.0543131828308105,1.8858404159545898,-0.02982988767325878,0.0,0.7902642488479614,-6.311317406471062e-07,0.5000737309455872,0.5000783205032349,1.0517382621765137,1.8337106704711914,-0.029748404398560524,0.0,0.7905189990997314,2.7090704861620907e-06,-0.49664735794067383,-0.49667006731033325,,,,,,,,,,,,,,,,,,,,,,,,,,,,,,,,,,,,,,,,,,,,,,,,,,,,,,,,,,,,,,,,,,,,,,,,,,,,,,,,,,,,,,,,,,,,,,,,,,,,,,,,,,,,,,,,,,,,,,,,,,,,,,,,,,,,,,0.00011180274304933846,1.408558546245331e-05,2.6424056613905123e-06,0.0,-0.024656735360622406,3.5171090075891698e-06,-0.0003727754228748381,-0.00039966832264326513,7.524734974140301e-05,-0.0008453945047222078,4.115352112421533e-06,0.0,-0.02594810724258423,-1.5114086636458524e-05,-0.01699894666671753,-0.01687140390276909,,,,,,,,,,,,,,,,,,,,,,,,,,,,,,,,,,,,,,,,,,,,,,,,,,,,,,,,,,,,,,,,,,,,,,,,
1698698818.9761548,1.0543242692947388,1.885841727256775,-0.02982962504029274,0.0,0.7878133058547974,-2.914171375323349e-07,0.5000366568565369,0.5000386834144592,1.0517469644546509,1.833613395690918,-0.02974793128669262,0.0,0.787531316280365,1.0291128091921564e-06,-0.4986041486263275,-0.49861273169517517,,,,,,,,,,,,,,,,,,,,,,,,,,,,,,,,,,,,,,,,,,,,,,,,,,,,,,,,,,,,,,,,,,,,,,,,,,,,,,,,,,,,,,,,,,,,,,,,,,,,,,,,,,,,,,,,,,,,,,,,,,,,,,,,,,,,,,5.549781417357735e-05,6.9851207626925316e-06,1.3099418083584169e-06,0.0,-0.01223743986338377,1.6374846154576517e-06,-0.00018535788694862276,-0.00019735119713004678,3.134549842798151e-05,-0.0003523093764670193,1.7118451296482817e-06,0.0,-0.010809095576405525,-5.80030746277771e-06,-0.007077419199049473,-0.007028698455542326,,,,,,,,,,,,,,,,,,,,,,,,,,,,,,,,,,,,,,,,,,,,,,,,,,,,,,,,,,,,,,,,,,,,,,,,
1698698819.1433263,1.0543309450149536,1.8858425617218018,-0.029829468578100204,0.0,0.7863551378250122,-1.0391124050102007e-07,0.5000145435333252,0.5000151991844177,1.0517501831054688,1.8335775136947632,-0.02974775806069374,0.0,0.7864307165145874,4.5793859726472874e-07,-0.49932464957237244,-0.4993284344673157,,,,,,,,,,,,,,,,,,,,,,,,,,,,,,,,,,,,,,,,,,,,,,,,,,,,,,,,,,,,,,,,,,,,,,,,,,,,,,,,,,,,,,,,,,,,,,,,,,,,,,,,,,,,,,,,,,,,,,,,,,,,,,,,,,,,,,2.1995218048687093e-05,2.764803866739385e-06,5.182627091926406e-07,0.0,-0.004849004093557596,5.908278808419709e-07,-7.359870505752042e-05,-7.766437920508906e-05,1.5172501662163995e-05,-0.0001705905597191304,8.276078347080329e-07,0.0,-0.005232009571045637,-2.605207100714324e-06,-0.003424241440370679,-0.003402471076697111,,,,,,,,,,,,,,,,,,,,,,,,,,,,,,,,,,,,,,,,,,,,,,,,,,,,,,,,,,,,,,,,,,,,,,,,
1698698819.3052583,1.0543334484100342,1.8858429193496704,-0.02982940711081028,0.0,0.7857869863510132,-3.762212941182952e-08,0.5000059008598328,0.5000061392784119,1.051751971244812,1.8335574865341187,-0.02974766120314598,0.0,0.7858176827430725,1.6571419791944209e-07,-0.4997257590293884,-0.49972712993621826,,,,,,,,,,,,,,,,,,,,,,,,,,,,,,,,,,,,,,,,,,,,,,,,,,,,,,,,,,,,,,,,,,,,,,,,,,,,,,,,,,,,,,,,,,,,,,,,,,,,,,,,,,,,,,,,,,,,,,,,,,,,,,,,,,,,,,8.93807828106219e-06,1.1221021622986882e-06,2.1024791863055725e-07,0.0,-0.001970064826309681,2.168426220805486e-07,-2.9956307116663083e-05,-3.134113649139181e-05,6.164201295177918e-06,-6.933599070180207e-05,3.357336311182735e-07,0.0,-0.002125607803463936,-9.556167697155615e-07,-0.001390414428897202,-0.0013824931811541319,,,,,,,,,,,,,,,,,,,,,,,,,,,,,,,,,,,,,,,,,,,,,,,,,,,,,,,,,,,,,,,,,,,,,,,,
1698698819.4664915,1.0543344020843506,1.88584303855896,-0.02982938662171364,0.0,0.7855911254882812,-1.6895192800348013e-08,0.500002920627594,0.5000030398368835,1.0517525672912598,1.8335505723953247,-0.029747627675533295,0.0,0.7856063842773438,7.43882750953162e-08,-0.49986395239830017,-0.4998645484447479,,,,,,,,,,,,,,,,,,,,,,,,,,,,,,,,,,,,,,,,,,,,,,,,,,,,,,,,,,,,,,,,,,,,,,,,,,,,,,,,,,,,,,,,,,,,,,,,,,,,,,,,,,,,,,,,,,,,,,,,,,,,,,,,,,,,,,4.4367770897224545e-06,5.56453983335814e-07,1.0422795782005778e-07,0.0,-0.0009777673985809088,9.862938554761058e-08,-1.4887899851601105e-05,-1.5472811355721205e-05,3.0593246265198104e-06,-3.442314482526854e-05,1.6643244293845783e-07,0.0,-0.0010549394646659493,-4.34479431987711e-07,-0.0006897732964716852,-0.0006861999281682074,,,,,,,,,,,,,,,,,,,,,,,,,,,,,,,,,,,,,,,,,,,,,,,,,,,,,,,,,,,,,,,,,,,,,,,,
1698698819.6301434,1.0543348789215088,1.8858431577682495,-0.029829375445842743,0.0,0.7854892611503601,-7.076571773012574e-09,0.5000013709068298,0.5000014305114746,1.0517529249191284,1.83354651927948,-0.029747607186436653,0.0,0.7854806780815125,2.5362286493191277e-08,-0.49994611740112305,-0.49994632601737976,,,,,,,,,,,,,,,,,,,,,,,,,,,,,,,,,,,,,,,,,,,,,,,,,,,,,,,,,,,,,,,,,,,,,,,,,,,,,,,,,,,,,,,,,,,,,,,,,,,,,,,,,,,,,,,,,,,,,,,,,,,,,,,,,,,,,,2.094904402838438e-06,2.6246286211062397e-07,4.914383566756442e-08,0.0,-0.0004615926300175488,4.200650138841411e-08,-7.038460353214759e-06,-7.26295047570602e-06,1.2122139878556482e-06,-1.3645619219460059e-05,6.584510003904143e-08,0.0,-0.00041799910832196474,-1.5130399333429523e-07,-0.00027315763873048127,-0.00027192942798137665,,,,,,,,,,,,,,,,,,,,,,,,,,,,,,,,,,,,,,,,,,,,,,,,,,,,,,,,,,,,,,,,,,,,,,,,
1698698819.7928567,1.054335117340088,1.8858431577682495,-0.029829369857907295,0.0,0.7854361534118652,-2.5107103063248815e-09,0.5000005960464478,0.5000005960464478,1.051753044128418,1.8335448503494263,-0.029747599735856056,0.0,0.7854316830635071,8.679331919836386e-09,-0.49997812509536743,-0.4999781847000122,,,,,,,,,,,,,,,,,,,,,,,,,,,,,,,,,,,,,,,,,,,,,,,,,,,,,,,,,,,,,,,,,,,,,,,,,,,,,,,,,,,,,,,,,,,,,,,,,,,,,,,,,,,,,,,,,,,,,,,,,,,,,,,,,,,,,,8.728578677619225e-07,1.0922281035163905e-07,2.0442541881493526e-08,0.0,-0.00019228823657613248,1.5283504239960166e-08,-2.9368948162300512e-06,-3.005359985763789e-06,4.92492063131067e-07,-5.5462182899645995e-06,2.6711161282833018e-08,0.0,-0.00016982019587885588,-5.323059326656221e-08,-0.00011091570922872052,-0.00011049092427128926,,,,,,,,,,,,,,,,,,,,,,,,,,,,,,,,,,,,,,,,,,,,,,,,,,,,,,,,,,,,,,,,,,,,,,,,
1698698819.9551196,1.054335117340088,1.8858431577682495,-0.029829367995262146,0.0,0.7854136228561401,-8.373617355061924e-10,0.5000002384185791,0.5000002384185791,1.0517531633377075,1.833544373512268,-0.029747596010565758,0.0,0.7854152321815491,3.797135939009877e-09,-0.4999888837337494,-0.4999889135360718,,,,,,,,,,,,,,,,,,,,,,,,,,,,,,,,,,,,,,,,,,,,,,,,,,,,,,,,,,,,,,,,,,,,,,,,,,,,,,,,,,,,,,,,,,,,,,,,,,,,,,,,,,,,,,,,,,,,,,,,,,,,,,,,,,,,,,3.546985283264803e-07,4.432809674881355e-08,8.293108422208206e-09,0.0,-7.81233175075613e-05,5.283620208018647e-09,-1.1952234899581526e-06,-1.2125834700782434e-06,2.5061908104362374e-07,-2.8232527711224975e-06,1.3577516000395917e-08,0.0,-8.641713066026568e-05,-2.3944934923747496e-08,-5.6419314205413684e-05,-5.623145989375189e-05,,,,,,,,,,,,,,,,,,,,,,,,,,,,,,,,,,,,,,,,,,,,,,,,,,,,,,,,,,,,,,,,,,,,,,,,
1698698820.116435,1.0543352365493774,1.8858431577682495,-0.029829366132616997,0.0,0.7854056358337402,-3.3409888744451166e-10,0.5000001192092896,0.5000001192092896,1.0517531633377075,1.8335440158843994,-0.029747596010565758,0.0,0.7854049205780029,1.1684293532709944e-09,-0.4999955892562866,-0.4999955892562866,,,,,,,,,,,,,,,,,,,,,,,,,,,,,,,,,,,,,,,,,,,,,,,,,,,,,,,,,,,,,,,,,,,,,,,,,,,,,,,,,,,,,,,,,,,,,,,,,,,,,,,,,,,,,,,,,,,,,,,,,,,,,,,,,,,,,,1.7171939248328272e-07,2.1438584241195713e-08,4.009446108454995e-09,0.0,-3.7815501855220646e-05,2.1964452479039664e-09,-5.793306172563462e-07,-5.836599825670419e-07,9.930412403491573e-08,-1.1191606290594791e-06,5.371615152682807e-09,0.0,-3.424108581384644e-05,-7.782527511324133e-09,-2.2342646843753755e-05,-2.2283575162873603e-05,,,,,,,,,,,,,,,,,,,,,,,,,,,,,,,,,,,,,,,,,,,,,,,,,,,,,,,,,,,,,,,,,,,,,,,,
1698698820.2800887,1.0543352365493774,1.8858431577682495,-0.029829366132616997,0.0,0.7854010462760925,-9.305475140441999e-11,0.5000000596046448,0.5000000596046448,1.0517531633377075,1.8335438966751099,-0.02974759414792061,0.0,0.7854016423225403,4.698852418272281e-10,-0.4999977648258209,-0.4999977648258209,,,,,,,,,,,,,,,,,,,,,,,,,,,,,,,,,,,,,,,,,,,,,,,,,,,,,,,,,,,,,,,,,,,,,,,,,,,,,,,,,,,,,,,,,,,,,,,,,,,,,,,,,,,,,,,,,,,,,,,,,,,,,,,,,,,,,,6.637566229983349e-08,8.275602425555917e-09,1.5470285052998634e-09,0.0,-1.4613897292292677e-05,6.659565121580613e-10,-2.2428028501053632e-07,-2.23891944983734e-07,5.0533888185100295e-08,-5.696986704606388e-07,2.7304338789946314e-09,0.0,-1.7424408724764362e-05,-3.3276066346843436e-09,-1.1364996680640616e-05,-1.1340635865053628e-05,,,,,,,,,,,,,,,,,,,,,,,,,,,,,,,,,,,,,,,,,,,,,,,,,,,,,,,,,,,,,,,,,,,,,,,,
1698698820.4435754,1.0543352365493774,1.8858431577682495,-0.029829366132616997,0.0,0.7853995561599731,-3.0493517433338724e-11,0.5,0.5,1.0517531633377075,1.8335437774658203,-0.02974759414792061,0.0,0.7853995561599731,1.185366110822983e-10,-0.49999910593032837,-0.49999910593032837,,,,,,,,,,,,,,,,,,,,,,,,,,,,,,,,,,,,,,,,,,,,,,,,,,,,,,,,,,,,,,,,,,,,,,,,,,,,,,,,,,,,,,,,,,,,,,,,,,,,,,,,,,,,,,,,,,,,,,,,,,,,,,,,,,,,,,3.134035253538059e-08,3.90336651889811e-09,7.294505555144326e-10,0.0,-6.899051186337601e-06,2.4637186735176897e-10,-1.0602794020542206e-07,-1.0507675085591472e-07,2.0023405156166518e-08,-2.2583340353321546e-07,1.0802247984997848e-09,0.0,-6.904079327796353e-06,-9.752815222086042e-10,-4.500657723838231e-06,-4.494098448049044e-06,,,,,,,,,,,,,,,,,,,,,,,,,,,,,,,,,,,,,,,,,,,,,,,,,,,,,,,,,,,,,,,,,,,,,,,,
1698698820.6059217,1.0543352365493774,1.8858431577682495,-0.029829366132616997,0.0,0.7853987812995911,-6.174488437898917e-12,0.5,0.5,1.0517531633377075,1.8335437774658203,-0.02974759414792061,0.0,0.7853988409042358,3.00913148565396e-11,-0.4999995827674866,-0.4999995827674866,,,,,,,,,,,,,,,,,,,,,,,,,,,,,,,,,,,,,,,,,,,,,,,,,,,,,,,,,,,,,,,,,,,,,,,,,,,,,,,,,,,,,,,,,,,,,,,,,,,,,,,,,,,,,,,,,,,,,,,,,,,,,,,,,,,,,,1.3058221171036166e-08,1.624433920710544e-09,3.033982787226108e-10,0.0,-2.873976882256102e-06,6.956830944648829e-11,-4.4240412222507075e-08,-4.3471050759080754e-08,9.452616467342523e-09,-1.0664926719528012e-07,5.092981592014212e-10,0.0,-3.259248387621483e-06,-3.290976380299071e-10,-2.1236953671177616e-06,-2.121781562891556e-06,,,,,,,,,,,,,,,,,,,,,,,,,,,,,,,,,,,,,,,,,,,,,,,,,,,,,,,,,,,,,,,,,,,,,,,,
1698698820.76652,1.0543352365493774,1.8858431577682495,-0.029829366132616997,0.0,0.7853984832763672,-5.796535126889601e-13,0.5,0.5,1.0517531633377075,1.8335437774658203,-0.02974759414792061,0.0,0.7853984236717224,-3.728554466043976e-13,-0.4999998211860657,-0.4999998211860657,,,,,,,,,,,,,,,,,,,,,,,,,,,,,,,,,,,,,,,,,,,,,,,,,,,,,,,,,,,,,,,,,,,,,,,,,,,,,,,,,,,,,,,,,,,,,,,,,,,,,,,,,,,,,,,,,,,,,,,,,,,,,,,,,,,,,,6.646150296774067e-09,8.259171124791465e-10,1.5422593757641323e-10,0.0,-1.4625279618485365e-06,2.2338880745209622e-11,-2.2541390976016373e-08,-2.2003598942887947e-08,3.8403058510994015e-09,-4.3347327505216526e-08,2.0658891264346835e-10,0.0,-1.3241326541901799e-06,-6.993759738005423e-11,-8.623261464890675e-07,-8.621250913165568e-07,,,,,,,,,,,,,,,,,,,,,,,,,,,,,,,,,,,,,,,,,,,,,,,,,,,,,,,,,,,,,,,,,,,,,,,,
1698698820.9282122,1.0543352365493774,1.8858431577682495,-0.029829366132616997,0.0,0.7853983044624329,1.152424835247634e-12,0.5,0.5,1.0517531633377075,1.8335437774658203,-0.02974759414792061,0.0,0.7853983044624329,-5.086614723176508e-12,-0.49999991059303284,-0.49999991059303284,,,,,,,,,,,,,,,,,,,,,,,,,,,,,,,,,,,,,,,,,,,,,,,,,,,,,,,,,,,,,,,,,,,,,,,,,,,,,,,,,,,,,,,,,,,,,,,,,,,,,,,,,,,,,,,,,,,,,,,,,,,,,,,,,,,,,,2.700728529703156e-09,3.354205801997523e-10,6.25444140922582e-11,0.0,-5.941992640146054e-07,2.078692036208696e-12,-9.173395376649296e-09,-8.875766788207784e-09,1.858868614590392e-09,-2.098898832514351e-08,9.988676552552533e-11,0.0,-6.409284196706722e-07,-8.832824228977021e-12,-4.17215517245495e-07,-4.1734259070835833e-07,,,,,,,,,,,,,,,,,,,,,,,,,,,,,,,,,,,,,,,,,,,,,,,,,,,,,,,,,,,,,,,,,,,,,,,,
1698698821.0901613,1.0543352365493774,1.8858431577682495,-0.029829366132616997,0.0,0.7853982448577881,1.0907354663566848e-12,0.5,0.5,1.0517531633377075,1.8335437774658203,-0.02974759414792061,0.0,0.7853982448577881,-4.8747603176302334e-12,-0.4999999701976776,-0.4999999701976776,,,,,,,,,,,,,,,,,,,,,,,,,,,,,,,,,,,,,,,,,,,,,,,,,,,,,,,,,,,,,,,,,,,,,,,,,,,,,,,,,,,,,,,,,,,,,,,,,,,,,,,,,,,,,,,,,,,,,,,,,,,,,,,,,,,,,,1.2752909839264248e-09,1.581845765485923e-10,2.952707522929643e-11,0.0,-2.805145413731225e-07,-1.7302685976702814e-12,-4.336819792172264e-09,-4.164935063499797e-09,9.225953334635051e-10,-1.042028685560581e-08,4.950345688925495e-11,0.0,-3.1809275924388203e-07,7.626707425323342e-12,-2.0697713409845164e-07,-2.0714763593332464e-07,,,,,,,,,,,,,,,,,,,,,,,,,,,,,,,,,,,,,,,,,,,,,,,,,,,,,,,,,,,,,,,,,,,,,,,,
1698698821.2576718,1.0543352365493774,1.8858431577682495,-0.029829366132616997,0.0,0.7853981852531433,6.985484781764362e-13,0.5,0.5,1.0517531633377075,1.8335437774658203,-0.02974759414792061,0.0,0.7853981852531433,-3.069709200373416e-12,-0.4999999701976776,-0.4999999701976776,,,,,,,,,,,,,,,,,,,,,,,,,,,,,,,,,,,,,,,,,,,,,,,,,,,,,,,,,,,,,,,,,,,,,,,,,,,,,,,,,,,,,,,,,,,,,,,,,,,,,,,,,,,,,,,,,,,,,,,,,,,,,,,,,,,,,,5.052847029674012e-10,6.266098750984384e-11,1.166289287368727e-11,0.0,-1.1115191256294565e-07,-2.20777281005613e-12,-1.7211343461553952e-09,-1.638200686215896e-09,3.4776626023358403e-10,-3.929212510911384e-09,1.864342014101794e-11,0.0,-1.1988628045855876e-07,8.961436627485941e-12,-7.796226242362536e-08,-7.808237256767825e-08,,,,,,,,,,,,,,,,,,,,,,,,,,,,,,,,,,,,,,,,,,,,,,,,,,,,,,,,,,,,,,,,,,,,,,,,
1698698821.4192932,1.0543352365493774,1.8858431577682495,-0.029829366132616997,0.0,0.7853981852531433,4.545098835056355e-13,0.5,0.5,1.0517531633377075,1.8335437774658203,-0.02974759414792061,0.0,0.7853981852531433,-2.0299567148746034e-12,-0.5,-0.5,,,,,,,,,,,,,,,,,,,,,,,,,,,,,,,,,,,,,,,,,,,,,,,,,,,,,,,,,,,,,,,,,,,,,,,,,,,,,,,,,,,,,,,,,,,,,,,,,,,,,,,,,,,,,,,,,,,,,,,,,,,,,,,,,,,,,,2.5721647034515627e-10,3.19300141882195e-11,5.93275428784068e-12,0.0,-5.656388779584631e-08,-1.6959354927348347e-12,-8.769429626909186e-10,-8.290479414085894e-10,1.814992600657206e-10,-2.050803971087589e-09,9.699879788271915e-12,0.0,-6.255294238144415e-08,6.980004681883534e-12,-4.066212966336025e-08,-4.074475157267443e-08,,,,,,,,,,,,,,,,,,,,,,,,,,,,,,,,,,,,,,,,,,,,,,,,,,,,,,,,,,,,,,,,,,,,,,,,
1698698821.583995,1.0543352365493774,1.8858431577682495,-0.029829366132616997,0.0,0.7853981852531433,2.3022228112616616e-13,0.5,0.5,1.0517531633377075,1.8335437774658203,-0.02974759414792061,0.0,0.7853981852531433,-1.0071636450184607e-12,-0.5,-0.5,,,,,,,,,,,,,,,,,,,,,,,,,,,,,,,,,,,,,,,,,,,,,,,,,,,,,,,,,,,,,,,,,,,,,,,,,,,,,,,,,,,,,,,,,,,,,,,,,,,,,,,,,,,,,,,,,,,,,,,,,,,,,,,,,,,,,,9.938716516444401e-11,1.2212453270876722e-11,2.3016311079260277e-12,0.0,-2.1858982179878694e-08,-7.979964345566914e-13,-3.3941738308840286e-10,-3.1799007871313734e-10,6.830092047493963e-11,-7.73292541111914e-10,3.652633751016765e-12,0.0,-2.3575653429475096e-08,4.036199326151735e-12,-1.5315993806552797e-08,-1.5358414984234514e-08,,,,,,,,,,,,,,,,,,,,,,,,,,,,,,,,,,,,,,,,,,,,,,,,,,,,,,,,,,,,,,,,,,,,,,,,
1698698821.7459102,1.0543352365493774,1.8858431577682495,-0.029829366132616997,0.0,0.7853981852531433,1.3409947794123384e-13,0.5,0.5,1.0517531633377075,1.8335437774658203,-0.02974759414792061,0.0,0.7853981852531433,-5.003938886513626e-13,-0.5,-0.5,,,,,,,,,,,,,,,,,,,,,,,,,,,,,,,,,,,,,,,,,,,,,,,,,,,,,,,,,,,,,,,,,,,,,,,,,,,,,,,,,,,,,,,,,,,,,,,,,,,,,,,,,,,,,,,,,,,,,,,,,,,,,,,,,,,,,,4.9338311214341957e-11,6.17284001691587e-12,1.1247947018233617e-12,0.0,-1.084901057879506e-08,-5.606493459590911e-13,-1.687094908220388e-10,-1.5696333122150463e-10,2.76667577736589e-11,-3.142819338108893e-10,1.477290512141849e-12,0.0,-9.577982851283195e-09,2.0685003189468976e-12,-6.219225134884709e-09,-6.240152838898894e-09,,,,,,,,,,,,,,,,,,,,,,,,,,,,,,,,,,,,,,,,,,,,,,,,,,,,,,,,,,,,,,,,,,,,,,,,
1698698821.9081903,1.0543352365493774,1.8858431577682495,-0.029829366132616997,0.0,0.7853981852531433,6.301561919844212e-14,0.5,0.5,1.0517531633377075,1.8335437774658203,-0.02974759414792061,0.0,0.7853981852531433,-2.829949003000515e-13,-0.5,-0.5,,,,,,,,,,,,,,,,,,,,,,,,,,,,,,,,,,,,,,,,,,,,,,,,,,,,,,,,,,,,,,,,,,,,,,,,,,,,,,,,,,,,,,,,,,,,,,,,,,,,,,,,,,,,,,,,,,,,,,,,,,,,,,,,,,,,,,1.9673151996357774e-11,2.2648549702353193e-12,4.4755865680201623e-13,0.0,-4.299138822716486e-09,-2.566737512636752e-13,-6.703526622686695e-11,-6.16839912481737e-11,1.3766765505351941e-11,-1.55964130499342e-10,7.28583859910259e-13,0.0,-4.753597515616548e-09,1.1796066510735836e-12,-3.0852542742820788e-09,-3.0974334208622167e-09,,,,,,,,,,,,,,,,,,,,,,,,,,,,,,,,,,,,,,,,,,,,,,,,,,,,,,,,,,,,,,,,,,,,,,,,
1698698822.0688565,1.0543352365493774,1.8858431577682495,-0.029829366132616997,0.0,0.7853981852531433,3.609919234739446e-14,0.5,0.5,1.0517531633377075,1.8335437774658203,-0.02974759414792061,0.0,0.7853981852531433,-1.3378675337710755e-13,-0.5,-0.5,,,,,,,,,,,,,,,,,,,,,,,,,,,,,,,,,,,,,,,,,,,,,,,,,,,,,,,,,,,,,,,,,,,,,,,,,,,,,,,,,,,,,,,,,,,,,,,,,,,,,,,,,,,,,,,,,,,,,,,,,,,,,,,,,,,,,,9.85878045867139e-12,1.2434497875801753e-12,2.3175905639050143e-13,0.0,-2.187294789735006e-09,-1.798824354444853e-13,-3.410605131648481e-11,-3.1108449149996886e-11,5.595524044110789e-12,-6.332712132461893e-11,3.0878077872387166e-13,0.0,-1.9311663379539823e-09,6.585046093479652e-13,-1.2527201498357954e-09,-1.258615434096555e-09,,,,,,,,,,,,,,,,,,,,,,,,,,,,,,,,,,,,,,,,,,,,,,,,,,,,,,,,,,,,,,,,,,,,,,,,
1698698822.233468,1.0543352365493774,1.8858431577682495,-0.029829366132616997,0.0,0.7853981852531433,1.694169401934755e-14,0.5,0.5,1.0517531633377075,1.8335437774658203,-0.02974759414792061,0.0,0.7853981852531433,-7.410578769552478e-14,-0.5,-0.5,,,,,,,,,,,,,,,,,,,,,,,,,,,,,,,,,,,,,,,,,,,,,,,,,,,,,,,,,,,,,,,,,,,,,,,,,,,,,,,,,,,,,,,,,,,,,,,,,,,,,,,,,,,,,,,,,,,,,,,,,,,,,,,,,,,,,,4.085620730620576e-12,4.440892098500626e-13,6.522560269672795e-14,0.0,-8.888001445939153e-10,-1.1286808212227287e-13,-1.3655743202889425e-11,-1.2634338020234281e-11,2.9309887850104133e-12,-3.2240876635114546e-11,1.457167719820518e-13,0.0,-9.82613990174741e-10,4.3081101294868696e-13,-6.373901406675486e-10,-6.40409947294529e-10,,,,,,,,,,,,,,,,,,,,,,,,,,,,,,,,,,,,,,,,,,,,,,,,,,,,,,,,,,,,,,,,,,,,,,,,
1698698822.3967683,1.0543352365493774,1.8858431577682495,-0.029829366132616997,0.0,0.7853981852531433,1.0117728086822628e-14,0.5,0.5,1.0517531633377075,1.8335437774658203,-0.02974759414792061,0.0,0.7853981852531433,-3.327264340240686e-14,-0.5,-0.5,,,,,,,,,,,,,,,,,,,,,,,,,,,,,,,,,,,,,,,,,,,,,,,,,,,,,,,,,,,,,,,,,,,,,,,,,,,,,,,,,,,,,,,,,,,,,,,,,,,,,,,,,,,,,,,,,,,,,,,,,,,,,,,,,,,,,,2.0872192862952943e-12,2.6645352591003757e-13,3.608224830031759e-14,0.0,-4.523270646927813e-10,3.282314673422153e-14,-6.927791673660977e-12,-6.505906924303417e-12,1.199040866595169e-12,-1.2700951401711791e-11,7.008282842946301e-14,0.0,-3.894218281175199e-10,1.7776241362146145e-13,-2.5249802249049935e-10,-2.5359714328487826e-10,,,,,,,,,,,,,,,,,,,,,,,,,,,,,,,,,,,,,,,,,,,,,,,,,,,,,,,,,,,,,,,,,,,,,,,,
1698698822.5613425,1.0543352365493774,1.8858431577682495,-0.029829366132616997,0.0,0.7853981852531433,5.319922138853931e-15,0.5,0.5,1.0517531633377075,1.8335437774658203,-0.02974759414792061,0.0,0.7853981852531433,-1.689769743400127e-14,-0.5,-0.5,,,,,,,,,,,,,,,,,,,,,,,,,,,,,,,,,,,,,,,,,,,,,,,,,,,,,,,,,,,,,,,,,,,,,,,,,,,,,,,,,,,,,,,,,,,,,,,,,,,,,,,,,,,,,,,,,,,,,,,,,,,,,,,,,,,,,,8.43769498715119e-13,8.881784197001252e-14,2.4980018054066022e-14,0.0,-1.7474910407599964e-10,1.1487418817828637e-13,-2.9531932455029164e-12,-2.6201263381153694e-12,5.329070518200751e-13,-6.394884621840902e-12,2.2898349882893854e-14,0.0,-1.9320101074526974e-10,9.070732175358448e-14,-1.2521095271722515e-10,-1.2594369991347776e-10,,,,,,,,,,,,,,,,,,,,,,,,,,,,,,,,,,,,,,,,,,,,,,,,,,,,,,,,,,,,,,,,,,,,,,,,
1698698822.7261882,1.0543352365493774,1.8858431577682495,-0.029829366132616997,0.0,0.7853981852531433,2.4378313376907353e-15,0.5,0.5,1.0517531633377075,1.8335437774658203,-0.02974759414792061,0.0,0.7853981852531433,-7.23820400724785e-15,-0.5,-0.5,,,,,,,,,,,,,,,,,,,,,,,,,,,,,,,,,,,,,,,,,,,,,,,,,,,,,,,,,,,,,,,,,,,,,,,,,,,,,,,,,,,,,,,,,,,,,,,,,,,,,,,,,,,,,,,,,,,,,,,,,,,,,,,,,,,,,,3.552713678800501e-13,1.3322676295501878e-13,4.232725281383409e-14,0.0,-8.888445535149003e-11,-9.593584607281436e-14,-1.2656542480726785e-12,-1.5099033134902129e-12,8.881784197001252e-14,-2.398081733190338e-12,5.134781488891349e-14,0.0,-7.471800955727304e-11,9.910849945631364e-14,-4.835021272242557e-11,-4.867217739956686e-11,,,,,,,,,,,,,,,,,,,,,,,,,,,,,,,,,,,,,,,,,,,,,,,,,,,,,,,,,,,,,,,,,,,,,,,,
1698698822.8907623,1.0543352365493774,1.8858431577682495,-0.029829366132616997,0.0,0.7853981852531433,9.870456934904233e-16,0.5,0.5,1.0517531633377075,1.8335437774658203,-0.02974759414792061,0.0,0.7853981852531433,-3.117782377417915e-15,-0.5,-0.5,,,,,,,,,,,,,,,,,,,,,,,,,,,,,,,,,,,,,,,,,,,,,,,,,,,,,,,,,,,,,,,,,,,,,,,,,,,,,,,,,,,,,,,,,,,,,,,,,,,,,,,,,,,,,,,,,,,,,,,,,,,,,,,,,,,,,,1.7763568394002505e-13,4.440892098500626e-14,3.191891195797325e-14,0.0,-3.455014052633487e-11,4.6599930945273593e-14,-7.105427357601002e-13,-4.662936703425657e-13,0.0,-1.2878587085651816e-12,4.163336342344337e-15,0.0,-3.8191672047105385e-11,-1.3070992313686525e-13,-2.440270208126094e-11,-2.4980018054066022e-11,,,,,,,,,,,,,,,,,,,,,,,,,,,,,,,,,,,,,,,,,,,,,,,,,,,,,,,,,,,,,,,,,,,,,,,,
1698698823.0557106,1.0543352365493774,1.8858431577682495,-0.029829366132616997,0.0,0.7853981852531433,1.6082783976106851e-15,0.5,0.5,1.0517531633377075,1.8335437774658203,-0.02974759414792061,0.0,0.7853981852531433,-4.3051548040053285e-16,-0.5,-0.5,,,,,,,,,,,,,,,,,,,,,,,,,,,,,,,,,,,,,,,,,,,,,,,,,,,,,,,,,,,,,,,,,,,,,,,,,,,,,,,,,,,,,,,,,,,,,,,,,,,,,,,,,,,,,,,,,,,,,,,,,,,,,,,,,,,,,,1.7763568394002505e-13,0.0,-1.2490009027033011e-14,0.0,-1.751931932858497e-11,6.941784657949618e-14,-4.440892098500626e-13,-1.7763568394002505e-13,0.0,-4.884981308350689e-13,-3.677613769070831e-14,0.0,-1.4455103780619538e-11,2.104495370287493e-13,-9.847678228425139e-12,-9.381384558082573e-12,,,,,,,,,,,,,,,,,,,,,,,,,,,,,,,,,,,,,,,,,,,,,,,,,,,,,,,,,,,,,,,,,,,,,,,,
1698698823.2195625,1.0543352365493774,1.8858431577682495,-0.029829366132616997,0.0,0.7853981852531433,6.48495359500148e-16,0.5,0.5,1.0517531633377075,1.8335437774658203,-0.02974759414792061,0.0,0.7853981852531433,1.4763485162132956e-16,-0.5,-0.5,,,,,,,,,,,,,,,,,,,,,,,,,,,,,,,,,,,,,,,,,,,,,,,,,,,,,,,,,,,,,,,,,,,,,,,,,,,,,,,,,,,,,,,,,,,,,,,,,,,,,,,,,,,,,,,,,,,,,,,,,,,,,,,,,,,,,,0.0,0.0,2.0816681711721685e-15,0.0,-6.772360450213455e-12,-6.064764711483442e-14,-4.440892098500626e-14,-2.220446049250313e-14,0.0,-3.1086244689504383e-13,-2.2898349882893854e-14,0.0,-7.416289804496046e-12,5.646390405472483e-14,-4.640732242933154e-12,-4.940492459581947e-12,,,,,,,,,,,,,,,,,,,,,,,,,,,,,,,,,,,,,,,,,,,,,,,,,,,,,,,,,,,,,,,,,,,,,,,,
1698698823.3914585,1.0543352365493774,1.8858431577682495,-0.029829366132616997,0.0,0.7853981852531433,1.2456287586611633e-15,0.5,0.5,1.0517531633377075,1.8335437774658203,-0.02974759414792061,0.0,0.7853981852531433,2.362848434249318e-16,-0.5,-0.5,,,,,,,,,,,,,,,,,,,,,,,,,,,,,,,,,,,,,,,,,,,,,,,,,,,,,,,,,,,,,,,,,,,,,,,,,,,,,,,,,,,,,,,,,,,,,,,,,,,,,,,,,,,,,,,,,,,,,,,,,,,,,,,,,,,,,,0.0,0.0,2.0816681711721685e-15,0.0,-2.886579864025407e-12,-2.568876609641748e-14,-6.661338147750939e-14,8.881784197001252e-14,0.0,-1.3322676295501878e-13,2.3592239273284576e-14,0.0,-3.1308289294429414e-12,-4.605282558837846e-14,-1.965094753586527e-12,-1.6542323066914832e-12,,,,,,,,,,,,,,,,,,,,,,,,,,,,,,,,,,,,,,,,,,,,,,,,,,,,,,,,,,,,,,,,,,,,,,,,
1698698823.556849,1.0543352365493774,1.8858431577682495,-0.029829366132616997,0.0,0.7853981852531433,1.7096802057374049e-15,0.5,0.5,1.0517531633377075,1.8335437774658203,-0.02974759414792061,0.0,0.7853981852531433,-9.916222125044383e-16,-0.5,-0.5,,,,,,,,,,,,,,,,,,,,,,,,,,,,,,,,,,,,,,,,,,,,,,,,,,,,,,,,,,,,,,,,,,,,,,,,,,,,,,,,,,,,,,,,,,,,,,,,,,,,,,,,,,,,,,,,,,,,,,,,,,,,,,,,,,,,,,0.0,0.0,1.3877787807814457e-15,0.0,-1.354472090042691e-12,-1.4240233205944572e-14,-2.220446049250313e-14,-1.3322676295501878e-13,0.0,0.0,3.469446951953614e-15,0.0,-1.3988810110276972e-12,-1.3151255800515627e-13,-6.328271240363392e-13,-7.993605777301127e-13,,,,,,,,,,,,,,,,,,,,,,,,,,,,,,,,,,,,,,,,,,,,,,,,,,,,,,,,,,,,,,,,,,,,,,,,
1698698823.71913,1.0543352365493774,1.8858431577682495,-0.029829366132616997,0.0,0.7853981852531433,3.934233835386309e-15,0.5,0.5,1.0517531633377075,1.8335437774658203,-0.02974759414792061,0.0,0.7853981852531433,-1.378448289350966e-15,-0.5,-0.5,,,,,,,,,,,,,,,,,,,,,,,,,,,,,,,,,,,,,,,,,,,,,,,,,,,,,,,,,,,,,,,,,,,,,,,,,,,,,,,,,,,,,,,,,,,,,,,,,,,,,,,,,,,,,,,,,,,,,,,,,,,,,,,,,,,,,,0.0,0.0,-2.0816681711721685e-15,0.0,-3.3306690738754696e-13,-1.1110750042448228e-13,8.881784197001252e-14,-1.3322676295501878e-13,0.0,0.0,0.0,0.0,-5.329070518200751e-13,-9.571765038560165e-14,-8.881784197001252e-14,-6.106226635438361e-13,,,,,,,,,,,,,,,,,,,,,,,,,,,,,,,,,,,,,,,,,,,,,,,,,,,,,,,,,,,,,,,,,,,,,,,,
1698698823.8817697,1.0543352365493774,1.8858431577682495,-0.029829366132616997,0.0,0.7853981852531433,2.2166202131858022e-15,0.5,0.5,1.0517531633377075,1.8335437774658203,-0.02974759414792061,0.0,0.7853981852531433,-3.584235586416096e-15,-0.5,-0.5,,,,,,,,,,,,,,,,,,,,,,,,,,,,,,,,,,,,,,,,,,,,,,,,,,,,,,,,,,,,,,,,,,,,,,,,,,,,,,,,,,,,,,,,,,,,,,,,,,,,,,,,,,,,,,,,,,,,,,,,,,,,,,,,,,,,,,0.0,0.0,0.0,0.0,-4.440892098500626e-14,-7.239451009152797e-14,4.440892098500626e-14,1.4432899320127035e-13,0.0,0.0,0.0,0.0,-1.3322676295501878e-13,-1.5559245786309767e-13,-1.9984014443252818e-13,-1.7763568394002505e-13,,,,,,,,,,,,,,,,,,,,,,,,,,,,,,,,,,,,,,,,,,,,,,,,,,,,,,,,,,,,,,,,,,,,,,,,
1698698824.0533292,1.0543352365493774,1.8858431577682495,-0.029829366132616997,0.0,0.7853981852531433,2.0407077754253187e-15,0.5,0.5,1.0517531633377075,1.8335437774658203,-0.02974759414792061,0.0,0.7853981852531433,-4.48148869359663e-15,-0.5,-0.5,,,,,,,,,,,,,,,,,,,,,,,,,,,,,,,,,,,,,,,,,,,,,,,,,,,,,,,,,,,,,,,,,,,,,,,,,,,,,,,,,,,,,,,,,,,,,,,,,,,,,,,,,,,,,,,,,,,,,,,,,,,,,,,,,,,,,,0.0,0.0,-2.0816681711721685e-15,0.0,-1.9984014443252818e-13,4.2676125356017405e-14,0.0,-1.4432899320127035e-13,0.0,0.0,0.0,0.0,-1.9984014443252818e-13,-3.916175177654142e-14,2.220446049250313e-14,-1.3322676295501878e-13,,,,,,,,,,,,,,,,,,,,,,,,,,,,,,,,,,,,,,,,,,,,,,,,,,,,,,,,,,,,,,,,,,,,,,,,
1698698824.2151222,1.0543352365493774,1.8858431577682495,-0.029829366132616997,0.0,0.7853981852531433,7.301961871253575e-16,0.5,0.5,1.0517531633377075,1.8335437774658203,-0.02974759414792061,0.0,0.7853981852531433,-2.1036330060438934e-15,-0.5,-0.5,,,,,,,,,,,,,,,,,,,,,,,,,,,,,,,,,,,,,,,,,,,,,,,,,,,,,,,,,,,,,,,,,,,,,,,,,,,,,,,,,,,,,,,,,,,,,,,,,,,,,,,,,,,,,,,,,,,,,,,,,,,,,,,,,,,,,,0.0,0.0,-2.0816681711721685e-15,0.0,-4.440892098500626e-14,3.787552885800398e-14,0.0,9.992007221626409e-14,0.0,0.0,0.0,0.0,-2.220446049250313e-14,2.7313817440449695e-14,3.3306690738754696e-14,-2.220446049250313e-14,,,,,,,,,,,,,,,,,,,,,,,,,,,,,,,,,,,,,,,,,,,,,,,,,,,,,,,,,,,,,,,,,,,,,,,,
1698698824.3787274,1.0543352365493774,1.8858431577682495,-0.029829366132616997,0.0,0.7853981852531433,1.2935522946300355e-15,0.5,0.5,1.0517531633377075,1.8335437774658203,-0.02974759414792061,0.0,0.7853981852531433,-2.702479158763816e-15,-0.5,-0.5,,,,,,,,,,,,,,,,,,,,,,,,,,,,,,,,,,,,,,,,,,,,,,,,,,,,,,,,,,,,,,,,,,,,,,,,,,,,,,,,,,,,,,,,,,,,,,,,,,,,,,,,,,,,,,,,,,,,,,,,,,,,,,,,,,,,,,0.0,0.0,-2.0816681711721685e-15,0.0,0.0,0.0,0.0,0.0,0.0,0.0,0.0,0.0,2.220446049250313e-13,-1.378127634440871e-16,-2.1094237467877974e-13,2.220446049250313e-14,,,,,,,,,,,,,,,,,,,,,,,,,,,,,,,,,,,,,,,,,,,,,,,,,,,,,,,,,,,,,,,,,,,,,,,,
1698698824.542339,1.0543352365493774,1.8858431577682495,-0.029829366132616997,0.0,0.7853981852531433,1.2935522946300355e-15,0.5,0.5,1.0517531633377075,1.8335437774658203,-0.02974759414792061,0.0,0.7853981852531433,-2.629801614307029e-15,-0.5,-0.5,,,,,,,,,,,,,,,,,,,,,,,,,,,,,,,,,,,,,,,,,,,,,,,,,,,,,,,,,,,,,,,,,,,,,,,,,,,,,,,,,,,,,,,,,,,,,,,,,,,,,,,,,,,,,,,,,,,,,,,,,,,,,,,,,,,,,,0.0,0.0,-2.0816681711721685e-15,0.0,0.0,0.0,0.0,0.0,0.0,0.0,0.0,0.0,0.0,0.0,0.0,0.0,,,,,,,,,,,,,,,,,,,,,,,,,,,,,,,,,,,,,,,,,,,,,,,,,,,,,,,,,,,,,,,,,,,,,,,,
1698698824.7054284,1.0543352365493774,1.8858431577682495,-0.029829366132616997,0.0,0.7853981852531433,1.2935522946300355e-15,0.5,0.5,1.0517531633377075,1.8335437774658203,-0.02974759414792061,0.0,0.7853981852531433,-2.629801614307029e-15,-0.5,-0.5,,,,,,,,,,,,,,,,,,,,,,,,,,,,,,,,,,,,,,,,,,,,,,,,,,,,,,,,,,,,,,,,,,,,,,,,,,,,,,,,,,,,,,,,,,,,,,,,,,,,,,,,,,,,,,,,,,,,,,,,,,,,,,,,,,,,,,0.0,0.0,0.0,0.0,0.0,0.0,0.0,0.0,0.0,0.0,0.0,0.0,0.0,0.0,0.0,0.0,,,,,,,,,,,,,,,,,,,,,,,,,,,,,,,,,,,,,,,,,,,,,,,,,,,,,,,,,,,,,,,,,,,,,,,,
1698698824.8716674,1.0543352365493774,1.8858431577682495,-0.029829366132616997,0.0,0.7853981852531433,1.2935522946300355e-15,0.5,0.5,1.0517531633377075,1.8335437774658203,-0.02974759414792061,0.0,0.7853981852531433,-2.629801614307029e-15,-0.5,-0.5,,,,,,,,,,,,,,,,,,,,,,,,,,,,,,,,,,,,,,,,,,,,,,,,,,,,,,,,,,,,,,,,,,,,,,,,,,,,,,,,,,,,,,,,,,,,,,,,,,,,,,,,,,,,,,,,,,,,,,,,,,,,,,,,,,,,,,0.0,0.0,0.0,0.0,0.0,0.0,0.0,0.0,0.0,0.0,0.0,0.0,0.0,0.0,0.0,0.0,,,,,,,,,,,,,,,,,,,,,,,,,,,,,,,,,,,,,,,,,,,,,,,,,,,,,,,,,,,,,,,,,,,,,,,,
1698698825.0361507,1.0543352365493774,1.8858431577682495,-0.029829366132616997,0.0,0.7853981852531433,1.2935522946300355e-15,0.5,0.5,1.0517531633377075,1.8335437774658203,-0.02974759414792061,0.0,0.7853981852531433,-2.629801614307029e-15,-0.5,-0.5,,,,,,,,,,,,,,,,,,,,,,,,,,,,,,,,,,,,,,,,,,,,,,,,,,,,,,,,,,,,,,,,,,,,,,,,,,,,,,,,,,,,,,,,,,,,,,,,,,,,,,,,,,,,,,,,,,,,,,,,,,,,,,,,,,,,,,0.0,0.0,0.0,0.0,0.0,0.0,0.0,0.0,0.0,0.0,0.0,0.0,0.0,0.0,0.0,0.0,,,,,,,,,,,,,,,,,,,,,,,,,,,,,,,,,,,,,,,,,,,,,,,,,,,,,,,,,,,,,,,,,,,,,,,,
1698698825.1976795,1.0543352365493774,1.8858431577682495,-0.029829366132616997,0.0,0.7853981852531433,1.2935522946300355e-15,0.5,0.5,1.0517531633377075,1.8335437774658203,-0.02974759414792061,0.0,0.7853981852531433,-2.629801614307029e-15,-0.5,-0.5,,,,,,,,,,,,,,,,,,,,,,,,,,,,,,,,,,,,,,,,,,,,,,,,,,,,,,,,,,,,,,,,,,,,,,,,,,,,,,,,,,,,,,,,,,,,,,,,,,,,,,,,,,,,,,,,,,,,,,,,,,,,,,,,,,,,,,0.0,0.0,0.0,0.0,0.0,0.0,0.0,0.0,0.0,0.0,0.0,0.0,0.0,0.0,0.0,0.0,,,,,,,,,,,,,,,,,,,,,,,,,,,,,,,,,,,,,,,,,,,,,,,,,,,,,,,,,,,,,,,,,,,,,,,,
1698698825.3593063,1.0543352365493774,1.8858431577682495,-0.029829366132616997,0.0,0.7853981852531433,1.2935522946300355e-15,0.5,0.5,1.0517531633377075,1.8335437774658203,-0.02974759414792061,0.0,0.7853981852531433,-2.629801614307029e-15,-0.5,-0.5,,,,,,,,,,,,,,,,,,,,,,,,,,,,,,,,,,,,,,,,,,,,,,,,,,,,,,,,,,,,,,,,,,,,,,,,,,,,,,,,,,,,,,,,,,,,,,,,,,,,,,,,,,,,,,,,,,,,,,,,,,,,,,,,,,,,,,0.0,0.0,0.0,0.0,0.0,0.0,0.0,0.0,0.0,0.0,0.0,0.0,0.0,0.0,0.0,0.0,,,,,,,,,,,,,,,,,,,,,,,,,,,,,,,,,,,,,,,,,,,,,,,,,,,,,,,,,,,,,,,,,,,,,,,,
1698698825.5246086,1.0543352365493774,1.8858431577682495,-0.029829366132616997,0.0,0.7853981852531433,1.2935522946300355e-15,0.5,0.5,1.0517531633377075,1.8335437774658203,-0.02974759414792061,0.0,0.7853981852531433,-2.629801614307029e-15,-0.5,-0.5,,,,,,,,,,,,,,,,,,,,,,,,,,,,,,,,,,,,,,,,,,,,,,,,,,,,,,,,,,,,,,,,,,,,,,,,,,,,,,,,,,,,,,,,,,,,,,,,,,,,,,,,,,,,,,,,,,,,,,,,,,,,,,,,,,,,,,0.0,0.0,-2.0816681711721685e-15,0.0,0.0,0.0,0.0,0.0,0.0,0.0,0.0,0.0,0.0,0.0,0.0,0.0,,,,,,,,,,,,,,,,,,,,,,,,,,,,,,,,,,,,,,,,,,,,,,,,,,,,,,,,,,,,,,,,,,,,,,,,
1698698825.688854,1.0543352365493774,1.8858431577682495,-0.029829366132616997,0.0,0.7853981852531433,1.2935522946300355e-15,0.5,0.5,1.0517531633377075,1.8335437774658203,-0.02974759414792061,0.0,0.7853981852531433,-2.629801614307029e-15,-0.5,-0.5,,,,,,,,,,,,,,,,,,,,,,,,,,,,,,,,,,,,,,,,,,,,,,,,,,,,,,,,,,,,,,,,,,,,,,,,,,,,,,,,,,,,,,,,,,,,,,,,,,,,,,,,,,,,,,,,,,,,,,,,,,,,,,,,,,,,,,0.0,0.0,-2.0816681711721685e-15,0.0,0.0,0.0,0.0,0.0,0.0,0.0,0.0,0.0,0.0,0.0,0.0,0.0,,,,,,,,,,,,,,,,,,,,,,,,,,,,,,,,,,,,,,,,,,,,,,,,,,,,,,,,,,,,,,,,,,,,,,,,
1698698825.850078,1.0543352365493774,1.8858431577682495,-0.029829366132616997,0.0,0.7853981852531433,1.2935522946300355e-15,0.5,0.5,1.0517531633377075,1.8335437774658203,-0.02974759414792061,0.0,0.7853981852531433,-2.629801614307029e-15,-0.5,-0.5,,,,,,,,,,,,,,,,,,,,,,,,,,,,,,,,,,,,,,,,,,,,,,,,,,,,,,,,,,,,,,,,,,,,,,,,,,,,,,,,,,,,,,,,,,,,,,,,,,,,,,,,,,,,,,,,,,,,,,,,,,,,,,,,,,,,,,0.0,0.0,-2.0816681711721685e-15,0.0,0.0,0.0,0.0,0.0,0.0,0.0,0.0,0.0,0.0,0.0,0.0,0.0,,,,,,,,,,,,,,,,,,,,,,,,,,,,,,,,,,,,,,,,,,,,,,,,,,,,,,,,,,,,,,,,,,,,,,,,
1698698826.0120738,1.0543352365493774,1.8858431577682495,-0.029829366132616997,0.0,0.7853981852531433,1.2935522946300355e-15,0.5,0.5,1.0517531633377075,1.8335437774658203,-0.02974759414792061,0.0,0.7853981852531433,-2.629801614307029e-15,-0.5,-0.5,,,,,,,,,,,,,,,,,,,,,,,,,,,,,,,,,,,,,,,,,,,,,,,,,,,,,,,,,,,,,,,,,,,,,,,,,,,,,,,,,,,,,,,,,,,,,,,,,,,,,,,,,,,,,,,,,,,,,,,,,,,,,,,,,,,,,,0.0,0.0,0.0,0.0,0.0,0.0,0.0,0.0,0.0,0.0,0.0,0.0,0.0,0.0,0.0,0.0,,,,,,,,,,,,,,,,,,,,,,,,,,,,,,,,,,,,,,,,,,,,,,,,,,,,,,,,,,,,,,,,,,,,,,,,
1698698826.1730003,1.0543352365493774,1.8858431577682495,-0.029829366132616997,0.0,0.7853981852531433,1.2935522946300355e-15,0.5,0.5,1.0517531633377075,1.8335437774658203,-0.02974759414792061,0.0,0.7853981852531433,-2.629801614307029e-15,-0.5,-0.5,,,,,,,,,,,,,,,,,,,,,,,,,,,,,,,,,,,,,,,,,,,,,,,,,,,,,,,,,,,,,,,,,,,,,,,,,,,,,,,,,,,,,,,,,,,,,,,,,,,,,,,,,,,,,,,,,,,,,,,,,,,,,,,,,,,,,,0.0,0.0,-2.0816681711721685e-15,0.0,0.0,0.0,0.0,0.0,0.0,0.0,0.0,0.0,0.0,0.0,0.0,0.0,,,,,,,,,,,,,,,,,,,,,,,,,,,,,,,,,,,,,,,,,,,,,,,,,,,,,,,,,,,,,,,,,,,,,,,,
1698698826.3350742,1.0543352365493774,1.8858431577682495,-0.029829366132616997,0.0,0.7853981852531433,1.2935522946300355e-15,0.5,0.5,1.0517531633377075,1.8335437774658203,-0.02974759414792061,0.0,0.7853981852531433,-2.629801614307029e-15,-0.5,-0.5,,,,,,,,,,,,,,,,,,,,,,,,,,,,,,,,,,,,,,,,,,,,,,,,,,,,,,,,,,,,,,,,,,,,,,,,,,,,,,,,,,,,,,,,,,,,,,,,,,,,,,,,,,,,,,,,,,,,,,,,,,,,,,,,,,,,,,0.0,0.0,0.0,0.0,0.0,0.0,0.0,0.0,0.0,0.0,0.0,0.0,0.0,0.0,0.0,0.0,,,,,,,,,,,,,,,,,,,,,,,,,,,,,,,,,,,,,,,,,,,,,,,,,,,,,,,,,,,,,,,,,,,,,,,,
1698698826.4996474,1.0543352365493774,1.8858431577682495,-0.029829366132616997,0.0,0.7853981852531433,1.2935522946300355e-15,0.5,0.5,1.0517531633377075,1.8335437774658203,-0.02974759414792061,0.0,0.7853981852531433,-2.629801614307029e-15,-0.5,-0.5,,,,,,,,,,,,,,,,,,,,,,,,,,,,,,,,,,,,,,,,,,,,,,,,,,,,,,,,,,,,,,,,,,,,,,,,,,,,,,,,,,,,,,,,,,,,,,,,,,,,,,,,,,,,,,,,,,,,,,,,,,,,,,,,,,,,,,0.0,0.0,-2.0816681711721685e-15,0.0,0.0,0.0,0.0,0.0,0.0,0.0,0.0,0.0,0.0,0.0,0.0,0.0,,,,,,,,,,,,,,,,,,,,,,,,,,,,,,,,,,,,,,,,,,,,,,,,,,,,,,,,,,,,,,,,,,,,,,,,
1698698826.662515,1.0543352365493774,1.8858431577682495,-0.029829366132616997,0.0,0.7853981852531433,1.2935522946300355e-15,0.5,0.5,1.0517531633377075,1.8335437774658203,-0.02974759414792061,0.0,0.7853981852531433,-2.629801614307029e-15,-0.5,-0.5,,,,,,,,,,,,,,,,,,,,,,,,,,,,,,,,,,,,,,,,,,,,,,,,,,,,,,,,,,,,,,,,,,,,,,,,,,,,,,,,,,,,,,,,,,,,,,,,,,,,,,,,,,,,,,,,,,,,,,,,,,,,,,,,,,,,,,0.0,0.0,2.0816681711721685e-15,0.0,0.0,0.0,0.0,0.0,0.0,0.0,0.0,0.0,0.0,0.0,0.0,0.0,,,,,,,,,,,,,,,,,,,,,,,,,,,,,,,,,,,,,,,,,,,,,,,,,,,,,,,,,,,,,,,,,,,,,,,,
1698698826.8256345,1.0543352365493774,1.8858431577682495,-0.029829366132616997,0.0,0.7853981852531433,1.2935522946300355e-15,0.5,0.5,1.0517531633377075,1.8335437774658203,-0.02974759414792061,0.0,0.7853981852531433,-2.629801614307029e-15,-0.5,-0.5,,,,,,,,,,,,,,,,,,,,,,,,,,,,,,,,,,,,,,,,,,,,,,,,,,,,,,,,,,,,,,,,,,,,,,,,,,,,,,,,,,,,,,,,,,,,,,,,,,,,,,,,,,,,,,,,,,,,,,,,,,,,,,,,,,,,,,0.0,0.0,0.0,0.0,0.0,0.0,0.0,0.0,0.0,0.0,0.0,0.0,0.0,0.0,0.0,0.0,,,,,,,,,,,,,,,,,,,,,,,,,,,,,,,,,,,,,,,,,,,,,,,,,,,,,,,,,,,,,,,,,,,,,,,,
1698698826.987396,1.0543352365493774,1.8858431577682495,-0.029829366132616997,0.0,0.7853981852531433,1.2935522946300355e-15,0.5,0.5,1.0517531633377075,1.8335437774658203,-0.02974759414792061,0.0,0.7853981852531433,-2.629801614307029e-15,-0.5,-0.5,,,,,,,,,,,,,,,,,,,,,,,,,,,,,,,,,,,,,,,,,,,,,,,,,,,,,,,,,,,,,,,,,,,,,,,,,,,,,,,,,,,,,,,,,,,,,,,,,,,,,,,,,,,,,,,,,,,,,,,,,,,,,,,,,,,,,,0.0,0.0,2.0816681711721685e-15,0.0,0.0,0.0,0.0,0.0,0.0,0.0,0.0,0.0,0.0,0.0,0.0,0.0,,,,,,,,,,,,,,,,,,,,,,,,,,,,,,,,,,,,,,,,,,,,,,,,,,,,,,,,,,,,,,,,,,,,,,,,
1698698827.1507766,1.0543352365493774,1.8858431577682495,-0.029829366132616997,0.0,0.7853981852531433,1.2935522946300355e-15,0.5,0.5,1.0517531633377075,1.8335437774658203,-0.02974759414792061,0.0,0.7853981852531433,-2.629801614307029e-15,-0.5,-0.5,,,,,,,,,,,,,,,,,,,,,,,,,,,,,,,,,,,,,,,,,,,,,,,,,,,,,,,,,,,,,,,,,,,,,,,,,,,,,,,,,,,,,,,,,,,,,,,,,,,,,,,,,,,,,,,,,,,,,,,,,,,,,,,,,,,,,,0.0,0.0,2.0816681711721685e-15,0.0,0.0,0.0,0.0,0.0,0.0,0.0,0.0,0.0,0.0,0.0,0.0,0.0,,,,,,,,,,,,,,,,,,,,,,,,,,,,,,,,,,,,,,,,,,,,,,,,,,,,,,,,,,,,,,,,,,,,,,,,
1698698827.313303,1.0543352365493774,1.8858431577682495,-0.029829366132616997,0.0,0.7853981852531433,1.2935522946300355e-15,0.5,0.5,1.0517531633377075,1.8335437774658203,-0.02974759414792061,0.0,0.7853981852531433,-2.629801614307029e-15,-0.5,-0.5,,,,,,,,,,,,,,,,,,,,,,,,,,,,,,,,,,,,,,,,,,,,,,,,,,,,,,,,,,,,,,,,,,,,,,,,,,,,,,,,,,,,,,,,,,,,,,,,,,,,,,,,,,,,,,,,,,,,,,,,,,,,,,,,,,,,,,0.0,0.0,2.0816681711721685e-15,0.0,0.0,0.0,0.0,0.0,0.0,0.0,0.0,0.0,0.0,0.0,0.0,0.0,,,,,,,,,,,,,,,,,,,,,,,,,,,,,,,,,,,,,,,,,,,,,,,,,,,,,,,,,,,,,,,,,,,,,,,,
1698698827.4756448,1.0543352365493774,1.8858431577682495,-0.029829366132616997,0.0,0.7853981852531433,1.2935522946300355e-15,0.5,0.5,1.0517531633377075,1.8335437774658203,-0.02974759414792061,0.0,0.7853981852531433,-2.629801614307029e-15,-0.5,-0.5,,,,,,,,,,,,,,,,,,,,,,,,,,,,,,,,,,,,,,,,,,,,,,,,,,,,,,,,,,,,,,,,,,,,,,,,,,,,,,,,,,,,,,,,,,,,,,,,,,,,,,,,,,,,,,,,,,,,,,,,,,,,,,,,,,,,,,0.0,0.0,2.0816681711721685e-15,0.0,0.0,0.0,0.0,0.0,0.0,0.0,0.0,0.0,0.0,0.0,0.0,0.0,,,,,,,,,,,,,,,,,,,,,,,,,,,,,,,,,,,,,,,,,,,,,,,,,,,,,,,,,,,,,,,,,,,,,,,,
1698698827.6392512,1.0543352365493774,1.8858431577682495,-0.029829366132616997,0.0,0.7853981852531433,1.2935522946300355e-15,0.5,0.5,1.0517531633377075,1.8335437774658203,-0.02974759414792061,0.0,0.7853981852531433,-2.629801614307029e-15,-0.5,-0.5,,,,,,,,,,,,,,,,,,,,,,,,,,,,,,,,,,,,,,,,,,,,,,,,,,,,,,,,,,,,,,,,,,,,,,,,,,,,,,,,,,,,,,,,,,,,,,,,,,,,,,,,,,,,,,,,,,,,,,,,,,,,,,,,,,,,,,0.0,0.0,-2.0816681711721685e-15,0.0,0.0,0.0,0.0,0.0,0.0,0.0,0.0,0.0,0.0,0.0,0.0,0.0,,,,,,,,,,,,,,,,,,,,,,,,,,,,,,,,,,,,,,,,,,,,,,,,,,,,,,,,,,,,,,,,,,,,,,,,
1698698827.801492,1.0543352365493774,1.8858431577682495,-0.029829366132616997,0.0,0.7853981852531433,1.2935522946300355e-15,0.5,0.5,1.0517531633377075,1.8335437774658203,-0.02974759414792061,0.0,0.7853981852531433,-2.629801614307029e-15,-0.5,-0.5,,,,,,,,,,,,,,,,,,,,,,,,,,,,,,,,,,,,,,,,,,,,,,,,,,,,,,,,,,,,,,,,,,,,,,,,,,,,,,,,,,,,,,,,,,,,,,,,,,,,,,,,,,,,,,,,,,,,,,,,,,,,,,,,,,,,,,0.0,0.0,0.0,0.0,0.0,0.0,0.0,0.0,0.0,0.0,0.0,0.0,0.0,0.0,0.0,0.0,,,,,,,,,,,,,,,,,,,,,,,,,,,,,,,,,,,,,,,,,,,,,,,,,,,,,,,,,,,,,,,,,,,,,,,,
1698698827.9636686,1.0543352365493774,1.8858431577682495,-0.029829366132616997,0.0,0.7853981852531433,1.2935522946300355e-15,0.5,0.5,1.0517531633377075,1.8335437774658203,-0.02974759414792061,0.0,0.7853981852531433,-2.629801614307029e-15,-0.5,-0.5,,,,,,,,,,,,,,,,,,,,,,,,,,,,,,,,,,,,,,,,,,,,,,,,,,,,,,,,,,,,,,,,,,,,,,,,,,,,,,,,,,,,,,,,,,,,,,,,,,,,,,,,,,,,,,,,,,,,,,,,,,,,,,,,,,,,,,0.0,0.0,-2.0816681711721685e-15,0.0,0.0,0.0,0.0,0.0,0.0,0.0,0.0,0.0,0.0,0.0,0.0,0.0,,,,,,,,,,,,,,,,,,,,,,,,,,,,,,,,,,,,,,,,,,,,,,,,,,,,,,,,,,,,,,,,,,,,,,,,
1698698828.1269457,1.0543352365493774,1.8858431577682495,-0.029829366132616997,0.0,0.7853981852531433,1.2935522946300355e-15,0.5,0.5,1.0517531633377075,1.8335437774658203,-0.02974759414792061,0.0,0.7853981852531433,-2.629801614307029e-15,-0.5,-0.5,,,,,,,,,,,,,,,,,,,,,,,,,,,,,,,,,,,,,,,,,,,,,,,,,,,,,,,,,,,,,,,,,,,,,,,,,,,,,,,,,,,,,,,,,,,,,,,,,,,,,,,,,,,,,,,,,,,,,,,,,,,,,,,,,,,,,,0.0,0.0,2.0816681711721685e-15,0.0,0.0,0.0,0.0,0.0,0.0,0.0,0.0,0.0,0.0,0.0,0.0,0.0,,,,,,,,,,,,,,,,,,,,,,,,,,,,,,,,,,,,,,,,,,,,,,,,,,,,,,,,,,,,,,,,,,,,,,,,
1698698828.2892637,1.0543352365493774,1.8858431577682495,-0.029829366132616997,0.0,0.7853981852531433,1.2935522946300355e-15,0.5,0.5,1.0517531633377075,1.8335437774658203,-0.02974759414792061,0.0,0.7853981852531433,-2.629801614307029e-15,-0.5,-0.5,,,,,,,,,,,,,,,,,,,,,,,,,,,,,,,,,,,,,,,,,,,,,,,,,,,,,,,,,,,,,,,,,,,,,,,,,,,,,,,,,,,,,,,,,,,,,,,,,,,,,,,,,,,,,,,,,,,,,,,,,,,,,,,,,,,,,,0.0,0.0,-2.0816681711721685e-15,0.0,0.0,0.0,0.0,0.0,0.0,0.0,0.0,0.0,0.0,0.0,0.0,0.0,,,,,,,,,,,,,,,,,,,,,,,,,,,,,,,,,,,,,,,,,,,,,,,,,,,,,,,,,,,,,,,,,,,,,,,,
1698698828.45216,1.0543352365493774,1.8858431577682495,-0.029829366132616997,0.0,0.7853981852531433,1.2935522946300355e-15,0.5,0.5,1.0517531633377075,1.8335437774658203,-0.02974759414792061,0.0,0.7853981852531433,-2.629801614307029e-15,-0.5,-0.5,,,,,,,,,,,,,,,,,,,,,,,,,,,,,,,,,,,,,,,,,,,,,,,,,,,,,,,,,,,,,,,,,,,,,,,,,,,,,,,,,,,,,,,,,,,,,,,,,,,,,,,,,,,,,,,,,,,,,,,,,,,,,,,,,,,,,,0.0,0.0,0.0,0.0,0.0,0.0,0.0,0.0,0.0,0.0,0.0,0.0,0.0,0.0,0.0,0.0,,,,,,,,,,,,,,,,,,,,,,,,,,,,,,,,,,,,,,,,,,,,,,,,,,,,,,,,,,,,,,,,,,,,,,,,
1698698828.6144357,1.0543352365493774,1.8858431577682495,-0.029829366132616997,0.0,0.7853981852531433,1.2935522946300355e-15,0.5,0.5,1.0517531633377075,1.8335437774658203,-0.02974759414792061,0.0,0.7853981852531433,-2.629801614307029e-15,-0.5,-0.5,,,,,,,,,,,,,,,,,,,,,,,,,,,,,,,,,,,,,,,,,,,,,,,,,,,,,,,,,,,,,,,,,,,,,,,,,,,,,,,,,,,,,,,,,,,,,,,,,,,,,,,,,,,,,,,,,,,,,,,,,,,,,,,,,,,,,,0.0,0.0,0.0,0.0,0.0,0.0,0.0,0.0,0.0,0.0,0.0,0.0,0.0,0.0,0.0,0.0,,,,,,,,,,,,,,,,,,,,,,,,,,,,,,,,,,,,,,,,,,,,,,,,,,,,,,,,,,,,,,,,,,,,,,,,
1698698828.7770255,1.0543352365493774,1.8858431577682495,-0.029829366132616997,0.0,0.7853981852531433,1.2935522946300355e-15,0.5,0.5,1.0517531633377075,1.8335437774658203,-0.02974759414792061,0.0,0.7853981852531433,-2.629801614307029e-15,-0.5,-0.5,,,,,,,,,,,,,,,,,,,,,,,,,,,,,,,,,,,,,,,,,,,,,,,,,,,,,,,,,,,,,,,,,,,,,,,,,,,,,,,,,,,,,,,,,,,,,,,,,,,,,,,,,,,,,,,,,,,,,,,,,,,,,,,,,,,,,,0.0,0.0,-2.0816681711721685e-15,0.0,0.0,0.0,0.0,0.0,0.0,0.0,0.0,0.0,0.0,0.0,0.0,0.0,,,,,,,,,,,,,,,,,,,,,,,,,,,,,,,,,,,,,,,,,,,,,,,,,,,,,,,,,,,,,,,,,,,,,,,,
1698698828.9462655,1.0543352365493774,1.8858431577682495,-0.029829366132616997,0.0,0.7853981852531433,1.2935522946300355e-15,0.5,0.5,1.0517531633377075,1.8335437774658203,-0.02974759414792061,0.0,0.7853981852531433,-2.629801614307029e-15,-0.5,-0.5,,,,,,,,,,,,,,,,,,,,,,,,,,,,,,,,,,,,,,,,,,,,,,,,,,,,,,,,,,,,,,,,,,,,,,,,,,,,,,,,,,,,,,,,,,,,,,,,,,,,,,,,,,,,,,,,,,,,,,,,,,,,,,,,,,,,,,0.0,0.0,0.0,0.0,0.0,0.0,0.0,0.0,0.0,0.0,0.0,0.0,0.0,0.0,0.0,0.0,,,,,,,,,,,,,,,,,,,,,,,,,,,,,,,,,,,,,,,,,,,,,,,,,,,,,,,,,,,,,,,,,,,,,,,,
1698698829.1075673,1.0543352365493774,1.8858431577682495,-0.029829366132616997,0.0,0.7853981852531433,1.2935522946300355e-15,0.5,0.5,1.0517531633377075,1.8335437774658203,-0.02974759414792061,0.0,0.7853981852531433,-2.629801614307029e-15,-0.5,-0.5,,,,,,,,,,,,,,,,,,,,,,,,,,,,,,,,,,,,,,,,,,,,,,,,,,,,,,,,,,,,,,,,,,,,,,,,,,,,,,,,,,,,,,,,,,,,,,,,,,,,,,,,,,,,,,,,,,,,,,,,,,,,,,,,,,,,,,0.0,0.0,0.0,0.0,0.0,0.0,0.0,0.0,0.0,0.0,0.0,0.0,0.0,0.0,0.0,0.0,,,,,,,,,,,,,,,,,,,,,,,,,,,,,,,,,,,,,,,,,,,,,,,,,,,,,,,,,,,,,,,,,,,,,,,,
1698698829.2788842,1.0543352365493774,1.8858431577682495,-0.029829366132616997,0.0,0.7853981852531433,1.2935522946300355e-15,0.5,0.5,1.0517531633377075,1.8335437774658203,-0.02974759414792061,0.0,0.7853981852531433,-2.629801614307029e-15,-0.5,-0.5,,,,,,,,,,,,,,,,,,,,,,,,,,,,,,,,,,,,,,,,,,,,,,,,,,,,,,,,,,,,,,,,,,,,,,,,,,,,,,,,,,,,,,,,,,,,,,,,,,,,,,,,,,,,,,,,,,,,,,,,,,,,,,,,,,,,,,0.0,0.0,-2.0816681711721685e-15,0.0,0.0,0.0,0.0,0.0,0.0,0.0,0.0,0.0,0.0,0.0,0.0,0.0,,,,,,,,,,,,,,,,,,,,,,,,,,,,,,,,,,,,,,,,,,,,,,,,,,,,,,,,,,,,,,,,,,,,,,,,
1698698829.4424126,1.0543352365493774,1.8858431577682495,-0.029829366132616997,0.0,0.7853981852531433,1.2935522946300355e-15,0.5,0.5,1.0517531633377075,1.8335437774658203,-0.02974759414792061,0.0,0.7853981852531433,-2.629801614307029e-15,-0.5,-0.5,,,,,,,,,,,,,,,,,,,,,,,,,,,,,,,,,,,,,,,,,,,,,,,,,,,,,,,,,,,,,,,,,,,,,,,,,,,,,,,,,,,,,,,,,,,,,,,,,,,,,,,,,,,,,,,,,,,,,,,,,,,,,,,,,,,,,,0.0,0.0,0.0,0.0,0.0,0.0,0.0,0.0,0.0,0.0,0.0,0.0,0.0,0.0,0.0,0.0,,,,,,,,,,,,,,,,,,,,,,,,,,,,,,,,,,,,,,,,,,,,,,,,,,,,,,,,,,,,,,,,,,,,,,,,
1698698829.604098,1.0543352365493774,1.8858431577682495,-0.029829366132616997,0.0,0.7853981852531433,1.2935522946300355e-15,0.5,0.5,1.0517531633377075,1.8335437774658203,-0.02974759414792061,0.0,0.7853981852531433,-2.629801614307029e-15,-0.5,-0.5,,,,,,,,,,,,,,,,,,,,,,,,,,,,,,,,,,,,,,,,,,,,,,,,,,,,,,,,,,,,,,,,,,,,,,,,,,,,,,,,,,,,,,,,,,,,,,,,,,,,,,,,,,,,,,,,,,,,,,,,,,,,,,,,,,,,,,0.0,0.0,-2.0816681711721685e-15,0.0,0.0,0.0,0.0,0.0,0.0,0.0,0.0,0.0,0.0,0.0,0.0,0.0,,,,,,,,,,,,,,,,,,,,,,,,,,,,,,,,,,,,,,,,,,,,,,,,,,,,,,,,,,,,,,,,,,,,,,,,
1698698829.7659047,1.0543352365493774,1.8858431577682495,-0.029829366132616997,0.0,0.7853981852531433,1.2935522946300355e-15,0.5,0.5,1.0517531633377075,1.8335437774658203,-0.02974759414792061,0.0,0.7853981852531433,-2.629801614307029e-15,-0.5,-0.5,,,,,,,,,,,,,,,,,,,,,,,,,,,,,,,,,,,,,,,,,,,,,,,,,,,,,,,,,,,,,,,,,,,,,,,,,,,,,,,,,,,,,,,,,,,,,,,,,,,,,,,,,,,,,,,,,,,,,,,,,,,,,,,,,,,,,,0.0,0.0,-2.0816681711721685e-15,0.0,0.0,0.0,0.0,0.0,0.0,0.0,0.0,0.0,0.0,0.0,0.0,0.0,,,,,,,,,,,,,,,,,,,,,,,,,,,,,,,,,,,,,,,,,,,,,,,,,,,,,,,,,,,,,,,,,,,,,,,,
1698698829.9281762,1.0543352365493774,1.8858431577682495,-0.029829366132616997,0.0,0.7853981852531433,1.2935522946300355e-15,0.5,0.5,1.0517531633377075,1.8335437774658203,-0.02974759414792061,0.0,0.7853981852531433,-2.629801614307029e-15,-0.5,-0.5,,,,,,,,,,,,,,,,,,,,,,,,,,,,,,,,,,,,,,,,,,,,,,,,,,,,,,,,,,,,,,,,,,,,,,,,,,,,,,,,,,,,,,,,,,,,,,,,,,,,,,,,,,,,,,,,,,,,,,,,,,,,,,,,,,,,,,0.0,0.0,-2.0816681711721685e-15,0.0,0.0,0.0,0.0,0.0,0.0,0.0,0.0,0.0,0.0,0.0,0.0,0.0,,,,,,,,,,,,,,,,,,,,,,,,,,,,,,,,,,,,,,,,,,,,,,,,,,,,,,,,,,,,,,,,,,,,,,,,
1698698830.091634,1.0543352365493774,1.8858431577682495,-0.029829366132616997,0.0,0.7853981852531433,1.2935522946300355e-15,0.5,0.5,1.0517531633377075,1.8335437774658203,-0.02974759414792061,0.0,0.7853981852531433,-2.629801614307029e-15,-0.5,-0.5,,,,,,,,,,,,,,,,,,,,,,,,,,,,,,,,,,,,,,,,,,,,,,,,,,,,,,,,,,,,,,,,,,,,,,,,,,,,,,,,,,,,,,,,,,,,,,,,,,,,,,,,,,,,,,,,,,,,,,,,,,,,,,,,,,,,,,0.0,0.0,-2.0816681711721685e-15,0.0,0.0,0.0,0.0,0.0,0.0,0.0,0.0,0.0,0.0,0.0,0.0,0.0,,,,,,,,,,,,,,,,,,,,,,,,,,,,,,,,,,,,,,,,,,,,,,,,,,,,,,,,,,,,,,,,,,,,,,,,
1698698830.258941,1.0543352365493774,1.8858431577682495,-0.029829366132616997,0.0,0.7853981852531433,1.2935522946300355e-15,0.5,0.5,1.0517531633377075,1.8335437774658203,-0.02974759414792061,0.0,0.7853981852531433,-2.629801614307029e-15,-0.5,-0.5,,,,,,,,,,,,,,,,,,,,,,,,,,,,,,,,,,,,,,,,,,,,,,,,,,,,,,,,,,,,,,,,,,,,,,,,,,,,,,,,,,,,,,,,,,,,,,,,,,,,,,,,,,,,,,,,,,,,,,,,,,,,,,,,,,,,,,0.0,0.0,-2.0816681711721685e-15,0.0,0.0,0.0,0.0,0.0,0.0,0.0,0.0,0.0,0.0,0.0,0.0,0.0,,,,,,,,,,,,,,,,,,,,,,,,,,,,,,,,,,,,,,,,,,,,,,,,,,,,,,,,,,,,,,,,,,,,,,,,
1698698830.4226449,1.0543352365493774,1.8858431577682495,-0.029829366132616997,0.0,0.7853981852531433,1.2935522946300355e-15,0.5,0.5,1.0517531633377075,1.8335437774658203,-0.02974759414792061,0.0,0.7853981852531433,-2.629801614307029e-15,-0.5,-0.5,,,,,,,,,,,,,,,,,,,,,,,,,,,,,,,,,,,,,,,,,,,,,,,,,,,,,,,,,,,,,,,,,,,,,,,,,,,,,,,,,,,,,,,,,,,,,,,,,,,,,,,,,,,,,,,,,,,,,,,,,,,,,,,,,,,,,,0.0,0.0,0.0,0.0,0.0,0.0,0.0,0.0,0.0,0.0,0.0,0.0,0.0,0.0,0.0,0.0,,,,,,,,,,,,,,,,,,,,,,,,,,,,,,,,,,,,,,,,,,,,,,,,,,,,,,,,,,,,,,,,,,,,,,,,
1698698830.584776,1.0543352365493774,1.8858431577682495,-0.029829366132616997,0.0,0.7853981852531433,1.2935522946300355e-15,0.5,0.5,1.0517531633377075,1.8335437774658203,-0.02974759414792061,0.0,0.7853981852531433,-2.629801614307029e-15,-0.5,-0.5,,,,,,,,,,,,,,,,,,,,,,,,,,,,,,,,,,,,,,,,,,,,,,,,,,,,,,,,,,,,,,,,,,,,,,,,,,,,,,,,,,,,,,,,,,,,,,,,,,,,,,,,,,,,,,,,,,,,,,,,,,,,,,,,,,,,,,0.0,0.0,0.0,0.0,0.0,0.0,0.0,0.0,0.0,0.0,0.0,0.0,0.0,0.0,0.0,0.0,,,,,,,,,,,,,,,,,,,,,,,,,,,,,,,,,,,,,,,,,,,,,,,,,,,,,,,,,,,,,,,,,,,,,,,,
1698698830.7471094,1.0543352365493774,1.8858431577682495,-0.029829366132616997,0.0,0.7853981852531433,1.2935522946300355e-15,0.5,0.5,1.0517531633377075,1.8335437774658203,-0.02974759414792061,0.0,0.7853981852531433,-2.629801614307029e-15,-0.5,-0.5,,,,,,,,,,,,,,,,,,,,,,,,,,,,,,,,,,,,,,,,,,,,,,,,,,,,,,,,,,,,,,,,,,,,,,,,,,,,,,,,,,,,,,,,,,,,,,,,,,,,,,,,,,,,,,,,,,,,,,,,,,,,,,,,,,,,,,0.0,0.0,0.0,0.0,0.0,0.0,0.0,0.0,0.0,0.0,0.0,0.0,0.0,0.0,0.0,0.0,,,,,,,,,,,,,,,,,,,,,,,,,,,,,,,,,,,,,,,,,,,,,,,,,,,,,,,,,,,,,,,,,,,,,,,,
1698698830.9089708,1.0545741319656372,1.8857901096343994,-0.02987729012966156,0.0,0.785399317741394,-5.9396129472588655e-06,0.5000037550926208,0.5000191926956177,1.0517531633377075,1.8335437774658203,-0.02974759414792061,0.0,0.7853981852531433,-2.629801614307029e-15,-0.5,-0.5,,,,,,,,,,,,,,,,,,,,,,,,,,,,,,,,,,,,,,,,,,,,,,,,,,,,,,,,,,,,,,,,,,,,,,,,,,,,,,,,,,,,,,,,,,,,,,,,,,,,,,,,,,,,,,,,,,,,,,,,,,,,,,,,,,,,,,0.004116601310670376,-0.0012740944512188435,-0.0010438717436045408,0.0,1.826830703066662e-05,-0.002422145800665021,0.0031107531394809484,0.0024457070976495743,0.0,0.0,0.0,0.0,0.0,0.0,0.0,0.0,,,,,,,,,,,,,,,,,,,,,,,,,,,,,,,,,,,,,,,,,,,,,,,,,,,,,,,,,,,,,,,,,,,,,,,,
1698698831.0708742,1.054848074913025,1.8857331275939941,-0.02993009425699711,0.0,0.7853984832763672,-1.5893951967882458e-06,0.4999959170818329,0.5000060796737671,1.0517531633377075,1.8335437774658203,-0.02974759414792061,0.0,0.7853981852531433,-2.629801614307029e-15,-0.5,-0.5,,,,,,,,,,,,,,,,,,,,,,,,,,,,,,,,,,,,,,,,,,,,,,,,,,,,,,,,,,,,,,,,,,,,,,,,,,,,,,,,,,,,,,,,,,,,,,,,,,,,,,,,,,,,,,,,,,,,,,,,,,,,,,,,,,,,,,0.0008225119672715664,7.003078735579038e-06,-3.3707619877532125e-05,0.0,-0.00041758944280445576,-0.0016143184620887041,0.0012876554392278194,-0.0024651866406202316,0.0,0.0,0.0,0.0,0.0,0.0,0.0,0.0,,,,,,,,,,,,,,,,,,,,,,,,,,,,,,,,,,,,,,,,,,,,,,,,,,,,,,,,,,,,,,,,,,,,,,,,
1698698831.2332716,1.0552785396575928,1.8856393098831177,-0.030015841126441956,0.0,0.785399317741394,-4.250265192240477e-06,0.5000044107437134,0.5000131130218506,1.0517531633377075,1.8335437774658203,-0.02974759414792061,0.0,0.7853981852531433,-2.629801614307029e-15,-0.5,-0.5,,,,,,,,,,,,,,,,,,,,,,,,,,,,,,,,,,,,,,,,,,,,,,,,,,,,,,,,,,,,,,,,,,,,,,,,,,,,,,,,,,,,,,,,,,,,,,,,,,,,,,,,,,,,,,,,,,,,,,,,,,,,,,,,,,,,,,0.002886069007217884,-0.0009102339972741902,-0.0007775825215503573,0.0,2.398855212959461e-05,-0.001196137280203402,0.0028570375870913267,0.0005379380891099572,0.0,0.0,0.0,0.0,0.0,0.0,0.0,0.0,,,,,,,,,,,,,,,,,,,,,,,,,,,,,,,,,,,,,,,,,,,,,,,,,,,,,,,,,,,,,,,,,,,,,,,,
1698698831.3988695,1.0556482076644897,1.8855596780776978,-0.0300887543708086,0.0,0.7853993773460388,-4.357749730843352e-06,0.5000044703483582,0.5000136494636536,1.0517531633377075,1.8335437774658203,-0.02974759414792061,0.0,0.7853981852531433,-2.629801614307029e-15,-0.5,-0.5,,,,,,,,,,,,,,,,,,,,,,,,,,,,,,,,,,,,,,,,,,,,,,,,,,,,,,,,,,,,,,,,,,,,,,,,,,,,,,,,,,,,,,,,,,,,,,,,,,,,,,,,,,,,,,,,,,,,,,,,,,,,,,,,,,,,,,0.0030153326224535704,-0.0009486177004873753,-0.0008071280899457633,0.0,2.3129861801862717e-05,-0.001230035093612969,0.00292977481149137,0.0005651903338730335,0.0,0.0,0.0,0.0,0.0,0.0,0.0,0.0,,,,,,,,,,,,,,,,,,,,,,,,,,,,,,,,,,,,,,,,,,,,,,,,,,,,,,,,,,,,,,,,,,,,,,,,
1698698831.5650651,1.0561128854751587,1.8854597806930542,-0.030180316418409348,0.0,0.7853990197181702,-5.452147888718173e-06,0.5000025033950806,0.5000144243240356,1.0517531633377075,1.8335437774658203,-0.02974759414792061,0.0,0.7853981852531433,-2.629801614307029e-15,-0.5,-0.5,,,,,,,,,,,,,,,,,,,,,,,,,,,,,,,,,,,,,,,,,,,,,,,,,,,,,,,,,,,,,,,,,,,,,,,,,,,,,,,,,,,,,,,,,,,,,,,,,,,,,,,,,,,,,,,,,,,,,,,,,,,,,,,,,,,,,,0.0031861241441220045,-0.0009149303077720106,-0.0007794419652782381,0.0,-0.00011487257870612666,-0.0024281127844005823,0.00320049119181931,0.0007521607331000268,0.0,0.0,0.0,0.0,0.0,0.0,0.0,0.0,,,,,,,,,,,,,,,,,,,,,,,,,,,,,,,,,,,,,,,,,,,,,,,,,,,,,,,,,,,,,,,,,,,,,,,,
1698698831.7309122,1.0565272569656372,1.8853715658187866,-0.03026140108704567,0.0,0.7853997945785522,8.482196790282615e-06,0.4999832808971405,0.5000125169754028,1.0517531633377075,1.8335437774658203,-0.02974759414792061,0.0,0.7853981852531433,-2.629801614307029e-15,-0.5,-0.5,,,,,,,,,,,,,,,,,,,,,,,,,,,,,,,,,,,,,,,,,,,,,,,,,,,,,,,,,,,,,,,,,,,,,,,,,,,,,,,,,,,,,,,,,,,,,,,,,,,,,,,,,,,,,,,,,,,,,,,,,,,,,,,,,,,,,,0.0005167870549485087,0.00044851249549537897,0.0002731681161094457,0.0,-0.00017881224630400538,0.002408240456134081,-0.004230508115142584,-0.0031453256960958242,0.0,0.0,0.0,0.0,0.0,0.0,0.0,0.0,,,,,,,,,,,,,,,,,,,,,,,,,,,,,,,,,,,,,,,,,,,,,,,,,,,,,,,,,,,,,,,,,,,,,,,,
1698698831.8937268,1.0574493408203125,1.885172724723816,-0.030443992465734482,0.0,0.7853991389274597,-3.5097932595817838e-06,0.49998998641967773,0.5000171065330505,1.0517531633377075,1.8335437774658203,-0.02974759414792061,0.0,0.7853981852531433,-2.629801614307029e-15,-0.5,-0.5,,,,,,,,,,,,,,,,,,,,,,,,,,,,,,,,,,,,,,,,,,,,,,,,,,,,,,,,,,,,,,,,,,,,,,,,,,,,,,,,,,,,,,,,,,,,,,,,,,,,,,,,,,,,,,,,,,,,,,,,,,,,,,,,,,,,,,0.0020480253733694553,-6.957754976610886e-06,-0.00011409386934246868,0.0,-0.0010157466167584062,-0.003884147619828582,0.003924984950572252,-0.006526201032102108,0.0,0.0,0.0,0.0,0.0,0.0,0.0,0.0,,,,,,,,,,,,,,,,,,,,,,,,,,,,,,,,,,,,,,,,,,,,,,,,,,,,,,,,,,,,,,,,,,,,,,,,
1698698832.0573242,1.0584591627120972,1.8849501609802246,-0.030646920204162598,0.0,0.7853997349739075,-1.8760783859761432e-05,0.5000084638595581,0.5000414252281189,1.0517531633377075,1.8335437774658203,-0.02974759414792061,0.0,0.7853981852531433,-2.629801614307029e-15,-0.5,-0.5,,,,,,,,,,,,,,,,,,,,,,,,,,,,,,,,,,,,,,,,,,,,,,,,,,,,,,,,,,,,,,,,,,,,,,,,,,,,,,,,,,,,,,,,,,,,,,,,,,,,,,,,,,,,,,,,,,,,,,,,,,,,,,,,,,,,,,0.009759507142007351,-0.002866259077563882,-0.002329394454136491,0.0,-0.0007232516654767096,-0.008657601661980152,0.0096943574026227,0.0020840500947088003,0.0,0.0,0.0,0.0,0.0,0.0,0.0,0.0,,,,,,,,,,,,,,,,,,,,,,,,,,,,,,,,,,,,,,,,,,,,,,,,,,,,,,,,,,,,,,,,,,,,,,,,
1698698832.2274272,1.0599650144577026,1.8846280574798584,-0.030944714322686195,0.0,0.7854017615318298,6.509919330710545e-06,0.4999634921550751,0.5000373721122742,1.0519325733184814,1.8335082530975342,-0.029783116653561592,0.0,0.7853977084159851,-1.1019781140930718e-06,-0.5000028014183044,-0.4999838173389435,,,,,,,,,,,,,,,,,,,,,,,,,,,,,,,,,,,,,,,,,,,,,,,,,,,,,,,,,,,,,,,,,,,,,,,,,,,,,,,,,,,,,,,,,,,,,,,,,,,,,,,,,,,,,,,,,,,,,,,,,,,,,,,,,,,,,,0.002354865428060293,0.0009544402710162103,0.0004271124489605427,0.0,-0.0015230396529659629,-0.0025872313417494297,0.0005829731817357242,-0.013508802279829979,-0.00025775612448342144,-0.00021306764392647892,0.0002953238436020911,0.0,-0.00024699242203496397,0.0011179513530805707,0.0027080790605396032,0.00047884113155305386,,,,,,,,,,,,,,,,,,,,,,,,,,,,,,,,,,,,,,,,,,,,,,,,,,,,,,,,,,,,,,,,,,,,,,,,
1698698832.3915691,1.0611650943756104,1.8843657970428467,-0.03118574619293213,0.0,0.7854032516479492,2.5369061404489912e-05,0.49994945526123047,0.5000383257865906,1.0523420572280884,1.8334285020828247,-0.02986542321741581,0.0,0.7853967547416687,-4.625727342499886e-06,-0.5000061392784119,-0.4999818503856659,,,,,,,,,,,,,,,,,,,,,,,,,,,,,,,,,,,,,,,,,,,,,,,,,,,,,,,,,,,,,,,,,,,,,,,,,,,,,,,,,,,,,,,,,,,,,,,,,,,,,,,,,,,,,,,,,,,,,,,,,,,,,,,,,,,,,,0.0016946448013186455,0.0013139104703441262,0.000772097846493125,0.0,-0.0004748221253976226,0.0071898638270795345,-0.012818960472941399,-0.009442001581192017,-3.5720418964046985e-05,-0.0004287342308089137,0.00023739386233501136,0.0,-0.0007827749359421432,-0.0004687795299105346,0.0013310844078660011,0.002227397635579109,,,,,,,,,,,,,,,,,,,,,,,,,,,,,,,,,,,,,,,,,,,,,,,,,,,,,,,,,,,,,,,,,,,,,,,,
1698698832.5542479,1.063162922859192,1.8839294910430908,-0.03158814460039139,0.0,0.7854002714157104,-6.151319212222006e-06,0.4999804198741913,0.5000355839729309,1.052706241607666,1.833357810974121,-0.02993825078010559,0.0,0.7853981852531433,-5.124019253344159e-07,-0.5000021457672119,-0.49998024106025696,,,,,,,,,,,,,,,,,,,,,,,,,,,,,,,,,,,,,,,,,,,,,,,,,,,,,,,,,,,,,,,,,,,,,,,,,,,,,,,,,,,,,,,,,,,,,,,,,,,,,,,,,,,,,,,,,,,,,,,,,,,,,,,,,,,,,,0.004537386354058981,-0.00020252697868272662,-0.00037953193532302976,0.0,-0.001819741097278893,-0.007090901955962181,0.007059953175485134,-0.011750305071473122,0.0004426803207024932,-0.0002682176127564162,0.00012746003631036729,0.0,-0.0001044126765918918,0.0016884435899555683,0.0038810039404779673,-0.0016289983177557588,,,,,,,,,,,,,,,,,,,,,,,,,,,,,,,,,,,,,,,,,,,,,,,,,,,,,,,,,,,,,,,,,,,,,,,,
1698698832.716313,1.0647867918014526,1.8835731744766235,-0.031916867941617966,0.0,0.7854049205780029,3.448532515903935e-05,0.4999315142631531,0.5000513195991516,1.053263545036316,1.833250641822815,-0.03005148284137249,0.0,0.7853990793228149,-8.290397090604529e-06,-0.5000208020210266,-0.49998125433921814,,,,,,,,,,,,,,,,,,,,,,,,,,,,,,,,,,,,,,,,,,,,,,,,,,,,,,,,,,,,,,,,,,,,,,,,,,,,,,,,,,,,,,,,,,,,,,,,,,,,,,,,,,,,,,,,,,,,,,,,,,,,,,,,,,,,,,0.0022071292623877525,0.0017420697258785367,0.0010582488030195236,0.0,-0.0006451106746681035,0.009788630530238152,-0.017521031200885773,-0.012686949223279953,0.004920464474707842,-0.0009601212223060429,-0.0011078884126618505,0.0,-0.00026774822617881,-0.0017785194795578718,-0.0026035471819341183,0.002549629658460617,,,,,,,,,,,,,,,,,,,,,,,,,,,,,,,,,,,,,,,,,,,,,,,,,,,,,,,,,,,,,,,,,,,,,,,,
1698698832.879147,1.0670300722122192,1.8830773830413818,-0.03237523138523102,0.0,0.7854030728340149,2.2100679416325875e-05,0.49996399879455566,0.5000372529029846,1.053718090057373,1.8331624269485474,-0.03014278970658779,0.0,0.7853999733924866,-1.046373199642403e-06,-0.5000080466270447,-0.4999964237213135,,,,,,,,,,,,,,,,,,,,,,,,,,,,,,,,,,,,,,,,,,,,,,,,,,,,,,,,,,,,,,,,,,,,,,,,,,,,,,,,,,,,,,,,,,,,,,,,,,,,,,,,,,,,,,,,,,,,,,,,,,,,,,,,,,,,,,0.003903705393895507,3.699534499901347e-05,-6.789012695662677e-05,0.0,-0.00023697013966739178,0.009136629290878773,-0.01226853858679533,-0.006953030824661255,0.004608949646353722,-0.0005073270876891911,-0.0012107080547139049,0.0,0.00036641681799665093,-8.053486817516387e-05,-0.0010775290429592133,-0.004675779026001692,,,,,,,,,,,,,,,,,,,,,,,,,,,,,,,,,,,,,,,,,,,,,,,,,,,,,,,,,,,,,,,,,,,,,,,,
1698698833.0406945,1.0689170360565186,1.8826614618301392,-0.03276088461279869,0.0,0.7854006886482239,-6.698358902212931e-06,0.4999760389328003,0.5000441074371338,1.0545026063919067,1.833009123802185,-0.03030146099627018,0.0,0.7853996753692627,-1.2830005289288238e-05,-0.5000317692756653,-0.4999714493751526,,,,,,,,,,,,,,,,,,,,,,,,,,,,,,,,,,,,,,,,,,,,,,,,,,,,,,,,,,,,,,,,,,,,,,,,,,,,,,,,,,,,,,,,,,,,,,,,,,,,,,,,,,,,,,,,,,,,,,,,,,,,,,,,,,,,,,0.005780340638011694,-0.0004009217082057148,-0.0005541308782994747,0.0,-0.002158217132091522,-0.008070666342973709,0.007962053641676903,-0.01342218928039074,0.007446180563420057,-0.0015016983961686492,-0.001657575136050582,0.0,-0.00032342050690203905,-0.0026822981890290976,-0.004232915583997965,0.0039048108737915754,,,,,,,,,,,,,,,,,,,,,,,,,,,,,,,,,,,,,,,,,,,,,,,,,,,,,,,,,,,,,,,,,,,,,,,,
1698698833.203634,1.071506381034851,1.8820797204971313,-0.03330019861459732,0.0,0.7854045629501343,-2.971454887301661e-05,0.500024676322937,0.5000836253166199,1.055088758468628,1.832892656326294,-0.030418308451771736,0.0,0.7853968739509583,-5.808191417600028e-06,-0.5000091195106506,-0.4999821186065674,,,,,,,,,,,,,,,,,,,,,,,,,,,,,,,,,,,,,,,,,,,,,,,,,,,,,,,,,,,,,,,,,,,,,,,,,,,,,,,,,,,,,,,,,,,,,,,,,,,,,,,,,,,,,,,,,,,,,,,,,,,,,,,,,,,,,,0.017781103029847145,-0.005299089010804892,-0.0048901899717748165,0.0,8.527081809006631e-05,-0.010824102908372879,0.020001258701086044,0.004071277566254139,0.0011206273920834064,-0.0006420520949177444,-4.144718695897609e-05,0.0,-0.0007696975371800363,-0.0010227339807897806,0.0002042057749349624,0.0020592615474015474,,,,,,,,,,,,,,,,,,,,,,,,,,,,,,,,,,,,,,,,,,,,,,,,,,,,,,,,,,,,,,,,,,,,,,,,
1698698833.3665774,1.074289083480835,1.8814631700515747,-0.03387465700507164,0.0,0.7854087352752686,5.0604463467607275e-05,0.499916672706604,0.5000686049461365,1.0557527542114258,1.8327653408050537,-0.030554238706827164,0.0,0.7854010462760925,-7.37678783480078e-06,-0.5000253915786743,-0.49998727440834045,,,,,,,,,,,,,,,,,,,,,,,,,,,,,,,,,,,,,,,,,,,,,,,,,,,,,,,,,,,,,,,,,,,,,,,,,,,,,,,,,,,,,,,,,,,,,,,,,,,,,,,,,,,,,,,,,,,,,,,,,,,,,,,,,,,,,,0.00253704353235662,0.0018960235174745321,0.001152152894064784,0.0,-3.3955297112697735e-05,0.017711244523525238,-0.02356330119073391,-0.016438564285635948,0.00837031751871109,-0.0011945815058425069,-0.002092597773298621,0.0,0.000376939307898283,-0.0017067460576072335,-0.004701478406786919,-0.0011119177797809243,,,,,,,,,,,,,,,,,,,,,,,,,,,,,,,,,,,,,,,,,,,,,,,,,,,,,,,,,,,,,,,,,,,,,,,,
1698698833.5288072,1.0766539573669434,1.8809194564819336,-0.03437812253832817,0.0,0.7854199409484863,4.0034701669355854e-05,0.4999227523803711,0.5002097487449646,1.0565568208694458,1.832607388496399,-0.030716780573129654,0.0,0.7854021191596985,-5.12686438014498e-06,-0.5000267624855042,-0.49998363852500916,,,,,,,,,,,,,,,,,,,,,,,,,,,,,,,,,,,,,,,,,,,,,,,,,,,,,,,,,,,,,,,,,,,,,,,,,,,,,,,,,,,,,,,,,,,,,,,,,,,,,,,,,,,,,,,,,,,,,,,,,,,,,,,,,,,,,,0.027324341237545013,-0.005653632339090109,-0.005591845605522394,0.0,0.002476175781339407,0.014018671587109566,-0.01812816597521305,0.009690449573099613,0.008435596711933613,-0.0011609559878706932,-0.001983871916308999,0.0,0.0010164586128666997,-1.6847179722390138e-05,-0.0033933052327483892,-6.83909238432534e-05,,,,,,,,,,,,,,,,,,,,,,,,,,,,,,,,,,,,,,,,,,,,,,,,,,,,,,,,,,,,,,,,,,,,,,,,
1698698833.6909533,1.0801056623458862,1.8801430463790894,-0.035105444490909576,0.0,0.7854019403457642,-4.3024952901760116e-05,0.5000198483467102,0.5001005530357361,1.057149887084961,1.8324909210205078,-0.03083743527531624,0.0,0.7854008674621582,-7.0084479375509545e-06,-0.5000239610671997,-0.4999878704547882,,,,,,,,,,,,,,,,,,,,,,,,,,,,,,,,,,,,,,,,,,,,,,,,,,,,,,,,,,,,,,,,,,,,,,,,,,,,,,,,,,,,,,,,,,,,,,,,,,,,,,,,,,,,,,,,,,,,,,,,,,,,,,,,,,,,,,0.02289860136806965,-0.006625396199524403,-0.005722471978515387,0.0,-0.001630894374102354,-0.0201423317193985,0.022968556731939316,0.004354167263954878,0.007887710817158222,-0.0011370775755494833,-0.0019734699744731188,0.0,0.0003503222542349249,-0.001601214287802577,-0.004380806349217892,-0.001033941749483347,,,,,,,,,,,,,,,,,,,,,,,,,,,,,,,,,,,,,,,,,,,,,,,,,,,,,,,,,,,,,,,,,,,,,,,,
1698698833.854094,1.0826963186264038,1.879552960395813,-0.03566060960292816,0.0,0.7854065895080566,-3.412577279959805e-05,0.5000385046005249,0.5001028776168823,1.05792236328125,1.8323367834091187,-0.030993392691016197,0.0,0.7853976488113403,-1.0018913599196821e-05,-0.5000203847885132,-0.4999643862247467,,,,,,,,,,,,,,,,,,,,,,,,,,,,,,,,,,,,,,,,,,,,,,,,,,,,,,,,,,,,,,,,,,,,,,,,,,,,,,,,,,,,,,,,,,,,,,,,,,,,,,,,,,,,,,,,,,,,,,,,,,,,,,,,,,,,,,0.022036530077457428,-0.006928537972271442,-0.006359828170388937,0.0,0.00026029659784398973,-0.009818107821047306,0.023850632831454277,0.003838000586256385,0.003358265617862344,-0.0010535393375903368,-0.0005175478290766478,0.0,-0.0008388209389522672,-0.0010494546731933951,0.0008734251605346799,0.004086178727447987,,,,,,,,,,,,,,,,,,,,,,,,,,,,,,,,,,,,,,,,,,,,,,,,,,,,,,,,,,,,,,,,,,,,,,,,
1698698834.0150723,1.0853571891784668,1.8789453506469727,-0.0362311415374279,0.0,0.7854170799255371,5.1041228289250284e-05,0.49990615248680115,0.5001620054244995,1.0585976839065552,1.8322049379348755,-0.031131839379668236,0.0,0.7853993773460388,-1.051359413395403e-05,-0.5000261068344116,-0.49997618794441223,,,,,,,,,,,,,,,,,,,,,,,,,,,,,,,,,,,,,,,,,,,,,,,,,,,,,,,,,,,,,,,,,,,,,,,,,,,,,,,,,,,,,,,,,,,,,,,,,,,,,,,,,,,,,,,,,,,,,,,,,,,,,,,,,,,,,,0.016736557707190514,-0.00191398651804775,-0.002641733968630433,0.0,0.0017051647882908583,0.016898827627301216,-0.0221108328551054,-0.0032825965899974108,0.006195139605551958,-0.0012549622915685177,-0.0013851304538547993,0.0,-0.0002573056844994426,-0.002134684007614851,-0.0033535349648445845,0.0030827377922832966,,,,,,,,,,,,,,,,,,,,,,,,,,,,,,,,,,,,,,,,,,,,,,,,,,,,,,,,,,,,,,,,,,,,,,,,
1698698834.1816401,1.0891271829605103,1.8780747652053833,-0.037050697952508926,0.0,0.7854017615318298,-4.7329565859399736e-05,0.5000230669975281,0.5001088976860046,1.059053897857666,1.8321154117584229,-0.031224925071001053,0.0,0.7854011058807373,-3.1288395803130697e-06,-0.5000162720680237,-0.4999900460243225,,,,,,,,,,,,,,,,,,,,,,,,,,,,,,,,,,,,,,,,,,,,,,,,,,,,,,,,,,,,,,,,,,,,,,,,,,,,,,,,,,,,,,,,,,,,,,,,,,,,,,,,,,,,,,,,,,,,,,,,,,,,,,,,,,,,,,0.02473173476755619,-0.007227067835628986,-0.006325094494968653,0.0,-0.001892889617010951,-0.022135358303785324,0.025526056066155434,0.004701573867350817,0.006404540501534939,-0.0007971132872626185,-0.0016114122699946165,0.0,0.0006686277338303626,-5.001489262212999e-05,-0.0019810800440609455,-0.0030151242390275,,,,,,,,,,,,,,,,,,,,,,,,,,,,,,,,,,,,,,,,,,,,,,,,,,,,,,,,,,,,,,,,,,,,,,,,
1698698834.3435423,1.092151403427124,1.8773781061172485,-0.03771183267235756,0.0,0.7854076623916626,4.439143231138587e-05,0.4999372959136963,0.5000692009925842,1.059382438659668,1.832049012184143,-0.03129084035754204,0.0,0.7853983640670776,-8.257905506070529e-07,-0.5000026226043701,-0.4999964237213135,,,,,,,,,,,,,,,,,,,,,,,,,,,,,,,,,,,,,,,,,,,,,,,,,,,,,,,,,,,,,,,,,,,,,,,,,,,,,,,,,,,,,,,,,,,,,,,,,,,,,,,,,,,,,,,,,,,,,,,,,,,,,,,,,,,,,,0.005843764171004295,-0.0001716467522783205,-0.00014327262761071324,0.0,0.00014179172285366803,0.018681462854146957,-0.02159542217850685,-0.012103274464607239,0.0008459351374767721,-0.00016743056767154485,-0.00017152541840914637,0.0,-9.34784623041196e-07,4.6306149670272134e-06,1.4604056559619494e-05,-1.9914337826776318e-05,,,,,,,,,,,,,,,,,,,,,,,,,,,,,,,,,,,,,,,,,,,,,,,,,,,,,,,,,,,,,,,,,,,,,,,,
1698698834.5063848,1.096500277519226,1.876345157623291,-0.03868801146745682,0.0,0.7854213714599609,2.993079397128895e-05,0.49996697902679443,0.5002471208572388,1.059464454650879,1.8320327997207642,-0.03130745887756348,0.0,0.7853982448577881,-3.903522269865789e-07,-0.5000012516975403,-0.4999983012676239,,,,,,,,,,,,,,,,,,,,,,,,,,,,,,,,,,,,,,,,,,,,,,,,,,,,,,,,,,,,,,,,,,,,,,,,,,,,,,,,,,,,,,,,,,,,,,,,,,,,,,,,,,,,,,,,,,,,,,,,,,,,,,,,,,,,,,0.03782682865858078,-0.010850789025425911,-0.009670152328908443,0.0,0.0032867772970348597,0.01720539666712284,-0.013302240520715714,0.02265910990536213,0.00043059245217591524,-8.520940173184499e-05,-8.718974277144298e-05,0.0,-4.4524463760353683e-07,2.2047929633117747e-06,6.966565706534311e-06,-9.506191418040544e-06,,,,,,,,,,,,,,,,,,,,,,,,,,,,,,,,,,,,,,,,,,,,,,,,,,,,,,,,,,,,,,,,,,,,,,,,
1698698834.6680868,1.1005061864852905,1.8754112720489502,-0.03958110511302948,0.0,0.7854206562042236,6.365645822370425e-05,0.4998852014541626,0.5001978874206543,1.0608974695205688,1.83175528049469,-0.031606655567884445,0.0,0.7854118943214417,-1.4568270671588834e-05,-0.5000851154327393,-0.4999580979347229,,,,,,,,,,,,,,,,,,,,,,,,,,,,,,,,,,,,,,,,,,,,,,,,,,,,,,,,,,,,,,,,,,,,,,,,,,,,,,,,,,,,,,,,,,,,,,,,,,,,,,,,,,,,,,,,,,,,,,,,,,,,,,,,,,,,,,0.02005140297114849,-0.002562741981819272,-0.0033433567732572556,0.0,0.002083112020045519,0.021028900519013405,-0.02796334959566593,-0.003660590620711446,0.026578903198242188,-0.00354362721554935,-0.006379731465131044,0.0,0.00378808518871665,0.00037744842120446265,-0.01290757767856121,-0.0008940970874391496,,,,,,,,,,,,,,,,,,,,,,,,,,,,,,,,,,,,,,,,,,,,,,,,,,,,,,,,,,,,,,,,,,,,,,,,
1698698834.8326285,1.1040364503860474,1.8745815753936768,-0.04037560150027275,0.0,0.7854062914848328,2.069102083623875e-05,0.49989235401153564,0.5001089572906494,1.0628905296325684,1.8313498497009277,-0.03201449289917946,0.0,0.7853919863700867,-2.194636908825487e-05,-0.5000312328338623,-0.499934583902359,,,,,,,,,,,,,,,,,,,,,,,,,,,,,,,,,,,,,,,,,,,,,,,,,,,,,,,,,,,,,,,,,,,,,,,,,,,,,,,,,,,,,,,,,,,,,,,,,,,,,,,,,,,,,,,,,,,,,,,,,,,,,,,,,,,,,,0.007373870816081762,0.0016994354082271457,0.0008734750445000827,0.0,-0.003979052416980267,-0.0070828627794981,-0.0014288516249507666,-0.03445739299058914,0.002344555454328656,-0.0022341522853821516,0.0002928161120507866,0.0,-0.003232724731788039,-0.004214299842715263,0.0006493687978945673,0.008923029527068138,,,,,,,,,,,,,,,,,,,,,,,,,,,,,,,,,,,,,,,,,,,,,,,,,,,,,,,,,,,,,,,,,,,,,,,,
1698698834.9953647,1.1073062419891357,1.873781442642212,-0.04114001989364624,0.0,0.7854100465774536,-6.531606777571142e-05,0.5000505447387695,0.5002188086509705,1.066609501838684,1.8312561511993408,-0.03289186209440231,0.0,0.7853940725326538,-2.6683763280743733e-05,-0.5000466108322144,-0.49981436133384705,,,,,,,,,,,,,,,,,,,,,,,,,,,,,,,,,,,,,,,,,,,,,,,,,,,,,,,,,,,,,,,,,,,,,,,,,,,,,,,,,,,,,,,,,,,,,,,,,,,,,,,,,,,,,,,,,,,,,,,,,,,,,,,,,,,,,,0.04434525966644287,-0.013650534674525261,-0.012697616592049599,0.0,2.4739387299632654e-05,-0.027416227385401726,0.037993889302015305,0.023307785391807556,0.001921729533933103,-0.004320928826928139,0.00241005327552557,0.0,-0.004824026022106409,0.0035097962245345116,0.022114187479019165,0.01202852837741375,,,,,,,,,,,,,,,,,,,,,,,,,,,,,,,,,,,,,,,,,,,,,,,,,,,,,,,,,,,,,,,,,,,,,,,,
1698698835.1613588,1.1116960048675537,1.872738242149353,-0.04214749485254288,0.0,0.7854128479957581,7.997883221833035e-05,0.4998705983161926,0.5001041889190674,1.0698190927505493,1.8315340280532837,-0.03372907266020775,0.0,0.7854203581809998,-4.213717329548672e-05,-0.500159740447998,-0.49987274408340454,,,,,,,,,,,,,,,,,,,,,,,,,,,,,,,,,,,,,,,,,,,,,,,,,,,,,,,,,,,,,,,,,,,,,,,,,,,,,,,,,,,,,,,,,,,,,,,,,,,,,,,,,,,,,,,,,,,,,,,,,,,,,,,,,,,,,,0.0038527834694832563,0.0019502463983371854,0.0016115930629894137,0.0,7.804902270436287e-05,0.02785690315067768,-0.0388190820813179,-0.023110782727599144,0.03821713849902153,0.005020734388381243,-0.01107676699757576,0.0,-0.0017380404751747847,-0.01584424450993538,-0.02155233547091484,0.019923068583011627,,,,,,,,,,,,,,,,,,,,,,,,,,,,,,,,,,,,,,,,,,,,,,,,,,,,,,,,,,,,,,,,,,,,,,,,
1698698835.3231263,1.1147053241729736,1.8720003366470337,-0.04285935312509537,0.0,0.7854021191596985,-5.8912257372867316e-05,0.5000330805778503,0.5001299977302551,1.0737709999084473,1.831934928894043,-0.03475583344697952,0.0,0.7854089736938477,1.2632867765205447e-05,-0.5000120401382446,-0.4998954236507416,,,,,,,,,,,,,,,,,,,,,,,,,,,,,,,,,,,,,,,,,,,,,,,,,,,,,,,,,,,,,,,,,,,,,,,,,,,,,,,,,,,,,,,,,,,,,,,,,,,,,,,,,,,,,,,,,,,,,,,,,,,,,,,,,,,,,,0.02890215814113617,-0.008477791212499142,-0.007897376082837582,0.0,-0.0020513918716460466,-0.02788633294403553,0.03257419914007187,0.005085508804768324,0.008808203972876072,-0.00019210227765142918,-0.0012339373352006078,0.0,0.0019444557838141918,0.014320514164865017,0.02173866145312786,-0.02124309167265892,,,,,,,,,,,,,,,,,,,,,,,,,,,,,,,,,,,,,,,,,,,,,,,,,,,,,,,,,,,,,,,,,,,,,,,,
1698698835.484523,1.1191275119781494,1.8709102869033813,-0.04391660541296005,0.0,0.785415530204773,-3.0512492230627686e-05,0.5000573396682739,0.5002180933952332,1.0772345066070557,1.8323267698287964,-0.035680484026670456,0.0,0.7854090332984924,1.3112197848386131e-05,-0.5000131130218506,-0.49989429116249084,,,,,,,,,,,,,,,,,,,,,,,,,,,,,,,,,,,,,,,,,,,,,,,,,,,,,,,,,,,,,,,,,,,,,,,,,,,,,,,,,,,,,,,,,,,,,,,,,,,,,,,,,,,,,,,,,,,,,,,,,,,,,,,,,,,,,,0.04155450314283371,-0.013667691498994827,-0.012890277430415154,0.0,0.0028582171071320772,-0.0036915040109306574,0.02080918289721012,0.02695397101342678,0.009167706593871117,1.4204832950781565e-05,-0.0013792398385703564,0.0,0.001974822022020817,0.014590578153729439,0.02176518552005291,-0.021715551614761353,,,,,,,,,,,,,,,,,,,,,,,,,,,,,,,,,,,,,,,,,,,,,,,,,,,,,,,,,,,,,,,,,,,,,,,,
1698698835.6490216,1.1223180294036865,1.8701263666152954,-0.044678714126348495,0.0,0.7854254245758057,5.839021105202846e-05,0.4999011754989624,0.500282347202301,1.0802749395370483,1.8326772451400757,-0.03650292754173279,0.0,0.7853909730911255,-3.866528277285397e-05,-0.5000496506690979,-0.4998977482318878,,,,,,,,,,,,,,,,,,,,,,,,,,,,,,,,,,,,,,,,,,,,,,,,,,,,,,,,,,,,,,,,,,,,,,,,,,,,,,,,,,,,,,,,,,,,,,,,,,,,,,,,,,,,,,,,,,,,,,,,,,,,,,,,,,,,,,0.03485414385795593,-0.008202855475246906,-0.008244293741881847,0.0,0.0032009691931307316,0.020460478961467743,-0.026568496599793434,0.01341060921549797,0.005588908679783344,-0.0012770987814292312,-0.00040320298285223544,0.0,-0.006784849334508181,-0.013651794753968716,-0.0004628908936865628,0.01681867055594921,,,,,,,,,,,,,,,,,,,,,,,,,,,,,,,,,,,,,,,,,,,,,,,,,,,,,,,,,,,,,,,,,,,,,,,,
1698698835.8124428,1.1262750625610352,1.8691434860229492,-0.045640476047992706,0.0,0.785422146320343,2.944506377389189e-05,0.4999760687351227,0.5002488493919373,1.0846867561340332,1.833198070526123,-0.03771521896123886,0.0,0.7854180932044983,-4.147932122577913e-05,-0.5001624822616577,-0.49987369775772095,,,,,,,,,,,,,,,,,,,,,,,,,,,,,,,,,,,,,,,,,,,,,,,,,,,,,,,,,,,,,,,,,,,,,,,,,,,,,,,,,,,,,,,,,,,,,,,,,,,,,,,,,,,,,,,,,,,,,,,,,,,,,,,,,,,,,,0.03707011044025421,-0.01089488249272108,-0.010536089539527893,0.0,0.004144612234085798,0.017991241067647934,-0.011989746242761612,0.023738330230116844,0.038912463933229446,0.005677474662661552,-0.011972645297646523,0.0,-0.0031340622808784246,-0.015988366678357124,-0.020690355449914932,0.01911897584795952,,,,,,,,,,,,,,,,,,,,,,,,,,,,,,,,,,,,,,,,,,,,,,,,,,,,,,,,,,,,,,,,,,,,,,,,
1698698835.9785316,1.1294318437576294,1.868363618850708,-0.046406202018260956,0.0,0.7854012250900269,-6.099926395108923e-05,0.5000371336936951,0.500129222869873,1.0888632535934448,1.833656668663025,-0.03885355591773987,0.0,0.7853867411613464,-5.409297955338843e-05,-0.5000756978988647,-0.4998016655445099,,,,,,,,,,,,,,,,,,,,,,,,,,,,,,,,,,,,,,,,,,,,,,,,,,,,,,,,,,,,,,,,,,,,,,,,,,,,,,,,,,,,,,,,,,,,,,,,,,,,,,,,,,,,,,,,,,,,,,,,,,,,,,,,,,,,,,0.028524935245513916,-0.008395050652325153,-0.008110135793685913,0.0,-0.002226912882179022,-0.028920186683535576,0.03415072709321976,0.004963042214512825,0.0019425875507295132,-0.0038991894107311964,0.0023204681929200888,0.0,-0.009184399619698524,-0.011455762200057507,0.009752286598086357,0.03445485979318619,,,,,,,,,,,,,,,,,,,,,,,,,,,,,,,,,,,,,,,,,,,,,,,,,,,,,,,,,,,,,,,,,,,,,,,,
1698698836.1410704,1.133529543876648,1.8673244714736938,-0.04742801561951637,0.0,0.7854205965995789,3.175195161020383e-05,0.49997657537460327,0.5002488493919373,1.0918567180633545,1.8340067863464355,-0.039694491773843765,0.0,0.785429835319519,3.800067861448042e-05,-0.500053882598877,-0.4999719262123108,,,,,,,,,,,,,,,,,,,,,,,,,,,,,,,,,,,,,,,,,,,,,,,,,,,,,,,,,,,,,,,,,,,,,,,,,,,,,,,,,,,,,,,,,,,,,,,,,,,,,,,,,,,,,,,,,,,,,,,,,,,,,,,,,,,,,,0.03658005967736244,-0.01116653811186552,-0.010459763929247856,0.0,0.003395916661247611,0.018425947055220604,-0.013078688643872738,0.022667134180665016,0.02990778163075447,0.005894323345273733,-0.009797903709113598,0.0,0.008647494949400425,0.018477296456694603,0.0045524644665420055,-0.034283798187971115,,,,,,,,,,,,,,,,,,,,,,,,,,,,,,,,,,,,,,,,,,,,,,,,,,,,,,,,,,,,,,,,,,,,,,,,
1698698836.303242,1.1374775171279907,1.866341233253479,-0.048402633517980576,0.0,0.7854002118110657,-1.1641666787909344e-05,0.4999512732028961,0.500083863735199,1.0960032939910889,1.8344638347625732,-0.040858712047338486,0.0,0.7853980660438538,-6.1595237639267e-05,-0.5001262426376343,-0.499784380197525,,,,,,,,,,,,,,,,,,,,,,,,,,,,,,,,,,,,,,,,,,,,,,,,,,,,,,,,,,,,,,,,,,,,,,,,,,,,,,,,,,,,,,,,,,,,,,,,,,,,,,,,,,,,,,,,,,,,,,,,,,,,,,,,,,,,,,0.010101791471242905,-0.0010702457511797547,-0.0012062605237588286,0.0,-0.003904178040102124,-0.0161969643086195,0.013871309347450733,-0.02329537272453308,0.018052881583571434,-2.3462569515686482e-05,-0.00403212383389473,0.0,-0.008768937550485134,-0.016261307522654533,0.0027064913883805275,0.033616598695516586,,,,,,,,,,,,,,,,,,,,,,,,,,,,,,,,,,,,,,,,,,,,,,,,,,,,,,,,,,,,,,,,,,,,,,,,
1698698836.4651563,1.1407124996185303,1.8655017614364624,-0.0492342934012413,0.0,0.785408616065979,-7.056674803607166e-05,0.5000647902488708,0.5002187490463257,1.0991164445877075,1.8347976207733154,-0.04173606261610985,0.0,0.7853862047195435,-5.5296706705121323e-05,-0.5000784397125244,-0.49979814887046814,,,,,,,,,,,,,,,,,,,,,,,,,,,,,,,,,,,,,,,,,,,,,,,,,,,,,,,,,,,,,,,,,,,,,,,,,,,,,,,,,,,,,,,,,,,,,,,,,,,,,,,,,,,,,,,,,,,,,,,,,,,,,,,,,,,,,,0.043271299451589584,-0.013515590690076351,-0.013541590422391891,0.0,-8.611743396613747e-05,-0.02974947728216648,0.04267297312617302,0.02289305068552494,0.0019420443568378687,-0.003975635394454002,0.0023396627511829138,0.0,-0.009211107157170773,-0.011577608063817024,0.009020325727760792,0.03584512323141098,,,,,,,,,,,,,,,,,,,,,,,,,,,,,,,,,,,,,,,,,,,,,,,,,,,,,,,,,,,,,,,,,,,,,,,,
1698698836.6278653,1.1448042392730713,1.8644661903381348,-0.050266414880752563,0.0,0.785404622554779,2.429875712550711e-05,0.4998818635940552,0.500114381313324,1.1032969951629639,1.835268497467041,-0.04294503852725029,0.0,0.7854416370391846,1.9422954210313037e-05,-0.5001393556594849,-0.49995484948158264,,,,,,,,,,,,,,,,,,,,,,,,,,,,,,,,,,,,,,,,,,,,,,,,,,,,,,,,,,,,,,,,,,,,,,,,,,,,,,,,,,,,,,,,,,,,,,,,,,,,,,,,,,,,,,,,,,,,,,,,,,,,,,,,,,,,,,0.00724593922495842,0.0012323014670982957,0.0008990098722279072,0.0,-0.004022027365863323,-0.007367037236690521,-0.004215394612401724,-0.03385937586426735,0.04496290162205696,0.0075835264287889,-0.014592238701879978,0.0,0.010310716927051544,0.01195681281387806,-0.017488062381744385,-0.012006718665361404,,,,,,,,,,,,,,,,,,,,,,,,,,,,,,,,,,,,,,,,,,,,,,,,,,,,,,,,,,,,,,,,,,,,,,,,
1698698836.7906065,1.1479542255401611,1.8636373281478882,-0.051095347851514816,0.0,0.7854083180427551,-7.175849168561399e-05,0.5000680088996887,0.5002185106277466,1.1064683198928833,1.8356095552444458,-0.043865449726581573,0.0,0.7854319214820862,2.1960588583169738e-06,-0.5001226663589478,-0.49998006224632263,,,,,,,,,,,,,,,,,,,,,,,,,,,,,,,,,,,,,,,,,,,,,,,,,,,,,,,,,,,,,,,,,,,,,,,,,,,,,,,,,,,,,,,,,,,,,,,,,,,,,,,,,,,,,,,,,,,,,,,,,,,,,,,,,,,,,,0.04300583153963089,-0.013478158041834831,-0.013718186877667904,0.0,-0.00010008407843997702,-0.030258920043706894,0.043703410774469376,0.02279764413833618,0.043431151658296585,0.00830442551523447,-0.015449401922523975,0.0,0.004809243138879538,-0.0020962159615010023,-0.021433521062135696,-0.018240435048937798,,,,,,,,,,,,,,,,,,,,,,,,,,,,,,,,,,,,,,,,,,,,,,,,,,,,,,,,,,,,,,,,,,,,,,,,
1698698836.9515347,1.1521518230438232,1.8625526428222656,-0.05218793451786041,0.0,0.7854065895080566,-5.638086440740153e-05,0.5000603199005127,0.5001386404037476,1.110804796218872,1.8360623121261597,-0.045130982995033264,0.0,0.7854176759719849,-4.560226443572901e-05,-0.5001640319824219,-0.4998779296875,,,,,,,,,,,,,,,,,,,,,,,,,,,,,,,,,,,,,,,,,,,,,,,,,,,,,,,,,,,,,,,,,,,,,,,,,,,,,,,,,,,,,,,,,,,,,,,,,,,,,,,,,,,,,,,,,,,,,,,,,,,,,,,,,,,,,,0.027283405885100365,-0.008181649260222912,-0.009253289550542831,0.0,0.0003344851138535887,-0.021194202825427055,0.04064898192882538,0.005609879270195961,0.0377112552523613,0.00521807000041008,-0.012497168965637684,0.0,-0.0027389004826545715,-0.017352139577269554,-0.0210595540702343,0.01979290507733822,,,,,,,,,,,,,,,,,,,,,,,,,,,,,,,,,,,,,,,,,,,,,,,,,,,,,,,,,,,,,,,,,,,,,,,,
1698698837.1141508,1.1552380323410034,1.8617428541183472,-0.05300089344382286,0.0,0.7854191064834595,7.342446042457595e-05,0.49987947940826416,0.5002020001411438,1.1137666702270508,1.8363651037216187,-0.046000439673662186,0.0,0.7854219675064087,2.3576651074108668e-05,-0.5000417232513428,-0.5000017285346985,,,,,,,,,,,,,,,,,,,,,,,,,,,,,,,,,,,,,,,,,,,,,,,,,,,,,,,,,,,,,,,,,,,,,,,,,,,,,,,,,,,,,,,,,,,,,,,,,,,,,,,,,,,,,,,,,,,,,,,,,,,,,,,,,,,,,,0.018555473536252975,-0.003390818601474166,-0.0036707520484924316,0.0,0.002117261290550232,0.02430548332631588,-0.03379097953438759,-0.0023099856916815042,0.02834855020046234,0.006024597678333521,-0.010585329495370388,0.0,0.004813103470951319,0.00698454026132822,-0.0009137370507232845,-0.040511950850486755,,,,,,,,,,,,,,,,,,,,,,,,,,,,,,,,,,,,,,,,,,,,,,,,,,,,,,,,,,,,,,,,,,,,,,,,
1698698837.2777474,1.1593002080917358,1.860673189163208,-0.05408706143498421,0.0,0.7854068875312805,-5.1258997700642794e-05,0.5000715851783752,0.5001326203346252,1.1180965900421143,1.8367904424667358,-0.04727812483906746,0.0,0.7853983044624329,-1.2958475963387173e-05,-0.5000378489494324,-0.4997953772544861,,,,,,,,,,,,,,,,,,,,,,,,,,,,,,,,,,,,,,,,,,,,,,,,,,,,,,,,,,,,,,,,,,,,,,,,,,,,,,,,,,,,,,,,,,,,,,,,,,,,,,,,,,,,,,,,,,,,,,,,,,,,,,,,,,,,,,0.026406412944197655,-0.008408177644014359,-0.009361022152006626,0.0,0.0005919629475101829,-0.015376625582575798,0.03869223967194557,0.0033474857918918133,0.004909885581582785,-0.0025211276952177286,0.0010339642176404595,0.0,-0.002769078593701124,0.01064301934093237,0.030244506895542145,-0.004316532984375954,,,,,,,,,,,,,,,,,,,,,,,,,,,,,,,,,,,,,,,,,,,,,,,,,,,,,,,,,,,,,,,,,,,,,,,,
1698698837.4427252,1.1620484590530396,1.8599483966827393,-0.054819345474243164,0.0,0.7854116559028625,9.024202881846577e-05,0.4998583197593689,0.5001067519187927,1.1213792562484741,1.8371185064315796,-0.04826502129435539,0.0,0.7853939533233643,-3.1237566872732714e-05,-0.5000650882720947,-0.4997860789299011,,,,,,,,,,,,,,,,,,,,,,,,,,,,,,,,,,,,,,,,,,,,,,,,,,,,,,,,,,,,,,,,,,,,,,,,,,,,,,,,,,,,,,,,,,,,,,,,,,,,,,,,,,,,,,,,,,,,,,,,,,,,,,,,,,,,,,0.003056470537558198,0.00122435437515378,0.001777609926648438,0.0,0.00017982088320422918,0.031520646065473557,-0.046006664633750916,-0.022460686042904854,0.0036595871206372976,-0.0035902245435863733,0.001969186821952462,0.0,-0.004614539444446564,0.0031221790704876184,0.01970200054347515,0.018975740298628807,,,,,,,,,,,,,,,,,,,,,,,,,,,,,,,,,,,,,,,,,,,,,,,,,,,,,,,,,,,,,,,,,,,,,,,,
1698698837.605528,1.166170358657837,1.858850121498108,-0.0559375025331974,0.0,0.7854052782058716,4.972001988789998e-05,0.4998544752597809,0.5001104474067688,1.1254420280456543,1.837541103363037,-0.049513112753629684,0.0,0.785439670085907,2.7369856979930773e-05,-0.5001019835472107,-0.4999837279319763,,,,,,,,,,,,,,,,,,,,,,,,,,,,,,,,,,,,,,,,,,,,,,,,,,,,,,,,,,,,,,,,,,,,,,,,,,,,,,,,,,,,,,,,,,,,,,,,,,,,,,,,,,,,,,,,,,,,,,,,,,,,,,,,,,,,,,0.005946770776063204,0.001292327418923378,0.0016782941529527307,0.0,-0.0029025867115706205,0.0032754975836724043,-0.026211977005004883,-0.02762579545378685,0.04449395835399628,0.008769506588578224,-0.016588011756539345,0.0,0.009322891011834145,0.011541931889951229,-0.007115290965884924,-0.03937150910496712,,,,,,,,,,,,,,,,,,,,,,,,,,,,,,,,,,,,,,,,,,,,,,,,,,,,,,,,,,,,,,,,,,,,,,,,
1698698837.7677174,1.1694124937057495,1.8579657077789307,-0.056845907121896744,0.0,0.7854211926460266,3.132763231405988e-05,0.499988317489624,0.5002479553222656,1.1281992197036743,1.8377832174301147,-0.05034473538398743,0.0,0.7853798866271973,-6.7487548221834e-05,-0.5000760555267334,-0.4997994303703308,,,,,,,,,,,,,,,,,,,,,,,,,,,,,,,,,,,,,,,,,,,,,,,,,,,,,,,,,,,,,,,,,,,,,,,,,,,,,,,,,,,,,,,,,,,,,,,,,,,,,,,,,,,,,,,,,,,,,,,,,,,,,,,,,,,,,,0.035104647278785706,-0.01103758905082941,-0.011377580463886261,0.0,0.004291628021746874,0.01944323629140854,-0.011737430468201637,0.023651722818613052,0.0009753580670803785,-0.0038375556468963623,0.002113864291459322,0.0,-0.011875693686306477,-0.018850088119506836,0.00510239414870739,0.03702469542622566,,,,,,,,,,,,,,,,,,,,,,,,,,,,,,,,,,,,,,,,,,,,,,,,,,,,,,,,,,,,,,,,,,,,,,,,
1698698837.9335725,1.1735554933547974,1.8568485975265503,-0.05799452215433121,0.0,0.7854071855545044,-7.573563198093325e-05,0.5000789761543274,0.5002173781394958,1.1321759223937988,1.838167667388916,-0.05158091336488724,0.0,0.7854399085044861,1.7452137399232015e-05,-0.500137448310852,-0.4999646544456482,,,,,,,,,,,,,,,,,,,,,,,,,,,,,,,,,,,,,,,,,,,,,,,,,,,,,,,,,,,,,,,,,,,,,,,,,,,,,,,,,,,,,,,,,,,,,,,,,,,,,,,,,,,,,,,,,,,,,,,,,,,,,,,,,,,,,,0.04200128838419914,-0.013303759507834911,-0.014305967837572098,0.0,-0.00020001664233859628,-0.032041288912296295,0.04727861285209656,0.022424230352044106,0.04370653256773949,0.006778414361178875,-0.015195460058748722,0.0,0.010171771980822086,0.011962806805968285,-0.016719825565814972,-0.014431932009756565,,,,,,,,,,,,,,,,,,,,,,,,,,,,,,,,,,,,,,,,,,,,,,,,,,,,,,,,,,,,,,,,,,,,,,,,
1698698838.0953543,1.1765799522399902,1.8560353517532349,-0.05883084982633591,0.0,0.7854079008102417,8.64852117956616e-05,0.4998404085636139,0.500106930732727,1.1361632347106934,1.8385069370269775,-0.052809443324804306,0.0,0.7853922843933105,-3.116173320449889e-05,-0.5000693798065186,-0.4997828006744385,,,,,,,,,,,,,,,,,,,,,,,,,,,,,,,,,,,,,,,,,,,,,,,,,,,,,,,,,,,,,,,,,,,,,,,,,,,,,,,,,,,,,,,,,,,,,,,,,,,,,,,,,,,,,,,,,,,,,,,,,,,,,,,,,,,,,,0.003805255750194192,0.0009878581622615457,0.002181458752602339,0.0,-0.0013516588369384408,0.024635611101984978,-0.049011293798685074,-0.021624835208058357,0.0037554928567260504,-0.003616723231971264,0.001910097082145512,0.0,-0.0050240191631019115,0.0037876046262681484,0.019074436277151108,0.019483515992760658,,,,,,,,,,,,,,,,,,,,,,,,,,,,,,,,,,,,,,,,,,,,,,,,,,,,,,,,,,,,,,,,,,,,,,,,
1698698838.2564611,1.1796302795410156,1.8552031517028809,-0.05969594791531563,0.0,0.7854046821594238,3.544112769304775e-05,0.4999518394470215,0.5000613927841187,1.1394152641296387,1.8388080596923828,-0.05384630337357521,0.0,0.7854169011116028,-5.0163744163000956e-05,-0.5001630187034607,-0.4998817443847656,,,,,,,,,,,,,,,,,,,,,,,,,,,,,,,,,,,,,,,,,,,,,,,,,,,,,,,,,,,,,,,,,,,,,,,,,,,,,,,,,,,,,,,,,,,,,,,,,,,,,,,,,,,,,,,,,,,,,,,,,,,,,,,,,,,,,,0.005634215660393238,-0.0012752838665619493,-0.0008418634533882141,0.0,0.0002480240073055029,0.014467524364590645,-0.017759718000888824,-0.007764854002743959,0.035850703716278076,0.004117337986826897,-0.01260601170361042,0.0,-0.0020976050291210413,-0.017478808760643005,-0.02226407639682293,0.019329624250531197,,,,,,,,,,,,,,,,,,,,,,,,,,,,,,,,,,,,,,,,,,,,,,,,,,,,,,,,,,,,,,,,,,,,,,,,
1698698838.418573,1.1807516813278198,1.8548983335494995,-0.060012221336364746,0.0,0.7854001522064209,1.5879210195635096e-06,0.49999377131462097,0.5000290274620056,1.1412016153335571,1.839236855506897,-0.05444579944014549,0.0,0.7854023575782776,-1.9530261852196418e-06,-0.500018835067749,-0.49997541308403015,,,,,,,,,,,,,,,,,,,,,,,,,,,,,,,,,,,,,,,,,,,,,,,,,,,,,,,,,,,,,,,,,,,,,,,,,,,,,,,,,,,,,,,,,,,,,,,,,,,,,,,,,,,,,,,,,,,,,,,,,,,,,,,,,,,,,,0.004674011841416359,-0.0012682577362284064,-0.001310338731855154,0.0,-1.1023174010915682e-05,-8.639762199891265e-06,3.3991636883001775e-05,-0.00016155155026353896,0.005249594803899527,0.0004711284418590367,-0.0016258272808045149,0.0,-6.620967178605497e-05,-4.996513234800659e-05,-0.00029545006691478193,0.0002586501359473914,,,,,,,,,,,,,,,,,,,,,,,,,,,,,,,,,,,,,,,,,,,,,,,,,,,,,,,,,,,,,,,,,,,,,,,,
1698698838.5840006,1.1812994480133057,1.8547496795654297,-0.0601656548678875,0.0,0.7853989005088806,6.016335873937351e-07,0.49999764561653137,0.5000107288360596,1.1417146921157837,1.8394081592559814,-0.05462774261832237,0.0,0.7853999137878418,-1.7217526249169168e-07,-0.500008225440979,-0.49998989701271057,,,,,,,,,,,,,,,,,,,,,,,,,,,,,,,,,,,,,,,,,,,,,,,,,,,,,,,,,,,,,,,,,,,,,,,,,,,,,,,,,,,,,,,,,,,,,,,,,,,,,,,,,,,,,,,,,,,,,,,,,,,,,,,,,,,,,,0.0018994351848959923,-0.0005156700499355793,-0.0005315752932801843,0.0,-4.108208031539107e-06,-3.301321839899174e-06,1.2984603927179705e-05,-6.041742744855583e-05,0.0025686086155474186,0.0006855060928501189,-0.0008798124617896974,0.0,-9.725006748340093e-06,1.229449821948947e-06,4.603590423357673e-05,-5.634608169202693e-05,,,,,,,,,,,,,,,,,,,,,,,,,,,,,,,,,,,,,,,,,,,,,,,,,,,,,,,,,,,,,,,,,,,,,,,,
1698698838.7502177,1.181488275527954,1.8546984195709229,-0.06021846830844879,0.0,0.785398542881012,2.812890613768104e-07,0.49999889731407166,0.5000048875808716,1.1420156955718994,1.8394885063171387,-0.05473076552152634,0.0,0.7853988409042358,-4.5775770729505894e-08,-0.5000030398368835,-0.49999627470970154,,,,,,,,,,,,,,,,,,,,,,,,,,,,,,,,,,,,,,,,,,,,,,,,,,,,,,,,,,,,,,,,,,,,,,,,,,,,,,,,,,,,,,,,,,,,,,,,,,,,,,,,,,,,,,,,,,,,,,,,,,,,,,,,,,,,,,0.0009428928606212139,-0.0002560872526373714,-0.00026352214626967907,0.0,-1.900594384096621e-06,-1.5530688415310578e-06,6.090856459195493e-06,-2.792148370645009e-05,0.001043944270350039,0.00027871516067534685,-0.0003569212567526847,0.0,-3.6126446048001526e-06,3.6441142015064543e-07,1.7106965970015153e-05,-2.1050520444987342e-05,,,,,,,,,,,,,,,,,,,,,,,,,,,,,,,,,,,,,,,,,,,,,,,,,,,,,,,,,,,,,,,,,,,,,,,,
1698698838.9124324,1.1815967559814453,1.8546689748764038,-0.06024878844618797,0.0,0.7853983044624329,1.0803067596043547e-07,0.4999995827674866,0.500001847743988,1.142116904258728,1.8395155668258667,-0.05476533994078636,0.0,0.7853984832763672,-1.4599797815151305e-08,-0.5000014305114746,-0.4999982416629791,,,,,,,,,,,,,,,,,,,,,,,,,,,,,,,,,,,,,,,,,,,,,,,,,,,,,,,,,,,,,,,,,,,,,,,,,,,,,,,,,,,,,,,,,,,,,,,,,,,,,,,,,,,,,,,,,,,,,,,,,,,,,,,,,,,,,,0.0003928797086700797,-0.00010675975499907508,-0.0001096181949833408,0.0,-7.195640137069859e-07,-6.012813855704735e-07,2.3451127617590828e-06,-1.0545342775003519e-05,0.0005313882138580084,0.00014191273658070713,-0.00018143007764592767,0.0,-1.710154720058199e-06,1.3894687356241775e-07,8.085722583928145e-06,-9.989536920329556e-06,,,,,,,,,,,,,,,,,,,,,,,,,,,,,,,,,,,,,,,,,,,,,,,,,,,,,,,,,,,,,,,,,,,,,,,,
1698698839.0733273,1.1816436052322388,1.8546562194824219,-0.060261841863393784,0.0,0.7853982448577881,3.893762823281577e-08,0.49999985098838806,0.5000006556510925,1.1420035362243652,1.8395756483078003,-0.05474071949720383,0.0,0.7853993773460388,3.3317353427264607e-06,-0.49999672174453735,-0.5000075101852417,,,,,,,,,,,,,,,,,,,,,,,,,,,,,,,,,,,,,,,,,,,,,,,,,,,,,,,,,,,,,,,,,,,,,,,,,,,,,,,,,,,,,,,,,,,,,,,,,,,,,,,,,,,,,,,,,,,,,,,,,,,,,,,,,,,,,,0.0001557151845190674,-4.233638901496306e-05,-4.3369116610847414e-05,0.0,-2.548631528043188e-07,-2.1881599820972042e-07,8.468416581308702e-07,-3.721337179740658e-06,0.00025069748517125845,0.0003343208518344909,-0.00018668489065021276,0.0,0.0004372991679701954,0.000722009630408138,0.00021074437245260924,-0.001632990431971848,,,,,,,,,,,,,,,,,,,,,,,,,,,,,,,,,,,,,,,,,,,,,,,,,,,,,,,,,,,,,,,,,,,,,,,,
1698698839.2383733,1.181036114692688,1.8548240661621094,-0.06008792296051979,0.0,0.7853954434394836,-2.3494561901316047e-05,0.5000280141830444,0.4999832808971405,1.1409215927124023,1.8398464918136597,-0.054457247257232666,0.0,0.7853893041610718,1.3818509614793584e-05,-0.49994009733200073,-0.5000188946723938,,,,,,,,,,,,,,,,,,,,,,,,,,,,,,,,,,,,,,,,,,,,,,,,,,,,,,,,,,,,,,,,,,,,,,,,,,,,,,,,,,,,,,,,,,,,,,,,,,,,,,,,,,,,,,,,,,,,,,,,,,,,,,,,,,,,,,0.0002505006268620491,-0.0002444435376673937,-0.0005856581847183406,0.0,-0.0001798916346160695,-0.010250046849250793,0.012612425722181797,0.005345857236534357,-0.018219497054815292,0.002893261844292283,0.005518314894288778,0.0,-0.0027347251307219267,-7.043153891572729e-05,0.00784112699329853,0.003379047615453601,,,,,,,,,,,,,,,,,,,,,,,,,,,,,,,,,,,,,,,,,,,,,,,,,,,,,,,,,,,,,,,,,,,,,,,,
1698698839.4020069,1.1788709163665771,1.8554174900054932,-0.059475164860486984,0.0,0.785395085811615,-4.125315899727866e-05,0.5001149773597717,0.4999290108680725,1.138837456703186,1.8398685455322266,-0.053837381303310394,0.0,0.7854190468788147,6.763832061551511e-05,-0.4999362826347351,-0.5001819729804993,,,,,,,,,,,,,,,,,,,,,,,,,,,,,,,,,,,,,,,,,,,,,,,,,,,,,,,,,,,,,,,,,,,,,,,,,,,,,,,,,,,,,,,,,,,,,,,,,,,,,,,,,,,,,,,,,,,,,,,,,,,,,,,,,,,,,,-0.001682974281720817,-0.0015412907814607024,-0.002226330107077956,0.0,0.0027442818973213434,-0.003502659732475877,0.022576527670025826,0.021540567278862,0.003366186749190092,0.00477180490270257,-0.003450489602982998,0.0,0.011244493536651134,0.018362078815698624,-0.004351324867457151,-0.03738828003406525,,,,,,,,,,,,,,,,,,,,,,,,,,,,,,,,,,,,,,,,,,,,,,,,,,,,,,,,,,,,,,,,,,,,,,,,
1698698839.5633626,1.1764227151870728,1.8560986518859863,-0.0587698332965374,0.0,0.7853903770446777,5.1019123930018395e-05,0.49993905425071716,0.499804824590683,1.1361967325210571,1.8395893573760986,-0.05299094319343567,0.0,0.7853785157203674,4.208384780213237e-05,-0.49984508752822876,-0.5001007318496704,,,,,,,,,,,,,,,,,,,,,,,,,,,,,,,,,,,,,,,,,,,,,,,,,,,,,,,,,,,,,,,,,,,,,,,,,,,,,,,,,,,,,,,,,,,,,,,,,,,,,,,,,,,,,,,,,,,,,,,,,,,,,,,,,,,,,,-0.038212165236473083,0.012704419903457165,0.01269402727484703,0.0,-0.00011984918091911823,0.02075517550110817,-0.025271916761994362,-0.02707541361451149,-0.034202419221401215,-0.006899169180542231,0.012655000202357769,0.0,0.00279505318030715,0.01794087328016758,0.02121543511748314,-0.019542433321475983,,,,,,,,,,,,,,,,,,,,,,,,,,,,,,,,,,,,,,,,,,,,,,,,,,,,,,,,,,,,,,,,,,,,,,,,
1698698839.724896,1.1728315353393555,1.8570679426193237,-0.057768743485212326,0.0,0.7853779196739197,-8.088180766208097e-05,0.5001087784767151,0.4998098611831665,1.132407546043396,1.8390026092529297,-0.05176788195967674,0.0,0.7853609323501587,-1.1931362678296864e-05,-0.4998861253261566,-0.4999959468841553,,,,,,,,,,,,,,,,,,,,,,,,,,,,,,,,,,,,,,,,,,,,,,,,,,,,,,,,,,,,,,,,,,,,,,,,,,,,,,,,,,,,,,,,,,,,,,,,,,,,,,,,,,,,,,,,,,,,,,,,,,,,,,,,,,,,,,-0.016351252794265747,0.003592537483200431,0.0035244591999799013,0.0,-0.0024049070198088884,-0.03150031343102455,0.038184188306331635,0.004048772156238556,-0.041484713554382324,-0.011344948783516884,0.016476428136229515,0.0,-0.005717327818274498,2.117230906151235e-05,0.019847940653562546,0.022787638008594513,,,,,,,,,,,,,,,,,,,,,,,,,,,,,,,,,,,,,,,,,,,,,,,,,,,,,,,,,,,,,,,,,,,,,,,,
1698698839.8870087,1.169973611831665,1.8578342199325562,-0.05698166415095329,0.0,0.785385251045227,-9.016633703140542e-05,0.5001397132873535,0.499896764755249,1.1286745071411133,1.8383750915527344,-0.05057603120803833,0.0,0.7854073643684387,4.483864540816285e-05,-0.4999487102031708,-0.5001029968261719,,,,,,,,,,,,,,,,,,,,,,,,,,,,,,,,,,,,,,,,,,,,,,,,,,,,,,,,,,,,,,,,,,,,,,,,,,,,,,,,,,,,,,,,,,,,,,,,,,,,,,,,,,,,,,,,,,,,,,,,,,,,,,,,,,,,,,-0.0024918816052377224,-0.0012590764090418816,-0.0018773407209664583,0.0,-0.0002768737031146884,-0.03182962164282799,0.04682829603552818,0.022306062281131744,-0.004613618832081556,0.0010482057696208358,0.0004024069639854133,0.0,0.007592238485813141,0.01637174002826214,0.002231295220553875,-0.02063017152249813,,,,,,,,,,,,,,,,,,,,,,,,,,,,,,,,,,,,,,,,,,,,,,,,,,,,,,,,,,,,,,,,,,,,,,,,
1698698840.049149,1.1659034490585327,1.8589248657226562,-0.05586397647857666,0.0,0.7853972911834717,1.3026136002736166e-05,0.5000473856925964,0.49991631507873535,1.12557053565979,1.837866187095642,-0.04958382621407509,0.0,0.7853826284408569,6.417965050786734e-05,-0.4998123049736023,-0.5002195239067078,,,,,,,,,,,,,,,,,,,,,,,,,,,,,,,,,,,,,,,,,,,,,,,,,,,,,,,,,,,,,,,,,,,,,,,,,,,,,,,,,,,,,,,,,,,,,,,,,,,,,,,,,,,,,,,,,,,,,,,,,,,,,,,,,,,,,,-0.009754587896168232,0.0011246432550251484,0.0012803446734324098,0.0,0.003858087584376335,0.017353646457195282,-0.014169685542583466,0.023249005898833275,-0.03298904374241829,-0.00438173720613122,0.010267903096973896,0.0,0.006080226507037878,0.017854424193501472,0.01047438569366932,-0.03820968419313431,,,,,,,,,,,,,,,,,,,,,,,,,,,,,,,,,,,,,,,,,,,,,,,,,,,,,,,,,,,,,,,,,,,,,,,,
1698698840.2120683,1.1626452207565308,1.8597952127456665,-0.05497903376817703,0.0,0.7853923439979553,-4.983508188161068e-05,0.5001420378684998,0.49989187717437744,1.121327519416809,1.837233543395996,-0.04825920984148979,0.0,0.785352885723114,-2.3718275770079345e-05,-0.49986398220062256,-0.5000309944152832,,,,,,,,,,,,,,,,,,,,,,,,,,,,,,,,,,,,,,,,,,,,,,,,,,,,,,,,,,,,,,,,,,,,,,,,,,,,,,,,,,,,,,,,,,,,,,,,,,,,,,,,,,,,,,,,,,,,,,,,,,,,,,,,,,,,,,-0.0058552296832203865,-0.0011955158552154899,-0.0016983123496174812,0.0,0.0033716538455337286,-0.003987742122262716,0.0262070931494236,0.027418185025453568,-0.04419708251953125,-0.009014589712023735,0.015313715673983097,0.0,-0.010804272256791592,-0.013416878879070282,0.01692674681544304,0.014228413812816143,,,,,,,,,,,,,,,,,,,,,,,,,,,,,,,,,,,,,,,,,,,,,,,,,,,,,,,,,,,,,,,,,,,,,,,,
