MHC-RobotSimulators-Research/Data_Analysis_MotionReplication/2023-10-28 17_54_29/test_mai_trial3.csv
,time,jpos0,jpos1,jpos2,jpos3,jpos4,jpos5,jpos6,jpos7,jpos8,jpos9,jpos10,jpos11,jpos12,jpos13,jpos14,jpos15,runlevel,sublevel,last_seq,type0,type1,pos0,pos1,pos2,pos3,pos4,pos5,ori0,ori1,ori2,ori3,ori4,ori5,ori6,ori7,ori8,ori9,ori10,ori11,ori12,ori13,ori14,ori15,ori16,ori17,ori_d0,ori_d1,ori_d2,ori_d3,ori_d4,ori_d5,ori_d6,ori_d7,ori_d8,ori_d9,ori_d10,ori_d11,ori_d12,ori_d13,ori_d14,ori_d15,ori_d16,ori_d17,pos_d0,pos_d1,pos_d2,pos_d3,pos_d4,pos_d5,encVals0,encVals1,encVals2,encVals3,encVals4,encVals5,encVals6,encVals7,encVals8,encVals9,encVals10,encVals11,encVals12,encVals13,encVals14,encVals15,dac_vals0,dac_vals1,dac_vals2,dac_vals3,dac_vals4,dac_vals5,dac_vals6,dac_vals7,dac_vals8,dac_vals9,dac_vals10,dac_vals11,dac_vals12,dac_vals13,dac_vals14,dac_vals15,Tau0,Tau1,Tau2,Tau3,Tau4,Tau5,Tau6,Tau7,Tau8,Tau9,Tau10,Tau11,Tau12,Tau13,Tau14,Tau15,mpos0,mpos1,mpos2,mpos3,mpos4,mpos5,mpos6,mpos7,mpos8,mpos9,mpos10,mpos11,mpos12,mpos13,mpos14,mpos15,mvel0,mvel1,mvel2,mvel3,mvel4,mvel5,mvel6,mvel7,mvel8,mvel9,mvel10,mvel11,mvel12,mvel13,mvel14,mvel15,jvel0,jvel1,jvel2,jvel3,jvel4,jvel5,jvel6,jvel7,jvel8,jvel9,jvel10,jvel11,jvel12,jvel13,jvel14,jvel15,mpos_d0,mpos_d1,mpos_d2,mpos_d3,mpos_d4,mpos_d5,mpos_d6,mpos_d7,mpos_d8,mpos_d9,mpos_d10,mpos_d11,mpos_d12,mpos_d13,mpos_d14,mpos_d15,jpos_d0,jpos_d1,jpos_d2,jpos_d3,jpos_d4,jpos_d5,jpos_d6,jpos_d7,jpos_d8,jpos_d9,jpos_d10,jpos_d11,jpos_d12,jpos_d13,jpos_d14,jpos_d15,grasp_d0,grasp_d1,encoffsets0,encoffsets1,encoffsets2,encoffsets3,encoffsets4,encoffsets5,encoffsets6,encoffsets7,encoffsets8,encoffsets9,encoffsets10,encoffsets11,encoffsets12,encoffsets13,encoffsets14,encoffsets15,jac_vel0,jac_vel1,jac_vel2,jac_vel3,jac_vel4,jac_vel5,jac_vel6,jac_vel7,jac_vel8,jac_vel9,jac_vel10,jac_vel11,jac_f0,jac_f1,jac_f2,jac_f3,jac_f4,jac_f5,jac_f6,jac_f7,jac_f8,jac_f9,jac_f10,jac_f11
0,176.24291396141052,27.841957,88.44915,21.226387,0.0,-2.08428,0.611141,52.020645,35.197315,27.031139,83.611679,23.32012,0.0,23.069479,-2.943247,37.194283,53.787151,3.0,1.0,111.0,0.0,1.0,-107401.0,-29717.0,15638.0,-73413.0,18687.0,5756.0,-0.919815,-0.319295,0.228015,-0.273288,0.104406,-0.956249,0.28152,-0.941887,-0.183293,-0.938654,0.178736,0.294928,0.263086,-0.1818,0.947489,0.222968,0.966955,0.123624,-0.908997,-0.284451,0.30465,-0.328042,0.037342,-0.943925,0.257124,-0.957963,-0.127256,-0.931432,0.219387,0.29035,0.317565,0.100351,0.942912,0.177726,0.970463,-0.163139,-77427.0,-25519.0,14206.0,-77642.0,25330.0,13736.0,12466.0,3002.0,-57971.0,0.0,-22185.0,-19699.0,-20398.0,-19897.0,-16947.0,1504.0,5971.0,0.0,2071.0,2044.0,3977.0,3625.0,-4.0,139.0,-46.0,0.0,390.0,345.0,178.0,135.0,25.0,-110.0,46.0,0.0,260.0,182.0,108.0,87.0,0.001224,-0.037646,0.012487,0.0,0.014278,0.012638,-0.006536,0.004955,0.006865,-0.029828,0.012635,0.0,0.009542,0.00669,-0.003962,0.003206,3791.970215,11240.640625,47829.871094,0.0,-16454.970703,-16438.230469,16914.240234,-16129.980469,3681.540039,10638.450195,52251.390625,0.0,18088.291016,17937.361328,-17642.609375,18460.710938,0.0,0.0,0.0,0.0,0.0,0.0,0.0,0.0,0.0,0.0,0.0,0.0,0.0,0.0,0.0,0.0,0.0,0.0,0.0,0.0,0.0,0.0,0.0,0.0,0.0,0.0,0.0,0.0,0.0,0.0,0.0,0.0,3791.941895,11240.602539,47829.960938,0.0,-16455.0625,-16438.412109,16914.271484,-16130.134766,3681.491699,10637.924805,52251.464844,0.0,18088.111328,17937.625,-17642.326172,18460.466797,27.841747,88.44886,21.226431,0.0,-2.101028,0.590898,52.034046,35.170128,27.030785,83.607407,23.32019,0.0,23.036463,-2.913828,37.211113,53.774586,1.655,1.656,-54599.0,-127898.0,-473472.0,0.0,160648.0,162948.0,-167538.0,159325.0,-57853.0,-116701.0,-574600.0,0.0,-198910.0,-197260.0,192052.0,-201494.0,0.0,0.0,0.0,0.0,0.0,0.0,0.0,0.0,0.0,0.0,0.0,0.0,0.0,0.0,0.0,0.0,0.0,0.0,0.0,0.0,0.0,0.0,0.0,0.0
1,176.38283395767212,27.841957,88.44915,21.226387,0.0,-2.08428,0.611141,52.020645,35.197315,27.031139,83.611679,23.32012,0.0,23.069479,-2.943247,37.194283,53.787151,3.0,1.0,111.0,0.0,1.0,-107401.0,-29717.0,15638.0,-73413.0,18687.0,5756.0,-0.919815,-0.319295,0.228015,-0.273288,0.104406,-0.956249,0.28152,-0.941887,-0.183293,-0.938654,0.178736,0.294928,0.263086,-0.1818,0.947489,0.222968,0.966955,0.123624,-0.919815,-0.319295,0.228015,-0.273288,0.104406,-0.956249,0.28152,-0.941887,-0.183293,-0.938654,0.178736,0.294928,0.263086,-0.1818,0.947489,0.222968,0.966955,0.123624,-107401.0,-29717.0,15638.0,-73413.0,18687.0,5756.0,12466.0,3002.0,-57971.0,0.0,-22185.0,-19699.0,-20398.0,-19897.0,-16947.0,1504.0,5971.0,0.0,2071.0,2044.0,3977.0,3625.0,-4.0,139.0,-46.0,0.0,389.0,344.0,178.0,134.0,25.0,-110.0,46.0,0.0,260.0,183.0,107.0,86.0,0.001224,-0.037646,0.012487,0.0,0.014267,0.012615,-0.006533,0.004936,0.006865,-0.029828,0.012635,0.0,0.00952,0.006722,-0.003927,0.003176,3791.970215,11240.640625,47829.871094,0.0,-16454.970703,-16438.230469,16914.240234,-16129.980469,3681.540039,10638.450195,52251.390625,0.0,18088.291016,17937.361328,-17642.609375,18460.710938,0.0,0.0,0.0,0.0,0.0,0.0,0.0,0.0,0.0,0.0,0.0,0.0,0.0,0.0,0.0,0.0,0.0,0.0,0.0,0.0,0.0,0.0,0.0,0.0,0.0,0.0,0.0,0.0,0.0,0.0,0.0,0.0,3791.941895,11240.602539,47829.960938,0.0,-16455.0625,-16438.412109,16914.271484,-16130.134766,3681.491699,10637.924805,52251.464844,0.0,18088.111328,17937.625,-17642.326172,18460.466797,27.841747,88.44886,21.226431,0.0,-2.101028,0.590898,52.034046,35.170128,27.030785,83.607407,23.32019,0.0,23.036463,-2.913828,37.211113,53.774586,1.522,1.587,-54599.0,-127898.0,-473472.0,0.0,160648.0,162948.0,-167538.0,159325.0,-57853.0,-116701.0,-574600.0,0.0,-198910.0,-197260.0,192052.0,-201494.0,0.0,0.0,0.0,0.0,0.0,0.0,0.0,0.0,0.0,0.0,0.0,0.0,0.0,0.0,0.0,0.0,0.0,0.0,0.0,0.0,0.0,0.0,0.0,0.0
2,176.44784903526306,27.841957,88.44915,21.226387,0.0,-2.08428,0.611141,52.020645,35.197315,27.031139,83.611679,23.32012,0.0,23.069479,-2.943247,37.194283,53.787151,3.0,1.0,111.0,0.0,1.0,-107401.0,-29717.0,15638.0,-73413.0,18687.0,5756.0,-0.919815,-0.319295,0.228015,-0.273288,0.104406,-0.956249,0.28152,-0.941887,-0.183293,-0.938654,0.178736,0.294928,0.263086,-0.1818,0.947489,0.222968,0.966955,0.123624,-0.919815,-0.319295,0.228015,-0.273288,0.104406,-0.956249,0.28152,-0.941887,-0.183293,-0.938654,0.178736,0.294928,0.263086,-0.1818,0.947489,0.222968,0.966955,0.123624,-107401.0,-29717.0,15638.0,-73413.0,18687.0,5756.0,12466.0,3002.0,-57971.0,0.0,-22185.0,-19699.0,-20398.0,-19897.0,-16947.0,1504.0,5971.0,0.0,2071.0,2044.0,3977.0,3625.0,-4.0,139.0,-46.0,0.0,389.0,344.0,178.0,134.0,25.0,-110.0,46.0,0.0,259.0,184.0,106.0,86.0,0.001224,-0.037646,0.012487,0.0,0.014262,0.012605,-0.006531,0.004927,0.006865,-0.029828,0.012635,0.0,0.00951,0.006737,-0.003911,0.003162,3791.970215,11240.640625,47829.871094,0.0,-16454.970703,-16438.230469,16914.240234,-16129.980469,3681.540039,10638.450195,52251.390625,0.0,18088.291016,17937.361328,-17642.609375,18460.710938,0.0,0.0,0.0,0.0,0.0,0.0,0.0,0.0,0.0,0.0,0.0,0.0,0.0,0.0,0.0,0.0,0.0,0.0,0.0,0.0,0.0,0.0,0.0,0.0,0.0,0.0,0.0,0.0,0.0,0.0,0.0,0.0,3791.941895,11240.602539,47829.960938,0.0,-16455.0625,-16438.412109,16914.271484,-16130.134766,3681.491699,10637.924805,52251.464844,0.0,18088.111328,17937.625,-17642.326172,18460.466797,27.841747,88.44886,21.226431,0.0,-2.101028,0.590898,52.034046,35.170128,27.030785,83.607407,23.32019,0.0,23.036463,-2.913828,37.211113,53.774586,1.522,1.587,-54599.0,-127898.0,-473472.0,0.0,160648.0,162948.0,-167538.0,159325.0,-57853.0,-116701.0,-574600.0,0.0,-198910.0,-197260.0,192052.0,-201494.0,0.0,0.0,0.0,0.0,0.0,0.0,0.0,0.0,0.0,0.0,0.0,0.0,0.0,0.0,0.0,0.0,0.0,0.0,0.0,0.0,0.0,0.0,0.0,0.0
3,176.51084089279175,27.841957,88.44915,21.226387,0.0,-2.08428,0.611141,52.020645,35.197315,27.031139,83.611679,23.32012,0.0,23.069479,-2.943247,37.194283,53.787151,3.0,1.0,111.0,0.0,1.0,-107401.0,-29717.0,15638.0,-73413.0,18687.0,5756.0,-0.919815,-0.319295,0.228015,-0.273288,0.104406,-0.956249,0.28152,-0.941887,-0.183293,-0.938654,0.178736,0.294928,0.263086,-0.1818,0.947489,0.222968,0.966955,0.123624,-0.919815,-0.319295,0.228015,-0.273288,0.104406,-0.956249,0.28152,-0.941887,-0.183293,-0.938654,0.178736,0.294928,0.263086,-0.1818,0.947489,0.222968,0.966955,0.123624,-107401.0,-29717.0,15638.0,-73413.0,18687.0,5756.0,12466.0,3002.0,-57971.0,0.0,-22185.0,-19699.0,-20398.0,-19897.0,-16947.0,1504.0,5971.0,0.0,2071.0,2044.0,3977.0,3625.0,-4.0,139.0,-46.0,0.0,389.0,344.0,178.0,134.0,25.0,-110.0,46.0,0.0,259.0,184.0,106.0,86.0,0.001224,-0.037646,0.012487,0.0,0.014257,0.012595,-0.006529,0.004919,0.006865,-0.029828,0.012635,0.0,0.0095,0.006752,-0.003896,0.003148,3791.970215,11240.640625,47829.871094,0.0,-16454.970703,-16438.230469,16914.240234,-16129.980469,3681.540039,10638.450195,52251.390625,0.0,18088.291016,17937.361328,-17642.609375,18460.710938,0.0,0.0,0.0,0.0,0.0,0.0,0.0,0.0,0.0,0.0,0.0,0.0,0.0,0.0,0.0,0.0,0.0,0.0,0.0,0.0,0.0,0.0,0.0,0.0,0.0,0.0,0.0,0.0,0.0,0.0,0.0,0.0,3791.941895,11240.602539,47829.960938,0.0,-16455.0625,-16438.412109,16914.271484,-16130.134766,3681.491699,10637.924805,52251.464844,0.0,18088.111328,17937.625,-17642.326172,18460.466797,27.841747,88.44886,21.226431,0.0,-2.101028,0.590898,52.034046,35.170128,27.030785,83.607407,23.32019,0.0,23.036463,-2.913828,37.211113,53.774586,1.522,1.587,-54599.0,-127898.0,-473472.0,0.0,160648.0,162948.0,-167538.0,159325.0,-57853.0,-116701.0,-574600.0,0.0,-198910.0,-197260.0,192052.0,-201494.0,0.0,0.0,0.0,0.0,0.0,0.0,0.0,0.0,0.0,0.0,0.0,0.0,0.0,0.0,0.0,0.0,0.0,0.0,0.0,0.0,0.0,0.0,0.0,0.0
4,176.5738399028778,27.841957,88.44915,21.226387,0.0,-2.08428,0.611141,52.020645,35.197315,27.031139,83.611679,23.32012,0.0,23.069479,-2.943247,37.194283,53.787151,3.0,1.0,111.0,0.0,1.0,-107401.0,-29717.0,15638.0,-73413.0,18687.0,5756.0,-0.919815,-0.319295,0.228015,-0.273288,0.104406,-0.956249,0.28152,-0.941887,-0.183293,-0.938654,0.178736,0.294928,0.263086,-0.1818,0.947489,0.222968,0.966955,0.123624,-0.919815,-0.319295,0.228015,-0.273288,0.104406,-0.956249,0.28152,-0.941887,-0.183293,-0.938654,0.178736,0.294928,0.263086,-0.1818,0.947489,0.222968,0.966955,0.123624,-107401.0,-29717.0,15638.0,-73413.0,18687.0,5756.0,12466.0,3002.0,-57971.0,0.0,-22185.0,-19699.0,-20398.0,-19897.0,-16947.0,1504.0,5971.0,0.0,2071.0,2044.0,3977.0,3625.0,-4.0,139.0,-46.0,0.0,389.0,343.0,178.0,134.0,25.0,-110.0,46.0,0.0,259.0,184.0,106.0,85.0,0.001224,-0.037646,0.012487,0.0,0.014252,0.012585,-0.006528,0.00491,0.006865,-0.029828,0.012635,0.0,0.00949,0.006766,-0.00388,0.003135,3791.970215,11240.640625,47829.871094,0.0,-16454.970703,-16438.230469,16914.240234,-16129.980469,3681.540039,10638.450195,52251.390625,0.0,18088.291016,17937.361328,-17642.609375,18460.710938,0.0,0.0,0.0,0.0,0.0,0.0,0.0,0.0,0.0,0.0,0.0,0.0,0.0,0.0,0.0,0.0,0.0,0.0,0.0,0.0,0.0,0.0,0.0,0.0,0.0,0.0,0.0,0.0,0.0,0.0,0.0,0.0,3791.941895,11240.602539,47829.960938,0.0,-16455.0625,-16438.412109,16914.271484,-16130.134766,3681.491699,10637.924805,52251.464844,0.0,18088.111328,17937.625,-17642.326172,18460.466797,27.841747,88.44886,21.226431,0.0,-2.101028,0.590898,52.034046,35.170128,27.030785,83.607407,23.32019,0.0,23.036463,-2.913828,37.211113,53.774586,1.522,1.587,-54599.0,-127898.0,-473472.0,0.0,160648.0,162948.0,-167538.0,159325.0,-57853.0,-116701.0,-574600.0,0.0,-198910.0,-197260.0,192052.0,-201494.0,0.0,0.0,0.0,0.0,0.0,0.0,0.0,0.0,0.0,0.0,0.0,0.0,0.0,0.0,0.0,0.0,0.0,0.0,0.0,0.0,0.0,0.0,0.0,0.0
5,176.63783597946167,27.841957,88.44915,21.226387,0.0,-2.08428,0.611141,52.020645,35.197315,27.031139,83.611679,23.32012,0.0,23.069479,-2.943247,37.194283,53.787151,3.0,1.0,111.0,0.0,1.0,-107401.0,-29717.0,15638.0,-73413.0,18687.0,5756.0,-0.919815,-0.319295,0.228015,-0.273288,0.104406,-0.956249,0.28152,-0.941887,-0.183293,-0.938654,0.178736,0.294928,0.263086,-0.1818,0.947489,0.222968,0.966955,0.123624,-0.919815,-0.319295,0.228015,-0.273288,0.104406,-0.956249,0.28152,-0.941887,-0.183293,-0.938654,0.178736,0.294928,0.263086,-0.1818,0.947489,0.222968,0.966955,0.123624,-107401.0,-29717.0,15638.0,-73413.0,18687.0,5756.0,12466.0,3002.0,-57971.0,0.0,-22185.0,-19699.0,-20398.0,-19897.0,-16947.0,1504.0,5971.0,0.0,2071.0,2044.0,3977.0,3625.0,-4.0,139.0,-46.0,0.0,389.0,343.0,178.0,133.0,25.0,-110.0,46.0,0.0,259.0,185.0,105.0,85.0,0.001224,-0.037646,0.012487,0.0,0.014247,0.012575,-0.006526,0.004902,0.006865,-0.029828,0.012635,0.0,0.00948,0.006781,-0.003864,0.003121,3791.970215,11240.640625,47829.871094,0.0,-16454.970703,-16438.230469,16914.240234,-16129.980469,3681.540039,10638.450195,52251.390625,0.0,18088.291016,17937.361328,-17642.609375,18460.710938,0.0,0.0,0.0,0.0,0.0,0.0,0.0,0.0,0.0,0.0,0.0,0.0,0.0,0.0,0.0,0.0,0.0,0.0,0.0,0.0,0.0,0.0,0.0,0.0,0.0,0.0,0.0,0.0,0.0,0.0,0.0,0.0,3791.941895,11240.602539,47829.960938,0.0,-16455.0625,-16438.412109,16914.271484,-16130.134766,3681.491699,10637.924805,52251.464844,0.0,18088.111328,17937.625,-17642.326172,18460.466797,27.841747,88.44886,21.226431,0.0,-2.101028,0.590898,52.034046,35.170128,27.030785,83.607407,23.32019,0.0,23.036463,-2.913828,37.211113,53.774586,1.522,1.587,-54599.0,-127898.0,-473472.0,0.0,160648.0,162948.0,-167538.0,159325.0,-57853.0,-116701.0,-574600.0,0.0,-198910.0,-197260.0,192052.0,-201494.0,0.0,0.0,0.0,0.0,0.0,0.0,0.0,0.0,0.0,0.0,0.0,0.0,0.0,0.0,0.0,0.0,0.0,0.0,0.0,0.0,0.0,0.0,0.0,0.0
6,176.6998770236969,27.841957,88.44915,21.226387,0.0,-2.08428,0.611141,52.020645,35.197315,27.031139,83.611679,23.32012,0.0,23.069479,-2.943247,37.194283,53.787151,3.0,1.0,111.0,0.0,1.0,-107401.0,-29717.0,15638.0,-73413.0,18687.0,5756.0,-0.919815,-0.319295,0.228015,-0.273288,0.104406,-0.956249,0.28152,-0.941887,-0.183293,-0.938654,0.178736,0.294928,0.263086,-0.1818,0.947489,0.222968,0.966955,0.123624,-0.919815,-0.319295,0.228015,-0.273288,0.104406,-0.956249,0.28152,-0.941887,-0.183293,-0.938654,0.178736,0.294928,0.263086,-0.1818,0.947489,0.222968,0.966955,0.123624,-107401.0,-29717.0,15638.0,-73413.0,18687.0,5756.0,12466.0,3002.0,-57971.0,0.0,-22185.0,-19699.0,-20398.0,-19897.0,-16947.0,1504.0,5971.0,0.0,2071.0,2044.0,3977.0,3625.0,-4.0,139.0,-46.0,0.0,389.0,343.0,178.0,133.0,25.0,-110.0,46.0,0.0,258.0,185.0,105.0,84.0,0.001224,-0.037646,0.012487,0.0,0.014242,0.012565,-0.006524,0.004894,0.006865,-0.029828,0.012635,0.0,0.00947,0.006795,-0.003849,0.003108,3791.970215,11240.640625,47829.871094,0.0,-16454.970703,-16438.230469,16914.240234,-16129.980469,3681.540039,10638.450195,52251.390625,0.0,18088.291016,17937.361328,-17642.609375,18460.710938,0.0,0.0,0.0,0.0,0.0,0.0,0.0,0.0,0.0,0.0,0.0,0.0,0.0,0.0,0.0,0.0,0.0,0.0,0.0,0.0,0.0,0.0,0.0,0.0,0.0,0.0,0.0,0.0,0.0,0.0,0.0,0.0,3791.941895,11240.602539,47829.960938,0.0,-16455.0625,-16438.412109,16914.271484,-16130.134766,3681.491699,10637.924805,52251.464844,0.0,18088.111328,17937.625,-17642.326172,18460.466797,27.841747,88.44886,21.226431,0.0,-2.101028,0.590898,52.034046,35.170128,27.030785,83.607407,23.32019,0.0,23.036463,-2.913828,37.211113,53.774586,1.522,1.587,-54599.0,-127898.0,-473472.0,0.0,160648.0,162948.0,-167538.0,159325.0,-57853.0,-116701.0,-574600.0,0.0,-198910.0,-197260.0,192052.0,-201494.0,0.0,0.0,0.0,0.0,0.0,0.0,0.0,0.0,0.0,0.0,0.0,0.0,0.0,0.0,0.0,0.0,0.0,0.0,0.0,0.0,0.0,0.0,0.0,0.0
7,176.76385188102722,27.841957,88.44915,21.226387,0.0,-2.08428,0.611141,52.020645,35.197315,27.031139,83.611679,23.32012,0.0,23.069479,-2.943247,37.194283,53.787151,3.0,1.0,111.0,0.0,1.0,-107401.0,-29717.0,15638.0,-73413.0,18687.0,5756.0,-0.919815,-0.319295,0.228015,-0.273288,0.104406,-0.956249,0.28152,-0.941887,-0.183293,-0.938654,0.178736,0.294928,0.263086,-0.1818,0.947489,0.222968,0.966955,0.123624,-0.919815,-0.319295,0.228015,-0.273288,0.104406,-0.956249,0.28152,-0.941887,-0.183293,-0.938654,0.178736,0.294928,0.263086,-0.1818,0.947489,0.222968,0.966955,0.123624,-107401.0,-29717.0,15638.0,-73413.0,18687.0,5756.0,12466.0,3002.0,-57971.0,0.0,-22185.0,-19699.0,-20398.0,-19897.0,-16947.0,1504.0,5971.0,0.0,2071.0,2044.0,3977.0,3625.0,-4.0,139.0,-46.0,0.0,389.0,343.0,178.0,133.0,25.0,-110.0,46.0,0.0,258.0,186.0,104.0,84.0,0.001224,-0.037646,0.012487,0.0,0.014237,0.012555,-0.006523,0.004885,0.006865,-0.029828,0.012635,0.0,0.00946,0.00681,-0.003833,0.003094,3791.970215,11240.640625,47829.871094,0.0,-16454.970703,-16438.230469,16914.240234,-16129.980469,3681.540039,10638.450195,52251.390625,0.0,18088.291016,17937.361328,-17642.609375,18460.710938,0.0,0.0,0.0,0.0,0.0,0.0,0.0,0.0,0.0,0.0,0.0,0.0,0.0,0.0,0.0,0.0,0.0,0.0,0.0,0.0,0.0,0.0,0.0,0.0,0.0,0.0,0.0,0.0,0.0,0.0,0.0,0.0,3791.941895,11240.602539,47829.960938,0.0,-16455.0625,-16438.412109,16914.271484,-16130.134766,3681.491699,10637.924805,52251.464844,0.0,18088.111328,17937.625,-17642.326172,18460.466797,27.841747,88.44886,21.226431,0.0,-2.101028,0.590898,52.034046,35.170128,27.030785,83.607407,23.32019,0.0,23.036463,-2.913828,37.211113,53.774586,1.522,1.587,-54599.0,-127898.0,-473472.0,0.0,160648.0,162948.0,-167538.0,159325.0,-57853.0,-116701.0,-574600.0,0.0,-198910.0,-197260.0,192052.0,-201494.0,0.0,0.0,0.0,0.0,0.0,0.0,0.0,0.0,0.0,0.0,0.0,0.0,0.0,0.0,0.0,0.0,0.0,0.0,0.0,0.0,0.0,0.0,0.0,0.0
8,176.82784795761108,27.841957,88.44915,21.226387,0.0,-2.08428,0.611141,52.020645,35.197315,27.031139,83.611679,23.32012,0.0,23.069479,-2.943247,37.194283,53.787151,3.0,1.0,111.0,0.0,1.0,-107401.0,-29717.0,15638.0,-73413.0,18687.0,5756.0,-0.919815,-0.319295,0.228015,-0.273288,0.104406,-0.956249,0.28152,-0.941887,-0.183293,-0.938654,0.178736,0.294928,0.263086,-0.1818,0.947489,0.222968,0.966955,0.123624,-0.919815,-0.319295,0.228015,-0.273288,0.104406,-0.956249,0.28152,-0.941887,-0.183293,-0.938654,0.178736,0.294928,0.263086,-0.1818,0.947489,0.222968,0.966955,0.123624,-107401.0,-29717.0,15638.0,-73413.0,18687.0,5756.0,12466.0,3002.0,-57971.0,0.0,-22185.0,-19699.0,-20398.0,-19897.0,-16947.0,1504.0,5971.0,0.0,2071.0,2044.0,3977.0,3625.0,-4.0,139.0,-46.0,0.0,388.0,342.0,178.0,133.0,25.0,-110.0,46.0,0.0,258.0,186.0,104.0,84.0,0.001224,-0.037646,0.012487,0.0,0.014232,0.012545,-0.006521,0.004876,0.006865,-0.029828,0.012635,0.0,0.00945,0.006825,-0.003817,0.003081,3791.970215,11240.640625,47829.871094,0.0,-16454.970703,-16438.230469,16914.240234,-16129.980469,3681.540039,10638.450195,52251.390625,0.0,18088.291016,17937.361328,-17642.609375,18460.710938,0.0,0.0,0.0,0.0,0.0,0.0,0.0,0.0,0.0,0.0,0.0,0.0,0.0,0.0,0.0,0.0,0.0,0.0,0.0,0.0,0.0,0.0,0.0,0.0,0.0,0.0,0.0,0.0,0.0,0.0,0.0,0.0,3791.941895,11240.602539,47829.960938,0.0,-16455.0625,-16438.412109,16914.271484,-16130.134766,3681.491699,10637.924805,52251.464844,0.0,18088.111328,17937.625,-17642.326172,18460.466797,27.841747,88.44886,21.226431,0.0,-2.101028,0.590898,52.034046,35.170128,27.030785,83.607407,23.32019,0.0,23.036463,-2.913828,37.211113,53.774586,1.522,1.587,-54599.0,-127898.0,-473472.0,0.0,160648.0,162948.0,-167538.0,159325.0,-57853.0,-116701.0,-574600.0,0.0,-198910.0,-197260.0,192052.0,-201494.0,0.0,0.0,0.0,0.0,0.0,0.0,0.0,0.0,0.0,0.0,0.0,0.0,0.0,0.0,0.0,0.0,0.0,0.0,0.0,0.0,0.0,0.0,0.0,0.0
9,176.89084100723267,27.841957,88.44915,21.226387,0.0,-2.08428,0.611141,52.020645,35.197315,27.031139,83.611679,23.32012,0.0,23.069479,-2.943247,37.194283,53.787151,3.0,1.0,111.0,0.0,1.0,-107401.0,-29717.0,15638.0,-73413.0,18687.0,5756.0,-0.919815,-0.319295,0.228015,-0.273288,0.104406,-0.956249,0.28152,-0.941887,-0.183293,-0.938654,0.178736,0.294928,0.263086,-0.1818,0.947489,0.222968,0.966955,0.123624,-0.919815,-0.319295,0.228015,-0.273288,0.104406,-0.956249,0.28152,-0.941887,-0.183293,-0.938654,0.178736,0.294928,0.263086,-0.1818,0.947489,0.222968,0.966955,0.123624,-107401.0,-29717.0,15638.0,-73413.0,18687.0,5756.0,12466.0,3002.0,-57971.0,0.0,-22185.0,-19699.0,-20398.0,-19897.0,-16947.0,1504.0,5971.0,0.0,2071.0,2044.0,3977.0,3625.0,-4.0,139.0,-46.0,0.0,388.0,342.0,178.0,133.0,25.0,-110.0,46.0,0.0,257.0,186.0,103.0,83.0,0.001224,-0.037646,0.012487,0.0,0.014227,0.012535,-0.006519,0.004868,0.006865,-0.029828,0.012635,0.0,0.009441,0.006839,-0.003802,0.003067,3791.970215,11240.640625,47829.871094,0.0,-16454.970703,-16438.230469,16914.240234,-16129.980469,3681.540039,10638.450195,52251.390625,0.0,18088.291016,17937.361328,-17642.609375,18460.710938,0.0,0.0,0.0,0.0,0.0,0.0,0.0,0.0,0.0,0.0,0.0,0.0,0.0,0.0,0.0,0.0,0.0,0.0,0.0,0.0,0.0,0.0,0.0,0.0,0.0,0.0,0.0,0.0,0.0,0.0,0.0,0.0,3791.941895,11240.602539,47829.960938,0.0,-16455.0625,-16438.412109,16914.271484,-16130.134766,3681.491699,10637.924805,52251.464844,0.0,18088.111328,17937.625,-17642.326172,18460.466797,27.841747,88.44886,21.226431,0.0,-2.101028,0.590898,52.034046,35.170128,27.030785,83.607407,23.32019,0.0,23.036463,-2.913828,37.211113,53.774586,1.522,1.587,-54599.0,-127898.0,-473472.0,0.0,160648.0,162948.0,-167538.0,159325.0,-57853.0,-116701.0,-574600.0,0.0,-198910.0,-197260.0,192052.0,-201494.0,0.0,0.0,0.0,0.0,0.0,0.0,0.0,0.0,0.0,0.0,0.0,0.0,0.0,0.0,0.0,0.0,0.0,0.0,0.0,0.0,0.0,0.0,0.0,0.0
10,176.95483994483948,27.841957,88.44915,21.226387,0.0,-2.08428,0.611141,52.020645,35.197315,27.031139,83.611679,23.32012,0.0,23.069479,-2.943247,37.194283,53.787151,3.0,1.0,111.0,0.0,1.0,-107401.0,-29717.0,15638.0,-73413.0,18687.0,5756.0,-0.919815,-0.319295,0.228015,-0.273288,0.104406,-0.956249,0.28152,-0.941887,-0.183293,-0.938654,0.178736,0.294928,0.263086,-0.1818,0.947489,0.222968,0.966955,0.123624,-0.919815,-0.319295,0.228015,-0.273288,0.104406,-0.956249,0.28152,-0.941887,-0.183293,-0.938654,0.178736,0.294928,0.263086,-0.1818,0.947489,0.222968,0.966955,0.123624,-107401.0,-29717.0,15638.0,-73413.0,18687.0,5756.0,12466.0,3002.0,-57971.0,0.0,-22185.0,-19699.0,-20398.0,-19897.0,-16947.0,1504.0,5971.0,0.0,2071.0,2044.0,3977.0,3625.0,-4.0,139.0,-46.0,0.0,388.0,342.0,178.0,132.0,25.0,-110.0,46.0,0.0,257.0,187.0,103.0,83.0,0.001224,-0.037646,0.012487,0.0,0.014222,0.012525,-0.006518,0.004859,0.006865,-0.029828,0.012635,0.0,0.009431,0.006854,-0.003786,0.003054,3791.970215,11240.640625,47829.871094,0.0,-16454.970703,-16438.230469,16914.240234,-16129.980469,3681.540039,10638.450195,52251.390625,0.0,18088.291016,17937.361328,-17642.609375,18460.710938,0.0,0.0,0.0,0.0,0.0,0.0,0.0,0.0,0.0,0.0,0.0,0.0,0.0,0.0,0.0,0.0,0.0,0.0,0.0,0.0,0.0,0.0,0.0,0.0,0.0,0.0,0.0,0.0,0.0,0.0,0.0,0.0,3791.941895,11240.602539,47829.960938,0.0,-16455.0625,-16438.412109,16914.271484,-16130.134766,3681.491699,10637.924805,52251.464844,0.0,18088.111328,17937.625,-17642.326172,18460.466797,27.841747,88.44886,21.226431,0.0,-2.101028,0.590898,52.034046,35.170128,27.030785,83.607407,23.32019,0.0,23.036463,-2.913828,37.211113,53.774586,1.522,1.587,-54599.0,-127898.0,-473472.0,0.0,160648.0,162948.0,-167538.0,159325.0,-57853.0,-116701.0,-574600.0,0.0,-198910.0,-197260.0,192052.0,-201494.0,0.0,0.0,0.0,0.0,0.0,0.0,0.0,0.0,0.0,0.0,0.0,0.0,0.0,0.0,0.0,0.0,0.0,0.0,0.0,0.0,0.0,0.0,0.0,0.0
11,177.01784205436707,27.841957,88.44915,21.226387,0.0,-2.08428,0.611141,52.020645,35.197315,27.031139,83.611679,23.32012,0.0,23.069479,-2.943247,37.194283,53.787151,3.0,1.0,111.0,0.0,1.0,-107401.0,-29717.0,15638.0,-73413.0,18687.0,5756.0,-0.919815,-0.319295,0.228015,-0.273288,0.104406,-0.956249,0.28152,-0.941887,-0.183293,-0.938654,0.178736,0.294928,0.263086,-0.1818,0.947489,0.222968,0.966955,0.123624,-0.919815,-0.319295,0.228015,-0.273288,0.104406,-0.956249,0.28152,-0.941887,-0.183293,-0.938654,0.178736,0.294928,0.263086,-0.1818,0.947489,0.222968,0.966955,0.123624,-107401.0,-29717.0,15638.0,-73413.0,18687.0,5756.0,12466.0,3002.0,-57971.0,0.0,-22185.0,-19699.0,-20398.0,-19897.0,-16947.0,1504.0,5971.0,0.0,2071.0,2044.0,3977.0,3625.0,-4.0,139.0,-46.0,0.0,388.0,342.0,178.0,132.0,25.0,-110.0,46.0,0.0,257.0,187.0,103.0,83.0,0.001224,-0.037646,0.012487,0.0,0.014217,0.012515,-0.006516,0.004851,0.006865,-0.029828,0.012635,0.0,0.009421,0.006868,-0.00377,0.00304,3791.970215,11240.640625,47829.871094,0.0,-16454.970703,-16438.230469,16914.240234,-16129.980469,3681.540039,10638.450195,52251.390625,0.0,18088.291016,17937.361328,-17642.609375,18460.710938,0.0,0.0,0.0,0.0,0.0,0.0,0.0,0.0,0.0,0.0,0.0,0.0,0.0,0.0,0.0,0.0,0.0,0.0,0.0,0.0,0.0,0.0,0.0,0.0,0.0,0.0,0.0,0.0,0.0,0.0,0.0,0.0,3791.941895,11240.602539,47829.960938,0.0,-16455.0625,-16438.412109,16914.271484,-16130.134766,3681.491699,10637.924805,52251.464844,0.0,18088.111328,17937.625,-17642.326172,18460.466797,27.841747,88.44886,21.226431,0.0,-2.101028,0.590898,52.034046,35.170128,27.030785,83.607407,23.32019,0.0,23.036463,-2.913828,37.211113,53.774586,1.522,1.587,-54599.0,-127898.0,-473472.0,0.0,160648.0,162948.0,-167538.0,159325.0,-57853.0,-116701.0,-574600.0,0.0,-198910.0,-197260.0,192052.0,-201494.0,0.0,0.0,0.0,0.0,0.0,0.0,0.0,0.0,0.0,0.0,0.0,0.0,0.0,0.0,0.0,0.0,0.0,0.0,0.0,0.0,0.0,0.0,0.0,0.0
12,177.08090806007385,27.841957,88.44915,21.226387,0.0,-2.08428,0.611141,52.020645,35.197315,27.031139,83.611679,23.32012,0.0,23.069479,-2.943247,37.194283,53.787151,3.0,1.0,111.0,0.0,1.0,-107401.0,-29717.0,15638.0,-73413.0,18687.0,5756.0,-0.919815,-0.319295,0.228015,-0.273288,0.104406,-0.956249,0.28152,-0.941887,-0.183293,-0.938654,0.178736,0.294928,0.263086,-0.1818,0.947489,0.222968,0.966955,0.123624,-0.919815,-0.319295,0.228015,-0.273288,0.104406,-0.956249,0.28152,-0.941887,-0.183293,-0.938654,0.178736,0.294928,0.263086,-0.1818,0.947489,0.222968,0.966955,0.123624,-107401.0,-29717.0,15638.0,-73413.0,18687.0,5756.0,12466.0,3002.0,-57971.0,0.0,-22185.0,-19699.0,-20398.0,-19897.0,-16947.0,1504.0,5971.0,0.0,2071.0,2044.0,3977.0,3625.0,-4.0,139.0,-46.0,0.0,388.0,341.0,178.0,132.0,25.0,-110.0,46.0,0.0,257.0,188.0,102.0,82.0,0.001224,-0.037646,0.012487,0.0,0.014212,0.012505,-0.006514,0.004842,0.006865,-0.029828,0.012635,0.0,0.009411,0.006883,-0.003755,0.003027,3791.970215,11240.640625,47829.871094,0.0,-16454.970703,-16438.230469,16914.240234,-16129.980469,3681.540039,10638.450195,52251.390625,0.0,18088.291016,17937.361328,-17642.609375,18460.710938,0.0,0.0,0.0,0.0,0.0,0.0,0.0,0.0,0.0,0.0,0.0,0.0,0.0,0.0,0.0,0.0,0.0,0.0,0.0,0.0,0.0,0.0,0.0,0.0,0.0,0.0,0.0,0.0,0.0,0.0,0.0,0.0,3791.941895,11240.602539,47829.960938,0.0,-16455.0625,-16438.412109,16914.271484,-16130.134766,3681.491699,10637.924805,52251.464844,0.0,18088.111328,17937.625,-17642.326172,18460.466797,27.841747,88.44886,21.226431,0.0,-2.101028,0.590898,52.034046,35.170128,27.030785,83.607407,23.32019,0.0,23.036463,-2.913828,37.211113,53.774586,1.522,1.587,-54599.0,-127898.0,-473472.0,0.0,160648.0,162948.0,-167538.0,159325.0,-57853.0,-116701.0,-574600.0,0.0,-198910.0,-197260.0,192052.0,-201494.0,0.0,0.0,0.0,0.0,0.0,0.0,0.0,0.0,0.0,0.0,0.0,0.0,0.0,0.0,0.0,0.0,0.0,0.0,0.0,0.0,0.0,0.0,0.0,0.0
13,177.1439390182495,27.841957,88.44915,21.226387,0.0,-2.08428,0.611141,52.020645,35.197315,27.031139,83.611679,23.32012,0.0,23.069479,-2.943247,37.194283,53.787151,3.0,1.0,111.0,0.0,1.0,-107401.0,-29717.0,15638.0,-73413.0,18687.0,5756.0,-0.919815,-0.319295,0.228015,-0.273288,0.104406,-0.956249,0.28152,-0.941887,-0.183293,-0.938654,0.178736,0.294928,0.263086,-0.1818,0.947489,0.222968,0.966955,0.123624,-0.919815,-0.319295,0.228015,-0.273288,0.104406,-0.956249,0.28152,-0.941887,-0.183293,-0.938654,0.178736,0.294928,0.263086,-0.1818,0.947489,0.222968,0.966955,0.123624,-107401.0,-29717.0,15638.0,-73413.0,18687.0,5756.0,12466.0,3002.0,-57971.0,0.0,-22185.0,-19699.0,-20398.0,-19897.0,-16947.0,1504.0,5971.0,0.0,2071.0,2044.0,3977.0,3625.0,-4.0,139.0,-46.0,0.0,388.0,341.0,177.0,132.0,25.0,-110.0,46.0,0.0,256.0,188.0,102.0,82.0,0.001224,-0.037646,0.012487,0.0,0.014207,0.012495,-0.006513,0.004834,0.006865,-0.029828,0.012635,0.0,0.009401,0.006897,-0.003739,0.003013,3791.970215,11240.640625,47829.871094,0.0,-16454.970703,-16438.230469,16914.240234,-16129.980469,3681.540039,10638.450195,52251.390625,0.0,18088.291016,17937.361328,-17642.609375,18460.710938,0.0,0.0,0.0,0.0,0.0,0.0,0.0,0.0,0.0,0.0,0.0,0.0,0.0,0.0,0.0,0.0,0.0,0.0,0.0,0.0,0.0,0.0,0.0,0.0,0.0,0.0,0.0,0.0,0.0,0.0,0.0,0.0,3791.941895,11240.602539,47829.960938,0.0,-16455.0625,-16438.412109,16914.271484,-16130.134766,3681.491699,10637.924805,52251.464844,0.0,18088.111328,17937.625,-17642.326172,18460.466797,27.841747,88.44886,21.226431,0.0,-2.101028,0.590898,52.034046,35.170128,27.030785,83.607407,23.32019,0.0,23.036463,-2.913828,37.211113,53.774586,1.522,1.587,-54599.0,-127898.0,-473472.0,0.0,160648.0,162948.0,-167538.0,159325.0,-57853.0,-116701.0,-574600.0,0.0,-198910.0,-197260.0,192052.0,-201494.0,0.0,0.0,0.0,0.0,0.0,0.0,0.0,0.0,0.0,0.0,0.0,0.0,0.0,0.0,0.0,0.0,0.0,0.0,0.0,0.0,0.0,0.0,0.0,0.0
14,177.20795106887817,27.841957,88.44915,21.226387,0.0,-2.08428,0.611141,52.020645,35.197315,27.031139,83.611679,23.32012,0.0,23.069479,-2.943247,37.194283,53.787151,3.0,1.0,111.0,0.0,1.0,-107401.0,-29717.0,15638.0,-73413.0,18687.0,5756.0,-0.919815,-0.319295,0.228015,-0.273288,0.104406,-0.956249,0.28152,-0.941887,-0.183293,-0.938654,0.178736,0.294928,0.263086,-0.1818,0.947489,0.222968,0.966955,0.123624,-0.919815,-0.319295,0.228015,-0.273288,0.104406,-0.956249,0.28152,-0.941887,-0.183293,-0.938654,0.178736,0.294928,0.263086,-0.1818,0.947489,0.222968,0.966955,0.123624,-107401.0,-29717.0,15638.0,-73413.0,18687.0,5756.0,12466.0,3002.0,-57971.0,0.0,-22185.0,-19699.0,-20398.0,-19897.0,-16947.0,1504.0,5971.0,0.0,2071.0,2044.0,3977.0,3625.0,-4.0,139.0,-46.0,0.0,388.0,341.0,177.0,131.0,25.0,-110.0,46.0,0.0,256.0,188.0,101.0,81.0,0.001224,-0.037646,0.012487,0.0,0.014202,0.012485,-0.006511,0.004825,0.006865,-0.029828,0.012635,0.0,0.009391,0.006912,-0.003723,0.003,3791.970215,11240.640625,47829.871094,0.0,-16454.970703,-16438.230469,16914.240234,-16129.980469,3681.540039,10638.450195,52251.390625,0.0,18088.291016,17937.361328,-17642.609375,18460.710938,0.0,0.0,0.0,0.0,0.0,0.0,0.0,0.0,0.0,0.0,0.0,0.0,0.0,0.0,0.0,0.0,0.0,0.0,0.0,0.0,0.0,0.0,0.0,0.0,0.0,0.0,0.0,0.0,0.0,0.0,0.0,0.0,3791.941895,11240.602539,47829.960938,0.0,-16455.0625,-16438.412109,16914.271484,-16130.134766,3681.491699,10637.924805,52251.464844,0.0,18088.111328,17937.625,-17642.326172,18460.466797,27.841747,88.44886,21.226431,0.0,-2.101028,0.590898,52.034046,35.170128,27.030785,83.607407,23.32019,0.0,23.036463,-2.913828,37.211113,53.774586,1.522,1.587,-54599.0,-127898.0,-473472.0,0.0,160648.0,162948.0,-167538.0,159325.0,-57853.0,-116701.0,-574600.0,0.0,-198910.0,-197260.0,192052.0,-201494.0,0.0,0.0,0.0,0.0,0.0,0.0,0.0,0.0,0.0,0.0,0.0,0.0,0.0,0.0,0.0,0.0,0.0,0.0,0.0,0.0,0.0,0.0,0.0,0.0
15,177.2718529701233,27.841957,88.44915,21.226387,0.0,-2.08428,0.611141,52.020645,35.197315,27.031139,83.611679,23.32012,0.0,23.069479,-2.943247,37.194283,53.787151,3.0,1.0,111.0,0.0,1.0,-107401.0,-29717.0,15638.0,-73413.0,18687.0,5756.0,-0.919815,-0.319295,0.228015,-0.273288,0.104406,-0.956249,0.28152,-0.941887,-0.183293,-0.938654,0.178736,0.294928,0.263086,-0.1818,0.947489,0.222968,0.966955,0.123624,-0.919815,-0.319295,0.228015,-0.273288,0.104406,-0.956249,0.28152,-0.941887,-0.183293,-0.938654,0.178736,0.294928,0.263086,-0.1818,0.947489,0.222968,0.966955,0.123624,-107401.0,-29717.0,15638.0,-73413.0,18687.0,5756.0,12466.0,3002.0,-57971.0,0.0,-22185.0,-19699.0,-20398.0,-19897.0,-16947.0,1504.0,5971.0,0.0,2071.0,2044.0,3977.0,3625.0,-4.0,139.0,-46.0,0.0,387.0,340.0,177.0,131.0,25.0,-110.0,46.0,0.0,256.0,189.0,101.0,81.0,0.001224,-0.037646,0.012487,0.0,0.014197,0.012475,-0.006509,0.004817,0.006865,-0.029828,0.012635,0.0,0.009381,0.006927,-0.003707,0.002986,3791.970215,11240.640625,47829.871094,0.0,-16454.970703,-16438.230469,16914.240234,-16129.980469,3681.540039,10638.450195,52251.390625,0.0,18088.291016,17937.361328,-17642.609375,18460.710938,0.0,0.0,0.0,0.0,0.0,0.0,0.0,0.0,0.0,0.0,0.0,0.0,0.0,0.0,0.0,0.0,0.0,0.0,0.0,0.0,0.0,0.0,0.0,0.0,0.0,0.0,0.0,0.0,0.0,0.0,0.0,0.0,3791.941895,11240.602539,47829.960938,0.0,-16455.0625,-16438.412109,16914.271484,-16130.134766,3681.491699,10637.924805,52251.464844,0.0,18088.111328,17937.625,-17642.326172,18460.466797,27.841747,88.44886,21.226431,0.0,-2.101028,0.590898,52.034046,35.170128,27.030785,83.607407,23.32019,0.0,23.036463,-2.913828,37.211113,53.774586,1.522,1.587,-54599.0,-127898.0,-473472.0,0.0,160648.0,162948.0,-167538.0,159325.0,-57853.0,-116701.0,-574600.0,0.0,-198910.0,-197260.0,192052.0,-201494.0,0.0,0.0,0.0,0.0,0.0,0.0,0.0,0.0,0.0,0.0,0.0,0.0,0.0,0.0,0.0,0.0,0.0,0.0,0.0,0.0,0.0,0.0,0.0,0.0
16,177.33490705490112,27.841957,88.44915,21.226387,0.0,-2.08428,0.611141,52.020645,35.197315,27.031139,83.611679,23.32012,0.0,23.069479,-2.943247,37.194283,53.787151,3.0,1.0,111.0,0.0,1.0,-107401.0,-29717.0,15638.0,-73413.0,18687.0,5756.0,-0.919815,-0.319295,0.228015,-0.273288,0.104406,-0.956249,0.28152,-0.941887,-0.183293,-0.938654,0.178736,0.294928,0.263086,-0.1818,0.947489,0.222968,0.966955,0.123624,-0.919815,-0.319295,0.228015,-0.273288,0.104406,-0.956249,0.28152,-0.941887,-0.183293,-0.938654,0.178736,0.294928,0.263086,-0.1818,0.947489,0.222968,0.966955,0.123624,-107401.0,-29717.0,15638.0,-73413.0,18687.0,5756.0,12466.0,3002.0,-57971.0,0.0,-22185.0,-19699.0,-20398.0,-19897.0,-16947.0,1504.0,5971.0,0.0,2071.0,2044.0,3977.0,3625.0,-4.0,139.0,-46.0,0.0,387.0,340.0,177.0,131.0,25.0,-110.0,46.0,0.0,256.0,189.0,100.0,81.0,0.001224,-0.037646,0.012487,0.0,0.014192,0.012465,-0.006508,0.004808,0.006865,-0.029828,0.012635,0.0,0.009372,0.006941,-0.003692,0.002973,3791.970215,11240.640625,47829.871094,0.0,-16454.970703,-16438.230469,16914.240234,-16129.980469,3681.540039,10638.450195,52251.390625,0.0,18088.291016,17937.361328,-17642.609375,18460.710938,0.0,0.0,0.0,0.0,0.0,0.0,0.0,0.0,0.0,0.0,0.0,0.0,0.0,0.0,0.0,0.0,0.0,0.0,0.0,0.0,0.0,0.0,0.0,0.0,0.0,0.0,0.0,0.0,0.0,0.0,0.0,0.0,3791.941895,11240.602539,47829.960938,0.0,-16455.0625,-16438.412109,16914.271484,-16130.134766,3681.491699,10637.924805,52251.464844,0.0,18088.111328,17937.625,-17642.326172,18460.466797,27.841747,88.44886,21.226431,0.0,-2.101028,0.590898,52.034046,35.170128,27.030785,83.607407,23.32019,0.0,23.036463,-2.913828,37.211113,53.774586,1.522,1.587,-54599.0,-127898.0,-473472.0,0.0,160648.0,162948.0,-167538.0,159325.0,-57853.0,-116701.0,-574600.0,0.0,-198910.0,-197260.0,192052.0,-201494.0,0.0,0.0,0.0,0.0,0.0,0.0,0.0,0.0,0.0,0.0,0.0,0.0,0.0,0.0,0.0,0.0,0.0,0.0,0.0,0.0,0.0,0.0,0.0,0.0
17,177.3978979587555,27.841957,88.44915,21.226387,0.0,-2.08428,0.611141,52.020645,35.197315,27.031139,83.611679,23.32012,0.0,23.069479,-2.943247,37.194283,53.787151,3.0,1.0,111.0,0.0,1.0,-107401.0,-29717.0,15638.0,-73413.0,18687.0,5756.0,-0.919815,-0.319295,0.228015,-0.273288,0.104406,-0.956249,0.28152,-0.941887,-0.183293,-0.938654,0.178736,0.294928,0.263086,-0.1818,0.947489,0.222968,0.966955,0.123624,-0.919815,-0.319295,0.228015,-0.273288,0.104406,-0.956249,0.28152,-0.941887,-0.183293,-0.938654,0.178736,0.294928,0.263086,-0.1818,0.947489,0.222968,0.966955,0.123624,-107401.0,-29717.0,15638.0,-73413.0,18687.0,5756.0,12466.0,3002.0,-57971.0,0.0,-22185.0,-19699.0,-20398.0,-19897.0,-16947.0,1504.0,5971.0,0.0,2071.0,2044.0,3977.0,3625.0,-4.0,139.0,-46.0,0.0,387.0,340.0,177.0,131.0,25.0,-110.0,46.0,0.0,255.0,190.0,100.0,80.0,0.001224,-0.037646,0.012487,0.0,0.014187,0.012455,-0.006506,0.0048,0.006865,-0.029828,0.012635,0.0,0.009362,0.006956,-0.003676,0.002959,3791.970215,11240.640625,47829.871094,0.0,-16454.970703,-16438.230469,16914.240234,-16129.980469,3681.540039,10638.450195,52251.390625,0.0,18088.291016,17937.361328,-17642.609375,18460.710938,0.0,0.0,0.0,0.0,0.0,0.0,0.0,0.0,0.0,0.0,0.0,0.0,0.0,0.0,0.0,0.0,0.0,0.0,0.0,0.0,0.0,0.0,0.0,0.0,0.0,0.0,0.0,0.0,0.0,0.0,0.0,0.0,3791.941895,11240.602539,47829.960938,0.0,-16455.0625,-16438.412109,16914.271484,-16130.134766,3681.491699,10637.924805,52251.464844,0.0,18088.111328,17937.625,-17642.326172,18460.466797,27.841747,88.44886,21.226431,0.0,-2.101028,0.590898,52.034046,35.170128,27.030785,83.607407,23.32019,0.0,23.036463,-2.913828,37.211113,53.774586,1.522,1.587,-54599.0,-127898.0,-473472.0,0.0,160648.0,162948.0,-167538.0,159325.0,-57853.0,-116701.0,-574600.0,0.0,-198910.0,-197260.0,192052.0,-201494.0,0.0,0.0,0.0,0.0,0.0,0.0,0.0,0.0,0.0,0.0,0.0,0.0,0.0,0.0,0.0,0.0,0.0,0.0,0.0,0.0,0.0,0.0,0.0,0.0
18,177.4619059562683,27.841957,88.44915,21.226387,0.0,-2.08428,0.611141,52.020645,35.197315,27.031139,83.611679,23.32012,0.0,23.069479,-2.943247,37.194283,53.787151,3.0,1.0,111.0,0.0,1.0,-107401.0,-29717.0,15638.0,-73413.0,18687.0,5756.0,-0.919815,-0.319295,0.228015,-0.273288,0.104406,-0.956249,0.28152,-0.941887,-0.183293,-0.938654,0.178736,0.294928,0.263086,-0.1818,0.947489,0.222968,0.966955,0.123624,-0.919815,-0.319295,0.228015,-0.273288,0.104406,-0.956249,0.28152,-0.941887,-0.183293,-0.938654,0.178736,0.294928,0.263086,-0.1818,0.947489,0.222968,0.966955,0.123624,-107401.0,-29717.0,15638.0,-73413.0,18687.0,5756.0,12466.0,3002.0,-57971.0,0.0,-22185.0,-19699.0,-20398.0,-19897.0,-16947.0,1504.0,5971.0,0.0,2071.0,2044.0,3977.0,3625.0,-4.0,139.0,-46.0,0.0,387.0,340.0,177.0,130.0,25.0,-110.0,46.0,0.0,255.0,190.0,100.0,80.0,0.001224,-0.037646,0.012487,0.0,0.014182,0.012445,-0.006505,0.004791,0.006865,-0.029828,0.012635,0.0,0.009352,0.006971,-0.00366,0.002945,3791.970215,11240.640625,47829.871094,0.0,-16454.970703,-16438.230469,16914.240234,-16129.980469,3681.540039,10638.450195,52251.390625,0.0,18088.291016,17937.361328,-17642.609375,18460.710938,0.0,0.0,0.0,0.0,0.0,0.0,0.0,0.0,0.0,0.0,0.0,0.0,0.0,0.0,0.0,0.0,0.0,0.0,0.0,0.0,0.0,0.0,0.0,0.0,0.0,0.0,0.0,0.0,0.0,0.0,0.0,0.0,3791.941895,11240.602539,47829.960938,0.0,-16455.0625,-16438.412109,16914.271484,-16130.134766,3681.491699,10637.924805,52251.464844,0.0,18088.111328,17937.625,-17642.326172,18460.466797,27.841747,88.44886,21.226431,0.0,-2.101028,0.590898,52.034046,35.170128,27.030785,83.607407,23.32019,0.0,23.036463,-2.913828,37.211113,53.774586,1.522,1.587,-54599.0,-127898.0,-473472.0,0.0,160648.0,162948.0,-167538.0,159325.0,-57853.0,-116701.0,-574600.0,0.0,-198910.0,-197260.0,192052.0,-201494.0,0.0,0.0,0.0,0.0,0.0,0.0,0.0,0.0,0.0,0.0,0.0,0.0,0.0,0.0,0.0,0.0,0.0,0.0,0.0,0.0,0.0,0.0,0.0,0.0
19,177.52391004562378,27.841957,88.44915,21.226387,0.0,-2.08428,0.611141,52.020645,35.197315,27.031139,83.611679,23.32012,0.0,23.069479,-2.943247,37.194283,53.787151,3.0,1.0,111.0,0.0,1.0,-107401.0,-29717.0,15638.0,-73413.0,18687.0,5756.0,-0.919815,-0.319295,0.228015,-0.273288,0.104406,-0.956249,0.28152,-0.941887,-0.183293,-0.938654,0.178736,0.294928,0.263086,-0.1818,0.947489,0.222968,0.966955,0.123624,-0.919815,-0.319295,0.228015,-0.273288,0.104406,-0.956249,0.28152,-0.941887,-0.183293,-0.938654,0.178736,0.294928,0.263086,-0.1818,0.947489,0.222968,0.966955,0.123624,-107401.0,-29717.0,15638.0,-73413.0,18687.0,5756.0,12466.0,3002.0,-57971.0,0.0,-22185.0,-19699.0,-20398.0,-19897.0,-16947.0,1504.0,5971.0,0.0,2071.0,2044.0,3977.0,3625.0,-4.0,139.0,-46.0,0.0,387.0,339.0,177.0,130.0,25.0,-110.0,46.0,0.0,255.0,190.0,99.0,80.0,0.001224,-0.037646,0.012487,0.0,0.014177,0.012435,-0.006503,0.004783,0.006865,-0.029828,0.012635,0.0,0.009342,0.006985,-0.003645,0.002932,3791.970215,11240.640625,47829.871094,0.0,-16454.970703,-16438.230469,16914.240234,-16129.980469,3681.540039,10638.450195,52251.390625,0.0,18088.291016,17937.361328,-17642.609375,18460.710938,0.0,0.0,0.0,0.0,0.0,0.0,0.0,0.0,0.0,0.0,0.0,0.0,0.0,0.0,0.0,0.0,0.0,0.0,0.0,0.0,0.0,0.0,0.0,0.0,0.0,0.0,0.0,0.0,0.0,0.0,0.0,0.0,3791.941895,11240.602539,47829.960938,0.0,-16455.0625,-16438.412109,16914.271484,-16130.134766,3681.491699,10637.924805,52251.464844,0.0,18088.111328,17937.625,-17642.326172,18460.466797,27.841747,88.44886,21.226431,0.0,-2.101028,0.590898,52.034046,35.170128,27.030785,83.607407,23.32019,0.0,23.036463,-2.913828,37.211113,53.774586,1.522,1.587,-54599.0,-127898.0,-473472.0,0.0,160648.0,162948.0,-167538.0,159325.0,-57853.0,-116701.0,-574600.0,0.0,-198910.0,-197260.0,192052.0,-201494.0,0.0,0.0,0.0,0.0,0.0,0.0,0.0,0.0,0.0,0.0,0.0,0.0,0.0,0.0,0.0,0.0,0.0,0.0,0.0,0.0,0.0,0.0,0.0,0.0
20,177.5879099369049,27.841957,88.44915,21.226387,0.0,-2.08428,0.611141,52.020645,35.197315,27.031139,83.611679,23.32012,0.0,23.069479,-2.943247,37.194283,53.787151,3.0,1.0,111.0,0.0,1.0,-107401.0,-29717.0,15638.0,-73413.0,18687.0,5756.0,-0.919815,-0.319295,0.228015,-0.273288,0.104406,-0.956249,0.28152,-0.941887,-0.183293,-0.938654,0.178736,0.294928,0.263086,-0.1818,0.947489,0.222968,0.966955,0.123624,-0.919815,-0.319295,0.228015,-0.273288,0.104406,-0.956249,0.28152,-0.941887,-0.183293,-0.938654,0.178736,0.294928,0.263086,-0.1818,0.947489,0.222968,0.966955,0.123624,-107401.0,-29717.0,15638.0,-73413.0,18687.0,5756.0,12466.0,3002.0,-57971.0,0.0,-22185.0,-19699.0,-20398.0,-19897.0,-16947.0,1504.0,5971.0,0.0,2071.0,2044.0,3977.0,3625.0,-4.0,139.0,-46.0,0.0,387.0,339.0,177.0,130.0,25.0,-110.0,46.0,0.0,255.0,191.0,99.0,79.0,0.001224,-0.037646,0.012487,0.0,0.014172,0.012425,-0.006501,0.004774,0.006865,-0.029828,0.012635,0.0,0.009332,0.007,-0.003629,0.002919,3791.970215,11240.640625,47829.871094,0.0,-16454.970703,-16438.230469,16914.240234,-16129.980469,3681.540039,10638.450195,52251.390625,0.0,18088.291016,17937.361328,-17642.609375,18460.710938,0.0,0.0,0.0,0.0,0.0,0.0,0.0,0.0,0.0,0.0,0.0,0.0,0.0,0.0,0.0,0.0,0.0,0.0,0.0,0.0,0.0,0.0,0.0,0.0,0.0,0.0,0.0,0.0,0.0,0.0,0.0,0.0,3791.941895,11240.602539,47829.960938,0.0,-16455.0625,-16438.412109,16914.271484,-16130.134766,3681.491699,10637.924805,52251.464844,0.0,18088.111328,17937.625,-17642.326172,18460.466797,27.841747,88.44886,21.226431,0.0,-2.101028,0.590898,52.034046,35.170128,27.030785,83.607407,23.32019,0.0,23.036463,-2.913828,37.211113,53.774586,1.522,1.587,-54599.0,-127898.0,-473472.0,0.0,160648.0,162948.0,-167538.0,159325.0,-57853.0,-116701.0,-574600.0,0.0,-198910.0,-197260.0,192052.0,-201494.0,0.0,0.0,0.0,0.0,0.0,0.0,0.0,0.0,0.0,0.0,0.0,0.0,0.0,0.0,0.0,0.0,0.0,0.0,0.0,0.0,0.0,0.0,0.0,0.0
21,177.65191888809204,27.841957,88.44915,21.226387,0.0,-2.08428,0.611141,52.020645,35.197315,27.031139,83.611679,23.32012,0.0,23.069479,-2.943247,37.194283,53.787151,3.0,1.0,111.0,0.0,1.0,-107401.0,-29717.0,15638.0,-73413.0,18687.0,5756.0,-0.919815,-0.319295,0.228015,-0.273288,0.104406,-0.956249,0.28152,-0.941887,-0.183293,-0.938654,0.178736,0.294928,0.263086,-0.1818,0.947489,0.222968,0.966955,0.123624,-0.919815,-0.319295,0.228015,-0.273288,0.104406,-0.956249,0.28152,-0.941887,-0.183293,-0.938654,0.178736,0.294928,0.263086,-0.1818,0.947489,0.222968,0.966955,0.123624,-107401.0,-29717.0,15638.0,-73413.0,18687.0,5756.0,12466.0,3002.0,-57971.0,0.0,-22185.0,-19699.0,-20398.0,-19897.0,-16947.0,1504.0,5971.0,0.0,2071.0,2044.0,3977.0,3625.0,-4.0,139.0,-46.0,0.0,387.0,339.0,177.0,130.0,25.0,-110.0,46.0,0.0,254.0,191.0,98.0,79.0,0.001224,-0.037646,0.012487,0.0,0.014167,0.012415,-0.0065,0.004766,0.006865,-0.029828,0.012635,0.0,0.009322,0.007014,-0.003613,0.002905,3791.970215,11240.640625,47829.871094,0.0,-16454.970703,-16438.230469,16914.240234,-16129.980469,3681.540039,10638.450195,52251.390625,0.0,18088.291016,17937.361328,-17642.609375,18460.710938,0.0,0.0,0.0,0.0,0.0,0.0,0.0,0.0,0.0,0.0,0.0,0.0,0.0,0.0,0.0,0.0,0.0,0.0,0.0,0.0,0.0,0.0,0.0,0.0,0.0,0.0,0.0,0.0,0.0,0.0,0.0,0.0,3791.941895,11240.602539,47829.960938,0.0,-16455.0625,-16438.412109,16914.271484,-16130.134766,3681.491699,10637.924805,52251.464844,0.0,18088.111328,17937.625,-17642.326172,18460.466797,27.841747,88.44886,21.226431,0.0,-2.101028,0.590898,52.034046,35.170128,27.030785,83.607407,23.32019,0.0,23.036463,-2.913828,37.211113,53.774586,1.522,1.587,-54599.0,-127898.0,-473472.0,0.0,160648.0,162948.0,-167538.0,159325.0,-57853.0,-116701.0,-574600.0,0.0,-198910.0,-197260.0,192052.0,-201494.0,0.0,0.0,0.0,0.0,0.0,0.0,0.0,0.0,0.0,0.0,0.0,0.0,0.0,0.0,0.0,0.0,0.0,0.0,0.0,0.0,0.0,0.0,0.0,0.0
22,177.71585988998413,27.841957,88.44915,21.226387,0.0,-2.08428,0.611141,52.020645,35.197315,27.031139,83.611679,23.32012,0.0,23.069479,-2.943247,37.194283,53.787151,3.0,1.0,111.0,0.0,1.0,-107401.0,-29717.0,15638.0,-73413.0,18687.0,5756.0,-0.919815,-0.319295,0.228015,-0.273288,0.104406,-0.956249,0.28152,-0.941887,-0.183293,-0.938654,0.178736,0.294928,0.263086,-0.1818,0.947489,0.222968,0.966955,0.123624,-0.919815,-0.319295,0.228015,-0.273288,0.104406,-0.956249,0.28152,-0.941887,-0.183293,-0.938654,0.178736,0.294928,0.263086,-0.1818,0.947489,0.222968,0.966955,0.123624,-107401.0,-29717.0,15638.0,-73413.0,18687.0,5756.0,12466.0,3002.0,-57971.0,0.0,-22185.0,-19699.0,-20398.0,-19897.0,-16947.0,1504.0,5971.0,0.0,2071.0,2044.0,3977.0,3625.0,-4.0,139.0,-46.0,0.0,387.0,339.0,177.0,130.0,25.0,-110.0,46.0,0.0,254.0,192.0,98.0,79.0,0.001224,-0.037646,0.012487,0.0,0.014162,0.012405,-0.006498,0.004757,0.006865,-0.029828,0.012635,0.0,0.009312,0.007029,-0.003598,0.002891,3791.970215,11240.640625,47829.871094,0.0,-16454.970703,-16438.230469,16914.240234,-16129.980469,3681.540039,10638.450195,52251.390625,0.0,18088.291016,17937.361328,-17642.609375,18460.710938,0.0,0.0,0.0,0.0,0.0,0.0,0.0,0.0,0.0,0.0,0.0,0.0,0.0,0.0,0.0,0.0,0.0,0.0,0.0,0.0,0.0,0.0,0.0,0.0,0.0,0.0,0.0,0.0,0.0,0.0,0.0,0.0,3791.941895,11240.602539,47829.960938,0.0,-16455.0625,-16438.412109,16914.271484,-16130.134766,3681.491699,10637.924805,52251.464844,0.0,18088.111328,17937.625,-17642.326172,18460.466797,27.841747,88.44886,21.226431,0.0,-2.101028,0.590898,52.034046,35.170128,27.030785,83.607407,23.32019,0.0,23.036463,-2.913828,37.211113,53.774586,1.522,1.587,-54599.0,-127898.0,-473472.0,0.0,160648.0,162948.0,-167538.0,159325.0,-57853.0,-116701.0,-574600.0,0.0,-198910.0,-197260.0,192052.0,-201494.0,0.0,0.0,0.0,0.0,0.0,0.0,0.0,0.0,0.0,0.0,0.0,0.0,0.0,0.0,0.0,0.0,0.0,0.0,0.0,0.0,0.0,0.0,0.0,0.0
23,177.7789089679718,27.841957,88.44915,21.226387,0.0,-2.08428,0.611141,52.020645,35.197315,27.031139,83.611679,23.32012,0.0,23.069479,-2.943247,37.194283,53.787151,3.0,1.0,111.0,0.0,1.0,-107401.0,-29717.0,15638.0,-73413.0,18687.0,5756.0,-0.919815,-0.319295,0.228015,-0.273288,0.104406,-0.956249,0.28152,-0.941887,-0.183293,-0.938654,0.178736,0.294928,0.263086,-0.1818,0.947489,0.222968,0.966955,0.123624,-0.919815,-0.319295,0.228015,-0.273288,0.104406,-0.956249,0.28152,-0.941887,-0.183293,-0.938654,0.178736,0.294928,0.263086,-0.1818,0.947489,0.222968,0.966955,0.123624,-107401.0,-29717.0,15638.0,-73413.0,18687.0,5756.0,12466.0,3002.0,-57971.0,0.0,-22185.0,-19699.0,-20398.0,-19897.0,-16947.0,1504.0,5971.0,0.0,2071.0,2044.0,3977.0,3625.0,-4.0,139.0,-46.0,0.0,386.0,338.0,177.0,129.0,25.0,-110.0,46.0,0.0,254.0,192.0,97.0,78.0,0.001224,-0.037646,0.012487,0.0,0.014157,0.012395,-0.006496,0.004749,0.006865,-0.029828,0.012635,0.0,0.009302,0.007044,-0.003582,0.002878,3791.970215,11240.640625,47829.871094,0.0,-16454.970703,-16438.230469,16914.240234,-16129.980469,3681.540039,10638.450195,52251.390625,0.0,18088.291016,17937.361328,-17642.609375,18460.710938,0.0,0.0,0.0,0.0,0.0,0.0,0.0,0.0,0.0,0.0,0.0,0.0,0.0,0.0,0.0,0.0,0.0,0.0,0.0,0.0,0.0,0.0,0.0,0.0,0.0,0.0,0.0,0.0,0.0,0.0,0.0,0.0,3791.941895,11240.602539,47829.960938,0.0,-16455.0625,-16438.412109,16914.271484,-16130.134766,3681.491699,10637.924805,52251.464844,0.0,18088.111328,17937.625,-17642.326172,18460.466797,27.841747,88.44886,21.226431,0.0,-2.101028,0.590898,52.034046,35.170128,27.030785,83.607407,23.32019,0.0,23.036463,-2.913828,37.211113,53.774586,1.522,1.587,-54599.0,-127898.0,-473472.0,0.0,160648.0,162948.0,-167538.0,159325.0,-57853.0,-116701.0,-574600.0,0.0,-198910.0,-197260.0,192052.0,-201494.0,0.0,0.0,0.0,0.0,0.0,0.0,0.0,0.0,0.0,0.0,0.0,0.0,0.0,0.0,0.0,0.0,0.0,0.0,0.0,0.0,0.0,0.0,0.0,0.0
24,177.84290099143982,27.841957,88.44915,21.226387,0.0,-2.08428,0.611141,52.020645,35.197315,27.031139,83.611679,23.32012,0.0,23.069479,-2.943247,37.194283,53.787151,3.0,1.0,111.0,0.0,1.0,-107401.0,-29717.0,15638.0,-73413.0,18687.0,5756.0,-0.919815,-0.319295,0.228015,-0.273288,0.104406,-0.956249,0.28152,-0.941887,-0.183293,-0.938654,0.178736,0.294928,0.263086,-0.1818,0.947489,0.222968,0.966955,0.123624,-0.919815,-0.319295,0.228015,-0.273288,0.104406,-0.956249,0.28152,-0.941887,-0.183293,-0.938654,0.178736,0.294928,0.263086,-0.1818,0.947489,0.222968,0.966955,0.123624,-107401.0,-29717.0,15638.0,-73413.0,18687.0,5756.0,12466.0,3002.0,-57971.0,0.0,-22185.0,-19699.0,-20398.0,-19897.0,-16947.0,1504.0,5971.0,0.0,2071.0,2044.0,3977.0,3625.0,-4.0,139.0,-46.0,0.0,386.0,338.0,177.0,129.0,25.0,-110.0,46.0,0.0,253.0,192.0,97.0,78.0,0.001224,-0.037646,0.012487,0.0,0.014152,0.012385,-0.006495,0.00474,0.006865,-0.029828,0.012635,0.0,0.009292,0.007058,-0.003566,0.002864,3791.970215,11240.640625,47829.871094,0.0,-16454.970703,-16438.230469,16914.240234,-16129.980469,3681.540039,10638.450195,52251.390625,0.0,18088.291016,17937.361328,-17642.609375,18460.710938,0.0,0.0,0.0,0.0,0.0,0.0,0.0,0.0,0.0,0.0,0.0,0.0,0.0,0.0,0.0,0.0,0.0,0.0,0.0,0.0,0.0,0.0,0.0,0.0,0.0,0.0,0.0,0.0,0.0,0.0,0.0,0.0,3791.941895,11240.602539,47829.960938,0.0,-16455.0625,-16438.412109,16914.271484,-16130.134766,3681.491699,10637.924805,52251.464844,0.0,18088.111328,17937.625,-17642.326172,18460.466797,27.841747,88.44886,21.226431,0.0,-2.101028,0.590898,52.034046,35.170128,27.030785,83.607407,23.32019,0.0,23.036463,-2.913828,37.211113,53.774586,1.522,1.587,-54599.0,-127898.0,-473472.0,0.0,160648.0,162948.0,-167538.0,159325.0,-57853.0,-116701.0,-574600.0,0.0,-198910.0,-197260.0,192052.0,-201494.0,0.0,0.0,0.0,0.0,0.0,0.0,0.0,0.0,0.0,0.0,0.0,0.0,0.0,0.0,0.0,0.0,0.0,0.0,0.0,0.0,0.0,0.0,0.0,0.0
25,177.9039170742035,27.841957,88.44915,21.226387,0.0,-2.08428,0.611141,52.020645,35.197315,27.031139,83.611679,23.32012,0.0,23.069479,-2.943247,37.194283,53.787151,3.0,1.0,111.0,0.0,1.0,-107401.0,-29717.0,15638.0,-73413.0,18687.0,5756.0,-0.919815,-0.319295,0.228015,-0.273288,0.104406,-0.956249,0.28152,-0.941887,-0.183293,-0.938654,0.178736,0.294928,0.263086,-0.1818,0.947489,0.222968,0.966955,0.123624,-0.919815,-0.319295,0.228015,-0.273288,0.104406,-0.956249,0.28152,-0.941887,-0.183293,-0.938654,0.178736,0.294928,0.263086,-0.1818,0.947489,0.222968,0.966955,0.123624,-107401.0,-29717.0,15638.0,-73413.0,18687.0,5756.0,12466.0,3002.0,-57971.0,0.0,-22185.0,-19699.0,-20398.0,-19897.0,-16947.0,1504.0,5971.0,0.0,2071.0,2044.0,3977.0,3625.0,-4.0,139.0,-46.0,0.0,386.0,338.0,177.0,129.0,25.0,-110.0,46.0,0.0,253.0,193.0,97.0,77.0,0.001224,-0.037646,0.012487,0.0,0.014147,0.012375,-0.006493,0.004732,0.006865,-0.029828,0.012635,0.0,0.009283,0.007072,-0.003551,0.002851,3791.970215,11240.640625,47829.871094,0.0,-16454.970703,-16438.230469,16914.240234,-16129.980469,3681.540039,10638.450195,52251.390625,0.0,18088.291016,17937.361328,-17642.609375,18460.710938,0.0,0.0,0.0,0.0,0.0,0.0,0.0,0.0,0.0,0.0,0.0,0.0,0.0,0.0,0.0,0.0,0.0,0.0,0.0,0.0,0.0,0.0,0.0,0.0,0.0,0.0,0.0,0.0,0.0,0.0,0.0,0.0,3791.941895,11240.602539,47829.960938,0.0,-16455.0625,-16438.412109,16914.271484,-16130.134766,3681.491699,10637.924805,52251.464844,0.0,18088.111328,17937.625,-17642.326172,18460.466797,27.841747,88.44886,21.226431,0.0,-2.101028,0.590898,52.034046,35.170128,27.030785,83.607407,23.32019,0.0,23.036463,-2.913828,37.211113,53.774586,1.522,1.587,-54599.0,-127898.0,-473472.0,0.0,160648.0,162948.0,-167538.0,159325.0,-57853.0,-116701.0,-574600.0,0.0,-198910.0,-197260.0,192052.0,-201494.0,0.0,0.0,0.0,0.0,0.0,0.0,0.0,0.0,0.0,0.0,0.0,0.0,0.0,0.0,0.0,0.0,0.0,0.0,0.0,0.0,0.0,0.0,0.0,0.0
26,177.96795296669006,27.841957,88.44915,21.226387,0.0,-2.08428,0.611141,52.020645,35.197315,27.031139,83.611679,23.32012,0.0,23.069479,-2.943247,37.194283,53.787151,3.0,1.0,111.0,0.0,1.0,-107401.0,-29717.0,15638.0,-73413.0,18687.0,5756.0,-0.919815,-0.319295,0.228015,-0.273288,0.104406,-0.956249,0.28152,-0.941887,-0.183293,-0.938654,0.178736,0.294928,0.263086,-0.1818,0.947489,0.222968,0.966955,0.123624,-0.919815,-0.319295,0.228015,-0.273288,0.104406,-0.956249,0.28152,-0.941887,-0.183293,-0.938654,0.178736,0.294928,0.263086,-0.1818,0.947489,0.222968,0.966955,0.123624,-107401.0,-29717.0,15638.0,-73413.0,18687.0,5756.0,12466.0,3002.0,-57971.0,0.0,-22185.0,-19699.0,-20398.0,-19897.0,-16947.0,1504.0,5971.0,0.0,2071.0,2044.0,3977.0,3625.0,-4.0,139.0,-46.0,0.0,386.0,337.0,177.0,129.0,25.0,-110.0,46.0,0.0,253.0,193.0,96.0,77.0,0.001224,-0.037646,0.012487,0.0,0.014142,0.012365,-0.006491,0.004724,0.006865,-0.029828,0.012635,0.0,0.009273,0.007087,-0.003535,0.002837,3791.970215,11240.640625,47829.871094,0.0,-16454.970703,-16438.230469,16914.240234,-16129.980469,3681.540039,10638.450195,52251.390625,0.0,18088.291016,17937.361328,-17642.609375,18460.710938,0.0,0.0,0.0,0.0,0.0,0.0,0.0,0.0,0.0,0.0,0.0,0.0,0.0,0.0,0.0,0.0,0.0,0.0,0.0,0.0,0.0,0.0,0.0,0.0,0.0,0.0,0.0,0.0,0.0,0.0,0.0,0.0,3791.941895,11240.602539,47829.960938,0.0,-16455.0625,-16438.412109,16914.271484,-16130.134766,3681.491699,10637.924805,52251.464844,0.0,18088.111328,17937.625,-17642.326172,18460.466797,27.841747,88.44886,21.226431,0.0,-2.101028,0.590898,52.034046,35.170128,27.030785,83.607407,23.32019,0.0,23.036463,-2.913828,37.211113,53.774586,1.522,1.587,-54599.0,-127898.0,-473472.0,0.0,160648.0,162948.0,-167538.0,159325.0,-57853.0,-116701.0,-574600.0,0.0,-198910.0,-197260.0,192052.0,-201494.0,0.0,0.0,0.0,0.0,0.0,0.0,0.0,0.0,0.0,0.0,0.0,0.0,0.0,0.0,0.0,0.0,0.0,0.0,0.0,0.0,0.0,0.0,0.0,0.0
27,178.03188490867615,27.841957,88.44915,21.226387,0.0,-2.08428,0.611141,52.020645,35.197315,27.031139,83.611679,23.32012,0.0,23.069479,-2.943247,37.194283,53.787151,3.0,1.0,111.0,0.0,1.0,-107401.0,-29717.0,15638.0,-73413.0,18687.0,5756.0,-0.919815,-0.319295,0.228015,-0.273288,0.104406,-0.956249,0.28152,-0.941887,-0.183293,-0.938654,0.178736,0.294928,0.263086,-0.1818,0.947489,0.222968,0.966955,0.123624,-0.919815,-0.319295,0.228015,-0.273288,0.104406,-0.956249,0.28152,-0.941887,-0.183293,-0.938654,0.178736,0.294928,0.263086,-0.1818,0.947489,0.222968,0.966955,0.123624,-107401.0,-29717.0,15638.0,-73413.0,18687.0,5756.0,12466.0,3002.0,-57971.0,0.0,-22185.0,-19699.0,-20398.0,-19897.0,-16947.0,1504.0,5971.0,0.0,2071.0,2044.0,3977.0,3625.0,-4.0,139.0,-46.0,0.0,386.0,337.0,177.0,128.0,25.0,-110.0,46.0,0.0,253.0,194.0,96.0,77.0,0.001224,-0.037646,0.012487,0.0,0.014137,0.012355,-0.00649,0.004715,0.006865,-0.029828,0.012635,0.0,0.009263,0.007102,-0.003519,0.002824,3791.970215,11240.640625,47829.871094,0.0,-16454.970703,-16438.230469,16914.240234,-16129.980469,3681.540039,10638.450195,52251.390625,0.0,18088.291016,17937.361328,-17642.609375,18460.710938,0.0,0.0,0.0,0.0,0.0,0.0,0.0,0.0,0.0,0.0,0.0,0.0,0.0,0.0,0.0,0.0,0.0,0.0,0.0,0.0,0.0,0.0,0.0,0.0,0.0,0.0,0.0,0.0,0.0,0.0,0.0,0.0,3791.941895,11240.602539,47829.960938,0.0,-16455.0625,-16438.412109,16914.271484,-16130.134766,3681.491699,10637.924805,52251.464844,0.0,18088.111328,17937.625,-17642.326172,18460.466797,27.841747,88.44886,21.226431,0.0,-2.101028,0.590898,52.034046,35.170128,27.030785,83.607407,23.32019,0.0,23.036463,-2.913828,37.211113,53.774586,1.522,1.587,-54599.0,-127898.0,-473472.0,0.0,160648.0,162948.0,-167538.0,159325.0,-57853.0,-116701.0,-574600.0,0.0,-198910.0,-197260.0,192052.0,-201494.0,0.0,0.0,0.0,0.0,0.0,0.0,0.0,0.0,0.0,0.0,0.0,0.0,0.0,0.0,0.0,0.0,0.0,0.0,0.0,0.0,0.0,0.0,0.0,0.0
28,178.09591603279114,27.841957,88.44915,21.226387,0.0,-2.08428,0.611141,52.020645,35.197315,27.031139,83.611679,23.32012,0.0,23.069479,-2.943247,37.194283,53.787151,3.0,1.0,111.0,0.0,1.0,-107401.0,-29717.0,15638.0,-73413.0,18687.0,5756.0,-0.919815,-0.319295,0.228015,-0.273288,0.104406,-0.956249,0.28152,-0.941887,-0.183293,-0.938654,0.178736,0.294928,0.263086,-0.1818,0.947489,0.222968,0.966955,0.123624,-0.919815,-0.319295,0.228015,-0.273288,0.104406,-0.956249,0.28152,-0.941887,-0.183293,-0.938654,0.178736,0.294928,0.263086,-0.1818,0.947489,0.222968,0.966955,0.123624,-107401.0,-29717.0,15638.0,-73413.0,18687.0,5756.0,12466.0,3002.0,-57971.0,0.0,-22185.0,-19699.0,-20398.0,-19897.0,-16947.0,1504.0,5971.0,0.0,2071.0,2044.0,3977.0,3625.0,-4.0,139.0,-46.0,0.0,386.0,337.0,177.0,128.0,25.0,-110.0,46.0,0.0,252.0,194.0,95.0,76.0,0.001224,-0.037646,0.012487,0.0,0.014132,0.012345,-0.006488,0.004706,0.006865,-0.029828,0.012635,0.0,0.009253,0.007117,-0.003504,0.00281,3791.970215,11240.640625,47829.871094,0.0,-16454.970703,-16438.230469,16914.240234,-16129.980469,3681.540039,10638.450195,52251.390625,0.0,18088.291016,17937.361328,-17642.609375,18460.710938,0.0,0.0,0.0,0.0,0.0,0.0,0.0,0.0,0.0,0.0,0.0,0.0,0.0,0.0,0.0,0.0,0.0,0.0,0.0,0.0,0.0,0.0,0.0,0.0,0.0,0.0,0.0,0.0,0.0,0.0,0.0,0.0,3791.941895,11240.602539,47829.960938,0.0,-16455.0625,-16438.412109,16914.271484,-16130.134766,3681.491699,10637.924805,52251.464844,0.0,18088.111328,17937.625,-17642.326172,18460.466797,27.841747,88.44886,21.226431,0.0,-2.101028,0.590898,52.034046,35.170128,27.030785,83.607407,23.32019,0.0,23.036463,-2.913828,37.211113,53.774586,1.522,1.587,-54599.0,-127898.0,-473472.0,0.0,160648.0,162948.0,-167538.0,159325.0,-57853.0,-116701.0,-574600.0,0.0,-198910.0,-197260.0,192052.0,-201494.0,0.0,0.0,0.0,0.0,0.0,0.0,0.0,0.0,0.0,0.0,0.0,0.0,0.0,0.0,0.0,0.0,0.0,0.0,0.0,0.0,0.0,0.0,0.0,0.0
29,178.1589069366455,27.841957,88.44915,21.226387,0.0,-2.08428,0.611141,52.020645,35.197315,27.031139,83.611679,23.32012,0.0,23.069479,-2.943247,37.194283,53.787151,3.0,1.0,111.0,0.0,1.0,-107401.0,-29717.0,15638.0,-73413.0,18687.0,5756.0,-0.919815,-0.319295,0.228015,-0.273288,0.104406,-0.956249,0.28152,-0.941887,-0.183293,-0.938654,0.178736,0.294928,0.263086,-0.1818,0.947489,0.222968,0.966955,0.123624,-0.919815,-0.319295,0.228015,-0.273288,0.104406,-0.956249,0.28152,-0.941887,-0.183293,-0.938654,0.178736,0.294928,0.263086,-0.1818,0.947489,0.222968,0.966955,0.123624,-107401.0,-29717.0,15638.0,-73413.0,18687.0,5756.0,12466.0,3002.0,-57971.0,0.0,-22185.0,-19699.0,-20398.0,-19897.0,-16947.0,1504.0,5971.0,0.0,2071.0,2044.0,3977.0,3625.0,-4.0,139.0,-46.0,0.0,386.0,337.0,177.0,128.0,25.0,-110.0,46.0,0.0,252.0,194.0,95.0,76.0,0.001224,-0.037646,0.012487,0.0,0.014127,0.012335,-0.006486,0.004698,0.006865,-0.029828,0.012635,0.0,0.009243,0.007131,-0.003488,0.002797,3791.970215,11240.640625,47829.871094,0.0,-16454.970703,-16438.230469,16914.240234,-16129.980469,3681.540039,10638.450195,52251.390625,0.0,18088.291016,17937.361328,-17642.609375,18460.710938,0.0,0.0,0.0,0.0,0.0,0.0,0.0,0.0,0.0,0.0,0.0,0.0,0.0,0.0,0.0,0.0,0.0,0.0,0.0,0.0,0.0,0.0,0.0,0.0,0.0,0.0,0.0,0.0,0.0,0.0,0.0,0.0,3791.941895,11240.602539,47829.960938,0.0,-16455.0625,-16438.412109,16914.271484,-16130.134766,3681.491699,10637.924805,52251.464844,0.0,18088.111328,17937.625,-17642.326172,18460.466797,27.841747,88.44886,21.226431,0.0,-2.101028,0.590898,52.034046,35.170128,27.030785,83.607407,23.32019,0.0,23.036463,-2.913828,37.211113,53.774586,1.522,1.587,-54599.0,-127898.0,-473472.0,0.0,160648.0,162948.0,-167538.0,159325.0,-57853.0,-116701.0,-574600.0,0.0,-198910.0,-197260.0,192052.0,-201494.0,0.0,0.0,0.0,0.0,0.0,0.0,0.0,0.0,0.0,0.0,0.0,0.0,0.0,0.0,0.0,0.0,0.0,0.0,0.0,0.0,0.0,0.0,0.0,0.0
30,178.22190809249878,27.841957,88.44915,21.226387,0.0,-2.08428,0.611141,52.020645,35.197315,27.031139,83.611679,23.32012,0.0,23.069479,-2.943247,37.194283,53.787151,3.0,1.0,111.0,0.0,1.0,-107401.0,-29717.0,15638.0,-73413.0,18687.0,5756.0,-0.919815,-0.319295,0.228015,-0.273288,0.104406,-0.956249,0.28152,-0.941887,-0.183293,-0.938654,0.178736,0.294928,0.263086,-0.1818,0.947489,0.222968,0.966955,0.123624,-0.919815,-0.319295,0.228015,-0.273288,0.104406,-0.956249,0.28152,-0.941887,-0.183293,-0.938654,0.178736,0.294928,0.263086,-0.1818,0.947489,0.222968,0.966955,0.123624,-107401.0,-29717.0,15638.0,-73413.0,18687.0,5756.0,12466.0,3002.0,-57971.0,0.0,-22185.0,-19699.0,-20398.0,-19897.0,-16947.0,1504.0,5971.0,0.0,2071.0,2044.0,3977.0,3625.0,-4.0,139.0,-46.0,0.0,385.0,336.0,177.0,128.0,25.0,-110.0,46.0,0.0,252.0,195.0,94.0,76.0,0.001224,-0.037646,0.012487,0.0,0.014122,0.012325,-0.006485,0.004689,0.006865,-0.029828,0.012635,0.0,0.009233,0.007146,-0.003472,0.002783,3791.970215,11240.640625,47829.871094,0.0,-16454.970703,-16438.230469,16914.240234,-16129.980469,3681.540039,10638.450195,52251.390625,0.0,18088.291016,17937.361328,-17642.609375,18460.710938,0.0,0.0,0.0,0.0,0.0,0.0,0.0,0.0,0.0,0.0,0.0,0.0,0.0,0.0,0.0,0.0,0.0,0.0,0.0,0.0,0.0,0.0,0.0,0.0,0.0,0.0,0.0,0.0,0.0,0.0,0.0,0.0,3791.941895,11240.602539,47829.960938,0.0,-16455.0625,-16438.412109,16914.271484,-16130.134766,3681.491699,10637.924805,52251.464844,0.0,18088.111328,17937.625,-17642.326172,18460.466797,27.841747,88.44886,21.226431,0.0,-2.101028,0.590898,52.034046,35.170128,27.030785,83.607407,23.32019,0.0,23.036463,-2.913828,37.211113,53.774586,1.522,1.587,-54599.0,-127898.0,-473472.0,0.0,160648.0,162948.0,-167538.0,159325.0,-57853.0,-116701.0,-574600.0,0.0,-198910.0,-197260.0,192052.0,-201494.0,0.0,0.0,0.0,0.0,0.0,0.0,0.0,0.0,0.0,0.0,0.0,0.0,0.0,0.0,0.0,0.0,0.0,0.0,0.0,0.0,0.0,0.0,0.0,0.0
31,178.2859230041504,27.841957,88.44915,21.226387,0.0,-2.08428,0.611141,52.020645,35.197315,27.031139,83.611679,23.32012,0.0,23.069479,-2.943247,37.194283,53.787151,3.0,1.0,111.0,0.0,1.0,-107401.0,-29717.0,15638.0,-73413.0,18687.0,5756.0,-0.919815,-0.319295,0.228015,-0.273288,0.104406,-0.956249,0.28152,-0.941887,-0.183293,-0.938654,0.178736,0.294928,0.263086,-0.1818,0.947489,0.222968,0.966955,0.123624,-0.919815,-0.319295,0.228015,-0.273288,0.104406,-0.956249,0.28152,-0.941887,-0.183293,-0.938654,0.178736,0.294928,0.263086,-0.1818,0.947489,0.222968,0.966955,0.123624,-107401.0,-29717.0,15638.0,-73413.0,18687.0,5756.0,12466.0,3002.0,-57971.0,0.0,-22185.0,-19699.0,-20398.0,-19897.0,-16947.0,1504.0,5971.0,0.0,2071.0,2044.0,3977.0,3625.0,-4.0,139.0,-46.0,0.0,385.0,336.0,177.0,127.0,25.0,-110.0,46.0,0.0,252.0,195.0,94.0,75.0,0.001224,-0.037646,0.012487,0.0,0.014117,0.012315,-0.006483,0.004681,0.006865,-0.029828,0.012635,0.0,0.009223,0.00716,-0.003457,0.002769,3791.970215,11240.640625,47829.871094,0.0,-16454.970703,-16438.230469,16914.240234,-16129.980469,3681.540039,10638.450195,52251.390625,0.0,18088.291016,17937.361328,-17642.609375,18460.710938,0.0,0.0,0.0,0.0,0.0,0.0,0.0,0.0,0.0,0.0,0.0,0.0,0.0,0.0,0.0,0.0,0.0,0.0,0.0,0.0,0.0,0.0,0.0,0.0,0.0,0.0,0.0,0.0,0.0,0.0,0.0,0.0,3791.941895,11240.602539,47829.960938,0.0,-16455.0625,-16438.412109,16914.271484,-16130.134766,3681.491699,10637.924805,52251.464844,0.0,18088.111328,17937.625,-17642.326172,18460.466797,27.841747,88.44886,21.226431,0.0,-2.101028,0.590898,52.034046,35.170128,27.030785,83.607407,23.32019,0.0,23.036463,-2.913828,37.211113,53.774586,1.522,1.587,-54599.0,-127898.0,-473472.0,0.0,160648.0,162948.0,-167538.0,159325.0,-57853.0,-116701.0,-574600.0,0.0,-198910.0,-197260.0,192052.0,-201494.0,0.0,0.0,0.0,0.0,0.0,0.0,0.0,0.0,0.0,0.0,0.0,0.0,0.0,0.0,0.0,0.0,0.0,0.0,0.0,0.0,0.0,0.0,0.0,0.0
32,178.34990906715393,27.841957,88.44915,21.226387,0.0,-2.08428,0.611141,52.020645,35.197315,27.031139,83.611679,23.32012,0.0,23.069479,-2.943247,37.194283,53.787151,3.0,1.0,111.0,0.0,1.0,-107401.0,-29717.0,15638.0,-73413.0,18687.0,5756.0,-0.919815,-0.319295,0.228015,-0.273288,0.104406,-0.956249,0.28152,-0.941887,-0.183293,-0.938654,0.178736,0.294928,0.263086,-0.1818,0.947489,0.222968,0.966955,0.123624,-0.919815,-0.319295,0.228015,-0.273288,0.104406,-0.956249,0.28152,-0.941887,-0.183293,-0.938654,0.178736,0.294928,0.263086,-0.1818,0.947489,0.222968,0.966955,0.123624,-107401.0,-29717.0,15638.0,-73413.0,18687.0,5756.0,12466.0,3002.0,-57971.0,0.0,-22185.0,-19699.0,-20398.0,-19897.0,-16947.0,1504.0,5971.0,0.0,2071.0,2044.0,3977.0,3625.0,-4.0,139.0,-46.0,0.0,385.0,336.0,177.0,127.0,25.0,-110.0,46.0,0.0,251.0,196.0,94.0,75.0,0.001224,-0.037646,0.012487,0.0,0.014112,0.012305,-0.006481,0.004672,0.006865,-0.029828,0.012635,0.0,0.009213,0.007175,-0.003441,0.002756,3791.970215,11240.640625,47829.871094,0.0,-16454.970703,-16438.230469,16914.240234,-16129.980469,3681.540039,10638.450195,52251.390625,0.0,18088.291016,17937.361328,-17642.609375,18460.710938,0.0,0.0,0.0,0.0,0.0,0.0,0.0,0.0,0.0,0.0,0.0,0.0,0.0,0.0,0.0,0.0,0.0,0.0,0.0,0.0,0.0,0.0,0.0,0.0,0.0,0.0,0.0,0.0,0.0,0.0,0.0,0.0,3791.941895,11240.602539,47829.960938,0.0,-16455.0625,-16438.412109,16914.271484,-16130.134766,3681.491699,10637.924805,52251.464844,0.0,18088.111328,17937.625,-17642.326172,18460.466797,27.841747,88.44886,21.226431,0.0,-2.101028,0.590898,52.034046,35.170128,27.030785,83.607407,23.32019,0.0,23.036463,-2.913828,37.211113,53.774586,1.522,1.587,-54599.0,-127898.0,-473472.0,0.0,160648.0,162948.0,-167538.0,159325.0,-57853.0,-116701.0,-574600.0,0.0,-198910.0,-197260.0,192052.0,-201494.0,0.0,0.0,0.0,0.0,0.0,0.0,0.0,0.0,0.0,0.0,0.0,0.0,0.0,0.0,0.0,0.0,0.0,0.0,0.0,0.0,0.0,0.0,0.0,0.0
33,178.41191005706787,27.841957,88.44915,21.226387,0.0,-2.08428,0.611141,52.020645,35.197315,27.031139,83.611679,23.32012,0.0,23.069479,-2.943247,37.194283,53.787151,3.0,1.0,111.0,0.0,1.0,-107401.0,-29717.0,15638.0,-73413.0,18687.0,5756.0,-0.919815,-0.319295,0.228015,-0.273288,0.104406,-0.956249,0.28152,-0.941887,-0.183293,-0.938654,0.178736,0.294928,0.263086,-0.1818,0.947489,0.222968,0.966955,0.123624,-0.919815,-0.319295,0.228015,-0.273288,0.104406,-0.956249,0.28152,-0.941887,-0.183293,-0.938654,0.178736,0.294928,0.263086,-0.1818,0.947489,0.222968,0.966955,0.123624,-107401.0,-29717.0,15638.0,-73413.0,18687.0,5756.0,12466.0,3002.0,-57971.0,0.0,-22185.0,-19699.0,-20398.0,-19897.0,-16947.0,1504.0,5971.0,0.0,2071.0,2044.0,3977.0,3625.0,-4.0,139.0,-46.0,0.0,385.0,335.0,177.0,127.0,25.0,-110.0,46.0,0.0,251.0,196.0,93.0,74.0,0.001224,-0.037646,0.012487,0.0,0.014107,0.012295,-0.00648,0.004664,0.006865,-0.029828,0.012635,0.0,0.009204,0.007189,-0.003425,0.002742,3791.970215,11240.640625,47829.871094,0.0,-16454.970703,-16438.230469,16914.240234,-16129.980469,3681.540039,10638.450195,52251.390625,0.0,18088.291016,17937.361328,-17642.609375,18460.710938,0.0,0.0,0.0,0.0,0.0,0.0,0.0,0.0,0.0,0.0,0.0,0.0,0.0,0.0,0.0,0.0,0.0,0.0,0.0,0.0,0.0,0.0,0.0,0.0,0.0,0.0,0.0,0.0,0.0,0.0,0.0,0.0,3791.941895,11240.602539,47829.960938,0.0,-16455.0625,-16438.412109,16914.271484,-16130.134766,3681.491699,10637.924805,52251.464844,0.0,18088.111328,17937.625,-17642.326172,18460.466797,27.841747,88.44886,21.226431,0.0,-2.101028,0.590898,52.034046,35.170128,27.030785,83.607407,23.32019,0.0,23.036463,-2.913828,37.211113,53.774586,1.522,1.587,-54599.0,-127898.0,-473472.0,0.0,160648.0,162948.0,-167538.0,159325.0,-57853.0,-116701.0,-574600.0,0.0,-198910.0,-197260.0,192052.0,-201494.0,0.0,0.0,0.0,0.0,0.0,0.0,0.0,0.0,0.0,0.0,0.0,0.0,0.0,0.0,0.0,0.0,0.0,0.0,0.0,0.0,0.0,0.0,0.0,0.0
34,178.47591710090637,27.841957,88.44915,21.226387,0.0,-2.08428,0.611141,52.020645,35.197315,27.031139,83.611679,23.32012,0.0,23.069479,-2.943247,37.194283,53.787151,3.0,1.0,111.0,0.0,1.0,-107401.0,-29717.0,15638.0,-73413.0,18687.0,5756.0,-0.919815,-0.319295,0.228015,-0.273288,0.104406,-0.956249,0.28152,-0.941887,-0.183293,-0.938654,0.178736,0.294928,0.263086,-0.1818,0.947489,0.222968,0.966955,0.123624,-0.919815,-0.319295,0.228015,-0.273288,0.104406,-0.956249,0.28152,-0.941887,-0.183293,-0.938654,0.178736,0.294928,0.263086,-0.1818,0.947489,0.222968,0.966955,0.123624,-107401.0,-29717.0,15638.0,-73413.0,18687.0,5756.0,12466.0,3002.0,-57971.0,0.0,-22185.0,-19699.0,-20398.0,-19897.0,-16947.0,1504.0,5971.0,0.0,2071.0,2044.0,3977.0,3625.0,-4.0,139.0,-46.0,0.0,385.0,335.0,177.0,127.0,25.0,-110.0,46.0,0.0,251.0,196.0,93.0,74.0,0.001224,-0.037646,0.012487,0.0,0.014102,0.012285,-0.006478,0.004655,0.006865,-0.029828,0.012635,0.0,0.009194,0.007204,-0.00341,0.002729,3791.970215,11240.640625,47829.871094,0.0,-16454.970703,-16438.230469,16914.240234,-16129.980469,3681.540039,10638.450195,52251.390625,0.0,18088.291016,17937.361328,-17642.609375,18460.710938,0.0,0.0,0.0,0.0,0.0,0.0,0.0,0.0,0.0,0.0,0.0,0.0,0.0,0.0,0.0,0.0,0.0,0.0,0.0,0.0,0.0,0.0,0.0,0.0,0.0,0.0,0.0,0.0,0.0,0.0,0.0,0.0,3791.941895,11240.602539,47829.960938,0.0,-16455.0625,-16438.412109,16914.271484,-16130.134766,3681.491699,10637.924805,52251.464844,0.0,18088.111328,17937.625,-17642.326172,18460.466797,27.841747,88.44886,21.226431,0.0,-2.101028,0.590898,52.034046,35.170128,27.030785,83.607407,23.32019,0.0,23.036463,-2.913828,37.211113,53.774586,1.522,1.587,-54599.0,-127898.0,-473472.0,0.0,160648.0,162948.0,-167538.0,159325.0,-57853.0,-116701.0,-574600.0,0.0,-198910.0,-197260.0,192052.0,-201494.0,0.0,0.0,0.0,0.0,0.0,0.0,0.0,0.0,0.0,0.0,0.0,0.0,0.0,0.0,0.0,0.0,0.0,0.0,0.0,0.0,0.0,0.0,0.0,0.0
35,178.5389060974121,27.841957,88.44915,21.226387,0.0,-2.08428,0.611141,52.020645,35.197315,27.031139,83.611679,23.32012,0.0,23.069479,-2.943247,37.194283,53.787151,3.0,1.0,111.0,0.0,1.0,-107401.0,-29717.0,15638.0,-73413.0,18687.0,5756.0,-0.919815,-0.319295,0.228015,-0.273288,0.104406,-0.956249,0.28152,-0.941887,-0.183293,-0.938654,0.178736,0.294928,0.263086,-0.1818,0.947489,0.222968,0.966955,0.123624,-0.919815,-0.319295,0.228015,-0.273288,0.104406,-0.956249,0.28152,-0.941887,-0.183293,-0.938654,0.178736,0.294928,0.263086,-0.1818,0.947489,0.222968,0.966955,0.123624,-107401.0,-29717.0,15638.0,-73413.0,18687.0,5756.0,12466.0,3002.0,-57971.0,0.0,-22185.0,-19699.0,-20398.0,-19897.0,-16947.0,1504.0,5971.0,0.0,2071.0,2044.0,3977.0,3625.0,-4.0,139.0,-46.0,0.0,385.0,335.0,176.0,126.0,25.0,-110.0,46.0,0.0,250.0,197.0,92.0,74.0,0.001224,-0.037646,0.012487,0.0,0.014097,0.012275,-0.006476,0.004647,0.006865,-0.029828,0.012635,0.0,0.009184,0.007219,-0.003394,0.002715,3791.970215,11240.640625,47829.871094,0.0,-16454.970703,-16438.230469,16914.240234,-16129.980469,3681.540039,10638.450195,52251.390625,0.0,18088.291016,17937.361328,-17642.609375,18460.710938,0.0,0.0,0.0,0.0,0.0,0.0,0.0,0.0,0.0,0.0,0.0,0.0,0.0,0.0,0.0,0.0,0.0,0.0,0.0,0.0,0.0,0.0,0.0,0.0,0.0,0.0,0.0,0.0,0.0,0.0,0.0,0.0,3791.941895,11240.602539,47829.960938,0.0,-16455.0625,-16438.412109,16914.271484,-16130.134766,3681.491699,10637.924805,52251.464844,0.0,18088.111328,17937.625,-17642.326172,18460.466797,27.841747,88.44886,21.226431,0.0,-2.101028,0.590898,52.034046,35.170128,27.030785,83.607407,23.32019,0.0,23.036463,-2.913828,37.211113,53.774586,1.522,1.587,-54599.0,-127898.0,-473472.0,0.0,160648.0,162948.0,-167538.0,159325.0,-57853.0,-116701.0,-574600.0,0.0,-198910.0,-197260.0,192052.0,-201494.0,0.0,0.0,0.0,0.0,0.0,0.0,0.0,0.0,0.0,0.0,0.0,0.0,0.0,0.0,0.0,0.0,0.0,0.0,0.0,0.0,0.0,0.0,0.0,0.0
36,178.6029028892517,27.841957,88.44915,21.226387,0.0,-2.08428,0.611141,52.020645,35.197315,27.031139,83.611679,23.32012,0.0,23.069479,-2.943247,37.194283,53.777039,3.0,1.0,111.0,0.0,1.0,-107401.0,-29717.0,15638.0,-73413.0,18687.0,5756.0,-0.919815,-0.319295,0.228015,-0.273288,0.104406,-0.956249,0.28152,-0.941887,-0.183293,-0.93867,0.178653,0.294928,0.263102,-0.181777,0.947489,0.222883,0.966975,0.123624,-0.919815,-0.319295,0.228015,-0.273288,0.104406,-0.956249,0.28152,-0.941887,-0.183293,-0.93867,0.178653,0.294928,0.263102,-0.181777,0.947489,0.222883,0.966975,0.123624,-107401.0,-29717.0,15638.0,-73413.0,18687.0,5756.0,12466.0,3002.0,-57971.0,0.0,-22185.0,-19699.0,-20398.0,-19897.0,-16947.0,1504.0,5971.0,0.0,2071.0,2044.0,3977.0,3624.0,-4.0,139.0,-46.0,0.0,385.0,335.0,176.0,126.0,25.0,-110.0,46.0,0.0,250.0,197.0,92.0,76.0,0.001224,-0.037646,0.012487,0.0,0.014092,0.012264,-0.006475,0.004638,0.006865,-0.029828,0.012635,0.0,0.009174,0.007233,-0.003378,0.002782,3791.970215,11240.640625,47829.871094,0.0,-16454.970703,-16438.230469,16914.240234,-16129.980469,3681.540039,10638.450195,52251.390625,0.0,18088.291016,17937.361328,-17642.609375,18460.621094,0.0,0.0,0.0,0.0,0.0,0.0,0.0,0.0,0.0,0.0,0.0,0.0,0.0,0.0,0.0,0.0,0.0,0.0,0.0,0.0,0.0,0.0,0.0,0.0,0.0,0.0,0.0,0.0,0.0,0.0,0.0,0.0,3791.941895,11240.602539,47829.960938,0.0,-16455.0625,-16438.412109,16914.271484,-16130.134766,3681.491699,10637.924805,52251.464844,0.0,18088.111328,17937.625,-17642.326172,18460.466797,27.841747,88.44886,21.226431,0.0,-2.101028,0.590898,52.034046,35.170128,27.030785,83.607407,23.32019,0.0,23.036463,-2.913828,37.211113,53.774586,1.522,1.587,-54599.0,-127898.0,-473472.0,0.0,160648.0,162948.0,-167538.0,159325.0,-57853.0,-116701.0,-574600.0,0.0,-198910.0,-197260.0,192052.0,-201494.0,0.0,0.0,0.0,0.0,0.0,0.0,0.0,0.0,0.0,0.0,0.0,0.0,0.0,0.0,0.0,0.0,0.0,0.0,0.0,0.0,0.0,0.0,0.0,0.0
37,178.66587805747986,27.841957,88.44915,21.226387,0.0,-2.08428,0.611141,52.020645,35.197315,27.031139,83.611679,23.32012,0.0,23.069479,-2.943247,37.194283,53.777039,3.0,1.0,111.0,0.0,1.0,-107401.0,-29717.0,15638.0,-73413.0,18687.0,5756.0,-0.919815,-0.319295,0.228015,-0.273288,0.104406,-0.956249,0.28152,-0.941887,-0.183293,-0.93867,0.178653,0.294928,0.263102,-0.181777,0.947489,0.222883,0.966975,0.123624,-0.919815,-0.319295,0.228015,-0.273288,0.104406,-0.956249,0.28152,-0.941887,-0.183293,-0.93867,0.178653,0.294928,0.263102,-0.181777,0.947489,0.222883,0.966975,0.123624,-107401.0,-29717.0,15638.0,-73413.0,18687.0,5756.0,12466.0,3002.0,-57971.0,0.0,-22185.0,-19699.0,-20398.0,-19897.0,-16947.0,1504.0,5971.0,0.0,2071.0,2044.0,3977.0,3624.0,-4.0,139.0,-46.0,0.0,384.0,334.0,176.0,126.0,25.0,-110.0,46.0,0.0,250.0,198.0,91.0,75.0,0.001224,-0.037646,0.012487,0.0,0.014087,0.012254,-0.006473,0.00463,0.006865,-0.029828,0.012635,0.0,0.009164,0.007248,-0.003363,0.002774,3791.970215,11240.640625,47829.871094,0.0,-16454.970703,-16438.230469,16914.240234,-16129.980469,3681.540039,10638.450195,52251.390625,0.0,18088.291016,17937.361328,-17642.609375,18460.621094,0.0,0.0,0.0,0.0,0.0,0.0,0.0,0.0,0.0,0.0,0.0,0.0,0.0,0.0,0.0,0.0,0.0,0.0,0.0,0.0,0.0,0.0,0.0,0.0,0.0,0.0,0.0,0.0,0.0,0.0,0.0,0.0,3791.941895,11240.602539,47829.960938,0.0,-16455.0625,-16438.412109,16914.271484,-16130.134766,3681.491699,10637.924805,52251.464844,0.0,18088.111328,17937.625,-17642.326172,18460.466797,27.841747,88.44886,21.226431,0.0,-2.101028,0.590898,52.034046,35.170128,27.030785,83.607407,23.32019,0.0,23.036463,-2.913828,37.211113,53.774586,1.522,1.587,-54599.0,-127898.0,-473472.0,0.0,160648.0,162948.0,-167538.0,159325.0,-57853.0,-116701.0,-574600.0,0.0,-198910.0,-197260.0,192052.0,-201494.0,0.0,0.0,0.0,0.0,0.0,0.0,0.0,0.0,0.0,0.0,0.0,0.0,0.0,0.0,0.0,0.0,0.0,0.0,0.0,0.0,0.0,0.0,0.0,0.0
38,178.727854013443,27.841957,88.44915,21.226387,0.0,-2.08428,0.611141,52.020645,35.197315,27.031139,83.611679,23.32012,0.0,23.069479,-2.943247,37.194283,53.777039,3.0,1.0,111.0,0.0,1.0,-107401.0,-29717.0,15638.0,-73413.0,18687.0,5756.0,-0.919815,-0.319295,0.228015,-0.273288,0.104406,-0.956249,0.28152,-0.941887,-0.183293,-0.93867,0.178653,0.294928,0.263102,-0.181777,0.947489,0.222883,0.966975,0.123624,-0.919815,-0.319295,0.228015,-0.273288,0.104406,-0.956249,0.28152,-0.941887,-0.183293,-0.93867,0.178653,0.294928,0.263102,-0.181777,0.947489,0.222883,0.966975,0.123624,-107401.0,-29717.0,15638.0,-73413.0,18687.0,5756.0,12466.0,3002.0,-57971.0,0.0,-22185.0,-19699.0,-20398.0,-19897.0,-16947.0,1504.0,5971.0,0.0,2071.0,2044.0,3977.0,3624.0,-4.0,139.0,-46.0,0.0,384.0,334.0,176.0,126.0,25.0,-110.0,46.0,0.0,250.0,198.0,91.0,75.0,0.001224,-0.037646,0.012487,0.0,0.014082,0.012245,-0.006472,0.004622,0.006865,-0.029828,0.012635,0.0,0.009155,0.007262,-0.003347,0.002765,3791.970215,11240.640625,47829.871094,0.0,-16454.970703,-16438.230469,16914.240234,-16129.980469,3681.540039,10638.450195,52251.390625,0.0,18088.291016,17937.361328,-17642.609375,18460.621094,0.0,0.0,0.0,0.0,0.0,0.0,0.0,0.0,0.0,0.0,0.0,0.0,0.0,0.0,0.0,0.0,0.0,0.0,0.0,0.0,0.0,0.0,0.0,0.0,0.0,0.0,0.0,0.0,0.0,0.0,0.0,0.0,3791.941895,11240.602539,47829.960938,0.0,-16455.0625,-16438.412109,16914.271484,-16130.134766,3681.491699,10637.924805,52251.464844,0.0,18088.111328,17937.625,-17642.326172,18460.466797,27.841747,88.44886,21.226431,0.0,-2.101028,0.590898,52.034046,35.170128,27.030785,83.607407,23.32019,0.0,23.036463,-2.913828,37.211113,53.774586,1.522,1.587,-54599.0,-127898.0,-473472.0,0.0,160648.0,162948.0,-167538.0,159325.0,-57853.0,-116701.0,-574600.0,0.0,-198910.0,-197260.0,192052.0,-201494.0,0.0,0.0,0.0,0.0,0.0,0.0,0.0,0.0,0.0,0.0,0.0,0.0,0.0,0.0,0.0,0.0,0.0,0.0,0.0,0.0,0.0,0.0,0.0,0.0
39,178.79191493988037,27.841957,88.44915,21.226387,0.0,-2.08428,0.611141,52.020645,35.197315,27.031139,83.611679,23.32012,0.0,23.069479,-2.943247,37.194283,53.777039,3.0,1.0,111.0,0.0,1.0,-107401.0,-29717.0,15638.0,-73413.0,18687.0,5756.0,-0.919815,-0.319295,0.228015,-0.273288,0.104406,-0.956249,0.28152,-0.941887,-0.183293,-0.93867,0.178653,0.294928,0.263102,-0.181777,0.947489,0.222883,0.966975,0.123624,-0.919815,-0.319295,0.228015,-0.273288,0.104406,-0.956249,0.28152,-0.941887,-0.183293,-0.93867,0.178653,0.294928,0.263102,-0.181777,0.947489,0.222883,0.966975,0.123624,-107401.0,-29717.0,15638.0,-73413.0,18687.0,5756.0,12466.0,3002.0,-57971.0,0.0,-22185.0,-19699.0,-20398.0,-19897.0,-16947.0,1504.0,5971.0,0.0,2071.0,2044.0,3977.0,3624.0,-4.0,139.0,-46.0,0.0,384.0,334.0,176.0,126.0,25.0,-110.0,46.0,0.0,249.0,198.0,91.0,75.0,0.001224,-0.037646,0.012487,0.0,0.014077,0.012234,-0.00647,0.004613,0.006865,-0.029828,0.012635,0.0,0.009145,0.007277,-0.003331,0.002757,3791.970215,11240.640625,47829.871094,0.0,-16454.970703,-16438.230469,16914.240234,-16129.980469,3681.540039,10638.450195,52251.390625,0.0,18088.291016,17937.361328,-17642.609375,18460.621094,0.0,0.0,0.0,0.0,0.0,0.0,0.0,0.0,0.0,0.0,0.0,0.0,0.0,0.0,0.0,0.0,0.0,0.0,0.0,0.0,0.0,0.0,0.0,0.0,0.0,0.0,0.0,0.0,0.0,0.0,0.0,0.0,3791.941895,11240.602539,47829.960938,0.0,-16455.0625,-16438.412109,16914.271484,-16130.134766,3681.491699,10637.924805,52251.464844,0.0,18088.111328,17937.625,-17642.326172,18460.466797,27.841747,88.44886,21.226431,0.0,-2.101028,0.590898,52.034046,35.170128,27.030785,83.607407,23.32019,0.0,23.036463,-2.913828,37.211113,53.774586,1.522,1.587,-54599.0,-127898.0,-473472.0,0.0,160648.0,162948.0,-167538.0,159325.0,-57853.0,-116701.0,-574600.0,0.0,-198910.0,-197260.0,192052.0,-201494.0,0.0,0.0,0.0,0.0,0.0,0.0,0.0,0.0,0.0,0.0,0.0,0.0,0.0,0.0,0.0,0.0,0.0,0.0,0.0,0.0,0.0,0.0,0.0,0.0
40,178.85591006278992,27.841957,88.44915,21.226387,0.0,-2.08428,0.611141,52.020645,35.197315,27.031139,83.611679,23.32012,0.0,23.069479,-2.943247,37.194283,53.777039,3.0,1.0,111.0,0.0,1.0,-107401.0,-29717.0,15638.0,-73413.0,18687.0,5756.0,-0.919815,-0.319295,0.228015,-0.273288,0.104406,-0.956249,0.28152,-0.941887,-0.183293,-0.93867,0.178653,0.294928,0.263102,-0.181777,0.947489,0.222883,0.966975,0.123624,-0.919815,-0.319295,0.228015,-0.273288,0.104406,-0.956249,0.28152,-0.941887,-0.183293,-0.93867,0.178653,0.294928,0.263102,-0.181777,0.947489,0.222883,0.966975,0.123624,-107401.0,-29717.0,15638.0,-73413.0,18687.0,5756.0,12466.0,3002.0,-57971.0,0.0,-22185.0,-19699.0,-20398.0,-19897.0,-16947.0,1504.0,5971.0,0.0,2071.0,2044.0,3977.0,3624.0,-4.0,139.0,-46.0,0.0,384.0,334.0,176.0,125.0,25.0,-110.0,46.0,0.0,249.0,199.0,90.0,75.0,0.001224,-0.037646,0.012487,0.0,0.014072,0.012224,-0.006468,0.004604,0.006865,-0.029828,0.012635,0.0,0.009135,0.007292,-0.003316,0.002748,3791.970215,11240.640625,47829.871094,0.0,-16454.970703,-16438.230469,16914.240234,-16129.980469,3681.540039,10638.450195,52251.390625,0.0,18088.291016,17937.361328,-17642.609375,18460.621094,0.0,0.0,0.0,0.0,0.0,0.0,0.0,0.0,0.0,0.0,0.0,0.0,0.0,0.0,0.0,0.0,0.0,0.0,0.0,0.0,0.0,0.0,0.0,0.0,0.0,0.0,0.0,0.0,0.0,0.0,0.0,0.0,3791.941895,11240.602539,47829.960938,0.0,-16455.0625,-16438.412109,16914.271484,-16130.134766,3681.491699,10637.924805,52251.464844,0.0,18088.111328,17937.625,-17642.326172,18460.466797,27.841747,88.44886,21.226431,0.0,-2.101028,0.590898,52.034046,35.170128,27.030785,83.607407,23.32019,0.0,23.036463,-2.913828,37.211113,53.774586,1.522,1.587,-54599.0,-127898.0,-473472.0,0.0,160648.0,162948.0,-167538.0,159325.0,-57853.0,-116701.0,-574600.0,0.0,-198910.0,-197260.0,192052.0,-201494.0,0.0,0.0,0.0,0.0,0.0,0.0,0.0,0.0,0.0,0.0,0.0,0.0,0.0,0.0,0.0,0.0,0.0,0.0,0.0,0.0,0.0,0.0,0.0,0.0
41,178.91890907287598,27.841957,88.44915,21.226387,0.0,-2.08428,0.611141,52.020645,35.197315,27.031139,83.611679,23.32012,0.0,23.069479,-2.943247,37.194283,53.777039,3.0,1.0,111.0,0.0,1.0,-107401.0,-29717.0,15638.0,-73413.0,18687.0,5756.0,-0.919815,-0.319295,0.228015,-0.273288,0.104406,-0.956249,0.28152,-0.941887,-0.183293,-0.93867,0.178653,0.294928,0.263102,-0.181777,0.947489,0.222883,0.966975,0.123624,-0.919815,-0.319295,0.228015,-0.273288,0.104406,-0.956249,0.28152,-0.941887,-0.183293,-0.93867,0.178653,0.294928,0.263102,-0.181777,0.947489,0.222883,0.966975,0.123624,-107401.0,-29717.0,15638.0,-73413.0,18687.0,5756.0,12466.0,3002.0,-57971.0,0.0,-22185.0,-19699.0,-20398.0,-19897.0,-16947.0,1504.0,5971.0,0.0,2071.0,2044.0,3977.0,3624.0,-4.0,139.0,-46.0,0.0,384.0,333.0,176.0,125.0,25.0,-110.0,46.0,0.0,249.0,199.0,90.0,74.0,0.001224,-0.037646,0.012487,0.0,0.014067,0.012214,-0.006467,0.004596,0.006865,-0.029828,0.012635,0.0,0.009125,0.007306,-0.0033,0.00274,3791.970215,11240.640625,47829.871094,0.0,-16454.970703,-16438.230469,16914.240234,-16129.980469,3681.540039,10638.450195,52251.390625,0.0,18088.291016,17937.361328,-17642.609375,18460.621094,0.0,0.0,0.0,0.0,0.0,0.0,0.0,0.0,0.0,0.0,0.0,0.0,0.0,0.0,0.0,0.0,0.0,0.0,0.0,0.0,0.0,0.0,0.0,0.0,0.0,0.0,0.0,0.0,0.0,0.0,0.0,0.0,3791.941895,11240.602539,47829.960938,0.0,-16455.0625,-16438.412109,16914.271484,-16130.134766,3681.491699,10637.924805,52251.464844,0.0,18088.111328,17937.625,-17642.326172,18460.466797,27.841747,88.44886,21.226431,0.0,-2.101028,0.590898,52.034046,35.170128,27.030785,83.607407,23.32019,0.0,23.036463,-2.913828,37.211113,53.774586,1.522,1.587,-54599.0,-127898.0,-473472.0,0.0,160648.0,162948.0,-167538.0,159325.0,-57853.0,-116701.0,-574600.0,0.0,-198910.0,-197260.0,192052.0,-201494.0,0.0,0.0,0.0,0.0,0.0,0.0,0.0,0.0,0.0,0.0,0.0,0.0,0.0,0.0,0.0,0.0,0.0,0.0,0.0,0.0,0.0,0.0,0.0,0.0
42,178.9818730354309,27.841957,88.44915,21.226387,0.0,-2.08428,0.611141,52.020645,35.197315,27.031139,83.611679,23.32012,0.0,23.069479,-2.943247,37.194283,53.777039,3.0,1.0,111.0,0.0,1.0,-107401.0,-29717.0,15638.0,-73413.0,18687.0,5756.0,-0.919815,-0.319295,0.228015,-0.273288,0.104406,-0.956249,0.28152,-0.941887,-0.183293,-0.93867,0.178653,0.294928,0.263102,-0.181777,0.947489,0.222883,0.966975,0.123624,-0.919815,-0.319295,0.228015,-0.273288,0.104406,-0.956249,0.28152,-0.941887,-0.183293,-0.93867,0.178653,0.294928,0.263102,-0.181777,0.947489,0.222883,0.966975,0.123624,-107401.0,-29717.0,15638.0,-73413.0,18687.0,5756.0,12466.0,3002.0,-57971.0,0.0,-22185.0,-19699.0,-20398.0,-19897.0,-16947.0,1504.0,5971.0,0.0,2071.0,2044.0,3977.0,3624.0,-4.0,139.0,-46.0,0.0,384.0,333.0,176.0,125.0,25.0,-110.0,46.0,0.0,249.0,200.0,89.0,74.0,0.001224,-0.037646,0.012487,0.0,0.014062,0.012204,-0.006465,0.004588,0.006865,-0.029828,0.012635,0.0,0.009115,0.007321,-0.003284,0.002731,3791.970215,11240.640625,47829.871094,0.0,-16454.970703,-16438.230469,16914.240234,-16129.980469,3681.540039,10638.450195,52251.390625,0.0,18088.291016,17937.361328,-17642.609375,18460.621094,0.0,0.0,0.0,0.0,0.0,0.0,0.0,0.0,0.0,0.0,0.0,0.0,0.0,0.0,0.0,0.0,0.0,0.0,0.0,0.0,0.0,0.0,0.0,0.0,0.0,0.0,0.0,0.0,0.0,0.0,0.0,0.0,3791.941895,11240.602539,47829.960938,0.0,-16455.0625,-16438.412109,16914.271484,-16130.134766,3681.491699,10637.924805,52251.464844,0.0,18088.111328,17937.625,-17642.326172,18460.466797,27.841747,88.44886,21.226431,0.0,-2.101028,0.590898,52.034046,35.170128,27.030785,83.607407,23.32019,0.0,23.036463,-2.913828,37.211113,53.774586,1.522,1.587,-54599.0,-127898.0,-473472.0,0.0,160648.0,162948.0,-167538.0,159325.0,-57853.0,-116701.0,-574600.0,0.0,-198910.0,-197260.0,192052.0,-201494.0,0.0,0.0,0.0,0.0,0.0,0.0,0.0,0.0,0.0,0.0,0.0,0.0,0.0,0.0,0.0,0.0,0.0,0.0,0.0,0.0,0.0,0.0,0.0,0.0
43,179.04390788078308,27.841957,88.44915,21.226387,0.0,-2.08428,0.611141,52.020645,35.197315,27.031139,83.611679,23.32012,0.0,23.069479,-2.943247,37.194283,53.777039,3.0,1.0,111.0,0.0,1.0,-107401.0,-29717.0,15638.0,-73413.0,18687.0,5756.0,-0.919815,-0.319295,0.228015,-0.273288,0.104406,-0.956249,0.28152,-0.941887,-0.183293,-0.93867,0.178653,0.294928,0.263102,-0.181777,0.947489,0.222883,0.966975,0.123624,-0.919815,-0.319295,0.228015,-0.273288,0.104406,-0.956249,0.28152,-0.941887,-0.183293,-0.93867,0.178653,0.294928,0.263102,-0.181777,0.947489,0.222883,0.966975,0.123624,-107401.0,-29717.0,15638.0,-73413.0,18687.0,5756.0,12466.0,3002.0,-57971.0,0.0,-22185.0,-19699.0,-20398.0,-19897.0,-16947.0,1504.0,5971.0,0.0,2071.0,2044.0,3977.0,3624.0,-4.0,139.0,-46.0,0.0,384.0,333.0,176.0,125.0,25.0,-110.0,46.0,0.0,248.0,200.0,89.0,74.0,0.001224,-0.037646,0.012487,0.0,0.014057,0.012194,-0.006463,0.004579,0.006865,-0.029828,0.012635,0.0,0.009105,0.007335,-0.003269,0.002723,3791.970215,11240.640625,47829.871094,0.0,-16454.970703,-16438.230469,16914.240234,-16129.980469,3681.540039,10638.450195,52251.390625,0.0,18088.291016,17937.361328,-17642.609375,18460.621094,0.0,0.0,0.0,0.0,0.0,0.0,0.0,0.0,0.0,0.0,0.0,0.0,0.0,0.0,0.0,0.0,0.0,0.0,0.0,0.0,0.0,0.0,0.0,0.0,0.0,0.0,0.0,0.0,0.0,0.0,0.0,0.0,3791.941895,11240.602539,47829.960938,0.0,-16455.0625,-16438.412109,16914.271484,-16130.134766,3681.491699,10637.924805,52251.464844,0.0,18088.111328,17937.625,-17642.326172,18460.466797,27.841747,88.44886,21.226431,0.0,-2.101028,0.590898,52.034046,35.170128,27.030785,83.607407,23.32019,0.0,23.036463,-2.913828,37.211113,53.774586,1.522,1.587,-54599.0,-127898.0,-473472.0,0.0,160648.0,162948.0,-167538.0,159325.0,-57853.0,-116701.0,-574600.0,0.0,-198910.0,-197260.0,192052.0,-201494.0,0.0,0.0,0.0,0.0,0.0,0.0,0.0,0.0,0.0,0.0,0.0,0.0,0.0,0.0,0.0,0.0,0.0,0.0,0.0,0.0,0.0,0.0,0.0,0.0
44,179.1089539527893,27.841957,88.44915,21.226387,0.0,-2.08428,0.611141,52.020645,35.197315,27.031139,83.611679,23.32012,0.0,23.069479,-2.943247,37.194283,53.777039,3.0,1.0,111.0,0.0,1.0,-107401.0,-29717.0,15638.0,-73413.0,18687.0,5756.0,-0.919815,-0.319295,0.228015,-0.273288,0.104406,-0.956249,0.28152,-0.941887,-0.183293,-0.93867,0.178653,0.294928,0.263102,-0.181777,0.947489,0.222883,0.966975,0.123624,-0.919815,-0.319295,0.228015,-0.273288,0.104406,-0.956249,0.28152,-0.941887,-0.183293,-0.93867,0.178653,0.294928,0.263102,-0.181777,0.947489,0.222883,0.966975,0.123624,-107401.0,-29717.0,15638.0,-73413.0,18687.0,5756.0,12466.0,3002.0,-57971.0,0.0,-22185.0,-19699.0,-20398.0,-19897.0,-16947.0,1504.0,5971.0,0.0,2071.0,2044.0,3977.0,3624.0,-4.0,139.0,-46.0,0.0,384.0,332.0,176.0,124.0,25.0,-110.0,46.0,0.0,248.0,200.0,88.0,74.0,0.001224,-0.037646,0.012487,0.0,0.014052,0.012184,-0.006462,0.004571,0.006865,-0.029828,0.012635,0.0,0.009095,0.00735,-0.003253,0.002714,3791.970215,11240.640625,47829.871094,0.0,-16454.970703,-16438.230469,16914.240234,-16129.980469,3681.540039,10638.450195,52251.390625,0.0,18088.291016,17937.361328,-17642.609375,18460.621094,0.0,0.0,0.0,0.0,0.0,0.0,0.0,0.0,0.0,0.0,0.0,0.0,0.0,0.0,0.0,0.0,0.0,0.0,0.0,0.0,0.0,0.0,0.0,0.0,0.0,0.0,0.0,0.0,0.0,0.0,0.0,0.0,3791.941895,11240.602539,47829.960938,0.0,-16455.0625,-16438.412109,16914.271484,-16130.134766,3681.491699,10637.924805,52251.464844,0.0,18088.111328,17937.625,-17642.326172,18460.466797,27.841747,88.44886,21.226431,0.0,-2.101028,0.590898,52.034046,35.170128,27.030785,83.607407,23.32019,0.0,23.036463,-2.913828,37.211113,53.774586,1.522,1.587,-54599.0,-127898.0,-473472.0,0.0,160648.0,162948.0,-167538.0,159325.0,-57853.0,-116701.0,-574600.0,0.0,-198910.0,-197260.0,192052.0,-201494.0,0.0,0.0,0.0,0.0,0.0,0.0,0.0,0.0,0.0,0.0,0.0,0.0,0.0,0.0,0.0,0.0,0.0,0.0,0.0,0.0,0.0,0.0,0.0,0.0
45,179.1729040145874,27.841957,88.44915,21.226387,0.0,-2.08428,0.611141,52.020645,35.197315,27.031139,83.611679,23.32012,0.0,23.069479,-2.943247,37.194283,53.777039,3.0,1.0,111.0,0.0,1.0,-107401.0,-29717.0,15638.0,-73413.0,18687.0,5756.0,-0.919815,-0.319295,0.228015,-0.273288,0.104406,-0.956249,0.28152,-0.941887,-0.183293,-0.93867,0.178653,0.294928,0.263102,-0.181777,0.947489,0.222883,0.966975,0.123624,-0.919815,-0.319295,0.228015,-0.273288,0.104406,-0.956249,0.28152,-0.941887,-0.183293,-0.93867,0.178653,0.294928,0.263102,-0.181777,0.947489,0.222883,0.966975,0.123624,-107401.0,-29717.0,15638.0,-73413.0,18687.0,5756.0,12466.0,3002.0,-57971.0,0.0,-22185.0,-19699.0,-20398.0,-19897.0,-16947.0,1504.0,5971.0,0.0,2071.0,2044.0,3977.0,3624.0,-4.0,139.0,-46.0,0.0,383.0,332.0,176.0,124.0,25.0,-110.0,46.0,0.0,248.0,201.0,88.0,73.0,0.001224,-0.037646,0.012487,0.0,0.014047,0.012174,-0.00646,0.004562,0.006865,-0.029828,0.012635,0.0,0.009085,0.007365,-0.003237,0.002705,3791.970215,11240.640625,47829.871094,0.0,-16454.970703,-16438.230469,16914.240234,-16129.980469,3681.540039,10638.450195,52251.390625,0.0,18088.291016,17937.361328,-17642.609375,18460.621094,0.0,0.0,0.0,0.0,0.0,0.0,0.0,0.0,0.0,0.0,0.0,0.0,0.0,0.0,0.0,0.0,0.0,0.0,0.0,0.0,0.0,0.0,0.0,0.0,0.0,0.0,0.0,0.0,0.0,0.0,0.0,0.0,3791.941895,11240.602539,47829.960938,0.0,-16455.0625,-16438.412109,16914.271484,-16130.134766,3681.491699,10637.924805,52251.464844,0.0,18088.111328,17937.625,-17642.326172,18460.466797,27.841747,88.44886,21.226431,0.0,-2.101028,0.590898,52.034046,35.170128,27.030785,83.607407,23.32019,0.0,23.036463,-2.913828,37.211113,53.774586,1.522,1.587,-54599.0,-127898.0,-473472.0,0.0,160648.0,162948.0,-167538.0,159325.0,-57853.0,-116701.0,-574600.0,0.0,-198910.0,-197260.0,192052.0,-201494.0,0.0,0.0,0.0,0.0,0.0,0.0,0.0,0.0,0.0,0.0,0.0,0.0,0.0,0.0,0.0,0.0,0.0,0.0,0.0,0.0,0.0,0.0,0.0,0.0
46,179.23591589927673,27.841957,88.44915,21.226387,0.0,-2.08428,0.611141,52.020645,35.197315,27.031139,83.611679,23.32012,0.0,23.069479,-2.943247,37.194283,53.777039,3.0,1.0,111.0,0.0,1.0,-107401.0,-29717.0,15638.0,-73413.0,18687.0,5756.0,-0.919815,-0.319295,0.228015,-0.273288,0.104406,-0.956249,0.28152,-0.941887,-0.183293,-0.93867,0.178653,0.294928,0.263102,-0.181777,0.947489,0.222883,0.966975,0.123624,-0.919815,-0.319295,0.228015,-0.273288,0.104406,-0.956249,0.28152,-0.941887,-0.183293,-0.93867,0.178653,0.294928,0.263102,-0.181777,0.947489,0.222883,0.966975,0.123624,-107401.0,-29717.0,15638.0,-73413.0,18687.0,5756.0,12466.0,3002.0,-57971.0,0.0,-22185.0,-19699.0,-20398.0,-19897.0,-16947.0,1504.0,5971.0,0.0,2071.0,2044.0,3977.0,3624.0,-4.0,139.0,-46.0,0.0,383.0,332.0,176.0,124.0,25.0,-110.0,46.0,0.0,248.0,201.0,88.0,73.0,0.001224,-0.037646,0.012487,0.0,0.014042,0.012164,-0.006458,0.004553,0.006865,-0.029828,0.012635,0.0,0.009075,0.007379,-0.003222,0.002697,3791.970215,11240.640625,47829.871094,0.0,-16454.970703,-16438.230469,16914.240234,-16129.980469,3681.540039,10638.450195,52251.390625,0.0,18088.291016,17937.361328,-17642.609375,18460.621094,0.0,0.0,0.0,0.0,0.0,0.0,0.0,0.0,0.0,0.0,0.0,0.0,0.0,0.0,0.0,0.0,0.0,0.0,0.0,0.0,0.0,0.0,0.0,0.0,0.0,0.0,0.0,0.0,0.0,0.0,0.0,0.0,3791.941895,11240.602539,47829.960938,0.0,-16455.0625,-16438.412109,16914.271484,-16130.134766,3681.491699,10637.924805,52251.464844,0.0,18088.111328,17937.625,-17642.326172,18460.466797,27.841747,88.44886,21.226431,0.0,-2.101028,0.590898,52.034046,35.170128,27.030785,83.607407,23.32019,0.0,23.036463,-2.913828,37.211113,53.774586,1.522,1.587,-54599.0,-127898.0,-473472.0,0.0,160648.0,162948.0,-167538.0,159325.0,-57853.0,-116701.0,-574600.0,0.0,-198910.0,-197260.0,192052.0,-201494.0,0.0,0.0,0.0,0.0,0.0,0.0,0.0,0.0,0.0,0.0,0.0,0.0,0.0,0.0,0.0,0.0,0.0,0.0,0.0,0.0,0.0,0.0,0.0,0.0
47,179.29790806770325,27.841957,88.44915,21.226387,0.0,-2.08428,0.611141,52.020645,35.197315,27.031139,83.611679,23.32012,0.0,23.069479,-2.943247,37.194283,53.777039,3.0,1.0,111.0,0.0,1.0,-107401.0,-29717.0,15638.0,-73413.0,18687.0,5756.0,-0.919815,-0.319295,0.228015,-0.273288,0.104406,-0.956249,0.28152,-0.941887,-0.183293,-0.93867,0.178653,0.294928,0.263102,-0.181777,0.947489,0.222883,0.966975,0.123624,-0.919815,-0.319295,0.228015,-0.273288,0.104406,-0.956249,0.28152,-0.941887,-0.183293,-0.93867,0.178653,0.294928,0.263102,-0.181777,0.947489,0.222883,0.966975,0.123624,-107401.0,-29717.0,15638.0,-73413.0,18687.0,5756.0,12466.0,3002.0,-57971.0,0.0,-22185.0,-19699.0,-20398.0,-19897.0,-16947.0,1504.0,5971.0,0.0,2071.0,2044.0,3977.0,3624.0,-4.0,139.0,-46.0,0.0,383.0,332.0,176.0,124.0,25.0,-110.0,46.0,0.0,247.0,202.0,87.0,73.0,0.001224,-0.037646,0.012487,0.0,0.014037,0.012154,-0.006457,0.004545,0.006865,-0.029828,0.012635,0.0,0.009066,0.007393,-0.003206,0.002689,3791.970215,11240.640625,47829.871094,0.0,-16454.970703,-16438.230469,16914.240234,-16129.980469,3681.540039,10638.450195,52251.390625,0.0,18088.291016,17937.361328,-17642.609375,18460.621094,0.0,0.0,0.0,0.0,0.0,0.0,0.0,0.0,0.0,0.0,0.0,0.0,0.0,0.0,0.0,0.0,0.0,0.0,0.0,0.0,0.0,0.0,0.0,0.0,0.0,0.0,0.0,0.0,0.0,0.0,0.0,0.0,3791.941895,11240.602539,47829.960938,0.0,-16455.0625,-16438.412109,16914.271484,-16130.134766,3681.491699,10637.924805,52251.464844,0.0,18088.111328,17937.625,-17642.326172,18460.466797,27.841747,88.44886,21.226431,0.0,-2.101028,0.590898,52.034046,35.170128,27.030785,83.607407,23.32019,0.0,23.036463,-2.913828,37.211113,53.774586,1.522,1.587,-54599.0,-127898.0,-473472.0,0.0,160648.0,162948.0,-167538.0,159325.0,-57853.0,-116701.0,-574600.0,0.0,-198910.0,-197260.0,192052.0,-201494.0,0.0,0.0,0.0,0.0,0.0,0.0,0.0,0.0,0.0,0.0,0.0,0.0,0.0,0.0,0.0,0.0,0.0,0.0,0.0,0.0,0.0,0.0,0.0,0.0
48,179.3619360923767,27.841957,88.44915,21.226387,0.0,-2.08428,0.611141,52.020645,35.197315,27.031139,83.611679,23.32012,0.0,23.069479,-2.943247,37.194283,53.777039,3.0,1.0,111.0,0.0,1.0,-107401.0,-29717.0,15638.0,-73413.0,18687.0,5756.0,-0.919815,-0.319295,0.228015,-0.273288,0.104406,-0.956249,0.28152,-0.941887,-0.183293,-0.93867,0.178653,0.294928,0.263102,-0.181777,0.947489,0.222883,0.966975,0.123624,-0.919815,-0.319295,0.228015,-0.273288,0.104406,-0.956249,0.28152,-0.941887,-0.183293,-0.93867,0.178653,0.294928,0.263102,-0.181777,0.947489,0.222883,0.966975,0.123624,-107401.0,-29717.0,15638.0,-73413.0,18687.0,5756.0,12466.0,3002.0,-57971.0,0.0,-22185.0,-19699.0,-20398.0,-19897.0,-16947.0,1504.0,5971.0,0.0,2071.0,2044.0,3977.0,3624.0,-4.0,139.0,-46.0,0.0,383.0,331.0,176.0,123.0,25.0,-110.0,46.0,0.0,247.0,202.0,87.0,73.0,0.001224,-0.037646,0.012487,0.0,0.014032,0.012144,-0.006455,0.004537,0.006865,-0.029828,0.012635,0.0,0.009056,0.007408,-0.00319,0.00268,3791.970215,11240.640625,47829.871094,0.0,-16454.970703,-16438.230469,16914.240234,-16129.980469,3681.540039,10638.450195,52251.390625,0.0,18088.291016,17937.361328,-17642.609375,18460.621094,0.0,0.0,0.0,0.0,0.0,0.0,0.0,0.0,0.0,0.0,0.0,0.0,0.0,0.0,0.0,0.0,0.0,0.0,0.0,0.0,0.0,0.0,0.0,0.0,0.0,0.0,0.0,0.0,0.0,0.0,0.0,0.0,3791.941895,11240.602539,47829.960938,0.0,-16455.0625,-16438.412109,16914.271484,-16130.134766,3681.491699,10637.924805,52251.464844,0.0,18088.111328,17937.625,-17642.326172,18460.466797,27.841747,88.44886,21.226431,0.0,-2.101028,0.590898,52.034046,35.170128,27.030785,83.607407,23.32019,0.0,23.036463,-2.913828,37.211113,53.774586,1.522,1.587,-54599.0,-127898.0,-473472.0,0.0,160648.0,162948.0,-167538.0,159325.0,-57853.0,-116701.0,-574600.0,0.0,-198910.0,-197260.0,192052.0,-201494.0,0.0,0.0,0.0,0.0,0.0,0.0,0.0,0.0,0.0,0.0,0.0,0.0,0.0,0.0,0.0,0.0,0.0,0.0,0.0,0.0,0.0,0.0,0.0,0.0
49,179.42591094970703,27.841957,88.44915,21.226387,0.0,-2.08428,0.611141,52.020645,35.197315,27.031139,83.611679,23.32012,0.0,23.069479,-2.943247,37.194283,53.777039,3.0,1.0,111.0,0.0,1.0,-107401.0,-29717.0,15638.0,-73413.0,18687.0,5756.0,-0.919815,-0.319295,0.228015,-0.273288,0.104406,-0.956249,0.28152,-0.941887,-0.183293,-0.93867,0.178653,0.294928,0.263102,-0.181777,0.947489,0.222883,0.966975,0.123624,-0.919815,-0.319295,0.228015,-0.273288,0.104406,-0.956249,0.28152,-0.941887,-0.183293,-0.93867,0.178653,0.294928,0.263102,-0.181777,0.947489,0.222883,0.966975,0.123624,-107401.0,-29717.0,15638.0,-73413.0,18687.0,5756.0,12466.0,3002.0,-57971.0,0.0,-22185.0,-19699.0,-20398.0,-19897.0,-16947.0,1504.0,5971.0,0.0,2071.0,2044.0,3977.0,3624.0,-4.0,139.0,-46.0,0.0,383.0,331.0,176.0,123.0,25.0,-110.0,46.0,0.0,247.0,202.0,86.0,73.0,0.001224,-0.037646,0.012487,0.0,0.014027,0.012134,-0.006453,0.004528,0.006865,-0.029828,0.012635,0.0,0.009046,0.007423,-0.003175,0.002671,3791.970215,11240.640625,47829.871094,0.0,-16454.970703,-16438.230469,16914.240234,-16129.980469,3681.540039,10638.450195,52251.390625,0.0,18088.291016,17937.361328,-17642.609375,18460.621094,0.0,0.0,0.0,0.0,0.0,0.0,0.0,0.0,0.0,0.0,0.0,0.0,0.0,0.0,0.0,0.0,0.0,0.0,0.0,0.0,0.0,0.0,0.0,0.0,0.0,0.0,0.0,0.0,0.0,0.0,0.0,0.0,3791.941895,11240.602539,47829.960938,0.0,-16455.0625,-16438.412109,16914.271484,-16130.134766,3681.491699,10637.924805,52251.464844,0.0,18088.111328,17937.625,-17642.326172,18460.466797,27.841747,88.44886,21.226431,0.0,-2.101028,0.590898,52.034046,35.170128,27.030785,83.607407,23.32019,0.0,23.036463,-2.913828,37.211113,53.774586,1.522,1.587,-54599.0,-127898.0,-473472.0,0.0,160648.0,162948.0,-167538.0,159325.0,-57853.0,-116701.0,-574600.0,0.0,-198910.0,-197260.0,192052.0,-201494.0,0.0,0.0,0.0,0.0,0.0,0.0,0.0,0.0,0.0,0.0,0.0,0.0,0.0,0.0,0.0,0.0,0.0,0.0,0.0,0.0,0.0,0.0,0.0,0.0
50,179.48991107940674,27.841957,88.44915,21.226387,0.0,-2.08428,0.611141,52.020645,35.197315,27.031139,83.611679,23.32012,0.0,23.069479,-2.943247,37.194283,53.777039,3.0,1.0,111.0,0.0,1.0,-107401.0,-29717.0,15638.0,-73413.0,18687.0,5756.0,-0.919815,-0.319295,0.228015,-0.273288,0.104406,-0.956249,0.28152,-0.941887,-0.183293,-0.93867,0.178653,0.294928,0.263102,-0.181777,0.947489,0.222883,0.966975,0.123624,-0.919815,-0.319295,0.228015,-0.273288,0.104406,-0.956249,0.28152,-0.941887,-0.183293,-0.93867,0.178653,0.294928,0.263102,-0.181777,0.947489,0.222883,0.966975,0.123624,-107401.0,-29717.0,15638.0,-73413.0,18687.0,5756.0,12466.0,3002.0,-57971.0,0.0,-22185.0,-19699.0,-20398.0,-19897.0,-16947.0,1504.0,5971.0,0.0,2071.0,2044.0,3977.0,3624.0,-4.0,139.0,-46.0,0.0,383.0,331.0,176.0,123.0,25.0,-110.0,46.0,0.0,246.0,203.0,86.0,72.0,0.001224,-0.037646,0.012487,0.0,0.014021,0.012124,-0.006452,0.004519,0.006865,-0.029828,0.012635,0.0,0.009036,0.007438,-0.003159,0.002663,3791.970215,11240.640625,47829.871094,0.0,-16454.970703,-16438.230469,16914.240234,-16129.980469,3681.540039,10638.450195,52251.390625,0.0,18088.291016,17937.361328,-17642.609375,18460.621094,0.0,0.0,0.0,0.0,0.0,0.0,0.0,0.0,0.0,0.0,0.0,0.0,0.0,0.0,0.0,0.0,0.0,0.0,0.0,0.0,0.0,0.0,0.0,0.0,0.0,0.0,0.0,0.0,0.0,0.0,0.0,0.0,3791.941895,11240.602539,47829.960938,0.0,-16455.0625,-16438.412109,16914.271484,-16130.134766,3681.491699,10637.924805,52251.464844,0.0,18088.111328,17937.625,-17642.326172,18460.466797,27.841747,88.44886,21.226431,0.0,-2.101028,0.590898,52.034046,35.170128,27.030785,83.607407,23.32019,0.0,23.036463,-2.913828,37.211113,53.774586,1.522,1.587,-54599.0,-127898.0,-473472.0,0.0,160648.0,162948.0,-167538.0,159325.0,-57853.0,-116701.0,-574600.0,0.0,-198910.0,-197260.0,192052.0,-201494.0,0.0,0.0,0.0,0.0,0.0,0.0,0.0,0.0,0.0,0.0,0.0,0.0,0.0,0.0,0.0,0.0,0.0,0.0,0.0,0.0,0.0,0.0,0.0,0.0
51,179.55390906333923,27.841957,88.44915,21.226387,0.0,-2.08428,0.611141,52.020645,35.197315,27.031139,83.611679,23.32012,0.0,23.069479,-2.943247,37.194283,53.777039,3.0,1.0,111.0,0.0,1.0,-107401.0,-29717.0,15638.0,-73413.0,18687.0,5756.0,-0.919815,-0.319295,0.228015,-0.273288,0.104406,-0.956249,0.28152,-0.941887,-0.183293,-0.93867,0.178653,0.294928,0.263102,-0.181777,0.947489,0.222883,0.966975,0.123624,-0.919815,-0.319295,0.228015,-0.273288,0.104406,-0.956249,0.28152,-0.941887,-0.183293,-0.93867,0.178653,0.294928,0.263102,-0.181777,0.947489,0.222883,0.966975,0.123624,-107401.0,-29717.0,15638.0,-73413.0,18687.0,5756.0,12466.0,3002.0,-57971.0,0.0,-22185.0,-19699.0,-20398.0,-19897.0,-16947.0,1504.0,5971.0,0.0,2071.0,2044.0,3977.0,3624.0,-4.0,139.0,-46.0,0.0,383.0,331.0,176.0,123.0,25.0,-110.0,46.0,0.0,246.0,203.0,85.0,72.0,0.001224,-0.037646,0.012487,0.0,0.014016,0.012113,-0.00645,0.004511,0.006865,-0.029828,0.012635,0.0,0.009026,0.007452,-0.003143,0.002654,3791.970215,11240.640625,47829.871094,0.0,-16454.970703,-16438.230469,16914.240234,-16129.980469,3681.540039,10638.450195,52251.390625,0.0,18088.291016,17937.361328,-17642.609375,18460.621094,0.0,0.0,0.0,0.0,0.0,0.0,0.0,0.0,0.0,0.0,0.0,0.0,0.0,0.0,0.0,0.0,0.0,0.0,0.0,0.0,0.0,0.0,0.0,0.0,0.0,0.0,0.0,0.0,0.0,0.0,0.0,0.0,3791.941895,11240.602539,47829.960938,0.0,-16455.0625,-16438.412109,16914.271484,-16130.134766,3681.491699,10637.924805,52251.464844,0.0,18088.111328,17937.625,-17642.326172,18460.466797,27.841747,88.44886,21.226431,0.0,-2.101028,0.590898,52.034046,35.170128,27.030785,83.607407,23.32019,0.0,23.036463,-2.913828,37.211113,53.774586,1.522,1.587,-54599.0,-127898.0,-473472.0,0.0,160648.0,162948.0,-167538.0,159325.0,-57853.0,-116701.0,-574600.0,0.0,-198910.0,-197260.0,192052.0,-201494.0,0.0,0.0,0.0,0.0,0.0,0.0,0.0,0.0,0.0,0.0,0.0,0.0,0.0,0.0,0.0,0.0,0.0,0.0,0.0,0.0,0.0,0.0,0.0,0.0
