MHC-RobotSimulators-Research/Data_Analysis_MotionReplication/2023-10-28 17_54_29/test_mai_trial0.csv
,time,jpos0,jpos1,jpos2,jpos3,jpos4,jpos5,jpos6,jpos7,jpos8,jpos9,jpos10,jpos11,jpos12,jpos13,jpos14,jpos15,runlevel,sublevel,last_seq,type0,type1,pos0,pos1,pos2,pos3,pos4,pos5,ori0,ori1,ori2,ori3,ori4,ori5,ori6,ori7,ori8,ori9,ori10,ori11,ori12,ori13,ori14,ori15,ori16,ori17,ori_d0,ori_d1,ori_d2,ori_d3,ori_d4,ori_d5,ori_d6,ori_d7,ori_d8,ori_d9,ori_d10,ori_d11,ori_d12,ori_d13,ori_d14,ori_d15,ori_d16,ori_d17,pos_d0,pos_d1,pos_d2,pos_d3,pos_d4,pos_d5,encVals0,encVals1,encVals2,encVals3,encVals4,encVals5,encVals6,encVals7,encVals8,encVals9,encVals10,encVals11,encVals12,encVals13,encVals14,encVals15,dac_vals0,dac_vals1,dac_vals2,dac_vals3,dac_vals4,dac_vals5,dac_vals6,dac_vals7,dac_vals8,dac_vals9,dac_vals10,dac_vals11,dac_vals12,dac_vals13,dac_vals14,dac_vals15,Tau0,Tau1,Tau2,Tau3,Tau4,Tau5,Tau6,Tau7,Tau8,Tau9,Tau10,Tau11,Tau12,Tau13,Tau14,Tau15,mpos0,mpos1,mpos2,mpos3,mpos4,mpos5,mpos6,mpos7,mpos8,mpos9,mpos10,mpos11,mpos12,mpos13,mpos14,mpos15,mvel0,mvel1,mvel2,mvel3,mvel4,mvel5,mvel6,mvel7,mvel8,mvel9,mvel10,mvel11,mvel12,mvel13,mvel14,mvel15,jvel0,jvel1,jvel2,jvel3,jvel4,jvel5,jvel6,jvel7,jvel8,jvel9,jvel10,jvel11,jvel12,jvel13,jvel14,jvel15,mpos_d0,mpos_d1,mpos_d2,mpos_d3,mpos_d4,mpos_d5,mpos_d6,mpos_d7,mpos_d8,mpos_d9,mpos_d10,mpos_d11,mpos_d12,mpos_d13,mpos_d14,mpos_d15,jpos_d0,jpos_d1,jpos_d2,jpos_d3,jpos_d4,jpos_d5,jpos_d6,jpos_d7,jpos_d8,jpos_d9,jpos_d10,jpos_d11,jpos_d12,jpos_d13,jpos_d14,jpos_d15,grasp_d0,grasp_d1,encoffsets0,encoffsets1,encoffsets2,encoffsets3,encoffsets4,encoffsets5,encoffsets6,encoffsets7,encoffsets8,encoffsets9,encoffsets10,encoffsets11,encoffsets12,encoffsets13,encoffsets14,encoffsets15,jac_vel0,jac_vel1,jac_vel2,jac_vel3,jac_vel4,jac_vel5,jac_vel6,jac_vel7,jac_vel8,jac_vel9,jac_vel10,jac_vel11,jac_f0,jac_f1,jac_f2,jac_f3,jac_f4,jac_f5,jac_f6,jac_f7,jac_f8,jac_f9,jac_f10,jac_f11
0,0.0,36.606293,90.024963,22.887625,0.0,30.637636,-0.203976,38.660389,33.774349,36.093502,89.553726,22.897345,0.0,28.26837,-1.265211,40.562401,40.550076,3.0,1.0,111.0,0.0,1.0,-74987.0,-34321.0,13307.0,-75143.0,33724.0,12867.0,-0.879679,-0.426029,0.211339,-0.436763,0.547918,-0.713459,0.188157,-0.71992,-0.668066,-0.893183,0.022014,0.449154,0.420524,-0.312977,0.85159,0.159321,0.949506,0.270288,-0.879679,-0.426029,0.211339,-0.436763,0.547918,-0.713459,0.188157,-0.71992,-0.668066,-0.893183,0.022014,0.449154,0.420524,-0.312977,0.85159,0.159321,0.949506,0.270288,-74987.0,-34321.0,13307.0,-75143.0,33724.0,12867.0,32620.0,5928.0,-114782.0,0.0,-37363.0,-36990.0,-38295.0,-37583.0,-11775.0,12600.0,58119.0,0.0,19447.0,20519.0,18243.0,21937.0,171.0,175.0,-43.0,0.0,997.0,468.0,652.0,-429.0,-161.0,-169.0,38.0,0.0,611.0,-15.0,782.0,-545.0,-0.046368,-0.047464,0.011644,0.0,0.036499,0.017147,-0.02386,-0.0157,-0.043777,-0.045761,0.01029,0.0,0.022369,-0.000582,-0.028623,-0.019954,4985.640137,11587.049805,51590.792969,0.0,-17571.419922,-17738.550781,18083.431641,-17432.101562,4915.800293,11520.720703,51594.929688,0.0,17890.650391,17726.761719,-17379.091797,18108.451172,0.0,0.0,0.0,0.0,0.0,0.0,0.0,0.0,0.0,0.0,0.0,0.0,0.0,0.0,0.0,0.0,0.0,0.0,0.0,0.0,0.0,0.0,0.0,0.0,0.0,0.0,0.0,0.0,0.0,0.0,0.0,0.0,4985.717773,11586.870117,51590.835938,0.0,-17571.599609,-17738.548828,18083.378906,-17432.166016,4915.829102,11520.663086,51594.429688,0.0,17890.837891,17726.761719,-17379.107422,18108.632812,36.606865,90.023399,22.887653,0.0,30.604254,-0.203748,38.654514,33.767353,36.093716,89.553223,22.897116,0.0,28.30298,-1.265229,40.560551,40.570271,1.264,1.415,-88016.0,-134673.0,-458449.0,0.0,157875.0,160105.0,-162632.0,156107.0,-66395.0,-115408.0,-515158.0,0.0,-179338.0,-176445.0,174858.0,-179268.0,0.0,0.0,0.0,0.0,0.0,0.0,0.0,0.0,0.0,0.0,0.0,0.0,0.0,0.0,0.0,0.0,0.0,0.0,0.0,0.0,0.0,0.0,0.0,0.0
1,0.06496214866638184,36.606293,90.024963,22.887625,0.0,30.637636,-0.203976,38.660389,33.774349,36.093502,89.553726,22.897345,0.0,28.26837,-1.265211,40.562401,40.550076,3.0,1.0,111.0,0.0,1.0,-74987.0,-34321.0,13307.0,-75143.0,33724.0,12867.0,-0.879679,-0.426029,0.211339,-0.436763,0.547918,-0.713459,0.188157,-0.71992,-0.668066,-0.893183,0.022014,0.449154,0.420524,-0.312977,0.85159,0.159321,0.949506,0.270288,-0.879679,-0.426029,0.211339,-0.436763,0.547918,-0.713459,0.188157,-0.71992,-0.668066,-0.893183,0.022014,0.449154,0.420524,-0.312977,0.85159,0.159321,0.949506,0.270288,-74987.0,-34321.0,13307.0,-75143.0,33724.0,12867.0,32620.0,5928.0,-114782.0,0.0,-37363.0,-36990.0,-38295.0,-37583.0,-11775.0,12600.0,58119.0,0.0,19447.0,20519.0,18243.0,21937.0,171.0,175.0,-43.0,0.0,997.0,468.0,652.0,-429.0,-161.0,-169.0,38.0,0.0,611.0,-15.0,782.0,-545.0,-0.046368,-0.047464,0.011644,0.0,0.036489,0.017148,-0.023863,-0.015704,-0.043777,-0.045761,0.01029,0.0,0.022379,-0.000582,-0.028624,-0.019944,4985.640137,11587.049805,51590.792969,0.0,-17571.419922,-17738.550781,18083.431641,-17432.101562,4915.800293,11520.720703,51594.929688,0.0,17890.650391,17726.761719,-17379.091797,18108.451172,0.0,0.0,0.0,0.0,0.0,0.0,0.0,0.0,0.0,0.0,0.0,0.0,0.0,0.0,0.0,0.0,0.0,0.0,0.0,0.0,0.0,0.0,0.0,0.0,0.0,0.0,0.0,0.0,0.0,0.0,0.0,0.0,4985.717773,11586.870117,51590.835938,0.0,-17571.599609,-17738.548828,18083.378906,-17432.166016,4915.829102,11520.663086,51594.429688,0.0,17890.837891,17726.761719,-17379.107422,18108.632812,36.606865,90.023399,22.887653,0.0,30.604254,-0.203748,38.654514,33.767353,36.093716,89.553223,22.897116,0.0,28.30298,-1.265229,40.560551,40.570271,1.264,1.415,-88016.0,-134673.0,-458449.0,0.0,157875.0,160105.0,-162632.0,156107.0,-66395.0,-115408.0,-515158.0,0.0,-179338.0,-176445.0,174858.0,-179268.0,0.0,0.0,0.0,0.0,0.0,0.0,0.0,0.0,0.0,0.0,0.0,0.0,0.0,0.0,0.0,0.0,0.0,0.0,0.0,0.0,0.0,0.0,0.0,0.0
2,0.1330251693725586,36.606293,90.024963,22.887625,0.0,30.637636,-0.203976,38.660389,33.774349,36.093502,89.553726,22.897345,0.0,28.26837,-1.265211,40.562401,40.550076,3.0,1.0,111.0,0.0,1.0,-74987.0,-34321.0,13307.0,-75143.0,33724.0,12867.0,-0.879679,-0.426029,0.211339,-0.436763,0.547918,-0.713459,0.188157,-0.71992,-0.668066,-0.893183,0.022014,0.449154,0.420524,-0.312977,0.85159,0.159321,0.949506,0.270288,-0.879679,-0.426029,0.211339,-0.436763,0.547918,-0.713459,0.188157,-0.71992,-0.668066,-0.893183,0.022014,0.449154,0.420524,-0.312977,0.85159,0.159321,0.949506,0.270288,-74987.0,-34321.0,13307.0,-75143.0,33724.0,12867.0,32620.0,5928.0,-114782.0,0.0,-37363.0,-36990.0,-38295.0,-37583.0,-11775.0,12600.0,58119.0,0.0,19447.0,20519.0,18243.0,21937.0,171.0,175.0,-43.0,0.0,996.0,468.0,652.0,-429.0,-161.0,-169.0,38.0,0.0,611.0,-15.0,782.0,-544.0,-0.046368,-0.047464,0.011644,0.0,0.036478,0.017148,-0.023867,-0.015708,-0.043777,-0.045761,0.01029,0.0,0.022391,-0.000582,-0.028625,-0.019933,4985.640137,11587.049805,51590.792969,0.0,-17571.419922,-17738.550781,18083.431641,-17432.101562,4915.800293,11520.720703,51594.929688,0.0,17890.650391,17726.761719,-17379.091797,18108.451172,0.0,0.0,0.0,0.0,0.0,0.0,0.0,0.0,0.0,0.0,0.0,0.0,0.0,0.0,0.0,0.0,0.0,0.0,0.0,0.0,0.0,0.0,0.0,0.0,0.0,0.0,0.0,0.0,0.0,0.0,0.0,0.0,4985.717773,11586.870117,51590.835938,0.0,-17571.599609,-17738.548828,18083.378906,-17432.166016,4915.829102,11520.663086,51594.429688,0.0,17890.837891,17726.761719,-17379.107422,18108.632812,36.606865,90.023399,22.887653,0.0,30.604254,-0.203748,38.654514,33.767353,36.093716,89.553223,22.897116,0.0,28.30298,-1.265229,40.560551,40.570271,1.264,1.415,-88016.0,-134673.0,-458449.0,0.0,157875.0,160105.0,-162632.0,156107.0,-66395.0,-115408.0,-515158.0,0.0,-179338.0,-176445.0,174858.0,-179268.0,0.0,0.0,0.0,0.0,0.0,0.0,0.0,0.0,0.0,0.0,0.0,0.0,0.0,0.0,0.0,0.0,0.0,0.0,0.0,0.0,0.0,0.0,0.0,0.0
3,0.19601011276245117,36.606293,90.024963,22.887625,0.0,30.637636,-0.203976,38.660389,33.774349,36.093502,89.553726,22.897345,0.0,28.26837,-1.265211,40.562401,40.550076,3.0,1.0,111.0,0.0,1.0,-74987.0,-34321.0,13307.0,-75143.0,33724.0,12867.0,-0.879679,-0.426029,0.211339,-0.436763,0.547918,-0.713459,0.188157,-0.71992,-0.668066,-0.893183,0.022014,0.449154,0.420524,-0.312977,0.85159,0.159321,0.949506,0.270288,-0.879679,-0.426029,0.211339,-0.436763,0.547918,-0.713459,0.188157,-0.71992,-0.668066,-0.893183,0.022014,0.449154,0.420524,-0.312977,0.85159,0.159321,0.949506,0.270288,-74987.0,-34321.0,13307.0,-75143.0,33724.0,12867.0,32620.0,5928.0,-114782.0,0.0,-37363.0,-36990.0,-38295.0,-37583.0,-11775.0,12600.0,58119.0,0.0,19447.0,20519.0,18243.0,21937.0,171.0,175.0,-43.0,0.0,996.0,468.0,652.0,-429.0,-161.0,-169.0,38.0,0.0,612.0,-15.0,782.0,-544.0,-0.046368,-0.047464,0.011644,0.0,0.036468,0.017148,-0.023869,-0.015711,-0.043777,-0.045761,0.01029,0.0,0.022401,-0.000582,-0.028626,-0.019923,4985.640137,11587.049805,51590.792969,0.0,-17571.419922,-17738.550781,18083.431641,-17432.101562,4915.800293,11520.720703,51594.929688,0.0,17890.650391,17726.761719,-17379.091797,18108.451172,0.0,0.0,0.0,0.0,0.0,0.0,0.0,0.0,0.0,0.0,0.0,0.0,0.0,0.0,0.0,0.0,0.0,0.0,0.0,0.0,0.0,0.0,0.0,0.0,0.0,0.0,0.0,0.0,0.0,0.0,0.0,0.0,4985.717773,11586.870117,51590.835938,0.0,-17571.599609,-17738.548828,18083.378906,-17432.166016,4915.829102,11520.663086,51594.429688,0.0,17890.837891,17726.761719,-17379.107422,18108.632812,36.606865,90.023399,22.887653,0.0,30.604254,-0.203748,38.654514,33.767353,36.093716,89.553223,22.897116,0.0,28.30298,-1.265229,40.560551,40.570271,1.264,1.415,-88016.0,-134673.0,-458449.0,0.0,157875.0,160105.0,-162632.0,156107.0,-66395.0,-115408.0,-515158.0,0.0,-179338.0,-176445.0,174858.0,-179268.0,0.0,0.0,0.0,0.0,0.0,0.0,0.0,0.0,0.0,0.0,0.0,0.0,0.0,0.0,0.0,0.0,0.0,0.0,0.0,0.0,0.0,0.0,0.0,0.0
4,0.2600109577178955,36.606293,90.024963,22.887625,0.0,30.637636,-0.203976,38.660389,33.774349,36.093502,89.553726,22.897345,0.0,28.26837,-1.265211,40.562401,40.550076,3.0,1.0,111.0,0.0,1.0,-74987.0,-34321.0,13307.0,-75143.0,33724.0,12867.0,-0.879679,-0.426029,0.211339,-0.436763,0.547918,-0.713459,0.188157,-0.71992,-0.668066,-0.893183,0.022014,0.449154,0.420524,-0.312977,0.85159,0.159321,0.949506,0.270288,-0.879679,-0.426029,0.211339,-0.436763,0.547918,-0.713459,0.188157,-0.71992,-0.668066,-0.893183,0.022014,0.449154,0.420524,-0.312977,0.85159,0.159321,0.949506,0.270288,-74987.0,-34321.0,13307.0,-75143.0,33724.0,12867.0,32620.0,5928.0,-114782.0,0.0,-37363.0,-36990.0,-38295.0,-37583.0,-11775.0,12600.0,58119.0,0.0,19447.0,20519.0,18243.0,21937.0,171.0,175.0,-43.0,0.0,996.0,468.0,652.0,-429.0,-161.0,-169.0,38.0,0.0,612.0,-15.0,782.0,-544.0,-0.046368,-0.047464,0.011644,0.0,0.036458,0.017148,-0.023872,-0.015715,-0.043777,-0.045761,0.01029,0.0,0.022411,-0.000582,-0.028627,-0.019913,4985.640137,11587.049805,51590.792969,0.0,-17571.419922,-17738.550781,18083.431641,-17432.101562,4915.800293,11520.720703,51594.929688,0.0,17890.650391,17726.761719,-17379.091797,18108.451172,0.0,0.0,0.0,0.0,0.0,0.0,0.0,0.0,0.0,0.0,0.0,0.0,0.0,0.0,0.0,0.0,0.0,0.0,0.0,0.0,0.0,0.0,0.0,0.0,0.0,0.0,0.0,0.0,0.0,0.0,0.0,0.0,4985.717773,11586.870117,51590.835938,0.0,-17571.599609,-17738.548828,18083.378906,-17432.166016,4915.829102,11520.663086,51594.429688,0.0,17890.837891,17726.761719,-17379.107422,18108.632812,36.606865,90.023399,22.887653,0.0,30.604254,-0.203748,38.654514,33.767353,36.093716,89.553223,22.897116,0.0,28.30298,-1.265229,40.560551,40.570271,1.264,1.415,-88016.0,-134673.0,-458449.0,0.0,157875.0,160105.0,-162632.0,156107.0,-66395.0,-115408.0,-515158.0,0.0,-179338.0,-176445.0,174858.0,-179268.0,0.0,0.0,0.0,0.0,0.0,0.0,0.0,0.0,0.0,0.0,0.0,0.0,0.0,0.0,0.0,0.0,0.0,0.0,0.0,0.0,0.0,0.0,0.0,0.0
5,0.3230130672454834,36.606293,90.024963,22.887625,0.0,30.637636,-0.203976,38.660389,33.774349,36.093502,89.553726,22.897345,0.0,28.26837,-1.265211,40.562401,40.550076,3.0,1.0,111.0,0.0,1.0,-74987.0,-34321.0,13307.0,-75143.0,33724.0,12867.0,-0.879679,-0.426029,0.211339,-0.436763,0.547918,-0.713459,0.188157,-0.71992,-0.668066,-0.893183,0.022014,0.449154,0.420524,-0.312977,0.85159,0.159321,0.949506,0.270288,-0.879679,-0.426029,0.211339,-0.436763,0.547918,-0.713459,0.188157,-0.71992,-0.668066,-0.893183,0.022014,0.449154,0.420524,-0.312977,0.85159,0.159321,0.949506,0.270288,-74987.0,-34321.0,13307.0,-75143.0,33724.0,12867.0,32620.0,5928.0,-114782.0,0.0,-37363.0,-36990.0,-38295.0,-37583.0,-11775.0,12600.0,58119.0,0.0,19447.0,20519.0,18243.0,21937.0,171.0,175.0,-43.0,0.0,996.0,468.0,652.0,-429.0,-161.0,-169.0,38.0,0.0,612.0,-15.0,782.0,-543.0,-0.046368,-0.047464,0.011644,0.0,0.036448,0.017148,-0.023875,-0.015719,-0.043777,-0.045761,0.01029,0.0,0.022422,-0.000582,-0.028627,-0.019903,4985.640137,11587.049805,51590.792969,0.0,-17571.419922,-17738.550781,18083.431641,-17432.101562,4915.800293,11520.720703,51594.929688,0.0,17890.650391,17726.761719,-17379.091797,18108.451172,0.0,0.0,0.0,0.0,0.0,0.0,0.0,0.0,0.0,0.0,0.0,0.0,0.0,0.0,0.0,0.0,0.0,0.0,0.0,0.0,0.0,0.0,0.0,0.0,0.0,0.0,0.0,0.0,0.0,0.0,0.0,0.0,4985.717773,11586.870117,51590.835938,0.0,-17571.599609,-17738.548828,18083.378906,-17432.166016,4915.829102,11520.663086,51594.429688,0.0,17890.837891,17726.761719,-17379.107422,18108.632812,36.606865,90.023399,22.887653,0.0,30.604254,-0.203748,38.654514,33.767353,36.093716,89.553223,22.897116,0.0,28.30298,-1.265229,40.560551,40.570271,1.264,1.415,-88016.0,-134673.0,-458449.0,0.0,157875.0,160105.0,-162632.0,156107.0,-66395.0,-115408.0,-515158.0,0.0,-179338.0,-176445.0,174858.0,-179268.0,0.0,0.0,0.0,0.0,0.0,0.0,0.0,0.0,0.0,0.0,0.0,0.0,0.0,0.0,0.0,0.0,0.0,0.0,0.0,0.0,0.0,0.0,0.0,0.0
6,0.3850240707397461,36.606293,90.024963,22.887625,0.0,30.637636,-0.203976,38.660389,33.774349,36.093502,89.553726,22.897345,0.0,28.26837,-1.265211,40.562401,40.550076,3.0,1.0,111.0,0.0,1.0,-74987.0,-34321.0,13307.0,-75143.0,33724.0,12867.0,-0.879679,-0.426029,0.211339,-0.436763,0.547918,-0.713459,0.188157,-0.71992,-0.668066,-0.893183,0.022014,0.449154,0.420524,-0.312977,0.85159,0.159321,0.949506,0.270288,-0.879679,-0.426029,0.211339,-0.436763,0.547918,-0.713459,0.188157,-0.71992,-0.668066,-0.893183,0.022014,0.449154,0.420524,-0.312977,0.85159,0.159321,0.949506,0.270288,-74987.0,-34321.0,13307.0,-75143.0,33724.0,12867.0,32620.0,5928.0,-114782.0,0.0,-37363.0,-36990.0,-38295.0,-37583.0,-11775.0,12600.0,58119.0,0.0,19447.0,20519.0,18243.0,21937.0,171.0,175.0,-43.0,0.0,995.0,468.0,652.0,-429.0,-161.0,-169.0,38.0,0.0,613.0,-15.0,782.0,-543.0,-0.046368,-0.047464,0.011644,0.0,0.036438,0.017148,-0.023878,-0.015722,-0.043777,-0.045761,0.01029,0.0,0.022432,-0.000582,-0.028628,-0.019894,4985.640137,11587.049805,51590.792969,0.0,-17571.419922,-17738.550781,18083.431641,-17432.101562,4915.800293,11520.720703,51594.929688,0.0,17890.650391,17726.761719,-17379.091797,18108.451172,0.0,0.0,0.0,0.0,0.0,0.0,0.0,0.0,0.0,0.0,0.0,0.0,0.0,0.0,0.0,0.0,0.0,0.0,0.0,0.0,0.0,0.0,0.0,0.0,0.0,0.0,0.0,0.0,0.0,0.0,0.0,0.0,4985.717773,11586.870117,51590.835938,0.0,-17571.599609,-17738.548828,18083.378906,-17432.166016,4915.829102,11520.663086,51594.429688,0.0,17890.837891,17726.761719,-17379.107422,18108.632812,36.606865,90.023399,22.887653,0.0,30.604254,-0.203748,38.654514,33.767353,36.093716,89.553223,22.897116,0.0,28.30298,-1.265229,40.560551,40.570271,1.264,1.415,-88016.0,-134673.0,-458449.0,0.0,157875.0,160105.0,-162632.0,156107.0,-66395.0,-115408.0,-515158.0,0.0,-179338.0,-176445.0,174858.0,-179268.0,0.0,0.0,0.0,0.0,0.0,0.0,0.0,0.0,0.0,0.0,0.0,0.0,0.0,0.0,0.0,0.0,0.0,0.0,0.0,0.0,0.0,0.0,0.0,0.0
7,0.448991060256958,36.606293,90.024963,22.887625,0.0,30.637636,-0.203976,38.660389,33.774349,36.093502,89.553726,22.897345,0.0,28.26837,-1.265211,40.562401,40.550076,3.0,1.0,111.0,0.0,1.0,-74987.0,-34321.0,13307.0,-75143.0,33724.0,12867.0,-0.879679,-0.426029,0.211339,-0.436763,0.547918,-0.713459,0.188157,-0.71992,-0.668066,-0.893183,0.022014,0.449154,0.420524,-0.312977,0.85159,0.159321,0.949506,0.270288,-0.879679,-0.426029,0.211339,-0.436763,0.547918,-0.713459,0.188157,-0.71992,-0.668066,-0.893183,0.022014,0.449154,0.420524,-0.312977,0.85159,0.159321,0.949506,0.270288,-74987.0,-34321.0,13307.0,-75143.0,33724.0,12867.0,32620.0,5928.0,-114782.0,0.0,-37363.0,-36990.0,-38295.0,-37583.0,-11775.0,12600.0,58119.0,0.0,19447.0,20519.0,18243.0,21937.0,171.0,175.0,-43.0,0.0,995.0,468.0,652.0,-429.0,-161.0,-169.0,38.0,0.0,613.0,-15.0,782.0,-543.0,-0.046368,-0.047464,0.011644,0.0,0.036428,0.017148,-0.023881,-0.015726,-0.043777,-0.045761,0.01029,0.0,0.022442,-0.000582,-0.028629,-0.019883,4985.640137,11587.049805,51590.792969,0.0,-17571.419922,-17738.550781,18083.431641,-17432.101562,4915.800293,11520.720703,51594.929688,0.0,17890.650391,17726.761719,-17379.091797,18108.451172,0.0,0.0,0.0,0.0,0.0,0.0,0.0,0.0,0.0,0.0,0.0,0.0,0.0,0.0,0.0,0.0,0.0,0.0,0.0,0.0,0.0,0.0,0.0,0.0,0.0,0.0,0.0,0.0,0.0,0.0,0.0,0.0,4985.717773,11586.870117,51590.835938,0.0,-17571.599609,-17738.548828,18083.378906,-17432.166016,4915.829102,11520.663086,51594.429688,0.0,17890.837891,17726.761719,-17379.107422,18108.632812,36.606865,90.023399,22.887653,0.0,30.604254,-0.203748,38.654514,33.767353,36.093716,89.553223,22.897116,0.0,28.30298,-1.265229,40.560551,40.570271,1.264,1.415,-88016.0,-134673.0,-458449.0,0.0,157875.0,160105.0,-162632.0,156107.0,-66395.0,-115408.0,-515158.0,0.0,-179338.0,-176445.0,174858.0,-179268.0,0.0,0.0,0.0,0.0,0.0,0.0,0.0,0.0,0.0,0.0,0.0,0.0,0.0,0.0,0.0,0.0,0.0,0.0,0.0,0.0,0.0,0.0,0.0,0.0
8,0.5130269527435303,36.606293,90.024963,22.887625,0.0,30.637636,-0.203976,38.660389,33.774349,36.093502,89.553726,22.897345,0.0,28.26837,-1.265211,40.562401,40.550076,3.0,1.0,111.0,0.0,1.0,-74987.0,-34321.0,13307.0,-75143.0,33724.0,12867.0,-0.879679,-0.426029,0.211339,-0.436763,0.547918,-0.713459,0.188157,-0.71992,-0.668066,-0.893183,0.022014,0.449154,0.420524,-0.312977,0.85159,0.159321,0.949506,0.270288,-0.879679,-0.426029,0.211339,-0.436763,0.547918,-0.713459,0.188157,-0.71992,-0.668066,-0.893183,0.022014,0.449154,0.420524,-0.312977,0.85159,0.159321,0.949506,0.270288,-74987.0,-34321.0,13307.0,-75143.0,33724.0,12867.0,32620.0,5928.0,-114782.0,0.0,-37363.0,-36990.0,-38295.0,-37583.0,-11775.0,12600.0,58119.0,0.0,19447.0,20519.0,18243.0,21937.0,171.0,175.0,-43.0,0.0,995.0,468.0,652.0,-429.0,-161.0,-169.0,38.0,0.0,613.0,-15.0,782.0,-543.0,-0.046368,-0.047464,0.011644,0.0,0.036418,0.017148,-0.023884,-0.015729,-0.043777,-0.045761,0.01029,0.0,0.022453,-0.000582,-0.02863,-0.019873,4985.640137,11587.049805,51590.792969,0.0,-17571.419922,-17738.550781,18083.431641,-17432.101562,4915.800293,11520.720703,51594.929688,0.0,17890.650391,17726.761719,-17379.091797,18108.451172,0.0,0.0,0.0,0.0,0.0,0.0,0.0,0.0,0.0,0.0,0.0,0.0,0.0,0.0,0.0,0.0,0.0,0.0,0.0,0.0,0.0,0.0,0.0,0.0,0.0,0.0,0.0,0.0,0.0,0.0,0.0,0.0,4985.717773,11586.870117,51590.835938,0.0,-17571.599609,-17738.548828,18083.378906,-17432.166016,4915.829102,11520.663086,51594.429688,0.0,17890.837891,17726.761719,-17379.107422,18108.632812,36.606865,90.023399,22.887653,0.0,30.604254,-0.203748,38.654514,33.767353,36.093716,89.553223,22.897116,0.0,28.30298,-1.265229,40.560551,40.570271,1.264,1.415,-88016.0,-134673.0,-458449.0,0.0,157875.0,160105.0,-162632.0,156107.0,-66395.0,-115408.0,-515158.0,0.0,-179338.0,-176445.0,174858.0,-179268.0,0.0,0.0,0.0,0.0,0.0,0.0,0.0,0.0,0.0,0.0,0.0,0.0,0.0,0.0,0.0,0.0,0.0,0.0,0.0,0.0,0.0,0.0,0.0,0.0
9,0.576012134552002,36.606293,90.024963,22.887625,0.0,30.637636,-0.203976,38.660389,33.774349,36.093502,89.553726,22.897345,0.0,28.26837,-1.265211,40.562401,40.550076,3.0,1.0,111.0,0.0,1.0,-74987.0,-34321.0,13307.0,-75143.0,33724.0,12867.0,-0.879679,-0.426029,0.211339,-0.436763,0.547918,-0.713459,0.188157,-0.71992,-0.668066,-0.893183,0.022014,0.449154,0.420524,-0.312977,0.85159,0.159321,0.949506,0.270288,-0.879679,-0.426029,0.211339,-0.436763,0.547918,-0.713459,0.188157,-0.71992,-0.668066,-0.893183,0.022014,0.449154,0.420524,-0.312977,0.85159,0.159321,0.949506,0.270288,-74987.0,-34321.0,13307.0,-75143.0,33724.0,12867.0,32620.0,5928.0,-114782.0,0.0,-37363.0,-36990.0,-38295.0,-37583.0,-11775.0,12600.0,58119.0,0.0,19447.0,20519.0,18243.0,21937.0,171.0,175.0,-43.0,0.0,994.0,468.0,652.0,-429.0,-161.0,-169.0,38.0,0.0,613.0,-15.0,782.0,-542.0,-0.046368,-0.047464,0.011644,0.0,0.036408,0.017148,-0.023887,-0.015733,-0.043777,-0.045761,0.01029,0.0,0.022463,-0.000582,-0.028631,-0.019863,4985.640137,11587.049805,51590.792969,0.0,-17571.419922,-17738.550781,18083.431641,-17432.101562,4915.800293,11520.720703,51594.929688,0.0,17890.650391,17726.761719,-17379.091797,18108.451172,0.0,0.0,0.0,0.0,0.0,0.0,0.0,0.0,0.0,0.0,0.0,0.0,0.0,0.0,0.0,0.0,0.0,0.0,0.0,0.0,0.0,0.0,0.0,0.0,0.0,0.0,0.0,0.0,0.0,0.0,0.0,0.0,4985.717773,11586.870117,51590.835938,0.0,-17571.599609,-17738.548828,18083.378906,-17432.166016,4915.829102,11520.663086,51594.429688,0.0,17890.837891,17726.761719,-17379.107422,18108.632812,36.606865,90.023399,22.887653,0.0,30.604254,-0.203748,38.654514,33.767353,36.093716,89.553223,22.897116,0.0,28.30298,-1.265229,40.560551,40.570271,1.264,1.415,-88016.0,-134673.0,-458449.0,0.0,157875.0,160105.0,-162632.0,156107.0,-66395.0,-115408.0,-515158.0,0.0,-179338.0,-176445.0,174858.0,-179268.0,0.0,0.0,0.0,0.0,0.0,0.0,0.0,0.0,0.0,0.0,0.0,0.0,0.0,0.0,0.0,0.0,0.0,0.0,0.0,0.0,0.0,0.0,0.0,0.0
10,0.6400141716003418,36.606293,90.024963,22.887625,0.0,30.637636,-0.203976,38.660389,33.774349,36.093502,89.553726,22.897345,0.0,28.26837,-1.265211,40.562401,40.550076,3.0,1.0,111.0,0.0,1.0,-74987.0,-34321.0,13307.0,-75143.0,33724.0,12867.0,-0.879679,-0.426029,0.211339,-0.436763,0.547918,-0.713459,0.188157,-0.71992,-0.668066,-0.893183,0.022014,0.449154,0.420524,-0.312977,0.85159,0.159321,0.949506,0.270288,-0.879679,-0.426029,0.211339,-0.436763,0.547918,-0.713459,0.188157,-0.71992,-0.668066,-0.893183,0.022014,0.449154,0.420524,-0.312977,0.85159,0.159321,0.949506,0.270288,-74987.0,-34321.0,13307.0,-75143.0,33724.0,12867.0,32620.0,5928.0,-114782.0,0.0,-37363.0,-36990.0,-38295.0,-37583.0,-11775.0,12600.0,58119.0,0.0,19447.0,20519.0,18243.0,21937.0,171.0,175.0,-43.0,0.0,994.0,468.0,652.0,-430.0,-161.0,-169.0,38.0,0.0,614.0,-15.0,782.0,-542.0,-0.046368,-0.047464,0.011644,0.0,0.036398,0.017148,-0.02389,-0.015737,-0.043777,-0.045761,0.01029,0.0,0.022474,-0.000582,-0.028632,-0.019853,4985.640137,11587.049805,51590.792969,0.0,-17571.419922,-17738.550781,18083.431641,-17432.101562,4915.800293,11520.720703,51594.929688,0.0,17890.650391,17726.761719,-17379.091797,18108.451172,0.0,0.0,0.0,0.0,0.0,0.0,0.0,0.0,0.0,0.0,0.0,0.0,0.0,0.0,0.0,0.0,0.0,0.0,0.0,0.0,0.0,0.0,0.0,0.0,0.0,0.0,0.0,0.0,0.0,0.0,0.0,0.0,4985.717773,11586.870117,51590.835938,0.0,-17571.599609,-17738.548828,18083.378906,-17432.166016,4915.829102,11520.663086,51594.429688,0.0,17890.837891,17726.761719,-17379.107422,18108.632812,36.606865,90.023399,22.887653,0.0,30.604254,-0.203748,38.654514,33.767353,36.093716,89.553223,22.897116,0.0,28.30298,-1.265229,40.560551,40.570271,1.264,1.415,-88016.0,-134673.0,-458449.0,0.0,157875.0,160105.0,-162632.0,156107.0,-66395.0,-115408.0,-515158.0,0.0,-179338.0,-176445.0,174858.0,-179268.0,0.0,0.0,0.0,0.0,0.0,0.0,0.0,0.0,0.0,0.0,0.0,0.0,0.0,0.0,0.0,0.0,0.0,0.0,0.0,0.0,0.0,0.0,0.0,0.0
11,0.7020061016082764,36.606293,90.024963,22.887625,0.0,30.637636,-0.203976,38.660389,33.774349,36.093502,89.553726,22.897345,0.0,28.26837,-1.265211,40.562401,40.550076,3.0,1.0,111.0,0.0,1.0,-74987.0,-34321.0,13307.0,-75143.0,33724.0,12867.0,-0.879679,-0.426029,0.211339,-0.436763,0.547918,-0.713459,0.188157,-0.71992,-0.668066,-0.893183,0.022014,0.449154,0.420524,-0.312977,0.85159,0.159321,0.949506,0.270288,-0.879679,-0.426029,0.211339,-0.436763,0.547918,-0.713459,0.188157,-0.71992,-0.668066,-0.893183,0.022014,0.449154,0.420524,-0.312977,0.85159,0.159321,0.949506,0.270288,-74987.0,-34321.0,13307.0,-75143.0,33724.0,12867.0,32620.0,5928.0,-114782.0,0.0,-37363.0,-36990.0,-38295.0,-37583.0,-11775.0,12600.0,58119.0,0.0,19447.0,20519.0,18243.0,21937.0,171.0,175.0,-43.0,0.0,994.0,468.0,652.0,-430.0,-161.0,-169.0,38.0,0.0,614.0,-15.0,782.0,-542.0,-0.046368,-0.047464,0.011644,0.0,0.036388,0.017148,-0.023893,-0.01574,-0.043777,-0.045761,0.01029,0.0,0.022484,-0.000582,-0.028633,-0.019844,4985.640137,11587.049805,51590.792969,0.0,-17571.419922,-17738.550781,18083.431641,-17432.101562,4915.800293,11520.720703,51594.929688,0.0,17890.650391,17726.761719,-17379.091797,18108.451172,0.0,0.0,0.0,0.0,0.0,0.0,0.0,0.0,0.0,0.0,0.0,0.0,0.0,0.0,0.0,0.0,0.0,0.0,0.0,0.0,0.0,0.0,0.0,0.0,0.0,0.0,0.0,0.0,0.0,0.0,0.0,0.0,4985.717773,11586.870117,51590.835938,0.0,-17571.599609,-17738.548828,18083.378906,-17432.166016,4915.829102,11520.663086,51594.429688,0.0,17890.837891,17726.761719,-17379.107422,18108.632812,36.606865,90.023399,22.887653,0.0,30.604254,-0.203748,38.654514,33.767353,36.093716,89.553223,22.897116,0.0,28.30298,-1.265229,40.560551,40.570271,1.264,1.415,-88016.0,-134673.0,-458449.0,0.0,157875.0,160105.0,-162632.0,156107.0,-66395.0,-115408.0,-515158.0,0.0,-179338.0,-176445.0,174858.0,-179268.0,0.0,0.0,0.0,0.0,0.0,0.0,0.0,0.0,0.0,0.0,0.0,0.0,0.0,0.0,0.0,0.0,0.0,0.0,0.0,0.0,0.0,0.0,0.0,0.0
12,0.7660131454467773,36.606293,90.024963,22.887625,0.0,30.637636,-0.203976,38.660389,33.774349,36.093502,89.553726,22.897345,0.0,28.26837,-1.265211,40.562401,40.550076,3.0,1.0,111.0,0.0,1.0,-74987.0,-34321.0,13307.0,-75143.0,33724.0,12867.0,-0.879679,-0.426029,0.211339,-0.436763,0.547918,-0.713459,0.188157,-0.71992,-0.668066,-0.893183,0.022014,0.449154,0.420524,-0.312977,0.85159,0.159321,0.949506,0.270288,-0.879679,-0.426029,0.211339,-0.436763,0.547918,-0.713459,0.188157,-0.71992,-0.668066,-0.893183,0.022014,0.449154,0.420524,-0.312977,0.85159,0.159321,0.949506,0.270288,-74987.0,-34321.0,13307.0,-75143.0,33724.0,12867.0,32620.0,5928.0,-114782.0,0.0,-37363.0,-36990.0,-38295.0,-37583.0,-11775.0,12600.0,58119.0,0.0,19447.0,20519.0,18243.0,21937.0,171.0,175.0,-43.0,0.0,994.0,468.0,653.0,-430.0,-161.0,-169.0,38.0,0.0,614.0,-15.0,782.0,-542.0,-0.046368,-0.047464,0.011644,0.0,0.036378,0.017149,-0.023896,-0.015744,-0.043777,-0.045761,0.01029,0.0,0.022494,-0.000582,-0.028634,-0.019833,4985.640137,11587.049805,51590.792969,0.0,-17571.419922,-17738.550781,18083.431641,-17432.101562,4915.800293,11520.720703,51594.929688,0.0,17890.650391,17726.761719,-17379.091797,18108.451172,0.0,0.0,0.0,0.0,0.0,0.0,0.0,0.0,0.0,0.0,0.0,0.0,0.0,0.0,0.0,0.0,0.0,0.0,0.0,0.0,0.0,0.0,0.0,0.0,0.0,0.0,0.0,0.0,0.0,0.0,0.0,0.0,4985.717773,11586.870117,51590.835938,0.0,-17571.599609,-17738.548828,18083.378906,-17432.166016,4915.829102,11520.663086,51594.429688,0.0,17890.837891,17726.761719,-17379.107422,18108.632812,36.606865,90.023399,22.887653,0.0,30.604254,-0.203748,38.654514,33.767353,36.093716,89.553223,22.897116,0.0,28.30298,-1.265229,40.560551,40.570271,1.264,1.415,-88016.0,-134673.0,-458449.0,0.0,157875.0,160105.0,-162632.0,156107.0,-66395.0,-115408.0,-515158.0,0.0,-179338.0,-176445.0,174858.0,-179268.0,0.0,0.0,0.0,0.0,0.0,0.0,0.0,0.0,0.0,0.0,0.0,0.0,0.0,0.0,0.0,0.0,0.0,0.0,0.0,0.0,0.0,0.0,0.0,0.0
13,0.829024076461792,36.606293,90.024963,22.887625,0.0,30.637636,-0.203976,38.660389,33.774349,36.093502,89.553726,22.897345,0.0,28.26837,-1.265211,40.562401,40.550076,3.0,1.0,111.0,0.0,1.0,-74987.0,-34321.0,13307.0,-75143.0,33724.0,12867.0,-0.879679,-0.426029,0.211339,-0.436763,0.547918,-0.713459,0.188157,-0.71992,-0.668066,-0.893183,0.022014,0.449154,0.420524,-0.312977,0.85159,0.159321,0.949506,0.270288,-0.879679,-0.426029,0.211339,-0.436763,0.547918,-0.713459,0.188157,-0.71992,-0.668066,-0.893183,0.022014,0.449154,0.420524,-0.312977,0.85159,0.159321,0.949506,0.270288,-74987.0,-34321.0,13307.0,-75143.0,33724.0,12867.0,32620.0,5928.0,-114782.0,0.0,-37363.0,-36990.0,-38295.0,-37583.0,-11775.0,12600.0,58119.0,0.0,19447.0,20519.0,18243.0,21937.0,171.0,175.0,-43.0,0.0,993.0,468.0,653.0,-430.0,-161.0,-169.0,38.0,0.0,615.0,-15.0,782.0,-541.0,-0.046368,-0.047464,0.011644,0.0,0.036368,0.017149,-0.023899,-0.015747,-0.043777,-0.045761,0.01029,0.0,0.022505,-0.000582,-0.028635,-0.019823,4985.640137,11587.049805,51590.792969,0.0,-17571.419922,-17738.550781,18083.431641,-17432.101562,4915.800293,11520.720703,51594.929688,0.0,17890.650391,17726.761719,-17379.091797,18108.451172,0.0,0.0,0.0,0.0,0.0,0.0,0.0,0.0,0.0,0.0,0.0,0.0,0.0,0.0,0.0,0.0,0.0,0.0,0.0,0.0,0.0,0.0,0.0,0.0,0.0,0.0,0.0,0.0,0.0,0.0,0.0,0.0,4985.717773,11586.870117,51590.835938,0.0,-17571.599609,-17738.548828,18083.378906,-17432.166016,4915.829102,11520.663086,51594.429688,0.0,17890.837891,17726.761719,-17379.107422,18108.632812,36.606865,90.023399,22.887653,0.0,30.604254,-0.203748,38.654514,33.767353,36.093716,89.553223,22.897116,0.0,28.30298,-1.265229,40.560551,40.570271,1.264,1.415,-88016.0,-134673.0,-458449.0,0.0,157875.0,160105.0,-162632.0,156107.0,-66395.0,-115408.0,-515158.0,0.0,-179338.0,-176445.0,174858.0,-179268.0,0.0,0.0,0.0,0.0,0.0,0.0,0.0,0.0,0.0,0.0,0.0,0.0,0.0,0.0,0.0,0.0,0.0,0.0,0.0,0.0,0.0,0.0,0.0,0.0
14,0.8910059928894043,36.606293,90.024963,22.887625,0.0,30.637636,-0.203976,38.660389,33.774349,36.093502,89.553726,22.897345,0.0,28.26837,-1.265211,40.562401,40.550076,3.0,1.0,111.0,0.0,1.0,-74987.0,-34321.0,13307.0,-75143.0,33724.0,12867.0,-0.879679,-0.426029,0.211339,-0.436763,0.547918,-0.713459,0.188157,-0.71992,-0.668066,-0.893183,0.022014,0.449154,0.420524,-0.312977,0.85159,0.159321,0.949506,0.270288,-0.879679,-0.426029,0.211339,-0.436763,0.547918,-0.713459,0.188157,-0.71992,-0.668066,-0.893183,0.022014,0.449154,0.420524,-0.312977,0.85159,0.159321,0.949506,0.270288,-74987.0,-34321.0,13307.0,-75143.0,33724.0,12867.0,32620.0,5928.0,-114782.0,0.0,-37363.0,-36990.0,-38295.0,-37583.0,-11775.0,12600.0,58119.0,0.0,19447.0,20519.0,18243.0,21937.0,171.0,175.0,-43.0,0.0,993.0,468.0,653.0,-430.0,-161.0,-169.0,38.0,0.0,615.0,-15.0,782.0,-541.0,-0.046368,-0.047464,0.011644,0.0,0.036358,0.017149,-0.023902,-0.015751,-0.043777,-0.045761,0.01029,0.0,0.022515,-0.000582,-0.028636,-0.019814,4985.640137,11587.049805,51590.792969,0.0,-17571.419922,-17738.550781,18083.431641,-17432.101562,4915.800293,11520.720703,51594.929688,0.0,17890.650391,17726.761719,-17379.091797,18108.451172,0.0,0.0,0.0,0.0,0.0,0.0,0.0,0.0,0.0,0.0,0.0,0.0,0.0,0.0,0.0,0.0,0.0,0.0,0.0,0.0,0.0,0.0,0.0,0.0,0.0,0.0,0.0,0.0,0.0,0.0,0.0,0.0,4985.717773,11586.870117,51590.835938,0.0,-17571.599609,-17738.548828,18083.378906,-17432.166016,4915.829102,11520.663086,51594.429688,0.0,17890.837891,17726.761719,-17379.107422,18108.632812,36.606865,90.023399,22.887653,0.0,30.604254,-0.203748,38.654514,33.767353,36.093716,89.553223,22.897116,0.0,28.30298,-1.265229,40.560551,40.570271,1.264,1.415,-88016.0,-134673.0,-458449.0,0.0,157875.0,160105.0,-162632.0,156107.0,-66395.0,-115408.0,-515158.0,0.0,-179338.0,-176445.0,174858.0,-179268.0,0.0,0.0,0.0,0.0,0.0,0.0,0.0,0.0,0.0,0.0,0.0,0.0,0.0,0.0,0.0,0.0,0.0,0.0,0.0,0.0,0.0,0.0,0.0,0.0
15,0.9550111293792725,36.606293,90.024963,22.887625,0.0,30.637636,-0.203976,38.660389,33.774349,36.093502,89.553726,22.897345,0.0,28.26837,-1.265211,40.562401,40.550076,3.0,1.0,111.0,0.0,1.0,-74987.0,-34321.0,13307.0,-75143.0,33724.0,12867.0,-0.879679,-0.426029,0.211339,-0.436763,0.547918,-0.713459,0.188157,-0.71992,-0.668066,-0.893183,0.022014,0.449154,0.420524,-0.312977,0.85159,0.159321,0.949506,0.270288,-0.879679,-0.426029,0.211339,-0.436763,0.547918,-0.713459,0.188157,-0.71992,-0.668066,-0.893183,0.022014,0.449154,0.420524,-0.312977,0.85159,0.159321,0.949506,0.270288,-74987.0,-34321.0,13307.0,-75143.0,33724.0,12867.0,32620.0,5928.0,-114782.0,0.0,-37363.0,-36990.0,-38295.0,-37583.0,-11775.0,12600.0,58119.0,0.0,19447.0,20519.0,18243.0,21937.0,171.0,175.0,-43.0,0.0,993.0,468.0,653.0,-430.0,-161.0,-169.0,38.0,0.0,615.0,-15.0,782.0,-541.0,-0.046368,-0.047464,0.011644,0.0,0.036348,0.017149,-0.023905,-0.015754,-0.043777,-0.045761,0.01029,0.0,0.022525,-0.000582,-0.028637,-0.019804,4985.640137,11587.049805,51590.792969,0.0,-17571.419922,-17738.550781,18083.431641,-17432.101562,4915.800293,11520.720703,51594.929688,0.0,17890.650391,17726.761719,-17379.091797,18108.451172,0.0,0.0,0.0,0.0,0.0,0.0,0.0,0.0,0.0,0.0,0.0,0.0,0.0,0.0,0.0,0.0,0.0,0.0,0.0,0.0,0.0,0.0,0.0,0.0,0.0,0.0,0.0,0.0,0.0,0.0,0.0,0.0,4985.717773,11586.870117,51590.835938,0.0,-17571.599609,-17738.548828,18083.378906,-17432.166016,4915.829102,11520.663086,51594.429688,0.0,17890.837891,17726.761719,-17379.107422,18108.632812,36.606865,90.023399,22.887653,0.0,30.604254,-0.203748,38.654514,33.767353,36.093716,89.553223,22.897116,0.0,28.30298,-1.265229,40.560551,40.570271,1.264,1.415,-88016.0,-134673.0,-458449.0,0.0,157875.0,160105.0,-162632.0,156107.0,-66395.0,-115408.0,-515158.0,0.0,-179338.0,-176445.0,174858.0,-179268.0,0.0,0.0,0.0,0.0,0.0,0.0,0.0,0.0,0.0,0.0,0.0,0.0,0.0,0.0,0.0,0.0,0.0,0.0,0.0,0.0,0.0,0.0,0.0,0.0
16,1.0190110206604004,36.606293,90.024963,22.887625,0.0,30.637636,-0.203976,38.660389,33.774349,36.093502,89.553726,22.897345,0.0,28.26837,-1.265211,40.562401,40.550076,3.0,1.0,111.0,0.0,1.0,-74987.0,-34321.0,13307.0,-75143.0,33724.0,12867.0,-0.879679,-0.426029,0.211339,-0.436763,0.547918,-0.713459,0.188157,-0.71992,-0.668066,-0.893183,0.022014,0.449154,0.420524,-0.312977,0.85159,0.159321,0.949506,0.270288,-0.879679,-0.426029,0.211339,-0.436763,0.547918,-0.713459,0.188157,-0.71992,-0.668066,-0.893183,0.022014,0.449154,0.420524,-0.312977,0.85159,0.159321,0.949506,0.270288,-74987.0,-34321.0,13307.0,-75143.0,33724.0,12867.0,32620.0,5928.0,-114782.0,0.0,-37363.0,-36990.0,-38295.0,-37583.0,-11775.0,12600.0,58119.0,0.0,19447.0,20519.0,18243.0,21937.0,171.0,175.0,-43.0,0.0,993.0,468.0,653.0,-430.0,-161.0,-169.0,38.0,0.0,615.0,-15.0,782.0,-540.0,-0.046368,-0.047464,0.011644,0.0,0.036338,0.017149,-0.023907,-0.015758,-0.043777,-0.045761,0.01029,0.0,0.022536,-0.000582,-0.028638,-0.019793,4985.640137,11587.049805,51590.792969,0.0,-17571.419922,-17738.550781,18083.431641,-17432.101562,4915.800293,11520.720703,51594.929688,0.0,17890.650391,17726.761719,-17379.091797,18108.451172,0.0,0.0,0.0,0.0,0.0,0.0,0.0,0.0,0.0,0.0,0.0,0.0,0.0,0.0,0.0,0.0,0.0,0.0,0.0,0.0,0.0,0.0,0.0,0.0,0.0,0.0,0.0,0.0,0.0,0.0,0.0,0.0,4985.717773,11586.870117,51590.835938,0.0,-17571.599609,-17738.548828,18083.378906,-17432.166016,4915.829102,11520.663086,51594.429688,0.0,17890.837891,17726.761719,-17379.107422,18108.632812,36.606865,90.023399,22.887653,0.0,30.604254,-0.203748,38.654514,33.767353,36.093716,89.553223,22.897116,0.0,28.30298,-1.265229,40.560551,40.570271,1.264,1.415,-88016.0,-134673.0,-458449.0,0.0,157875.0,160105.0,-162632.0,156107.0,-66395.0,-115408.0,-515158.0,0.0,-179338.0,-176445.0,174858.0,-179268.0,0.0,0.0,0.0,0.0,0.0,0.0,0.0,0.0,0.0,0.0,0.0,0.0,0.0,0.0,0.0,0.0,0.0,0.0,0.0,0.0,0.0,0.0,0.0,0.0
17,1.0819830894470215,36.606293,90.024963,22.887625,0.0,30.637636,-0.203976,38.660389,33.774349,36.093502,89.553726,22.897345,0.0,28.26837,-1.265211,40.562401,40.550076,3.0,1.0,111.0,0.0,1.0,-74987.0,-34321.0,13307.0,-75143.0,33724.0,12867.0,-0.879679,-0.426029,0.211339,-0.436763,0.547918,-0.713459,0.188157,-0.71992,-0.668066,-0.893183,0.022014,0.449154,0.420524,-0.312977,0.85159,0.159321,0.949506,0.270288,-0.879679,-0.426029,0.211339,-0.436763,0.547918,-0.713459,0.188157,-0.71992,-0.668066,-0.893183,0.022014,0.449154,0.420524,-0.312977,0.85159,0.159321,0.949506,0.270288,-74987.0,-34321.0,13307.0,-75143.0,33724.0,12867.0,32620.0,5928.0,-114782.0,0.0,-37363.0,-36990.0,-38295.0,-37583.0,-11775.0,12600.0,58119.0,0.0,19447.0,20519.0,18243.0,21937.0,171.0,175.0,-43.0,0.0,992.0,468.0,653.0,-430.0,-161.0,-169.0,38.0,0.0,616.0,-15.0,782.0,-540.0,-0.046368,-0.047464,0.011644,0.0,0.036328,0.017149,-0.02391,-0.015762,-0.043777,-0.045761,0.01029,0.0,0.022546,-0.000582,-0.028639,-0.019783,4985.640137,11587.049805,51590.792969,0.0,-17571.419922,-17738.550781,18083.431641,-17432.101562,4915.800293,11520.720703,51594.929688,0.0,17890.650391,17726.761719,-17379.091797,18108.451172,0.0,0.0,0.0,0.0,0.0,0.0,0.0,0.0,0.0,0.0,0.0,0.0,0.0,0.0,0.0,0.0,0.0,0.0,0.0,0.0,0.0,0.0,0.0,0.0,0.0,0.0,0.0,0.0,0.0,0.0,0.0,0.0,4985.717773,11586.870117,51590.835938,0.0,-17571.599609,-17738.548828,18083.378906,-17432.166016,4915.829102,11520.663086,51594.429688,0.0,17890.837891,17726.761719,-17379.107422,18108.632812,36.606865,90.023399,22.887653,0.0,30.604254,-0.203748,38.654514,33.767353,36.093716,89.553223,22.897116,0.0,28.30298,-1.265229,40.560551,40.570271,1.264,1.415,-88016.0,-134673.0,-458449.0,0.0,157875.0,160105.0,-162632.0,156107.0,-66395.0,-115408.0,-515158.0,0.0,-179338.0,-176445.0,174858.0,-179268.0,0.0,0.0,0.0,0.0,0.0,0.0,0.0,0.0,0.0,0.0,0.0,0.0,0.0,0.0,0.0,0.0,0.0,0.0,0.0,0.0,0.0,0.0,0.0,0.0
18,1.1450250148773193,36.606293,90.024963,22.887625,0.0,30.637636,-0.203976,38.660389,33.774349,36.093502,89.553726,22.897345,0.0,28.26837,-1.265211,40.562401,40.550076,3.0,1.0,111.0,0.0,1.0,-74987.0,-34321.0,13307.0,-75143.0,33724.0,12867.0,-0.879679,-0.426029,0.211339,-0.436763,0.547918,-0.713459,0.188157,-0.71992,-0.668066,-0.893183,0.022014,0.449154,0.420524,-0.312977,0.85159,0.159321,0.949506,0.270288,-0.879679,-0.426029,0.211339,-0.436763,0.547918,-0.713459,0.188157,-0.71992,-0.668066,-0.893183,0.022014,0.449154,0.420524,-0.312977,0.85159,0.159321,0.949506,0.270288,-74987.0,-34321.0,13307.0,-75143.0,33724.0,12867.0,32620.0,5928.0,-114782.0,0.0,-37363.0,-36990.0,-38295.0,-37583.0,-11775.0,12600.0,58119.0,0.0,19447.0,20519.0,18243.0,21937.0,171.0,175.0,-43.0,0.0,992.0,468.0,653.0,-430.0,-161.0,-169.0,38.0,0.0,616.0,-15.0,782.0,-540.0,-0.046368,-0.047464,0.011644,0.0,0.036318,0.017149,-0.023913,-0.015765,-0.043777,-0.045761,0.01029,0.0,0.022556,-0.000582,-0.02864,-0.019774,4985.640137,11587.049805,51590.792969,0.0,-17571.419922,-17738.550781,18083.431641,-17432.101562,4915.800293,11520.720703,51594.929688,0.0,17890.650391,17726.761719,-17379.091797,18108.451172,0.0,0.0,0.0,0.0,0.0,0.0,0.0,0.0,0.0,0.0,0.0,0.0,0.0,0.0,0.0,0.0,0.0,0.0,0.0,0.0,0.0,0.0,0.0,0.0,0.0,0.0,0.0,0.0,0.0,0.0,0.0,0.0,4985.717773,11586.870117,51590.835938,0.0,-17571.599609,-17738.548828,18083.378906,-17432.166016,4915.829102,11520.663086,51594.429688,0.0,17890.837891,17726.761719,-17379.107422,18108.632812,36.606865,90.023399,22.887653,0.0,30.604254,-0.203748,38.654514,33.767353,36.093716,89.553223,22.897116,0.0,28.30298,-1.265229,40.560551,40.570271,1.264,1.415,-88016.0,-134673.0,-458449.0,0.0,157875.0,160105.0,-162632.0,156107.0,-66395.0,-115408.0,-515158.0,0.0,-179338.0,-176445.0,174858.0,-179268.0,0.0,0.0,0.0,0.0,0.0,0.0,0.0,0.0,0.0,0.0,0.0,0.0,0.0,0.0,0.0,0.0,0.0,0.0,0.0,0.0,0.0,0.0,0.0,0.0
19,1.2070050239562988,36.606293,90.024963,22.887625,0.0,30.637636,-0.203976,38.660389,33.774349,36.093502,89.553726,22.897345,0.0,28.26837,-1.265211,40.562401,40.550076,3.0,1.0,111.0,0.0,1.0,-74987.0,-34321.0,13307.0,-75143.0,33724.0,12867.0,-0.879679,-0.426029,0.211339,-0.436763,0.547918,-0.713459,0.188157,-0.71992,-0.668066,-0.893183,0.022014,0.449154,0.420524,-0.312977,0.85159,0.159321,0.949506,0.270288,-0.879679,-0.426029,0.211339,-0.436763,0.547918,-0.713459,0.188157,-0.71992,-0.668066,-0.893183,0.022014,0.449154,0.420524,-0.312977,0.85159,0.159321,0.949506,0.270288,-74987.0,-34321.0,13307.0,-75143.0,33724.0,12867.0,32620.0,5928.0,-114782.0,0.0,-37363.0,-36990.0,-38295.0,-37583.0,-11775.0,12600.0,58119.0,0.0,19447.0,20519.0,18243.0,21937.0,171.0,175.0,-43.0,0.0,992.0,468.0,653.0,-430.0,-161.0,-169.0,38.0,0.0,616.0,-15.0,782.0,-540.0,-0.046368,-0.047464,0.011644,0.0,0.036308,0.017149,-0.023916,-0.015769,-0.043777,-0.045761,0.01029,0.0,0.022567,-0.000582,-0.028641,-0.019764,4985.640137,11587.049805,51590.792969,0.0,-17571.419922,-17738.550781,18083.431641,-17432.101562,4915.800293,11520.720703,51594.929688,0.0,17890.650391,17726.761719,-17379.091797,18108.451172,0.0,0.0,0.0,0.0,0.0,0.0,0.0,0.0,0.0,0.0,0.0,0.0,0.0,0.0,0.0,0.0,0.0,0.0,0.0,0.0,0.0,0.0,0.0,0.0,0.0,0.0,0.0,0.0,0.0,0.0,0.0,0.0,4985.717773,11586.870117,51590.835938,0.0,-17571.599609,-17738.548828,18083.378906,-17432.166016,4915.829102,11520.663086,51594.429688,0.0,17890.837891,17726.761719,-17379.107422,18108.632812,36.606865,90.023399,22.887653,0.0,30.604254,-0.203748,38.654514,33.767353,36.093716,89.553223,22.897116,0.0,28.30298,-1.265229,40.560551,40.570271,1.264,1.415,-88016.0,-134673.0,-458449.0,0.0,157875.0,160105.0,-162632.0,156107.0,-66395.0,-115408.0,-515158.0,0.0,-179338.0,-176445.0,174858.0,-179268.0,0.0,0.0,0.0,0.0,0.0,0.0,0.0,0.0,0.0,0.0,0.0,0.0,0.0,0.0,0.0,0.0,0.0,0.0,0.0,0.0,0.0,0.0,0.0,0.0
20,1.2709710597991943,36.606293,90.024963,22.887625,0.0,30.637636,-0.203976,38.660389,33.774349,36.093502,89.553726,22.897345,0.0,28.26837,-1.265211,40.562401,40.550076,3.0,1.0,111.0,0.0,1.0,-74987.0,-34321.0,13307.0,-75143.0,33724.0,12867.0,-0.879679,-0.426029,0.211339,-0.436763,0.547918,-0.713459,0.188157,-0.71992,-0.668066,-0.893183,0.022014,0.449154,0.420524,-0.312977,0.85159,0.159321,0.949506,0.270288,-0.879679,-0.426029,0.211339,-0.436763,0.547918,-0.713459,0.188157,-0.71992,-0.668066,-0.893183,0.022014,0.449154,0.420524,-0.312977,0.85159,0.159321,0.949506,0.270288,-74987.0,-34321.0,13307.0,-75143.0,33724.0,12867.0,32620.0,5928.0,-114782.0,0.0,-37363.0,-36990.0,-38295.0,-37583.0,-11775.0,12600.0,58119.0,0.0,19447.0,20519.0,18243.0,21937.0,171.0,175.0,-43.0,0.0,991.0,468.0,653.0,-431.0,-161.0,-169.0,38.0,0.0,616.0,-15.0,782.0,-539.0,-0.046368,-0.047464,0.011644,0.0,0.036298,0.017149,-0.023919,-0.015772,-0.043777,-0.045761,0.01029,0.0,0.022577,-0.000582,-0.028642,-0.019754,4985.640137,11587.049805,51590.792969,0.0,-17571.419922,-17738.550781,18083.431641,-17432.101562,4915.800293,11520.720703,51594.929688,0.0,17890.650391,17726.761719,-17379.091797,18108.451172,0.0,0.0,0.0,0.0,0.0,0.0,0.0,0.0,0.0,0.0,0.0,0.0,0.0,0.0,0.0,0.0,0.0,0.0,0.0,0.0,0.0,0.0,0.0,0.0,0.0,0.0,0.0,0.0,0.0,0.0,0.0,0.0,4985.717773,11586.870117,51590.835938,0.0,-17571.599609,-17738.548828,18083.378906,-17432.166016,4915.829102,11520.663086,51594.429688,0.0,17890.837891,17726.761719,-17379.107422,18108.632812,36.606865,90.023399,22.887653,0.0,30.604254,-0.203748,38.654514,33.767353,36.093716,89.553223,22.897116,0.0,28.30298,-1.265229,40.560551,40.570271,1.264,1.415,-88016.0,-134673.0,-458449.0,0.0,157875.0,160105.0,-162632.0,156107.0,-66395.0,-115408.0,-515158.0,0.0,-179338.0,-176445.0,174858.0,-179268.0,0.0,0.0,0.0,0.0,0.0,0.0,0.0,0.0,0.0,0.0,0.0,0.0,0.0,0.0,0.0,0.0,0.0,0.0,0.0,0.0,0.0,0.0,0.0,0.0
21,1.3360111713409424,36.606293,90.024963,22.887625,0.0,30.637636,-0.203976,38.660389,33.774349,36.093502,89.553726,22.897345,0.0,28.26837,-1.265211,40.562401,40.550076,3.0,1.0,111.0,0.0,1.0,-74987.0,-34321.0,13307.0,-75143.0,33724.0,12867.0,-0.879679,-0.426029,0.211339,-0.436763,0.547918,-0.713459,0.188157,-0.71992,-0.668066,-0.893183,0.022014,0.449154,0.420524,-0.312977,0.85159,0.159321,0.949506,0.270288,-0.879679,-0.426029,0.211339,-0.436763,0.547918,-0.713459,0.188157,-0.71992,-0.668066,-0.893183,0.022014,0.449154,0.420524,-0.312977,0.85159,0.159321,0.949506,0.270288,-74987.0,-34321.0,13307.0,-75143.0,33724.0,12867.0,32620.0,5928.0,-114782.0,0.0,-37363.0,-36990.0,-38295.0,-37583.0,-11775.0,12600.0,58119.0,0.0,19447.0,20519.0,18243.0,21937.0,171.0,175.0,-43.0,0.0,991.0,468.0,653.0,-431.0,-161.0,-169.0,38.0,0.0,617.0,-15.0,782.0,-539.0,-0.046368,-0.047464,0.011644,0.0,0.036288,0.017149,-0.023922,-0.015776,-0.043777,-0.045761,0.01029,0.0,0.022588,-0.000582,-0.028643,-0.019743,4985.640137,11587.049805,51590.792969,0.0,-17571.419922,-17738.550781,18083.431641,-17432.101562,4915.800293,11520.720703,51594.929688,0.0,17890.650391,17726.761719,-17379.091797,18108.451172,0.0,0.0,0.0,0.0,0.0,0.0,0.0,0.0,0.0,0.0,0.0,0.0,0.0,0.0,0.0,0.0,0.0,0.0,0.0,0.0,0.0,0.0,0.0,0.0,0.0,0.0,0.0,0.0,0.0,0.0,0.0,0.0,4985.717773,11586.870117,51590.835938,0.0,-17571.599609,-17738.548828,18083.378906,-17432.166016,4915.829102,11520.663086,51594.429688,0.0,17890.837891,17726.761719,-17379.107422,18108.632812,36.606865,90.023399,22.887653,0.0,30.604254,-0.203748,38.654514,33.767353,36.093716,89.553223,22.897116,0.0,28.30298,-1.265229,40.560551,40.570271,1.264,1.415,-88016.0,-134673.0,-458449.0,0.0,157875.0,160105.0,-162632.0,156107.0,-66395.0,-115408.0,-515158.0,0.0,-179338.0,-176445.0,174858.0,-179268.0,0.0,0.0,0.0,0.0,0.0,0.0,0.0,0.0,0.0,0.0,0.0,0.0,0.0,0.0,0.0,0.0,0.0,0.0,0.0,0.0,0.0,0.0,0.0,0.0
22,1.4000120162963867,36.606293,90.024963,22.887625,0.0,30.637636,-0.203976,38.660389,33.774349,36.093502,89.553726,22.897345,0.0,28.26837,-1.265211,40.562401,40.550076,3.0,1.0,111.0,0.0,1.0,-74987.0,-34321.0,13307.0,-75143.0,33724.0,12867.0,-0.879679,-0.426029,0.211339,-0.436763,0.547918,-0.713459,0.188157,-0.71992,-0.668066,-0.893183,0.022014,0.449154,0.420524,-0.312977,0.85159,0.159321,0.949506,0.270288,-0.879679,-0.426029,0.211339,-0.436763,0.547918,-0.713459,0.188157,-0.71992,-0.668066,-0.893183,0.022014,0.449154,0.420524,-0.312977,0.85159,0.159321,0.949506,0.270288,-74987.0,-34321.0,13307.0,-75143.0,33724.0,12867.0,32620.0,5928.0,-114782.0,0.0,-37363.0,-36990.0,-38295.0,-37583.0,-11775.0,12600.0,58119.0,0.0,19447.0,20519.0,18243.0,21937.0,171.0,175.0,-43.0,0.0,991.0,468.0,653.0,-431.0,-161.0,-169.0,38.0,0.0,617.0,-15.0,782.0,-539.0,-0.046368,-0.047464,0.011644,0.0,0.036278,0.01715,-0.023925,-0.01578,-0.043777,-0.045761,0.01029,0.0,0.022598,-0.000582,-0.028644,-0.019733,4985.640137,11587.049805,51590.792969,0.0,-17571.419922,-17738.550781,18083.431641,-17432.101562,4915.800293,11520.720703,51594.929688,0.0,17890.650391,17726.761719,-17379.091797,18108.451172,0.0,0.0,0.0,0.0,0.0,0.0,0.0,0.0,0.0,0.0,0.0,0.0,0.0,0.0,0.0,0.0,0.0,0.0,0.0,0.0,0.0,0.0,0.0,0.0,0.0,0.0,0.0,0.0,0.0,0.0,0.0,0.0,4985.717773,11586.870117,51590.835938,0.0,-17571.599609,-17738.548828,18083.378906,-17432.166016,4915.829102,11520.663086,51594.429688,0.0,17890.837891,17726.761719,-17379.107422,18108.632812,36.606865,90.023399,22.887653,0.0,30.604254,-0.203748,38.654514,33.767353,36.093716,89.553223,22.897116,0.0,28.30298,-1.265229,40.560551,40.570271,1.264,1.415,-88016.0,-134673.0,-458449.0,0.0,157875.0,160105.0,-162632.0,156107.0,-66395.0,-115408.0,-515158.0,0.0,-179338.0,-176445.0,174858.0,-179268.0,0.0,0.0,0.0,0.0,0.0,0.0,0.0,0.0,0.0,0.0,0.0,0.0,0.0,0.0,0.0,0.0,0.0,0.0,0.0,0.0,0.0,0.0,0.0,0.0
23,1.4619770050048828,36.606293,90.024963,22.887625,0.0,30.637636,-0.203976,38.660389,33.774349,36.093502,89.553726,22.897345,0.0,28.26837,-1.265211,40.562401,40.550076,3.0,1.0,111.0,0.0,1.0,-74987.0,-34321.0,13307.0,-75143.0,33724.0,12867.0,-0.879679,-0.426029,0.211339,-0.436763,0.547918,-0.713459,0.188157,-0.71992,-0.668066,-0.893183,0.022014,0.449154,0.420524,-0.312977,0.85159,0.159321,0.949506,0.270288,-0.879679,-0.426029,0.211339,-0.436763,0.547918,-0.713459,0.188157,-0.71992,-0.668066,-0.893183,0.022014,0.449154,0.420524,-0.312977,0.85159,0.159321,0.949506,0.270288,-74987.0,-34321.0,13307.0,-75143.0,33724.0,12867.0,32620.0,5928.0,-114782.0,0.0,-37363.0,-36990.0,-38295.0,-37583.0,-11775.0,12600.0,58119.0,0.0,19447.0,20519.0,18243.0,21937.0,171.0,175.0,-43.0,0.0,991.0,468.0,653.0,-431.0,-161.0,-169.0,38.0,0.0,617.0,-15.0,782.0,-539.0,-0.046368,-0.047464,0.011644,0.0,0.036268,0.01715,-0.023928,-0.015783,-0.043777,-0.045761,0.01029,0.0,0.022608,-0.000582,-0.028644,-0.019723,4985.640137,11587.049805,51590.792969,0.0,-17571.419922,-17738.550781,18083.431641,-17432.101562,4915.800293,11520.720703,51594.929688,0.0,17890.650391,17726.761719,-17379.091797,18108.451172,0.0,0.0,0.0,0.0,0.0,0.0,0.0,0.0,0.0,0.0,0.0,0.0,0.0,0.0,0.0,0.0,0.0,0.0,0.0,0.0,0.0,0.0,0.0,0.0,0.0,0.0,0.0,0.0,0.0,0.0,0.0,0.0,4985.717773,11586.870117,51590.835938,0.0,-17571.599609,-17738.548828,18083.378906,-17432.166016,4915.829102,11520.663086,51594.429688,0.0,17890.837891,17726.761719,-17379.107422,18108.632812,36.606865,90.023399,22.887653,0.0,30.604254,-0.203748,38.654514,33.767353,36.093716,89.553223,22.897116,0.0,28.30298,-1.265229,40.560551,40.570271,1.264,1.415,-88016.0,-134673.0,-458449.0,0.0,157875.0,160105.0,-162632.0,156107.0,-66395.0,-115408.0,-515158.0,0.0,-179338.0,-176445.0,174858.0,-179268.0,0.0,0.0,0.0,0.0,0.0,0.0,0.0,0.0,0.0,0.0,0.0,0.0,0.0,0.0,0.0,0.0,0.0,0.0,0.0,0.0,0.0,0.0,0.0,0.0
24,1.5249760150909424,36.606293,90.024963,22.887625,0.0,30.637636,-0.203976,38.660389,33.774349,36.093502,89.553726,22.897345,0.0,28.26837,-1.265211,40.562401,40.550076,3.0,1.0,111.0,0.0,1.0,-74987.0,-34321.0,13307.0,-75143.0,33724.0,12867.0,-0.879679,-0.426029,0.211339,-0.436763,0.547918,-0.713459,0.188157,-0.71992,-0.668066,-0.893183,0.022014,0.449154,0.420524,-0.312977,0.85159,0.159321,0.949506,0.270288,-0.879679,-0.426029,0.211339,-0.436763,0.547918,-0.713459,0.188157,-0.71992,-0.668066,-0.893183,0.022014,0.449154,0.420524,-0.312977,0.85159,0.159321,0.949506,0.270288,-74987.0,-34321.0,13307.0,-75143.0,33724.0,12867.0,32620.0,5928.0,-114782.0,0.0,-37363.0,-36990.0,-38295.0,-37583.0,-11775.0,12600.0,58119.0,0.0,19447.0,20519.0,18243.0,21937.0,171.0,175.0,-43.0,0.0,990.0,468.0,653.0,-431.0,-161.0,-169.0,38.0,0.0,618.0,-15.0,782.0,-538.0,-0.046368,-0.047464,0.011644,0.0,0.036258,0.01715,-0.023931,-0.015787,-0.043777,-0.045761,0.01029,0.0,0.022619,-0.000582,-0.028645,-0.019714,4985.640137,11587.049805,51590.792969,0.0,-17571.419922,-17738.550781,18083.431641,-17432.101562,4915.800293,11520.720703,51594.929688,0.0,17890.650391,17726.761719,-17379.091797,18108.451172,0.0,0.0,0.0,0.0,0.0,0.0,0.0,0.0,0.0,0.0,0.0,0.0,0.0,0.0,0.0,0.0,0.0,0.0,0.0,0.0,0.0,0.0,0.0,0.0,0.0,0.0,0.0,0.0,0.0,0.0,0.0,0.0,4985.717773,11586.870117,51590.835938,0.0,-17571.599609,-17738.548828,18083.378906,-17432.166016,4915.829102,11520.663086,51594.429688,0.0,17890.837891,17726.761719,-17379.107422,18108.632812,36.606865,90.023399,22.887653,0.0,30.604254,-0.203748,38.654514,33.767353,36.093716,89.553223,22.897116,0.0,28.30298,-1.265229,40.560551,40.570271,1.264,1.415,-88016.0,-134673.0,-458449.0,0.0,157875.0,160105.0,-162632.0,156107.0,-66395.0,-115408.0,-515158.0,0.0,-179338.0,-176445.0,174858.0,-179268.0,0.0,0.0,0.0,0.0,0.0,0.0,0.0,0.0,0.0,0.0,0.0,0.0,0.0,0.0,0.0,0.0,0.0,0.0,0.0,0.0,0.0,0.0,0.0,0.0
25,1.5890181064605713,36.606293,90.024963,22.887625,0.0,30.637636,-0.203976,38.660389,33.774349,36.093502,89.553726,22.897345,0.0,28.26837,-1.265211,40.562401,40.550076,3.0,1.0,111.0,0.0,1.0,-74987.0,-34321.0,13307.0,-75143.0,33724.0,12867.0,-0.879679,-0.426029,0.211339,-0.436763,0.547918,-0.713459,0.188157,-0.71992,-0.668066,-0.893183,0.022014,0.449154,0.420524,-0.312977,0.85159,0.159321,0.949506,0.270288,-0.879679,-0.426029,0.211339,-0.436763,0.547918,-0.713459,0.188157,-0.71992,-0.668066,-0.893183,0.022014,0.449154,0.420524,-0.312977,0.85159,0.159321,0.949506,0.270288,-74987.0,-34321.0,13307.0,-75143.0,33724.0,12867.0,32620.0,5928.0,-114782.0,0.0,-37363.0,-36990.0,-38295.0,-37583.0,-11775.0,12600.0,58119.0,0.0,19447.0,20519.0,18243.0,21937.0,171.0,175.0,-43.0,0.0,990.0,468.0,654.0,-431.0,-161.0,-169.0,38.0,0.0,618.0,-15.0,782.0,-538.0,-0.046368,-0.047464,0.011644,0.0,0.036248,0.01715,-0.023934,-0.01579,-0.043777,-0.045761,0.01029,0.0,0.022629,-0.000582,-0.028646,-0.019703,4985.640137,11587.049805,51590.792969,0.0,-17571.419922,-17738.550781,18083.431641,-17432.101562,4915.800293,11520.720703,51594.929688,0.0,17890.650391,17726.761719,-17379.091797,18108.451172,0.0,0.0,0.0,0.0,0.0,0.0,0.0,0.0,0.0,0.0,0.0,0.0,0.0,0.0,0.0,0.0,0.0,0.0,0.0,0.0,0.0,0.0,0.0,0.0,0.0,0.0,0.0,0.0,0.0,0.0,0.0,0.0,4985.717773,11586.870117,51590.835938,0.0,-17571.599609,-17738.548828,18083.378906,-17432.166016,4915.829102,11520.663086,51594.429688,0.0,17890.837891,17726.761719,-17379.107422,18108.632812,36.606865,90.023399,22.887653,0.0,30.604254,-0.203748,38.654514,33.767353,36.093716,89.553223,22.897116,0.0,28.30298,-1.265229,40.560551,40.570271,1.264,1.415,-88016.0,-134673.0,-458449.0,0.0,157875.0,160105.0,-162632.0,156107.0,-66395.0,-115408.0,-515158.0,0.0,-179338.0,-176445.0,174858.0,-179268.0,0.0,0.0,0.0,0.0,0.0,0.0,0.0,0.0,0.0,0.0,0.0,0.0,0.0,0.0,0.0,0.0,0.0,0.0,0.0,0.0,0.0,0.0,0.0,0.0
26,1.6520140171051025,36.606293,90.024963,22.887625,0.0,30.637636,-0.203976,38.660389,33.774349,36.093502,89.553726,22.897345,0.0,28.26837,-1.265211,40.562401,40.550076,3.0,1.0,111.0,0.0,1.0,-74987.0,-34321.0,13307.0,-75143.0,33724.0,12867.0,-0.879679,-0.426029,0.211339,-0.436763,0.547918,-0.713459,0.188157,-0.71992,-0.668066,-0.893183,0.022014,0.449154,0.420524,-0.312977,0.85159,0.159321,0.949506,0.270288,-0.879679,-0.426029,0.211339,-0.436763,0.547918,-0.713459,0.188157,-0.71992,-0.668066,-0.893183,0.022014,0.449154,0.420524,-0.312977,0.85159,0.159321,0.949506,0.270288,-74987.0,-34321.0,13307.0,-75143.0,33724.0,12867.0,32620.0,5928.0,-114782.0,0.0,-37363.0,-36990.0,-38295.0,-37583.0,-11775.0,12600.0,58119.0,0.0,19447.0,20519.0,18243.0,21937.0,171.0,175.0,-43.0,0.0,990.0,468.0,654.0,-431.0,-161.0,-169.0,38.0,0.0,618.0,-15.0,782.0,-538.0,-0.046368,-0.047464,0.011644,0.0,0.036238,0.01715,-0.023937,-0.015794,-0.043777,-0.045761,0.01029,0.0,0.02264,-0.000582,-0.028647,-0.019693,4985.640137,11587.049805,51590.792969,0.0,-17571.419922,-17738.550781,18083.431641,-17432.101562,4915.800293,11520.720703,51594.929688,0.0,17890.650391,17726.761719,-17379.091797,18108.451172,0.0,0.0,0.0,0.0,0.0,0.0,0.0,0.0,0.0,0.0,0.0,0.0,0.0,0.0,0.0,0.0,0.0,0.0,0.0,0.0,0.0,0.0,0.0,0.0,0.0,0.0,0.0,0.0,0.0,0.0,0.0,0.0,4985.717773,11586.870117,51590.835938,0.0,-17571.599609,-17738.548828,18083.378906,-17432.166016,4915.829102,11520.663086,51594.429688,0.0,17890.837891,17726.761719,-17379.107422,18108.632812,36.606865,90.023399,22.887653,0.0,30.604254,-0.203748,38.654514,33.767353,36.093716,89.553223,22.897116,0.0,28.30298,-1.265229,40.560551,40.570271,1.264,1.415,-88016.0,-134673.0,-458449.0,0.0,157875.0,160105.0,-162632.0,156107.0,-66395.0,-115408.0,-515158.0,0.0,-179338.0,-176445.0,174858.0,-179268.0,0.0,0.0,0.0,0.0,0.0,0.0,0.0,0.0,0.0,0.0,0.0,0.0,0.0,0.0,0.0,0.0,0.0,0.0,0.0,0.0,0.0,0.0,0.0,0.0
27,1.715015172958374,36.606293,90.024963,22.887625,0.0,30.637636,-0.203976,38.660389,33.774349,36.093502,89.553726,22.897345,0.0,28.26837,-1.265211,40.562401,40.550076,3.0,1.0,111.0,0.0,1.0,-74987.0,-34321.0,13307.0,-75143.0,33724.0,12867.0,-0.879679,-0.426029,0.211339,-0.436763,0.547918,-0.713459,0.188157,-0.71992,-0.668066,-0.893183,0.022014,0.449154,0.420524,-0.312977,0.85159,0.159321,0.949506,0.270288,-0.879679,-0.426029,0.211339,-0.436763,0.547918,-0.713459,0.188157,-0.71992,-0.668066,-0.893183,0.022014,0.449154,0.420524,-0.312977,0.85159,0.159321,0.949506,0.270288,-74987.0,-34321.0,13307.0,-75143.0,33724.0,12867.0,32620.0,5928.0,-114782.0,0.0,-37363.0,-36990.0,-38295.0,-37583.0,-11775.0,12600.0,58119.0,0.0,19447.0,20519.0,18243.0,21937.0,171.0,175.0,-43.0,0.0,990.0,468.0,654.0,-431.0,-161.0,-169.0,38.0,0.0,618.0,-15.0,782.0,-537.0,-0.046368,-0.047464,0.011644,0.0,0.036228,0.01715,-0.02394,-0.015797,-0.043777,-0.045761,0.01029,0.0,0.02265,-0.000582,-0.028648,-0.019684,4985.640137,11587.049805,51590.792969,0.0,-17571.419922,-17738.550781,18083.431641,-17432.101562,4915.800293,11520.720703,51594.929688,0.0,17890.650391,17726.761719,-17379.091797,18108.451172,0.0,0.0,0.0,0.0,0.0,0.0,0.0,0.0,0.0,0.0,0.0,0.0,0.0,0.0,0.0,0.0,0.0,0.0,0.0,0.0,0.0,0.0,0.0,0.0,0.0,0.0,0.0,0.0,0.0,0.0,0.0,0.0,4985.717773,11586.870117,51590.835938,0.0,-17571.599609,-17738.548828,18083.378906,-17432.166016,4915.829102,11520.663086,51594.429688,0.0,17890.837891,17726.761719,-17379.107422,18108.632812,36.606865,90.023399,22.887653,0.0,30.604254,-0.203748,38.654514,33.767353,36.093716,89.553223,22.897116,0.0,28.30298,-1.265229,40.560551,40.570271,1.264,1.415,-88016.0,-134673.0,-458449.0,0.0,157875.0,160105.0,-162632.0,156107.0,-66395.0,-115408.0,-515158.0,0.0,-179338.0,-176445.0,174858.0,-179268.0,0.0,0.0,0.0,0.0,0.0,0.0,0.0,0.0,0.0,0.0,0.0,0.0,0.0,0.0,0.0,0.0,0.0,0.0,0.0,0.0,0.0,0.0,0.0,0.0
28,1.7770130634307861,36.606293,90.024963,22.887625,0.0,30.637636,-0.203976,38.660389,33.774349,36.093502,89.553726,22.897345,0.0,28.26837,-1.265211,40.562401,40.550076,3.0,1.0,111.0,0.0,1.0,-74987.0,-34321.0,13307.0,-75143.0,33724.0,12867.0,-0.879679,-0.426029,0.211339,-0.436763,0.547918,-0.713459,0.188157,-0.71992,-0.668066,-0.893183,0.022014,0.449154,0.420524,-0.312977,0.85159,0.159321,0.949506,0.270288,-0.879679,-0.426029,0.211339,-0.436763,0.547918,-0.713459,0.188157,-0.71992,-0.668066,-0.893183,0.022014,0.449154,0.420524,-0.312977,0.85159,0.159321,0.949506,0.270288,-74987.0,-34321.0,13307.0,-75143.0,33724.0,12867.0,32620.0,5928.0,-114782.0,0.0,-37363.0,-36990.0,-38295.0,-37583.0,-11775.0,12600.0,58119.0,0.0,19447.0,20519.0,18243.0,21937.0,171.0,175.0,-43.0,0.0,989.0,468.0,654.0,-431.0,-161.0,-169.0,38.0,0.0,619.0,-15.0,782.0,-537.0,-0.046368,-0.047464,0.011644,0.0,0.036218,0.01715,-0.023942,-0.015801,-0.043777,-0.045761,0.01029,0.0,0.02266,-0.000582,-0.028649,-0.019674,4985.640137,11587.049805,51590.792969,0.0,-17571.419922,-17738.550781,18083.431641,-17432.101562,4915.800293,11520.720703,51594.929688,0.0,17890.650391,17726.761719,-17379.091797,18108.451172,0.0,0.0,0.0,0.0,0.0,0.0,0.0,0.0,0.0,0.0,0.0,0.0,0.0,0.0,0.0,0.0,0.0,0.0,0.0,0.0,0.0,0.0,0.0,0.0,0.0,0.0,0.0,0.0,0.0,0.0,0.0,0.0,4985.717773,11586.870117,51590.835938,0.0,-17571.599609,-17738.548828,18083.378906,-17432.166016,4915.829102,11520.663086,51594.429688,0.0,17890.837891,17726.761719,-17379.107422,18108.632812,36.606865,90.023399,22.887653,0.0,30.604254,-0.203748,38.654514,33.767353,36.093716,89.553223,22.897116,0.0,28.30298,-1.265229,40.560551,40.570271,1.264,1.415,-88016.0,-134673.0,-458449.0,0.0,157875.0,160105.0,-162632.0,156107.0,-66395.0,-115408.0,-515158.0,0.0,-179338.0,-176445.0,174858.0,-179268.0,0.0,0.0,0.0,0.0,0.0,0.0,0.0,0.0,0.0,0.0,0.0,0.0,0.0,0.0,0.0,0.0,0.0,0.0,0.0,0.0,0.0,0.0,0.0,0.0
29,1.8409459590911865,36.606293,90.024963,22.887625,0.0,30.637636,-0.203976,38.660389,33.774349,36.093502,89.553726,22.897345,0.0,28.26837,-1.265211,40.562401,40.550076,3.0,1.0,111.0,0.0,1.0,-74987.0,-34321.0,13307.0,-75143.0,33724.0,12867.0,-0.879679,-0.426029,0.211339,-0.436763,0.547918,-0.713459,0.188157,-0.71992,-0.668066,-0.893183,0.022014,0.449154,0.420524,-0.312977,0.85159,0.159321,0.949506,0.270288,-0.879679,-0.426029,0.211339,-0.436763,0.547918,-0.713459,0.188157,-0.71992,-0.668066,-0.893183,0.022014,0.449154,0.420524,-0.312977,0.85159,0.159321,0.949506,0.270288,-74987.0,-34321.0,13307.0,-75143.0,33724.0,12867.0,32620.0,5928.0,-114782.0,0.0,-37363.0,-36990.0,-38295.0,-37583.0,-11775.0,12600.0,58119.0,0.0,19447.0,20519.0,18243.0,21937.0,171.0,175.0,-43.0,0.0,989.0,468.0,654.0,-431.0,-161.0,-169.0,38.0,0.0,619.0,-15.0,782.0,-537.0,-0.046368,-0.047464,0.011644,0.0,0.036208,0.01715,-0.023945,-0.015805,-0.043777,-0.045761,0.01029,0.0,0.02267,-0.000582,-0.02865,-0.019664,4985.640137,11587.049805,51590.792969,0.0,-17571.419922,-17738.550781,18083.431641,-17432.101562,4915.800293,11520.720703,51594.929688,0.0,17890.650391,17726.761719,-17379.091797,18108.451172,0.0,0.0,0.0,0.0,0.0,0.0,0.0,0.0,0.0,0.0,0.0,0.0,0.0,0.0,0.0,0.0,0.0,0.0,0.0,0.0,0.0,0.0,0.0,0.0,0.0,0.0,0.0,0.0,0.0,0.0,0.0,0.0,4985.717773,11586.870117,51590.835938,0.0,-17571.599609,-17738.548828,18083.378906,-17432.166016,4915.829102,11520.663086,51594.429688,0.0,17890.837891,17726.761719,-17379.107422,18108.632812,36.606865,90.023399,22.887653,0.0,30.604254,-0.203748,38.654514,33.767353,36.093716,89.553223,22.897116,0.0,28.30298,-1.265229,40.560551,40.570271,1.264,1.415,-88016.0,-134673.0,-458449.0,0.0,157875.0,160105.0,-162632.0,156107.0,-66395.0,-115408.0,-515158.0,0.0,-179338.0,-176445.0,174858.0,-179268.0,0.0,0.0,0.0,0.0,0.0,0.0,0.0,0.0,0.0,0.0,0.0,0.0,0.0,0.0,0.0,0.0,0.0,0.0,0.0,0.0,0.0,0.0,0.0,0.0
30,1.905019998550415,36.606293,90.024963,22.887625,0.0,30.637636,-0.203976,38.660389,33.774349,36.093502,89.553726,22.897345,0.0,28.26837,-1.265211,40.562401,40.550076,3.0,1.0,111.0,0.0,1.0,-74987.0,-34321.0,13307.0,-75143.0,33724.0,12867.0,-0.879679,-0.426029,0.211339,-0.436763,0.547918,-0.713459,0.188157,-0.71992,-0.668066,-0.893183,0.022014,0.449154,0.420524,-0.312977,0.85159,0.159321,0.949506,0.270288,-0.879679,-0.426029,0.211339,-0.436763,0.547918,-0.713459,0.188157,-0.71992,-0.668066,-0.893183,0.022014,0.449154,0.420524,-0.312977,0.85159,0.159321,0.949506,0.270288,-74987.0,-34321.0,13307.0,-75143.0,33724.0,12867.0,32620.0,5928.0,-114782.0,0.0,-37363.0,-36990.0,-38295.0,-37583.0,-11775.0,12600.0,58119.0,0.0,19447.0,20519.0,18243.0,21937.0,171.0,175.0,-43.0,0.0,989.0,468.0,654.0,-432.0,-161.0,-169.0,38.0,0.0,619.0,-15.0,782.0,-537.0,-0.046368,-0.047464,0.011644,0.0,0.036198,0.01715,-0.023948,-0.015808,-0.043777,-0.045761,0.01029,0.0,0.022681,-0.000582,-0.028651,-0.019653,4985.640137,11587.049805,51590.792969,0.0,-17571.419922,-17738.550781,18083.431641,-17432.101562,4915.800293,11520.720703,51594.929688,0.0,17890.650391,17726.761719,-17379.091797,18108.451172,0.0,0.0,0.0,0.0,0.0,0.0,0.0,0.0,0.0,0.0,0.0,0.0,0.0,0.0,0.0,0.0,0.0,0.0,0.0,0.0,0.0,0.0,0.0,0.0,0.0,0.0,0.0,0.0,0.0,0.0,0.0,0.0,4985.717773,11586.870117,51590.835938,0.0,-17571.599609,-17738.548828,18083.378906,-17432.166016,4915.829102,11520.663086,51594.429688,0.0,17890.837891,17726.761719,-17379.107422,18108.632812,36.606865,90.023399,22.887653,0.0,30.604254,-0.203748,38.654514,33.767353,36.093716,89.553223,22.897116,0.0,28.30298,-1.265229,40.560551,40.570271,1.264,1.415,-88016.0,-134673.0,-458449.0,0.0,157875.0,160105.0,-162632.0,156107.0,-66395.0,-115408.0,-515158.0,0.0,-179338.0,-176445.0,174858.0,-179268.0,0.0,0.0,0.0,0.0,0.0,0.0,0.0,0.0,0.0,0.0,0.0,0.0,0.0,0.0,0.0,0.0,0.0,0.0,0.0,0.0,0.0,0.0,0.0,0.0
31,1.968013048171997,36.606293,90.024963,22.887625,0.0,30.637636,-0.203976,38.660389,33.774349,36.093502,89.553726,22.897345,0.0,28.26837,-1.265211,40.562401,40.550076,3.0,1.0,111.0,0.0,1.0,-74987.0,-34321.0,13307.0,-75143.0,33724.0,12867.0,-0.879679,-0.426029,0.211339,-0.436763,0.547918,-0.713459,0.188157,-0.71992,-0.668066,-0.893183,0.022014,0.449154,0.420524,-0.312977,0.85159,0.159321,0.949506,0.270288,-0.879679,-0.426029,0.211339,-0.436763,0.547918,-0.713459,0.188157,-0.71992,-0.668066,-0.893183,0.022014,0.449154,0.420524,-0.312977,0.85159,0.159321,0.949506,0.270288,-74987.0,-34321.0,13307.0,-75143.0,33724.0,12867.0,32620.0,5928.0,-114782.0,0.0,-37363.0,-36990.0,-38295.0,-37583.0,-11775.0,12600.0,58119.0,0.0,19447.0,20519.0,18243.0,21937.0,171.0,175.0,-43.0,0.0,988.0,468.0,654.0,-432.0,-161.0,-169.0,38.0,0.0,620.0,-15.0,783.0,-536.0,-0.046368,-0.047464,0.011644,0.0,0.036188,0.01715,-0.023951,-0.015812,-0.043777,-0.045761,0.01029,0.0,0.022691,-0.000582,-0.028652,-0.019644,4985.640137,11587.049805,51590.792969,0.0,-17571.419922,-17738.550781,18083.431641,-17432.101562,4915.800293,11520.720703,51594.929688,0.0,17890.650391,17726.761719,-17379.091797,18108.451172,0.0,0.0,0.0,0.0,0.0,0.0,0.0,0.0,0.0,0.0,0.0,0.0,0.0,0.0,0.0,0.0,0.0,0.0,0.0,0.0,0.0,0.0,0.0,0.0,0.0,0.0,0.0,0.0,0.0,0.0,0.0,0.0,4985.717773,11586.870117,51590.835938,0.0,-17571.599609,-17738.548828,18083.378906,-17432.166016,4915.829102,11520.663086,51594.429688,0.0,17890.837891,17726.761719,-17379.107422,18108.632812,36.606865,90.023399,22.887653,0.0,30.604254,-0.203748,38.654514,33.767353,36.093716,89.553223,22.897116,0.0,28.30298,-1.265229,40.560551,40.570271,1.264,1.415,-88016.0,-134673.0,-458449.0,0.0,157875.0,160105.0,-162632.0,156107.0,-66395.0,-115408.0,-515158.0,0.0,-179338.0,-176445.0,174858.0,-179268.0,0.0,0.0,0.0,0.0,0.0,0.0,0.0,0.0,0.0,0.0,0.0,0.0,0.0,0.0,0.0,0.0,0.0,0.0,0.0,0.0,0.0,0.0,0.0,0.0
32,2.0320119857788086,36.606293,90.024963,22.887625,0.0,30.637636,-0.203976,38.660389,33.774349,36.093502,89.553726,22.897345,0.0,28.26837,-1.265211,40.562401,40.550076,3.0,1.0,111.0,0.0,1.0,-74987.0,-34321.0,13307.0,-75143.0,33724.0,12867.0,-0.879679,-0.426029,0.211339,-0.436763,0.547918,-0.713459,0.188157,-0.71992,-0.668066,-0.893183,0.022014,0.449154,0.420524,-0.312977,0.85159,0.159321,0.949506,0.270288,-0.879679,-0.426029,0.211339,-0.436763,0.547918,-0.713459,0.188157,-0.71992,-0.668066,-0.893183,0.022014,0.449154,0.420524,-0.312977,0.85159,0.159321,0.949506,0.270288,-74987.0,-34321.0,13307.0,-75143.0,33724.0,12867.0,32620.0,5928.0,-114782.0,0.0,-37363.0,-36990.0,-38295.0,-37583.0,-11775.0,12600.0,58119.0,0.0,19447.0,20519.0,18243.0,21937.0,171.0,175.0,-43.0,0.0,988.0,468.0,654.0,-432.0,-161.0,-169.0,38.0,0.0,620.0,-15.0,783.0,-536.0,-0.046368,-0.047464,0.011644,0.0,0.036178,0.01715,-0.023954,-0.015815,-0.043777,-0.045761,0.01029,0.0,0.022702,-0.000582,-0.028653,-0.019633,4985.640137,11587.049805,51590.792969,0.0,-17571.419922,-17738.550781,18083.431641,-17432.101562,4915.800293,11520.720703,51594.929688,0.0,17890.650391,17726.761719,-17379.091797,18108.451172,0.0,0.0,0.0,0.0,0.0,0.0,0.0,0.0,0.0,0.0,0.0,0.0,0.0,0.0,0.0,0.0,0.0,0.0,0.0,0.0,0.0,0.0,0.0,0.0,0.0,0.0,0.0,0.0,0.0,0.0,0.0,0.0,4985.717773,11586.870117,51590.835938,0.0,-17571.599609,-17738.548828,18083.378906,-17432.166016,4915.829102,11520.663086,51594.429688,0.0,17890.837891,17726.761719,-17379.107422,18108.632812,36.606865,90.023399,22.887653,0.0,30.604254,-0.203748,38.654514,33.767353,36.093716,89.553223,22.897116,0.0,28.30298,-1.265229,40.560551,40.570271,1.264,1.415,-88016.0,-134673.0,-458449.0,0.0,157875.0,160105.0,-162632.0,156107.0,-66395.0,-115408.0,-515158.0,0.0,-179338.0,-176445.0,174858.0,-179268.0,0.0,0.0,0.0,0.0,0.0,0.0,0.0,0.0,0.0,0.0,0.0,0.0,0.0,0.0,0.0,0.0,0.0,0.0,0.0,0.0,0.0,0.0,0.0,0.0
33,2.0950119495391846,36.606293,90.024963,22.887625,0.0,30.637636,-0.203976,38.660389,33.774349,36.093502,89.553726,22.897345,0.0,28.26837,-1.265211,40.562401,40.550076,3.0,1.0,111.0,0.0,1.0,-74987.0,-34321.0,13307.0,-75143.0,33724.0,12867.0,-0.879679,-0.426029,0.211339,-0.436763,0.547918,-0.713459,0.188157,-0.71992,-0.668066,-0.893183,0.022014,0.449154,0.420524,-0.312977,0.85159,0.159321,0.949506,0.270288,-0.879679,-0.426029,0.211339,-0.436763,0.547918,-0.713459,0.188157,-0.71992,-0.668066,-0.893183,0.022014,0.449154,0.420524,-0.312977,0.85159,0.159321,0.949506,0.270288,-74987.0,-34321.0,13307.0,-75143.0,33724.0,12867.0,32620.0,5928.0,-114782.0,0.0,-37363.0,-36990.0,-38295.0,-37583.0,-11775.0,12600.0,58119.0,0.0,19447.0,20519.0,18243.0,21937.0,171.0,175.0,-43.0,0.0,988.0,468.0,654.0,-432.0,-161.0,-169.0,38.0,0.0,620.0,-15.0,783.0,-536.0,-0.046368,-0.047464,0.011644,0.0,0.036168,0.017151,-0.023957,-0.015819,-0.043777,-0.045761,0.01029,0.0,0.022712,-0.000582,-0.028654,-0.019623,4985.640137,11587.049805,51590.792969,0.0,-17571.419922,-17738.550781,18083.431641,-17432.101562,4915.800293,11520.720703,51594.929688,0.0,17890.650391,17726.761719,-17379.091797,18108.451172,0.0,0.0,0.0,0.0,0.0,0.0,0.0,0.0,0.0,0.0,0.0,0.0,0.0,0.0,0.0,0.0,0.0,0.0,0.0,0.0,0.0,0.0,0.0,0.0,0.0,0.0,0.0,0.0,0.0,0.0,0.0,0.0,4985.717773,11586.870117,51590.835938,0.0,-17571.599609,-17738.548828,18083.378906,-17432.166016,4915.829102,11520.663086,51594.429688,0.0,17890.837891,17726.761719,-17379.107422,18108.632812,36.606865,90.023399,22.887653,0.0,30.604254,-0.203748,38.654514,33.767353,36.093716,89.553223,22.897116,0.0,28.30298,-1.265229,40.560551,40.570271,1.264,1.415,-88016.0,-134673.0,-458449.0,0.0,157875.0,160105.0,-162632.0,156107.0,-66395.0,-115408.0,-515158.0,0.0,-179338.0,-176445.0,174858.0,-179268.0,0.0,0.0,0.0,0.0,0.0,0.0,0.0,0.0,0.0,0.0,0.0,0.0,0.0,0.0,0.0,0.0,0.0,0.0,0.0,0.0,0.0,0.0,0.0,0.0
34,2.159013032913208,36.606293,90.024963,22.887625,0.0,30.637636,-0.203976,38.660389,33.774349,36.093502,89.553726,22.897345,0.0,28.26837,-1.265211,40.562401,40.550076,3.0,1.0,111.0,0.0,1.0,-74987.0,-34321.0,13307.0,-75143.0,33724.0,12867.0,-0.879679,-0.426029,0.211339,-0.436763,0.547918,-0.713459,0.188157,-0.71992,-0.668066,-0.893183,0.022014,0.449154,0.420524,-0.312977,0.85159,0.159321,0.949506,0.270288,-0.879679,-0.426029,0.211339,-0.436763,0.547918,-0.713459,0.188157,-0.71992,-0.668066,-0.893183,0.022014,0.449154,0.420524,-0.312977,0.85159,0.159321,0.949506,0.270288,-74987.0,-34321.0,13307.0,-75143.0,33724.0,12867.0,32620.0,5928.0,-114782.0,0.0,-37363.0,-36990.0,-38295.0,-37583.0,-11775.0,12600.0,58119.0,0.0,19447.0,20519.0,18243.0,21937.0,171.0,175.0,-43.0,0.0,988.0,468.0,654.0,-432.0,-161.0,-169.0,38.0,0.0,620.0,-15.0,783.0,-536.0,-0.046368,-0.047464,0.011644,0.0,0.036158,0.017151,-0.02396,-0.015823,-0.043777,-0.045761,0.01029,0.0,0.022723,-0.000582,-0.028655,-0.019613,4985.640137,11587.049805,51590.792969,0.0,-17571.419922,-17738.550781,18083.431641,-17432.101562,4915.800293,11520.720703,51594.929688,0.0,17890.650391,17726.761719,-17379.091797,18108.451172,0.0,0.0,0.0,0.0,0.0,0.0,0.0,0.0,0.0,0.0,0.0,0.0,0.0,0.0,0.0,0.0,0.0,0.0,0.0,0.0,0.0,0.0,0.0,0.0,0.0,0.0,0.0,0.0,0.0,0.0,0.0,0.0,4985.717773,11586.870117,51590.835938,0.0,-17571.599609,-17738.548828,18083.378906,-17432.166016,4915.829102,11520.663086,51594.429688,0.0,17890.837891,17726.761719,-17379.107422,18108.632812,36.606865,90.023399,22.887653,0.0,30.604254,-0.203748,38.654514,33.767353,36.093716,89.553223,22.897116,0.0,28.30298,-1.265229,40.560551,40.570271,1.264,1.415,-88016.0,-134673.0,-458449.0,0.0,157875.0,160105.0,-162632.0,156107.0,-66395.0,-115408.0,-515158.0,0.0,-179338.0,-176445.0,174858.0,-179268.0,0.0,0.0,0.0,0.0,0.0,0.0,0.0,0.0,0.0,0.0,0.0,0.0,0.0,0.0,0.0,0.0,0.0,0.0,0.0,0.0,0.0,0.0,0.0,0.0
35,2.2209620475769043,36.606293,90.024963,22.887625,0.0,30.637636,-0.203976,38.660389,33.774349,36.093502,89.553726,22.897345,0.0,28.26837,-1.265211,40.562401,40.550076,3.0,1.0,111.0,0.0,1.0,-74987.0,-34321.0,13307.0,-75143.0,33724.0,12867.0,-0.879679,-0.426029,0.211339,-0.436763,0.547918,-0.713459,0.188157,-0.71992,-0.668066,-0.893183,0.022014,0.449154,0.420524,-0.312977,0.85159,0.159321,0.949506,0.270288,-0.879679,-0.426029,0.211339,-0.436763,0.547918,-0.713459,0.188157,-0.71992,-0.668066,-0.893183,0.022014,0.449154,0.420524,-0.312977,0.85159,0.159321,0.949506,0.270288,-74987.0,-34321.0,13307.0,-75143.0,33724.0,12867.0,32620.0,5928.0,-114782.0,0.0,-37363.0,-36990.0,-38295.0,-37583.0,-11775.0,12600.0,58119.0,0.0,19447.0,20519.0,18243.0,21937.0,171.0,175.0,-43.0,0.0,987.0,468.0,654.0,-432.0,-161.0,-169.0,38.0,0.0,621.0,-15.0,783.0,-535.0,-0.046368,-0.047464,0.011644,0.0,0.036148,0.017151,-0.023963,-0.015826,-0.043777,-0.045761,0.01029,0.0,0.022733,-0.000582,-0.028656,-0.019604,4985.640137,11587.049805,51590.792969,0.0,-17571.419922,-17738.550781,18083.431641,-17432.101562,4915.800293,11520.720703,51594.929688,0.0,17890.650391,17726.761719,-17379.091797,18108.451172,0.0,0.0,0.0,0.0,0.0,0.0,0.0,0.0,0.0,0.0,0.0,0.0,0.0,0.0,0.0,0.0,0.0,0.0,0.0,0.0,0.0,0.0,0.0,0.0,0.0,0.0,0.0,0.0,0.0,0.0,0.0,0.0,4985.717773,11586.870117,51590.835938,0.0,-17571.599609,-17738.548828,18083.378906,-17432.166016,4915.829102,11520.663086,51594.429688,0.0,17890.837891,17726.761719,-17379.107422,18108.632812,36.606865,90.023399,22.887653,0.0,30.604254,-0.203748,38.654514,33.767353,36.093716,89.553223,22.897116,0.0,28.30298,-1.265229,40.560551,40.570271,1.264,1.415,-88016.0,-134673.0,-458449.0,0.0,157875.0,160105.0,-162632.0,156107.0,-66395.0,-115408.0,-515158.0,0.0,-179338.0,-176445.0,174858.0,-179268.0,0.0,0.0,0.0,0.0,0.0,0.0,0.0,0.0,0.0,0.0,0.0,0.0,0.0,0.0,0.0,0.0,0.0,0.0,0.0,0.0,0.0,0.0,0.0,0.0
36,2.2849841117858887,36.606293,90.024963,22.887625,0.0,30.637636,-0.203976,38.660389,33.774349,36.093502,89.553726,22.897345,0.0,28.26837,-1.265211,40.562401,40.550076,3.0,1.0,111.0,0.0,1.0,-74987.0,-34321.0,13307.0,-75143.0,33724.0,12867.0,-0.879679,-0.426029,0.211339,-0.436763,0.547918,-0.713459,0.188157,-0.71992,-0.668066,-0.893183,0.022014,0.449154,0.420524,-0.312977,0.85159,0.159321,0.949506,0.270288,-0.879679,-0.426029,0.211339,-0.436763,0.547918,-0.713459,0.188157,-0.71992,-0.668066,-0.893183,0.022014,0.449154,0.420524,-0.312977,0.85159,0.159321,0.949506,0.270288,-74987.0,-34321.0,13307.0,-75143.0,33724.0,12867.0,32620.0,5928.0,-114782.0,0.0,-37363.0,-36990.0,-38295.0,-37583.0,-11775.0,12600.0,58119.0,0.0,19447.0,20519.0,18243.0,21937.0,171.0,175.0,-43.0,0.0,987.0,468.0,654.0,-432.0,-161.0,-169.0,38.0,0.0,621.0,-15.0,783.0,-535.0,-0.046368,-0.047464,0.011644,0.0,0.036138,0.017151,-0.023966,-0.01583,-0.043777,-0.045761,0.01029,0.0,0.022743,-0.000582,-0.028657,-0.019593,4985.640137,11587.049805,51590.792969,0.0,-17571.419922,-17738.550781,18083.431641,-17432.101562,4915.800293,11520.720703,51594.929688,0.0,17890.650391,17726.761719,-17379.091797,18108.451172,0.0,0.0,0.0,0.0,0.0,0.0,0.0,0.0,0.0,0.0,0.0,0.0,0.0,0.0,0.0,0.0,0.0,0.0,0.0,0.0,0.0,0.0,0.0,0.0,0.0,0.0,0.0,0.0,0.0,0.0,0.0,0.0,4985.717773,11586.870117,51590.835938,0.0,-17571.599609,-17738.548828,18083.378906,-17432.166016,4915.829102,11520.663086,51594.429688,0.0,17890.837891,17726.761719,-17379.107422,18108.632812,36.606865,90.023399,22.887653,0.0,30.604254,-0.203748,38.654514,33.767353,36.093716,89.553223,22.897116,0.0,28.30298,-1.265229,40.560551,40.570271,1.264,1.415,-88016.0,-134673.0,-458449.0,0.0,157875.0,160105.0,-162632.0,156107.0,-66395.0,-115408.0,-515158.0,0.0,-179338.0,-176445.0,174858.0,-179268.0,0.0,0.0,0.0,0.0,0.0,0.0,0.0,0.0,0.0,0.0,0.0,0.0,0.0,0.0,0.0,0.0,0.0,0.0,0.0,0.0,0.0,0.0,0.0,0.0
37,2.3490231037139893,36.606293,90.024963,22.887625,0.0,30.637636,-0.203976,38.660389,33.774349,36.093502,89.553726,22.897345,0.0,28.26837,-1.265211,40.562401,40.550076,3.0,1.0,111.0,0.0,1.0,-74987.0,-34321.0,13307.0,-75143.0,33724.0,12867.0,-0.879679,-0.426029,0.211339,-0.436763,0.547918,-0.713459,0.188157,-0.71992,-0.668066,-0.893183,0.022014,0.449154,0.420524,-0.312977,0.85159,0.159321,0.949506,0.270288,-0.879679,-0.426029,0.211339,-0.436763,0.547918,-0.713459,0.188157,-0.71992,-0.668066,-0.893183,0.022014,0.449154,0.420524,-0.312977,0.85159,0.159321,0.949506,0.270288,-74987.0,-34321.0,13307.0,-75143.0,33724.0,12867.0,32620.0,5928.0,-114782.0,0.0,-37363.0,-36990.0,-38295.0,-37583.0,-11775.0,12600.0,58119.0,0.0,19447.0,20519.0,18243.0,21937.0,171.0,175.0,-43.0,0.0,987.0,468.0,655.0,-432.0,-161.0,-169.0,38.0,0.0,621.0,-15.0,783.0,-535.0,-0.046368,-0.047464,0.011644,0.0,0.036128,0.017151,-0.023969,-0.015833,-0.043777,-0.045761,0.01029,0.0,0.022754,-0.000582,-0.028658,-0.019583,4985.640137,11587.049805,51590.792969,0.0,-17571.419922,-17738.550781,18083.431641,-17432.101562,4915.800293,11520.720703,51594.929688,0.0,17890.650391,17726.761719,-17379.091797,18108.451172,0.0,0.0,0.0,0.0,0.0,0.0,0.0,0.0,0.0,0.0,0.0,0.0,0.0,0.0,0.0,0.0,0.0,0.0,0.0,0.0,0.0,0.0,0.0,0.0,0.0,0.0,0.0,0.0,0.0,0.0,0.0,0.0,4985.717773,11586.870117,51590.835938,0.0,-17571.599609,-17738.548828,18083.378906,-17432.166016,4915.829102,11520.663086,51594.429688,0.0,17890.837891,17726.761719,-17379.107422,18108.632812,36.606865,90.023399,22.887653,0.0,30.604254,-0.203748,38.654514,33.767353,36.093716,89.553223,22.897116,0.0,28.30298,-1.265229,40.560551,40.570271,1.264,1.415,-88016.0,-134673.0,-458449.0,0.0,157875.0,160105.0,-162632.0,156107.0,-66395.0,-115408.0,-515158.0,0.0,-179338.0,-176445.0,174858.0,-179268.0,0.0,0.0,0.0,0.0,0.0,0.0,0.0,0.0,0.0,0.0,0.0,0.0,0.0,0.0,0.0,0.0,0.0,0.0,0.0,0.0,0.0,0.0,0.0,0.0
38,2.4110000133514404,36.606293,90.024963,22.887625,0.0,30.637636,-0.203976,38.660389,33.774349,36.093502,89.553726,22.897345,0.0,28.26837,-1.265211,40.562401,40.550076,3.0,1.0,111.0,0.0,1.0,-74987.0,-34321.0,13307.0,-75143.0,33724.0,12867.0,-0.879679,-0.426029,0.211339,-0.436763,0.547918,-0.713459,0.188157,-0.71992,-0.668066,-0.893183,0.022014,0.449154,0.420524,-0.312977,0.85159,0.159321,0.949506,0.270288,-0.879679,-0.426029,0.211339,-0.436763,0.547918,-0.713459,0.188157,-0.71992,-0.668066,-0.893183,0.022014,0.449154,0.420524,-0.312977,0.85159,0.159321,0.949506,0.270288,-74987.0,-34321.0,13307.0,-75143.0,33724.0,12867.0,32620.0,5928.0,-114782.0,0.0,-37363.0,-36990.0,-38295.0,-37583.0,-11775.0,12600.0,58119.0,0.0,19447.0,20519.0,18243.0,21937.0,171.0,175.0,-43.0,0.0,987.0,468.0,655.0,-432.0,-161.0,-169.0,38.0,0.0,622.0,-15.0,783.0,-534.0,-0.046368,-0.047464,0.011644,0.0,0.036118,0.017151,-0.023972,-0.015837,-0.043777,-0.045761,0.01029,0.0,0.022764,-0.000582,-0.028659,-0.019574,4985.640137,11587.049805,51590.792969,0.0,-17571.419922,-17738.550781,18083.431641,-17432.101562,4915.800293,11520.720703,51594.929688,0.0,17890.650391,17726.761719,-17379.091797,18108.451172,0.0,0.0,0.0,0.0,0.0,0.0,0.0,0.0,0.0,0.0,0.0,0.0,0.0,0.0,0.0,0.0,0.0,0.0,0.0,0.0,0.0,0.0,0.0,0.0,0.0,0.0,0.0,0.0,0.0,0.0,0.0,0.0,4985.717773,11586.870117,51590.835938,0.0,-17571.599609,-17738.548828,18083.378906,-17432.166016,4915.829102,11520.663086,51594.429688,0.0,17890.837891,17726.761719,-17379.107422,18108.632812,36.606865,90.023399,22.887653,0.0,30.604254,-0.203748,38.654514,33.767353,36.093716,89.553223,22.897116,0.0,28.30298,-1.265229,40.560551,40.570271,1.264,1.415,-88016.0,-134673.0,-458449.0,0.0,157875.0,160105.0,-162632.0,156107.0,-66395.0,-115408.0,-515158.0,0.0,-179338.0,-176445.0,174858.0,-179268.0,0.0,0.0,0.0,0.0,0.0,0.0,0.0,0.0,0.0,0.0,0.0,0.0,0.0,0.0,0.0,0.0,0.0,0.0,0.0,0.0,0.0,0.0,0.0,0.0
39,2.4760141372680664,36.606293,90.024963,22.887625,0.0,30.637636,-0.203976,38.660389,33.774349,36.093502,89.553726,22.897345,0.0,28.26837,-1.265211,40.562401,40.550076,3.0,1.0,111.0,0.0,1.0,-74987.0,-34321.0,13307.0,-75143.0,33724.0,12867.0,-0.879679,-0.426029,0.211339,-0.436763,0.547918,-0.713459,0.188157,-0.71992,-0.668066,-0.893183,0.022014,0.449154,0.420524,-0.312977,0.85159,0.159321,0.949506,0.270288,-0.879679,-0.426029,0.211339,-0.436763,0.547918,-0.713459,0.188157,-0.71992,-0.668066,-0.893183,0.022014,0.449154,0.420524,-0.312977,0.85159,0.159321,0.949506,0.270288,-74987.0,-34321.0,13307.0,-75143.0,33724.0,12867.0,32620.0,5928.0,-114782.0,0.0,-37363.0,-36990.0,-38295.0,-37583.0,-11775.0,12600.0,58119.0,0.0,19447.0,20519.0,18243.0,21937.0,171.0,175.0,-43.0,0.0,986.0,468.0,655.0,-432.0,-161.0,-169.0,38.0,0.0,622.0,-15.0,783.0,-534.0,-0.046368,-0.047464,0.011644,0.0,0.036108,0.017151,-0.023975,-0.015841,-0.043777,-0.045761,0.01029,0.0,0.022775,-0.000582,-0.02866,-0.019563,4985.640137,11587.049805,51590.792969,0.0,-17571.419922,-17738.550781,18083.431641,-17432.101562,4915.800293,11520.720703,51594.929688,0.0,17890.650391,17726.761719,-17379.091797,18108.451172,0.0,0.0,0.0,0.0,0.0,0.0,0.0,0.0,0.0,0.0,0.0,0.0,0.0,0.0,0.0,0.0,0.0,0.0,0.0,0.0,0.0,0.0,0.0,0.0,0.0,0.0,0.0,0.0,0.0,0.0,0.0,0.0,4985.717773,11586.870117,51590.835938,0.0,-17571.599609,-17738.548828,18083.378906,-17432.166016,4915.829102,11520.663086,51594.429688,0.0,17890.837891,17726.761719,-17379.107422,18108.632812,36.606865,90.023399,22.887653,0.0,30.604254,-0.203748,38.654514,33.767353,36.093716,89.553223,22.897116,0.0,28.30298,-1.265229,40.560551,40.570271,1.264,1.415,-88016.0,-134673.0,-458449.0,0.0,157875.0,160105.0,-162632.0,156107.0,-66395.0,-115408.0,-515158.0,0.0,-179338.0,-176445.0,174858.0,-179268.0,0.0,0.0,0.0,0.0,0.0,0.0,0.0,0.0,0.0,0.0,0.0,0.0,0.0,0.0,0.0,0.0,0.0,0.0,0.0,0.0,0.0,0.0,0.0,0.0
40,2.539975166320801,36.606293,90.024963,22.887625,0.0,30.637636,-0.203976,38.660389,33.774349,36.093502,89.553726,22.897345,0.0,28.26837,-1.265211,40.562401,40.550076,3.0,1.0,111.0,0.0,1.0,-74987.0,-34321.0,13307.0,-75143.0,33724.0,12867.0,-0.879679,-0.426029,0.211339,-0.436763,0.547918,-0.713459,0.188157,-0.71992,-0.668066,-0.893183,0.022014,0.449154,0.420524,-0.312977,0.85159,0.159321,0.949506,0.270288,-0.879679,-0.426029,0.211339,-0.436763,0.547918,-0.713459,0.188157,-0.71992,-0.668066,-0.893183,0.022014,0.449154,0.420524,-0.312977,0.85159,0.159321,0.949506,0.270288,-74987.0,-34321.0,13307.0,-75143.0,33724.0,12867.0,32620.0,5928.0,-114782.0,0.0,-37363.0,-36990.0,-38295.0,-37583.0,-11775.0,12600.0,58119.0,0.0,19447.0,20519.0,18243.0,21937.0,171.0,175.0,-43.0,0.0,986.0,468.0,655.0,-432.0,-161.0,-169.0,38.0,0.0,622.0,-15.0,783.0,-534.0,-0.046368,-0.047464,0.011644,0.0,0.036098,0.017151,-0.023978,-0.015844,-0.043777,-0.045761,0.01029,0.0,0.022785,-0.000582,-0.028661,-0.019553,4985.640137,11587.049805,51590.792969,0.0,-17571.419922,-17738.550781,18083.431641,-17432.101562,4915.800293,11520.720703,51594.929688,0.0,17890.650391,17726.761719,-17379.091797,18108.451172,0.0,0.0,0.0,0.0,0.0,0.0,0.0,0.0,0.0,0.0,0.0,0.0,0.0,0.0,0.0,0.0,0.0,0.0,0.0,0.0,0.0,0.0,0.0,0.0,0.0,0.0,0.0,0.0,0.0,0.0,0.0,0.0,4985.717773,11586.870117,51590.835938,0.0,-17571.599609,-17738.548828,18083.378906,-17432.166016,4915.829102,11520.663086,51594.429688,0.0,17890.837891,17726.761719,-17379.107422,18108.632812,36.606865,90.023399,22.887653,0.0,30.604254,-0.203748,38.654514,33.767353,36.093716,89.553223,22.897116,0.0,28.30298,-1.265229,40.560551,40.570271,1.264,1.415,-88016.0,-134673.0,-458449.0,0.0,157875.0,160105.0,-162632.0,156107.0,-66395.0,-115408.0,-515158.0,0.0,-179338.0,-176445.0,174858.0,-179268.0,0.0,0.0,0.0,0.0,0.0,0.0,0.0,0.0,0.0,0.0,0.0,0.0,0.0,0.0,0.0,0.0,0.0,0.0,0.0,0.0,0.0,0.0,0.0,0.0
41,2.6019351482391357,36.606293,90.024963,22.887625,0.0,30.637636,-0.203976,38.660389,33.774349,36.093502,89.553726,22.897345,0.0,28.26837,-1.265211,40.562401,40.550076,3.0,1.0,111.0,0.0,1.0,-74987.0,-34321.0,13307.0,-75143.0,33724.0,12867.0,-0.879679,-0.426029,0.211339,-0.436763,0.547918,-0.713459,0.188157,-0.71992,-0.668066,-0.893183,0.022014,0.449154,0.420524,-0.312977,0.85159,0.159321,0.949506,0.270288,-0.879679,-0.426029,0.211339,-0.436763,0.547918,-0.713459,0.188157,-0.71992,-0.668066,-0.893183,0.022014,0.449154,0.420524,-0.312977,0.85159,0.159321,0.949506,0.270288,-74987.0,-34321.0,13307.0,-75143.0,33724.0,12867.0,32620.0,5928.0,-114782.0,0.0,-37363.0,-36990.0,-38295.0,-37583.0,-11775.0,12600.0,58119.0,0.0,19447.0,20519.0,18243.0,21937.0,171.0,175.0,-43.0,0.0,986.0,468.0,655.0,-433.0,-161.0,-169.0,38.0,0.0,622.0,-15.0,783.0,-534.0,-0.046368,-0.047464,0.011644,0.0,0.036088,0.017151,-0.023981,-0.015848,-0.043777,-0.045761,0.01029,0.0,0.022795,-0.000582,-0.028661,-0.019543,4985.640137,11587.049805,51590.792969,0.0,-17571.419922,-17738.550781,18083.431641,-17432.101562,4915.800293,11520.720703,51594.929688,0.0,17890.650391,17726.761719,-17379.091797,18108.451172,0.0,0.0,0.0,0.0,0.0,0.0,0.0,0.0,0.0,0.0,0.0,0.0,0.0,0.0,0.0,0.0,0.0,0.0,0.0,0.0,0.0,0.0,0.0,0.0,0.0,0.0,0.0,0.0,0.0,0.0,0.0,0.0,4985.717773,11586.870117,51590.835938,0.0,-17571.599609,-17738.548828,18083.378906,-17432.166016,4915.829102,11520.663086,51594.429688,0.0,17890.837891,17726.761719,-17379.107422,18108.632812,36.606865,90.023399,22.887653,0.0,30.604254,-0.203748,38.654514,33.767353,36.093716,89.553223,22.897116,0.0,28.30298,-1.265229,40.560551,40.570271,1.264,1.415,-88016.0,-134673.0,-458449.0,0.0,157875.0,160105.0,-162632.0,156107.0,-66395.0,-115408.0,-515158.0,0.0,-179338.0,-176445.0,174858.0,-179268.0,0.0,0.0,0.0,0.0,0.0,0.0,0.0,0.0,0.0,0.0,0.0,0.0,0.0,0.0,0.0,0.0,0.0,0.0,0.0,0.0,0.0,0.0,0.0,0.0
42,2.665969133377075,36.606293,90.024963,22.887625,0.0,30.637636,-0.203976,38.660389,33.774349,36.093502,89.553726,22.897345,0.0,28.26837,-1.265211,40.562401,40.550076,3.0,1.0,111.0,0.0,1.0,-74987.0,-34321.0,13307.0,-75143.0,33724.0,12867.0,-0.879679,-0.426029,0.211339,-0.436763,0.547918,-0.713459,0.188157,-0.71992,-0.668066,-0.893183,0.022014,0.449154,0.420524,-0.312977,0.85159,0.159321,0.949506,0.270288,-0.879679,-0.426029,0.211339,-0.436763,0.547918,-0.713459,0.188157,-0.71992,-0.668066,-0.893183,0.022014,0.449154,0.420524,-0.312977,0.85159,0.159321,0.949506,0.270288,-74987.0,-34321.0,13307.0,-75143.0,33724.0,12867.0,32620.0,5928.0,-114782.0,0.0,-37363.0,-36990.0,-38295.0,-37583.0,-11775.0,12600.0,58119.0,0.0,19447.0,20519.0,18243.0,21937.0,171.0,175.0,-43.0,0.0,985.0,468.0,655.0,-433.0,-161.0,-169.0,38.0,0.0,623.0,-15.0,783.0,-533.0,-0.046368,-0.047464,0.011644,0.0,0.036078,0.017151,-0.023984,-0.015851,-0.043777,-0.045761,0.01029,0.0,0.022806,-0.000582,-0.028662,-0.019533,4985.640137,11587.049805,51590.792969,0.0,-17571.419922,-17738.550781,18083.431641,-17432.101562,4915.800293,11520.720703,51594.929688,0.0,17890.650391,17726.761719,-17379.091797,18108.451172,0.0,0.0,0.0,0.0,0.0,0.0,0.0,0.0,0.0,0.0,0.0,0.0,0.0,0.0,0.0,0.0,0.0,0.0,0.0,0.0,0.0,0.0,0.0,0.0,0.0,0.0,0.0,0.0,0.0,0.0,0.0,0.0,4985.717773,11586.870117,51590.835938,0.0,-17571.599609,-17738.548828,18083.378906,-17432.166016,4915.829102,11520.663086,51594.429688,0.0,17890.837891,17726.761719,-17379.107422,18108.632812,36.606865,90.023399,22.887653,0.0,30.604254,-0.203748,38.654514,33.767353,36.093716,89.553223,22.897116,0.0,28.30298,-1.265229,40.560551,40.570271,1.264,1.415,-88016.0,-134673.0,-458449.0,0.0,157875.0,160105.0,-162632.0,156107.0,-66395.0,-115408.0,-515158.0,0.0,-179338.0,-176445.0,174858.0,-179268.0,0.0,0.0,0.0,0.0,0.0,0.0,0.0,0.0,0.0,0.0,0.0,0.0,0.0,0.0,0.0,0.0,0.0,0.0,0.0,0.0,0.0,0.0,0.0,0.0
43,2.7299771308898926,36.606293,90.024963,22.887625,0.0,30.637636,-0.203976,38.660389,33.774349,36.093502,89.553726,22.897345,0.0,28.26837,-1.265211,40.562401,40.550076,3.0,1.0,111.0,0.0,1.0,-74987.0,-34321.0,13307.0,-75143.0,33724.0,12867.0,-0.879679,-0.426029,0.211339,-0.436763,0.547918,-0.713459,0.188157,-0.71992,-0.668066,-0.893183,0.022014,0.449154,0.420524,-0.312977,0.85159,0.159321,0.949506,0.270288,-0.879679,-0.426029,0.211339,-0.436763,0.547918,-0.713459,0.188157,-0.71992,-0.668066,-0.893183,0.022014,0.449154,0.420524,-0.312977,0.85159,0.159321,0.949506,0.270288,-74987.0,-34321.0,13307.0,-75143.0,33724.0,12867.0,32620.0,5928.0,-114782.0,0.0,-37363.0,-36990.0,-38295.0,-37583.0,-11775.0,12600.0,58119.0,0.0,19447.0,20519.0,18243.0,21937.0,171.0,175.0,-43.0,0.0,985.0,468.0,655.0,-433.0,-161.0,-169.0,38.0,0.0,623.0,-15.0,783.0,-533.0,-0.046368,-0.047464,0.011644,0.0,0.036068,0.017151,-0.023987,-0.015855,-0.043777,-0.045761,0.01029,0.0,0.022816,-0.000582,-0.028663,-0.019523,4985.640137,11587.049805,51590.792969,0.0,-17571.419922,-17738.550781,18083.431641,-17432.101562,4915.800293,11520.720703,51594.929688,0.0,17890.650391,17726.761719,-17379.091797,18108.451172,0.0,0.0,0.0,0.0,0.0,0.0,0.0,0.0,0.0,0.0,0.0,0.0,0.0,0.0,0.0,0.0,0.0,0.0,0.0,0.0,0.0,0.0,0.0,0.0,0.0,0.0,0.0,0.0,0.0,0.0,0.0,0.0,4985.717773,11586.870117,51590.835938,0.0,-17571.599609,-17738.548828,18083.378906,-17432.166016,4915.829102,11520.663086,51594.429688,0.0,17890.837891,17726.761719,-17379.107422,18108.632812,36.606865,90.023399,22.887653,0.0,30.604254,-0.203748,38.654514,33.767353,36.093716,89.553223,22.897116,0.0,28.30298,-1.265229,40.560551,40.570271,1.264,1.415,-88016.0,-134673.0,-458449.0,0.0,157875.0,160105.0,-162632.0,156107.0,-66395.0,-115408.0,-515158.0,0.0,-179338.0,-176445.0,174858.0,-179268.0,0.0,0.0,0.0,0.0,0.0,0.0,0.0,0.0,0.0,0.0,0.0,0.0,0.0,0.0,0.0,0.0,0.0,0.0,0.0,0.0,0.0,0.0,0.0,0.0
44,2.793025016784668,36.606293,90.024963,22.887625,0.0,30.637636,-0.203976,38.660389,33.774349,36.093502,89.553726,22.897345,0.0,28.26837,-1.265211,40.562401,40.550076,3.0,1.0,111.0,0.0,1.0,-74987.0,-34321.0,13307.0,-75143.0,33724.0,12867.0,-0.879679,-0.426029,0.211339,-0.436763,0.547918,-0.713459,0.188157,-0.71992,-0.668066,-0.893183,0.022014,0.449154,0.420524,-0.312977,0.85159,0.159321,0.949506,0.270288,-0.879679,-0.426029,0.211339,-0.436763,0.547918,-0.713459,0.188157,-0.71992,-0.668066,-0.893183,0.022014,0.449154,0.420524,-0.312977,0.85159,0.159321,0.949506,0.270288,-74987.0,-34321.0,13307.0,-75143.0,33724.0,12867.0,32620.0,5928.0,-114782.0,0.0,-37363.0,-36990.0,-38295.0,-37583.0,-11775.0,12600.0,58119.0,0.0,19447.0,20519.0,18243.0,21937.0,171.0,175.0,-43.0,0.0,985.0,468.0,655.0,-433.0,-161.0,-169.0,38.0,0.0,623.0,-15.0,783.0,-533.0,-0.046368,-0.047464,0.011644,0.0,0.036058,0.017152,-0.023989,-0.015859,-0.043777,-0.045761,0.01029,0.0,0.022827,-0.000582,-0.028664,-0.019513,4985.640137,11587.049805,51590.792969,0.0,-17571.419922,-17738.550781,18083.431641,-17432.101562,4915.800293,11520.720703,51594.929688,0.0,17890.650391,17726.761719,-17379.091797,18108.451172,0.0,0.0,0.0,0.0,0.0,0.0,0.0,0.0,0.0,0.0,0.0,0.0,0.0,0.0,0.0,0.0,0.0,0.0,0.0,0.0,0.0,0.0,0.0,0.0,0.0,0.0,0.0,0.0,0.0,0.0,0.0,0.0,4985.717773,11586.870117,51590.835938,0.0,-17571.599609,-17738.548828,18083.378906,-17432.166016,4915.829102,11520.663086,51594.429688,0.0,17890.837891,17726.761719,-17379.107422,18108.632812,36.606865,90.023399,22.887653,0.0,30.604254,-0.203748,38.654514,33.767353,36.093716,89.553223,22.897116,0.0,28.30298,-1.265229,40.560551,40.570271,1.264,1.415,-88016.0,-134673.0,-458449.0,0.0,157875.0,160105.0,-162632.0,156107.0,-66395.0,-115408.0,-515158.0,0.0,-179338.0,-176445.0,174858.0,-179268.0,0.0,0.0,0.0,0.0,0.0,0.0,0.0,0.0,0.0,0.0,0.0,0.0,0.0,0.0,0.0,0.0,0.0,0.0,0.0,0.0,0.0,0.0,0.0,0.0
45,2.8560070991516113,36.606293,90.024963,22.887625,0.0,30.637636,-0.203976,38.660389,33.774349,36.093502,89.553726,22.897345,0.0,28.26837,-1.265211,40.562401,40.550076,3.0,1.0,111.0,0.0,1.0,-74987.0,-34321.0,13307.0,-75143.0,33724.0,12867.0,-0.879679,-0.426029,0.211339,-0.436763,0.547918,-0.713459,0.188157,-0.71992,-0.668066,-0.893183,0.022014,0.449154,0.420524,-0.312977,0.85159,0.159321,0.949506,0.270288,-0.879679,-0.426029,0.211339,-0.436763,0.547918,-0.713459,0.188157,-0.71992,-0.668066,-0.893183,0.022014,0.449154,0.420524,-0.312977,0.85159,0.159321,0.949506,0.270288,-74987.0,-34321.0,13307.0,-75143.0,33724.0,12867.0,32620.0,5928.0,-114782.0,0.0,-37363.0,-36990.0,-38295.0,-37583.0,-11775.0,12600.0,58119.0,0.0,19447.0,20519.0,18243.0,21937.0,171.0,175.0,-43.0,0.0,985.0,468.0,655.0,-433.0,-161.0,-169.0,38.0,0.0,624.0,-15.0,783.0,-532.0,-0.046368,-0.047464,0.011644,0.0,0.036048,0.017152,-0.023992,-0.015862,-0.043777,-0.045761,0.01029,0.0,0.022837,-0.000582,-0.028665,-0.019503,4985.640137,11587.049805,51590.792969,0.0,-17571.419922,-17738.550781,18083.431641,-17432.101562,4915.800293,11520.720703,51594.929688,0.0,17890.650391,17726.761719,-17379.091797,18108.451172,0.0,0.0,0.0,0.0,0.0,0.0,0.0,0.0,0.0,0.0,0.0,0.0,0.0,0.0,0.0,0.0,0.0,0.0,0.0,0.0,0.0,0.0,0.0,0.0,0.0,0.0,0.0,0.0,0.0,0.0,0.0,0.0,4985.717773,11586.870117,51590.835938,0.0,-17571.599609,-17738.548828,18083.378906,-17432.166016,4915.829102,11520.663086,51594.429688,0.0,17890.837891,17726.761719,-17379.107422,18108.632812,36.606865,90.023399,22.887653,0.0,30.604254,-0.203748,38.654514,33.767353,36.093716,89.553223,22.897116,0.0,28.30298,-1.265229,40.560551,40.570271,1.264,1.415,-88016.0,-134673.0,-458449.0,0.0,157875.0,160105.0,-162632.0,156107.0,-66395.0,-115408.0,-515158.0,0.0,-179338.0,-176445.0,174858.0,-179268.0,0.0,0.0,0.0,0.0,0.0,0.0,0.0,0.0,0.0,0.0,0.0,0.0,0.0,0.0,0.0,0.0,0.0,0.0,0.0,0.0,0.0,0.0,0.0,0.0
46,2.9180049896240234,36.606293,90.024963,22.887625,0.0,30.637636,-0.203976,38.660389,33.774349,36.093502,89.553726,22.897345,0.0,28.26837,-1.265211,40.562401,40.550076,3.0,1.0,111.0,0.0,1.0,-74987.0,-34321.0,13307.0,-75143.0,33724.0,12867.0,-0.879679,-0.426029,0.211339,-0.436763,0.547918,-0.713459,0.188157,-0.71992,-0.668066,-0.893183,0.022014,0.449154,0.420524,-0.312977,0.85159,0.159321,0.949506,0.270288,-0.879679,-0.426029,0.211339,-0.436763,0.547918,-0.713459,0.188157,-0.71992,-0.668066,-0.893183,0.022014,0.449154,0.420524,-0.312977,0.85159,0.159321,0.949506,0.270288,-74987.0,-34321.0,13307.0,-75143.0,33724.0,12867.0,32620.0,5928.0,-114782.0,0.0,-37363.0,-36990.0,-38295.0,-37583.0,-11775.0,12600.0,58119.0,0.0,19447.0,20519.0,18243.0,21937.0,171.0,175.0,-43.0,0.0,984.0,468.0,655.0,-433.0,-161.0,-169.0,38.0,0.0,624.0,-15.0,783.0,-532.0,-0.046368,-0.047464,0.011644,0.0,0.036038,0.017152,-0.023995,-0.015866,-0.043777,-0.045761,0.01029,0.0,0.022847,-0.000582,-0.028666,-0.019493,4985.640137,11587.049805,51590.792969,0.0,-17571.419922,-17738.550781,18083.431641,-17432.101562,4915.800293,11520.720703,51594.929688,0.0,17890.650391,17726.761719,-17379.091797,18108.451172,0.0,0.0,0.0,0.0,0.0,0.0,0.0,0.0,0.0,0.0,0.0,0.0,0.0,0.0,0.0,0.0,0.0,0.0,0.0,0.0,0.0,0.0,0.0,0.0,0.0,0.0,0.0,0.0,0.0,0.0,0.0,0.0,4985.717773,11586.870117,51590.835938,0.0,-17571.599609,-17738.548828,18083.378906,-17432.166016,4915.829102,11520.663086,51594.429688,0.0,17890.837891,17726.761719,-17379.107422,18108.632812,36.606865,90.023399,22.887653,0.0,30.604254,-0.203748,38.654514,33.767353,36.093716,89.553223,22.897116,0.0,28.30298,-1.265229,40.560551,40.570271,1.264,1.415,-88016.0,-134673.0,-458449.0,0.0,157875.0,160105.0,-162632.0,156107.0,-66395.0,-115408.0,-515158.0,0.0,-179338.0,-176445.0,174858.0,-179268.0,0.0,0.0,0.0,0.0,0.0,0.0,0.0,0.0,0.0,0.0,0.0,0.0,0.0,0.0,0.0,0.0,0.0,0.0,0.0,0.0,0.0,0.0,0.0,0.0
47,2.981973171234131,36.606293,90.024963,22.887625,0.0,30.637636,-0.203976,38.660389,33.774349,36.093502,89.553726,22.897345,0.0,28.26837,-1.265211,40.562401,40.550076,3.0,1.0,111.0,0.0,1.0,-74987.0,-34321.0,13307.0,-75143.0,33724.0,12867.0,-0.879679,-0.426029,0.211339,-0.436763,0.547918,-0.713459,0.188157,-0.71992,-0.668066,-0.893183,0.022014,0.449154,0.420524,-0.312977,0.85159,0.159321,0.949506,0.270288,-0.879679,-0.426029,0.211339,-0.436763,0.547918,-0.713459,0.188157,-0.71992,-0.668066,-0.893183,0.022014,0.449154,0.420524,-0.312977,0.85159,0.159321,0.949506,0.270288,-74987.0,-34321.0,13307.0,-75143.0,33724.0,12867.0,32620.0,5928.0,-114782.0,0.0,-37363.0,-36990.0,-38295.0,-37583.0,-11775.0,12600.0,58119.0,0.0,19447.0,20519.0,18243.0,21937.0,171.0,175.0,-43.0,0.0,984.0,468.0,655.0,-433.0,-161.0,-169.0,38.0,0.0,624.0,-15.0,783.0,-532.0,-0.046368,-0.047464,0.011644,0.0,0.036028,0.017152,-0.023998,-0.015869,-0.043777,-0.045761,0.01029,0.0,0.022858,-0.000582,-0.028667,-0.019483,4985.640137,11587.049805,51590.792969,0.0,-17571.419922,-17738.550781,18083.431641,-17432.101562,4915.800293,11520.720703,51594.929688,0.0,17890.650391,17726.761719,-17379.091797,18108.451172,0.0,0.0,0.0,0.0,0.0,0.0,0.0,0.0,0.0,0.0,0.0,0.0,0.0,0.0,0.0,0.0,0.0,0.0,0.0,0.0,0.0,0.0,0.0,0.0,0.0,0.0,0.0,0.0,0.0,0.0,0.0,0.0,4985.717773,11586.870117,51590.835938,0.0,-17571.599609,-17738.548828,18083.378906,-17432.166016,4915.829102,11520.663086,51594.429688,0.0,17890.837891,17726.761719,-17379.107422,18108.632812,36.606865,90.023399,22.887653,0.0,30.604254,-0.203748,38.654514,33.767353,36.093716,89.553223,22.897116,0.0,28.30298,-1.265229,40.560551,40.570271,1.264,1.415,-88016.0,-134673.0,-458449.0,0.0,157875.0,160105.0,-162632.0,156107.0,-66395.0,-115408.0,-515158.0,0.0,-179338.0,-176445.0,174858.0,-179268.0,0.0,0.0,0.0,0.0,0.0,0.0,0.0,0.0,0.0,0.0,0.0,0.0,0.0,0.0,0.0,0.0,0.0,0.0,0.0,0.0,0.0,0.0,0.0,0.0
48,3.045997142791748,36.606293,90.024963,22.887625,0.0,30.637636,-0.203976,38.660389,33.774349,36.093502,89.553726,22.897345,0.0,28.26837,-1.265211,40.562401,40.550076,3.0,1.0,111.0,0.0,1.0,-74987.0,-34321.0,13307.0,-75143.0,33724.0,12867.0,-0.879679,-0.426029,0.211339,-0.436763,0.547918,-0.713459,0.188157,-0.71992,-0.668066,-0.893183,0.022014,0.449154,0.420524,-0.312977,0.85159,0.159321,0.949506,0.270288,-0.879679,-0.426029,0.211339,-0.436763,0.547918,-0.713459,0.188157,-0.71992,-0.668066,-0.893183,0.022014,0.449154,0.420524,-0.312977,0.85159,0.159321,0.949506,0.270288,-74987.0,-34321.0,13307.0,-75143.0,33724.0,12867.0,32620.0,5928.0,-114782.0,0.0,-37363.0,-36990.0,-38295.0,-37583.0,-11775.0,12600.0,58119.0,0.0,19447.0,20519.0,18243.0,21937.0,171.0,175.0,-43.0,0.0,984.0,468.0,655.0,-433.0,-161.0,-169.0,38.0,0.0,624.0,-15.0,783.0,-532.0,-0.046368,-0.047464,0.011644,0.0,0.036018,0.017152,-0.024001,-0.015873,-0.043777,-0.045761,0.01029,0.0,0.022868,-0.000582,-0.028668,-0.019473,4985.640137,11587.049805,51590.792969,0.0,-17571.419922,-17738.550781,18083.431641,-17432.101562,4915.800293,11520.720703,51594.929688,0.0,17890.650391,17726.761719,-17379.091797,18108.451172,0.0,0.0,0.0,0.0,0.0,0.0,0.0,0.0,0.0,0.0,0.0,0.0,0.0,0.0,0.0,0.0,0.0,0.0,0.0,0.0,0.0,0.0,0.0,0.0,0.0,0.0,0.0,0.0,0.0,0.0,0.0,0.0,4985.717773,11586.870117,51590.835938,0.0,-17571.599609,-17738.548828,18083.378906,-17432.166016,4915.829102,11520.663086,51594.429688,0.0,17890.837891,17726.761719,-17379.107422,18108.632812,36.606865,90.023399,22.887653,0.0,30.604254,-0.203748,38.654514,33.767353,36.093716,89.553223,22.897116,0.0,28.30298,-1.265229,40.560551,40.570271,1.264,1.415,-88016.0,-134673.0,-458449.0,0.0,157875.0,160105.0,-162632.0,156107.0,-66395.0,-115408.0,-515158.0,0.0,-179338.0,-176445.0,174858.0,-179268.0,0.0,0.0,0.0,0.0,0.0,0.0,0.0,0.0,0.0,0.0,0.0,0.0,0.0,0.0,0.0,0.0,0.0,0.0,0.0,0.0,0.0,0.0,0.0,0.0
49,3.1099741458892822,36.606293,90.024963,22.887625,0.0,30.637636,-0.203976,38.660389,33.774349,36.093502,89.553726,22.897345,0.0,28.26837,-1.265211,40.562401,40.550076,3.0,1.0,111.0,0.0,1.0,-74987.0,-34321.0,13307.0,-75143.0,33724.0,12867.0,-0.879679,-0.426029,0.211339,-0.436763,0.547918,-0.713459,0.188157,-0.71992,-0.668066,-0.893183,0.022014,0.449154,0.420524,-0.312977,0.85159,0.159321,0.949506,0.270288,-0.879679,-0.426029,0.211339,-0.436763,0.547918,-0.713459,0.188157,-0.71992,-0.668066,-0.893183,0.022014,0.449154,0.420524,-0.312977,0.85159,0.159321,0.949506,0.270288,-74987.0,-34321.0,13307.0,-75143.0,33724.0,12867.0,32620.0,5928.0,-114782.0,0.0,-37363.0,-36990.0,-38295.0,-37583.0,-11775.0,12600.0,58119.0,0.0,19447.0,20519.0,18243.0,21937.0,171.0,175.0,-43.0,0.0,984.0,468.0,655.0,-433.0,-161.0,-169.0,38.0,0.0,625.0,-15.0,783.0,-531.0,-0.046368,-0.047464,0.011644,0.0,0.036008,0.017152,-0.024004,-0.015876,-0.043777,-0.045761,0.01029,0.0,0.022878,-0.000582,-0.028669,-0.019463,4985.640137,11587.049805,51590.792969,0.0,-17571.419922,-17738.550781,18083.431641,-17432.101562,4915.800293,11520.720703,51594.929688,0.0,17890.650391,17726.761719,-17379.091797,18108.451172,0.0,0.0,0.0,0.0,0.0,0.0,0.0,0.0,0.0,0.0,0.0,0.0,0.0,0.0,0.0,0.0,0.0,0.0,0.0,0.0,0.0,0.0,0.0,0.0,0.0,0.0,0.0,0.0,0.0,0.0,0.0,0.0,4985.717773,11586.870117,51590.835938,0.0,-17571.599609,-17738.548828,18083.378906,-17432.166016,4915.829102,11520.663086,51594.429688,0.0,17890.837891,17726.761719,-17379.107422,18108.632812,36.606865,90.023399,22.887653,0.0,30.604254,-0.203748,38.654514,33.767353,36.093716,89.553223,22.897116,0.0,28.30298,-1.265229,40.560551,40.570271,1.264,1.415,-88016.0,-134673.0,-458449.0,0.0,157875.0,160105.0,-162632.0,156107.0,-66395.0,-115408.0,-515158.0,0.0,-179338.0,-176445.0,174858.0,-179268.0,0.0,0.0,0.0,0.0,0.0,0.0,0.0,0.0,0.0,0.0,0.0,0.0,0.0,0.0,0.0,0.0,0.0,0.0,0.0,0.0,0.0,0.0,0.0,0.0
50,3.174006938934326,36.606293,90.024963,22.887625,0.0,30.637636,-0.203976,38.660389,33.774349,36.093502,89.553726,22.897345,0.0,28.26837,-1.265211,40.562401,40.550076,3.0,1.0,111.0,0.0,1.0,-74987.0,-34321.0,13307.0,-75143.0,33724.0,12867.0,-0.879679,-0.426029,0.211339,-0.436763,0.547918,-0.713459,0.188157,-0.71992,-0.668066,-0.893183,0.022014,0.449154,0.420524,-0.312977,0.85159,0.159321,0.949506,0.270288,-0.879679,-0.426029,0.211339,-0.436763,0.547918,-0.713459,0.188157,-0.71992,-0.668066,-0.893183,0.022014,0.449154,0.420524,-0.312977,0.85159,0.159321,0.949506,0.270288,-74987.0,-34321.0,13307.0,-75143.0,33724.0,12867.0,32620.0,5928.0,-114782.0,0.0,-37363.0,-36990.0,-38295.0,-37583.0,-11775.0,12600.0,58119.0,0.0,19447.0,20519.0,18243.0,21937.0,171.0,175.0,-43.0,0.0,983.0,468.0,656.0,-433.0,-161.0,-169.0,38.0,0.0,625.0,-15.0,783.0,-531.0,-0.046368,-0.047464,0.011644,0.0,0.035998,0.017152,-0.024007,-0.01588,-0.043777,-0.045761,0.01029,0.0,0.022889,-0.000582,-0.02867,-0.019453,4985.640137,11587.049805,51590.792969,0.0,-17571.419922,-17738.550781,18083.431641,-17432.101562,4915.800293,11520.720703,51594.929688,0.0,17890.650391,17726.761719,-17379.091797,18108.451172,0.0,0.0,0.0,0.0,0.0,0.0,0.0,0.0,0.0,0.0,0.0,0.0,0.0,0.0,0.0,0.0,0.0,0.0,0.0,0.0,0.0,0.0,0.0,0.0,0.0,0.0,0.0,0.0,0.0,0.0,0.0,0.0,4985.717773,11586.870117,51590.835938,0.0,-17571.599609,-17738.548828,18083.378906,-17432.166016,4915.829102,11520.663086,51594.429688,0.0,17890.837891,17726.761719,-17379.107422,18108.632812,36.606865,90.023399,22.887653,0.0,30.604254,-0.203748,38.654514,33.767353,36.093716,89.553223,22.897116,0.0,28.30298,-1.265229,40.560551,40.570271,1.264,1.415,-88016.0,-134673.0,-458449.0,0.0,157875.0,160105.0,-162632.0,156107.0,-66395.0,-115408.0,-515158.0,0.0,-179338.0,-176445.0,174858.0,-179268.0,0.0,0.0,0.0,0.0,0.0,0.0,0.0,0.0,0.0,0.0,0.0,0.0,0.0,0.0,0.0,0.0,0.0,0.0,0.0,0.0,0.0,0.0,0.0,0.0
