MHC-RobotSimulators-Research/Data_Analysis_MotionReplication/2023-10-28 17_54_29/test_mai_trial1.csv
,time,jpos0,jpos1,jpos2,jpos3,jpos4,jpos5,jpos6,jpos7,jpos8,jpos9,jpos10,jpos11,jpos12,jpos13,jpos14,jpos15,runlevel,sublevel,last_seq,type0,type1,pos0,pos1,pos2,pos3,pos4,pos5,ori0,ori1,ori2,ori3,ori4,ori5,ori6,ori7,ori8,ori9,ori10,ori11,ori12,ori13,ori14,ori15,ori16,ori17,ori_d0,ori_d1,ori_d2,ori_d3,ori_d4,ori_d5,ori_d6,ori_d7,ori_d8,ori_d9,ori_d10,ori_d11,ori_d12,ori_d13,ori_d14,ori_d15,ori_d16,ori_d17,pos_d0,pos_d1,pos_d2,pos_d3,pos_d4,pos_d5,encVals0,encVals1,encVals2,encVals3,encVals4,encVals5,encVals6,encVals7,encVals8,encVals9,encVals10,encVals11,encVals12,encVals13,encVals14,encVals15,dac_vals0,dac_vals1,dac_vals2,dac_vals3,dac_vals4,dac_vals5,dac_vals6,dac_vals7,dac_vals8,dac_vals9,dac_vals10,dac_vals11,dac_vals12,dac_vals13,dac_vals14,dac_vals15,Tau0,Tau1,Tau2,Tau3,Tau4,Tau5,Tau6,Tau7,Tau8,Tau9,Tau10,Tau11,Tau12,Tau13,Tau14,Tau15,mpos0,mpos1,mpos2,mpos3,mpos4,mpos5,mpos6,mpos7,mpos8,mpos9,mpos10,mpos11,mpos12,mpos13,mpos14,mpos15,mvel0,mvel1,mvel2,mvel3,mvel4,mvel5,mvel6,mvel7,mvel8,mvel9,mvel10,mvel11,mvel12,mvel13,mvel14,mvel15,jvel0,jvel1,jvel2,jvel3,jvel4,jvel5,jvel6,jvel7,jvel8,jvel9,jvel10,jvel11,jvel12,jvel13,jvel14,jvel15,mpos_d0,mpos_d1,mpos_d2,mpos_d3,mpos_d4,mpos_d5,mpos_d6,mpos_d7,mpos_d8,mpos_d9,mpos_d10,mpos_d11,mpos_d12,mpos_d13,mpos_d14,mpos_d15,jpos_d0,jpos_d1,jpos_d2,jpos_d3,jpos_d4,jpos_d5,jpos_d6,jpos_d7,jpos_d8,jpos_d9,jpos_d10,jpos_d11,jpos_d12,jpos_d13,jpos_d14,jpos_d15,grasp_d0,grasp_d1,encoffsets0,encoffsets1,encoffsets2,encoffsets3,encoffsets4,encoffsets5,encoffsets6,encoffsets7,encoffsets8,encoffsets9,encoffsets10,encoffsets11,encoffsets12,encoffsets13,encoffsets14,encoffsets15,jac_vel0,jac_vel1,jac_vel2,jac_vel3,jac_vel4,jac_vel5,jac_vel6,jac_vel7,jac_vel8,jac_vel9,jac_vel10,jac_vel11,jac_f0,jac_f1,jac_f2,jac_f3,jac_f4,jac_f5,jac_f6,jac_f7,jac_f8,jac_f9,jac_f10,jac_f11
0,220.4820749759674,34.107765,87.080818,20.784069,0.0,14.471938,-6.03997,47.74437,21.497425,40.198463,85.278809,22.729549,0.0,29.609547,0.780503,37.563831,43.828854,3.0,1.0,111.0,0.0,1.0,-110587.0,-44977.0,13851.0,-76409.0,39234.0,8298.0,-0.80463,-0.466945,0.366788,-0.530046,0.286431,-0.798128,0.267623,-0.836612,-0.477973,-0.891328,0.013942,0.453145,0.429334,-0.295107,0.853571,0.145627,0.955362,0.257052,-0.804507,-0.467157,0.366788,-0.530122,0.286291,-0.798128,0.267843,-0.836542,-0.477973,-0.891175,0.013544,0.453457,0.429761,-0.294936,0.853415,0.1453,0.955421,0.257019,-110587.0,-44977.0,13851.0,-76406.0,39238.0,8300.0,36401.0,10394.0,-63292.0,0.0,-20630.0,-19871.0,-21209.0,-20816.0,-5563.0,7634.0,54034.0,0.0,18123.0,19319.0,17036.0,20758.0,109.0,142.0,-44.0,0.0,515.0,-15.0,150.0,416.0,-231.0,-150.0,43.0,0.0,621.0,674.0,574.0,221.0,-0.029571,-0.038488,0.012145,0.0,0.018851,-0.000573,-0.005492,0.01523,-0.062679,-0.040621,0.01172,0.0,0.022741,0.024664,-0.021015,0.008108,4645.350098,11185.110352,46956.691406,0.0,-16065.451172,-16197.84082,16545.689453,-15923.070312,5474.880371,11073.780273,51227.28125,0.0,17771.490234,17618.759766,-17270.460938,18002.339844,0.0,0.0,0.0,0.0,0.0,0.0,0.0,0.0,0.0,0.0,0.0,0.0,0.0,0.0,0.0,0.0,0.0,0.0,0.0,0.0,0.0,0.0,0.0,0.0,0.0,0.0,0.0,0.0,0.0,0.0,0.0,0.0,4645.347168,11185.108398,46956.800781,0.0,-16065.451172,-16197.84082,16545.955078,-15923.075195,5474.877441,11073.780273,51227.417969,0.0,17771.490234,17618.580078,-17270.214844,18002.314453,34.107746,87.080811,20.784121,0.0,14.471919,-6.039988,47.773857,21.496742,40.198441,85.278809,22.729612,0.0,29.609543,0.760454,37.601139,43.816162,1.209,1.421,-88016.0,-134673.0,-458449.0,0.0,157875.0,160105.0,-162632.0,156107.0,-66395.0,-115408.0,-515158.0,0.0,-179338.0,-176445.0,174858.0,-179268.0,0.0,0.0,0.0,0.0,0.0,0.0,0.0,0.0,0.0,0.0,0.0,0.0,0.0,0.0,0.0,0.0,0.0,0.0,0.0,0.0,0.0,0.0,0.0,0.0
1,220.5629460811615,34.107765,87.080818,20.784069,0.0,14.471938,-6.03997,47.74437,21.497425,40.198463,85.278809,22.729549,0.0,29.609547,0.780503,37.563831,43.828854,3.0,1.0,111.0,0.0,1.0,-110587.0,-44977.0,13851.0,-76409.0,39234.0,8298.0,-0.80463,-0.466945,0.366788,-0.530046,0.286431,-0.798128,0.267623,-0.836612,-0.477973,-0.891328,0.013942,0.453145,0.429334,-0.295107,0.853571,0.145627,0.955362,0.257052,-0.80463,-0.466945,0.366788,-0.530046,0.286431,-0.798128,0.267623,-0.836612,-0.477973,-0.891328,0.013942,0.453145,0.429334,-0.295107,0.853571,0.145627,0.955362,0.257052,-110587.0,-44977.0,13851.0,-76409.0,39234.0,8298.0,36401.0,10394.0,-63292.0,0.0,-20630.0,-19871.0,-21209.0,-20816.0,-5563.0,7634.0,54034.0,0.0,18123.0,19319.0,17036.0,20758.0,109.0,142.0,-44.0,0.0,515.0,-15.0,149.0,416.0,-231.0,-150.0,43.0,0.0,621.0,673.0,573.0,221.0,-0.029571,-0.038488,0.012145,0.0,0.018851,-0.000573,-0.005473,0.01523,-0.062679,-0.040621,0.01172,0.0,0.022741,0.024651,-0.020997,0.008106,4645.350098,11185.110352,46956.691406,0.0,-16065.451172,-16197.84082,16545.689453,-15923.070312,5474.880371,11073.780273,51227.28125,0.0,17771.490234,17618.759766,-17270.460938,18002.339844,0.0,0.0,0.0,0.0,0.0,0.0,0.0,0.0,0.0,0.0,0.0,0.0,0.0,0.0,0.0,0.0,0.0,0.0,0.0,0.0,0.0,0.0,0.0,0.0,0.0,0.0,0.0,0.0,0.0,0.0,0.0,0.0,4645.347168,11185.108398,46956.800781,0.0,-16065.451172,-16197.84082,16545.955078,-15923.075195,5474.877441,11073.780273,51227.417969,0.0,17771.490234,17618.580078,-17270.214844,18002.314453,34.107746,87.080811,20.784121,0.0,14.471919,-6.039988,47.773857,21.496742,40.198441,85.278809,22.729612,0.0,29.609543,0.760454,37.601139,43.816162,1.208,1.42,-88016.0,-134673.0,-458449.0,0.0,157875.0,160105.0,-162632.0,156107.0,-66395.0,-115408.0,-515158.0,0.0,-179338.0,-176445.0,174858.0,-179268.0,0.0,0.0,0.0,0.0,0.0,0.0,0.0,0.0,0.0,0.0,0.0,0.0,0.0,0.0,0.0,0.0,0.0,0.0,0.0,0.0,0.0,0.0,0.0,0.0
2,220.62694907188416,34.107765,87.080818,20.784069,0.0,14.471938,-6.03997,47.74437,21.497425,40.198463,85.278809,22.729549,0.0,29.609547,0.780503,37.563831,43.828854,3.0,1.0,111.0,0.0,1.0,-110587.0,-44977.0,13851.0,-76409.0,39234.0,8298.0,-0.80463,-0.466945,0.366788,-0.530046,0.286431,-0.798128,0.267623,-0.836612,-0.477973,-0.891328,0.013942,0.453145,0.429334,-0.295107,0.853571,0.145627,0.955362,0.257052,-0.80463,-0.466945,0.366788,-0.530046,0.286431,-0.798128,0.267623,-0.836612,-0.477973,-0.891328,0.013942,0.453145,0.429334,-0.295107,0.853571,0.145627,0.955362,0.257052,-110587.0,-44977.0,13851.0,-76409.0,39234.0,8298.0,36401.0,10394.0,-63292.0,0.0,-20630.0,-19871.0,-21209.0,-20816.0,-5563.0,7634.0,54034.0,0.0,18123.0,19319.0,17036.0,20758.0,109.0,142.0,-44.0,0.0,515.0,-15.0,149.0,416.0,-231.0,-150.0,43.0,0.0,621.0,673.0,573.0,221.0,-0.029571,-0.038488,0.012145,0.0,0.018851,-0.000573,-0.005458,0.01523,-0.062679,-0.040621,0.01172,0.0,0.022741,0.024641,-0.020984,0.008105,4645.350098,11185.110352,46956.691406,0.0,-16065.451172,-16197.84082,16545.689453,-15923.070312,5474.880371,11073.780273,51227.28125,0.0,17771.490234,17618.759766,-17270.460938,18002.339844,0.0,0.0,0.0,0.0,0.0,0.0,0.0,0.0,0.0,0.0,0.0,0.0,0.0,0.0,0.0,0.0,0.0,0.0,0.0,0.0,0.0,0.0,0.0,0.0,0.0,0.0,0.0,0.0,0.0,0.0,0.0,0.0,4645.347168,11185.108398,46956.800781,0.0,-16065.451172,-16197.84082,16545.955078,-15923.075195,5474.877441,11073.780273,51227.417969,0.0,17771.490234,17618.580078,-17270.214844,18002.314453,34.107746,87.080811,20.784121,0.0,14.471919,-6.039988,47.773857,21.496742,40.198441,85.278809,22.729612,0.0,29.609543,0.760454,37.601139,43.816162,1.208,1.42,-88016.0,-134673.0,-458449.0,0.0,157875.0,160105.0,-162632.0,156107.0,-66395.0,-115408.0,-515158.0,0.0,-179338.0,-176445.0,174858.0,-179268.0,0.0,0.0,0.0,0.0,0.0,0.0,0.0,0.0,0.0,0.0,0.0,0.0,0.0,0.0,0.0,0.0,0.0,0.0,0.0,0.0,0.0,0.0,0.0,0.0
3,220.6909511089325,34.107765,87.080818,20.784069,0.0,14.471938,-6.03997,47.74437,21.497425,40.198463,85.278809,22.729549,0.0,29.609547,0.780503,37.563831,43.828854,3.0,1.0,111.0,0.0,1.0,-110587.0,-44977.0,13851.0,-76409.0,39234.0,8298.0,-0.80463,-0.466945,0.366788,-0.530046,0.286431,-0.798128,0.267623,-0.836612,-0.477973,-0.891328,0.013942,0.453145,0.429334,-0.295107,0.853571,0.145627,0.955362,0.257052,-0.80463,-0.466945,0.366788,-0.530046,0.286431,-0.798128,0.267623,-0.836612,-0.477973,-0.891328,0.013942,0.453145,0.429334,-0.295107,0.853571,0.145627,0.955362,0.257052,-110587.0,-44977.0,13851.0,-76409.0,39234.0,8298.0,36401.0,10394.0,-63292.0,0.0,-20630.0,-19871.0,-21209.0,-20816.0,-5563.0,7634.0,54034.0,0.0,18123.0,19319.0,17036.0,20758.0,109.0,142.0,-44.0,0.0,515.0,-15.0,148.0,416.0,-231.0,-150.0,43.0,0.0,621.0,673.0,573.0,221.0,-0.029571,-0.038488,0.012145,0.0,0.018851,-0.000573,-0.005443,0.015229,-0.062679,-0.040621,0.01172,0.0,0.022741,0.024631,-0.02097,0.008103,4645.350098,11185.110352,46956.691406,0.0,-16065.451172,-16197.84082,16545.689453,-15923.070312,5474.880371,11073.780273,51227.28125,0.0,17771.490234,17618.759766,-17270.460938,18002.339844,0.0,0.0,0.0,0.0,0.0,0.0,0.0,0.0,0.0,0.0,0.0,0.0,0.0,0.0,0.0,0.0,0.0,0.0,0.0,0.0,0.0,0.0,0.0,0.0,0.0,0.0,0.0,0.0,0.0,0.0,0.0,0.0,4645.347168,11185.108398,46956.800781,0.0,-16065.451172,-16197.84082,16545.955078,-15923.075195,5474.877441,11073.780273,51227.417969,0.0,17771.490234,17618.580078,-17270.214844,18002.314453,34.107746,87.080811,20.784121,0.0,14.471919,-6.039988,47.773857,21.496742,40.198441,85.278809,22.729612,0.0,29.609543,0.760454,37.601139,43.816162,1.208,1.42,-88016.0,-134673.0,-458449.0,0.0,157875.0,160105.0,-162632.0,156107.0,-66395.0,-115408.0,-515158.0,0.0,-179338.0,-176445.0,174858.0,-179268.0,0.0,0.0,0.0,0.0,0.0,0.0,0.0,0.0,0.0,0.0,0.0,0.0,0.0,0.0,0.0,0.0,0.0,0.0,0.0,0.0,0.0,0.0,0.0,0.0
4,220.7549431324005,34.107765,87.080818,20.784069,0.0,14.471938,-6.03997,47.74437,21.497425,40.198463,85.278809,22.729549,0.0,29.609547,0.780503,37.563831,43.828854,3.0,1.0,111.0,0.0,1.0,-110587.0,-44977.0,13851.0,-76409.0,39234.0,8298.0,-0.80463,-0.466945,0.366788,-0.530046,0.286431,-0.798128,0.267623,-0.836612,-0.477973,-0.891328,0.013942,0.453145,0.429334,-0.295107,0.853571,0.145627,0.955362,0.257052,-0.80463,-0.466945,0.366788,-0.530046,0.286431,-0.798128,0.267623,-0.836612,-0.477973,-0.891328,0.013942,0.453145,0.429334,-0.295107,0.853571,0.145627,0.955362,0.257052,-110587.0,-44977.0,13851.0,-76409.0,39234.0,8298.0,36401.0,10394.0,-63292.0,0.0,-20630.0,-19871.0,-21209.0,-20816.0,-5563.0,7634.0,54034.0,0.0,18123.0,19319.0,17036.0,20758.0,109.0,142.0,-44.0,0.0,515.0,-15.0,148.0,416.0,-231.0,-150.0,43.0,0.0,621.0,672.0,572.0,221.0,-0.029571,-0.038488,0.012145,0.0,0.018851,-0.000573,-0.005428,0.015229,-0.062679,-0.040621,0.01172,0.0,0.022741,0.024621,-0.020956,0.008102,4645.350098,11185.110352,46956.691406,0.0,-16065.451172,-16197.84082,16545.689453,-15923.070312,5474.880371,11073.780273,51227.28125,0.0,17771.490234,17618.759766,-17270.460938,18002.339844,0.0,0.0,0.0,0.0,0.0,0.0,0.0,0.0,0.0,0.0,0.0,0.0,0.0,0.0,0.0,0.0,0.0,0.0,0.0,0.0,0.0,0.0,0.0,0.0,0.0,0.0,0.0,0.0,0.0,0.0,0.0,0.0,4645.347168,11185.108398,46956.800781,0.0,-16065.451172,-16197.84082,16545.955078,-15923.075195,5474.877441,11073.780273,51227.417969,0.0,17771.490234,17618.580078,-17270.214844,18002.314453,34.107746,87.080811,20.784121,0.0,14.471919,-6.039988,47.773857,21.496742,40.198441,85.278809,22.729612,0.0,29.609543,0.760454,37.601139,43.816162,1.208,1.42,-88016.0,-134673.0,-458449.0,0.0,157875.0,160105.0,-162632.0,156107.0,-66395.0,-115408.0,-515158.0,0.0,-179338.0,-176445.0,174858.0,-179268.0,0.0,0.0,0.0,0.0,0.0,0.0,0.0,0.0,0.0,0.0,0.0,0.0,0.0,0.0,0.0,0.0,0.0,0.0,0.0,0.0,0.0,0.0,0.0,0.0
5,220.81794905662537,34.107765,87.080818,20.784069,0.0,14.471938,-6.03997,47.74437,21.497425,40.198463,85.278809,22.729549,0.0,29.609547,0.780503,37.563831,43.828854,3.0,1.0,111.0,0.0,1.0,-110587.0,-44977.0,13851.0,-76409.0,39234.0,8298.0,-0.80463,-0.466945,0.366788,-0.530046,0.286431,-0.798128,0.267623,-0.836612,-0.477973,-0.891328,0.013942,0.453145,0.429334,-0.295107,0.853571,0.145627,0.955362,0.257052,-0.80463,-0.466945,0.366788,-0.530046,0.286431,-0.798128,0.267623,-0.836612,-0.477973,-0.891328,0.013942,0.453145,0.429334,-0.295107,0.853571,0.145627,0.955362,0.257052,-110587.0,-44977.0,13851.0,-76409.0,39234.0,8298.0,36401.0,10394.0,-63292.0,0.0,-20630.0,-19871.0,-21209.0,-20816.0,-5563.0,7634.0,54034.0,0.0,18123.0,19319.0,17036.0,20758.0,109.0,142.0,-44.0,0.0,515.0,-15.0,147.0,416.0,-231.0,-150.0,43.0,0.0,621.0,672.0,572.0,221.0,-0.029571,-0.038488,0.012145,0.0,0.018851,-0.000573,-0.005414,0.015229,-0.062679,-0.040621,0.01172,0.0,0.022741,0.024611,-0.020943,0.0081,4645.350098,11185.110352,46956.691406,0.0,-16065.451172,-16197.84082,16545.689453,-15923.070312,5474.880371,11073.780273,51227.28125,0.0,17771.490234,17618.759766,-17270.460938,18002.339844,0.0,0.0,0.0,0.0,0.0,0.0,0.0,0.0,0.0,0.0,0.0,0.0,0.0,0.0,0.0,0.0,0.0,0.0,0.0,0.0,0.0,0.0,0.0,0.0,0.0,0.0,0.0,0.0,0.0,0.0,0.0,0.0,4645.347168,11185.108398,46956.800781,0.0,-16065.451172,-16197.84082,16545.955078,-15923.075195,5474.877441,11073.780273,51227.417969,0.0,17771.490234,17618.580078,-17270.214844,18002.314453,34.107746,87.080811,20.784121,0.0,14.471919,-6.039988,47.773857,21.496742,40.198441,85.278809,22.729612,0.0,29.609543,0.760454,37.601139,43.816162,1.208,1.42,-88016.0,-134673.0,-458449.0,0.0,157875.0,160105.0,-162632.0,156107.0,-66395.0,-115408.0,-515158.0,0.0,-179338.0,-176445.0,174858.0,-179268.0,0.0,0.0,0.0,0.0,0.0,0.0,0.0,0.0,0.0,0.0,0.0,0.0,0.0,0.0,0.0,0.0,0.0,0.0,0.0,0.0,0.0,0.0,0.0,0.0
6,220.8809621334076,34.107765,87.080818,20.784069,0.0,14.471938,-6.03997,47.74437,21.497425,40.198463,85.278809,22.729549,0.0,29.609547,0.780503,37.563831,43.828854,3.0,1.0,111.0,0.0,1.0,-110587.0,-44977.0,13851.0,-76409.0,39234.0,8298.0,-0.80463,-0.466945,0.366788,-0.530046,0.286431,-0.798128,0.267623,-0.836612,-0.477973,-0.891328,0.013942,0.453145,0.429334,-0.295107,0.853571,0.145627,0.955362,0.257052,-0.80463,-0.466945,0.366788,-0.530046,0.286431,-0.798128,0.267623,-0.836612,-0.477973,-0.891328,0.013942,0.453145,0.429334,-0.295107,0.853571,0.145627,0.955362,0.257052,-110587.0,-44977.0,13851.0,-76409.0,39234.0,8298.0,36401.0,10394.0,-63292.0,0.0,-20630.0,-19871.0,-21209.0,-20816.0,-5563.0,7634.0,54034.0,0.0,18123.0,19319.0,17036.0,20758.0,109.0,142.0,-44.0,0.0,515.0,-15.0,147.0,416.0,-231.0,-150.0,43.0,0.0,621.0,672.0,571.0,221.0,-0.029571,-0.038488,0.012145,0.0,0.018851,-0.000573,-0.005399,0.015229,-0.062679,-0.040621,0.01172,0.0,0.022741,0.024601,-0.02093,0.008099,4645.350098,11185.110352,46956.691406,0.0,-16065.451172,-16197.84082,16545.689453,-15923.070312,5474.880371,11073.780273,51227.28125,0.0,17771.490234,17618.759766,-17270.460938,18002.339844,0.0,0.0,0.0,0.0,0.0,0.0,0.0,0.0,0.0,0.0,0.0,0.0,0.0,0.0,0.0,0.0,0.0,0.0,0.0,0.0,0.0,0.0,0.0,0.0,0.0,0.0,0.0,0.0,0.0,0.0,0.0,0.0,4645.347168,11185.108398,46956.800781,0.0,-16065.451172,-16197.84082,16545.955078,-15923.075195,5474.877441,11073.780273,51227.417969,0.0,17771.490234,17618.580078,-17270.214844,18002.314453,34.107746,87.080811,20.784121,0.0,14.471919,-6.039988,47.773857,21.496742,40.198441,85.278809,22.729612,0.0,29.609543,0.760454,37.601139,43.816162,1.208,1.42,-88016.0,-134673.0,-458449.0,0.0,157875.0,160105.0,-162632.0,156107.0,-66395.0,-115408.0,-515158.0,0.0,-179338.0,-176445.0,174858.0,-179268.0,0.0,0.0,0.0,0.0,0.0,0.0,0.0,0.0,0.0,0.0,0.0,0.0,0.0,0.0,0.0,0.0,0.0,0.0,0.0,0.0,0.0,0.0,0.0,0.0
7,220.94400215148926,34.107765,87.080818,20.784069,0.0,14.471938,-6.03997,47.74437,21.497425,40.198463,85.278809,22.729549,0.0,29.609547,0.780503,37.563831,43.828854,3.0,1.0,111.0,0.0,1.0,-110587.0,-44977.0,13851.0,-76409.0,39234.0,8298.0,-0.80463,-0.466945,0.366788,-0.530046,0.286431,-0.798128,0.267623,-0.836612,-0.477973,-0.891328,0.013942,0.453145,0.429334,-0.295107,0.853571,0.145627,0.955362,0.257052,-0.80463,-0.466945,0.366788,-0.530046,0.286431,-0.798128,0.267623,-0.836612,-0.477973,-0.891328,0.013942,0.453145,0.429334,-0.295107,0.853571,0.145627,0.955362,0.257052,-110587.0,-44977.0,13851.0,-76409.0,39234.0,8298.0,36401.0,10394.0,-63292.0,0.0,-20630.0,-19871.0,-21209.0,-20816.0,-5563.0,7634.0,54034.0,0.0,18123.0,19319.0,17036.0,20758.0,109.0,142.0,-44.0,0.0,515.0,-15.0,147.0,416.0,-231.0,-150.0,43.0,0.0,621.0,672.0,571.0,221.0,-0.029571,-0.038488,0.012145,0.0,0.018851,-0.000573,-0.005385,0.015228,-0.062679,-0.040621,0.01172,0.0,0.022741,0.024591,-0.020916,0.008098,4645.350098,11185.110352,46956.691406,0.0,-16065.451172,-16197.84082,16545.689453,-15923.070312,5474.880371,11073.780273,51227.28125,0.0,17771.490234,17618.759766,-17270.460938,18002.339844,0.0,0.0,0.0,0.0,0.0,0.0,0.0,0.0,0.0,0.0,0.0,0.0,0.0,0.0,0.0,0.0,0.0,0.0,0.0,0.0,0.0,0.0,0.0,0.0,0.0,0.0,0.0,0.0,0.0,0.0,0.0,0.0,4645.347168,11185.108398,46956.800781,0.0,-16065.451172,-16197.84082,16545.955078,-15923.075195,5474.877441,11073.780273,51227.417969,0.0,17771.490234,17618.580078,-17270.214844,18002.314453,34.107746,87.080811,20.784121,0.0,14.471919,-6.039988,47.773857,21.496742,40.198441,85.278809,22.729612,0.0,29.609543,0.760454,37.601139,43.816162,1.208,1.42,-88016.0,-134673.0,-458449.0,0.0,157875.0,160105.0,-162632.0,156107.0,-66395.0,-115408.0,-515158.0,0.0,-179338.0,-176445.0,174858.0,-179268.0,0.0,0.0,0.0,0.0,0.0,0.0,0.0,0.0,0.0,0.0,0.0,0.0,0.0,0.0,0.0,0.0,0.0,0.0,0.0,0.0,0.0,0.0,0.0,0.0
8,221.00698113441467,34.107765,87.080818,20.784069,0.0,14.471938,-6.03997,47.74437,21.497425,40.198463,85.278809,22.729549,0.0,29.609547,0.780503,37.563831,43.828854,3.0,1.0,111.0,0.0,1.0,-110587.0,-44977.0,13851.0,-76409.0,39234.0,8298.0,-0.80463,-0.466945,0.366788,-0.530046,0.286431,-0.798128,0.267623,-0.836612,-0.477973,-0.891328,0.013942,0.453145,0.429334,-0.295107,0.853571,0.145627,0.955362,0.257052,-0.80463,-0.466945,0.366788,-0.530046,0.286431,-0.798128,0.267623,-0.836612,-0.477973,-0.891328,0.013942,0.453145,0.429334,-0.295107,0.853571,0.145627,0.955362,0.257052,-110587.0,-44977.0,13851.0,-76409.0,39234.0,8298.0,36401.0,10394.0,-63292.0,0.0,-20630.0,-19871.0,-21209.0,-20816.0,-5563.0,7634.0,54034.0,0.0,18123.0,19319.0,17036.0,20758.0,109.0,142.0,-44.0,0.0,515.0,-15.0,146.0,416.0,-231.0,-150.0,43.0,0.0,621.0,671.0,571.0,221.0,-0.029571,-0.038488,0.012145,0.0,0.018851,-0.000573,-0.00537,0.015228,-0.062679,-0.040621,0.01172,0.0,0.022741,0.024582,-0.020903,0.008096,4645.350098,11185.110352,46956.691406,0.0,-16065.451172,-16197.84082,16545.689453,-15923.070312,5474.880371,11073.780273,51227.28125,0.0,17771.490234,17618.759766,-17270.460938,18002.339844,0.0,0.0,0.0,0.0,0.0,0.0,0.0,0.0,0.0,0.0,0.0,0.0,0.0,0.0,0.0,0.0,0.0,0.0,0.0,0.0,0.0,0.0,0.0,0.0,0.0,0.0,0.0,0.0,0.0,0.0,0.0,0.0,4645.347168,11185.108398,46956.800781,0.0,-16065.451172,-16197.84082,16545.955078,-15923.075195,5474.877441,11073.780273,51227.417969,0.0,17771.490234,17618.580078,-17270.214844,18002.314453,34.107746,87.080811,20.784121,0.0,14.471919,-6.039988,47.773857,21.496742,40.198441,85.278809,22.729612,0.0,29.609543,0.760454,37.601139,43.816162,1.208,1.42,-88016.0,-134673.0,-458449.0,0.0,157875.0,160105.0,-162632.0,156107.0,-66395.0,-115408.0,-515158.0,0.0,-179338.0,-176445.0,174858.0,-179268.0,0.0,0.0,0.0,0.0,0.0,0.0,0.0,0.0,0.0,0.0,0.0,0.0,0.0,0.0,0.0,0.0,0.0,0.0,0.0,0.0,0.0,0.0,0.0,0.0
9,221.0709309577942,34.107765,87.080818,20.784069,0.0,14.471938,-6.03997,47.74437,21.497425,40.198463,85.278809,22.729549,0.0,29.609547,0.780503,37.563831,43.828854,3.0,1.0,111.0,0.0,1.0,-110587.0,-44977.0,13851.0,-76409.0,39234.0,8298.0,-0.80463,-0.466945,0.366788,-0.530046,0.286431,-0.798128,0.267623,-0.836612,-0.477973,-0.891328,0.013942,0.453145,0.429334,-0.295107,0.853571,0.145627,0.955362,0.257052,-0.80463,-0.466945,0.366788,-0.530046,0.286431,-0.798128,0.267623,-0.836612,-0.477973,-0.891328,0.013942,0.453145,0.429334,-0.295107,0.853571,0.145627,0.955362,0.257052,-110587.0,-44977.0,13851.0,-76409.0,39234.0,8298.0,36401.0,10394.0,-63292.0,0.0,-20630.0,-19871.0,-21209.0,-20816.0,-5563.0,7634.0,54034.0,0.0,18123.0,19319.0,17036.0,20758.0,109.0,142.0,-44.0,0.0,515.0,-15.0,146.0,416.0,-231.0,-150.0,43.0,0.0,621.0,671.0,570.0,221.0,-0.029571,-0.038488,0.012145,0.0,0.018851,-0.000573,-0.005355,0.015228,-0.062679,-0.040621,0.01172,0.0,0.022741,0.024572,-0.020889,0.008095,4645.350098,11185.110352,46956.691406,0.0,-16065.451172,-16197.84082,16545.689453,-15923.070312,5474.880371,11073.780273,51227.28125,0.0,17771.490234,17618.759766,-17270.460938,18002.339844,0.0,0.0,0.0,0.0,0.0,0.0,0.0,0.0,0.0,0.0,0.0,0.0,0.0,0.0,0.0,0.0,0.0,0.0,0.0,0.0,0.0,0.0,0.0,0.0,0.0,0.0,0.0,0.0,0.0,0.0,0.0,0.0,4645.347168,11185.108398,46956.800781,0.0,-16065.451172,-16197.84082,16545.955078,-15923.075195,5474.877441,11073.780273,51227.417969,0.0,17771.490234,17618.580078,-17270.214844,18002.314453,34.107746,87.080811,20.784121,0.0,14.471919,-6.039988,47.773857,21.496742,40.198441,85.278809,22.729612,0.0,29.609543,0.760454,37.601139,43.816162,1.208,1.42,-88016.0,-134673.0,-458449.0,0.0,157875.0,160105.0,-162632.0,156107.0,-66395.0,-115408.0,-515158.0,0.0,-179338.0,-176445.0,174858.0,-179268.0,0.0,0.0,0.0,0.0,0.0,0.0,0.0,0.0,0.0,0.0,0.0,0.0,0.0,0.0,0.0,0.0,0.0,0.0,0.0,0.0,0.0,0.0,0.0,0.0
10,221.13489198684692,34.107765,87.080818,20.784069,0.0,14.471938,-6.03997,47.74437,21.497425,40.198463,85.278809,22.729549,0.0,29.609547,0.780503,37.563831,43.828854,3.0,1.0,111.0,0.0,1.0,-110587.0,-44977.0,13851.0,-76409.0,39234.0,8298.0,-0.80463,-0.466945,0.366788,-0.530046,0.286431,-0.798128,0.267623,-0.836612,-0.477973,-0.891328,0.013942,0.453145,0.429334,-0.295107,0.853571,0.145627,0.955362,0.257052,-0.80463,-0.466945,0.366788,-0.530046,0.286431,-0.798128,0.267623,-0.836612,-0.477973,-0.891328,0.013942,0.453145,0.429334,-0.295107,0.853571,0.145627,0.955362,0.257052,-110587.0,-44977.0,13851.0,-76409.0,39234.0,8298.0,36401.0,10394.0,-63292.0,0.0,-20630.0,-19871.0,-21209.0,-20816.0,-5563.0,7634.0,54034.0,0.0,18123.0,19319.0,17036.0,20758.0,109.0,142.0,-44.0,0.0,515.0,-15.0,145.0,416.0,-231.0,-150.0,43.0,0.0,621.0,671.0,570.0,221.0,-0.029571,-0.038488,0.012145,0.0,0.018851,-0.000573,-0.00534,0.015227,-0.062679,-0.040621,0.01172,0.0,0.022741,0.024562,-0.020875,0.008094,4645.350098,11185.110352,46956.691406,0.0,-16065.451172,-16197.84082,16545.689453,-15923.070312,5474.880371,11073.780273,51227.28125,0.0,17771.490234,17618.759766,-17270.460938,18002.339844,0.0,0.0,0.0,0.0,0.0,0.0,0.0,0.0,0.0,0.0,0.0,0.0,0.0,0.0,0.0,0.0,0.0,0.0,0.0,0.0,0.0,0.0,0.0,0.0,0.0,0.0,0.0,0.0,0.0,0.0,0.0,0.0,4645.347168,11185.108398,46956.800781,0.0,-16065.451172,-16197.84082,16545.955078,-15923.075195,5474.877441,11073.780273,51227.417969,0.0,17771.490234,17618.580078,-17270.214844,18002.314453,34.107746,87.080811,20.784121,0.0,14.471919,-6.039988,47.773857,21.496742,40.198441,85.278809,22.729612,0.0,29.609543,0.760454,37.601139,43.816162,1.208,1.42,-88016.0,-134673.0,-458449.0,0.0,157875.0,160105.0,-162632.0,156107.0,-66395.0,-115408.0,-515158.0,0.0,-179338.0,-176445.0,174858.0,-179268.0,0.0,0.0,0.0,0.0,0.0,0.0,0.0,0.0,0.0,0.0,0.0,0.0,0.0,0.0,0.0,0.0,0.0,0.0,0.0,0.0,0.0,0.0,0.0,0.0
11,221.19894695281982,34.107765,87.080818,20.784069,0.0,14.471938,-6.03997,47.74437,21.497425,40.198463,85.278809,22.729549,0.0,29.609547,0.780503,37.563831,43.828854,3.0,1.0,111.0,0.0,1.0,-110587.0,-44977.0,13851.0,-76409.0,39234.0,8298.0,-0.80463,-0.466945,0.366788,-0.530046,0.286431,-0.798128,0.267623,-0.836612,-0.477973,-0.891328,0.013942,0.453145,0.429334,-0.295107,0.853571,0.145627,0.955362,0.257052,-0.80463,-0.466945,0.366788,-0.530046,0.286431,-0.798128,0.267623,-0.836612,-0.477973,-0.891328,0.013942,0.453145,0.429334,-0.295107,0.853571,0.145627,0.955362,0.257052,-110587.0,-44977.0,13851.0,-76409.0,39234.0,8298.0,36401.0,10394.0,-63292.0,0.0,-20630.0,-19871.0,-21209.0,-20816.0,-5563.0,7634.0,54034.0,0.0,18123.0,19319.0,17036.0,20758.0,109.0,142.0,-44.0,0.0,515.0,-15.0,145.0,416.0,-231.0,-150.0,43.0,0.0,621.0,670.0,570.0,221.0,-0.029571,-0.038488,0.012145,0.0,0.018851,-0.000573,-0.005325,0.015227,-0.062679,-0.040621,0.01172,0.0,0.022741,0.024552,-0.020862,0.008092,4645.350098,11185.110352,46956.691406,0.0,-16065.451172,-16197.84082,16545.689453,-15923.070312,5474.880371,11073.780273,51227.28125,0.0,17771.490234,17618.759766,-17270.460938,18002.339844,0.0,0.0,0.0,0.0,0.0,0.0,0.0,0.0,0.0,0.0,0.0,0.0,0.0,0.0,0.0,0.0,0.0,0.0,0.0,0.0,0.0,0.0,0.0,0.0,0.0,0.0,0.0,0.0,0.0,0.0,0.0,0.0,4645.347168,11185.108398,46956.800781,0.0,-16065.451172,-16197.84082,16545.955078,-15923.075195,5474.877441,11073.780273,51227.417969,0.0,17771.490234,17618.580078,-17270.214844,18002.314453,34.107746,87.080811,20.784121,0.0,14.471919,-6.039988,47.773857,21.496742,40.198441,85.278809,22.729612,0.0,29.609543,0.760454,37.601139,43.816162,1.208,1.42,-88016.0,-134673.0,-458449.0,0.0,157875.0,160105.0,-162632.0,156107.0,-66395.0,-115408.0,-515158.0,0.0,-179338.0,-176445.0,174858.0,-179268.0,0.0,0.0,0.0,0.0,0.0,0.0,0.0,0.0,0.0,0.0,0.0,0.0,0.0,0.0,0.0,0.0,0.0,0.0,0.0,0.0,0.0,0.0,0.0,0.0
12,221.26298213005066,34.107765,87.080818,20.784069,0.0,14.471938,-6.03997,47.74437,21.497425,40.198463,85.278809,22.729549,0.0,29.609547,0.780503,37.563831,43.828854,3.0,1.0,111.0,0.0,1.0,-110587.0,-44977.0,13851.0,-76409.0,39234.0,8298.0,-0.80463,-0.466945,0.366788,-0.530046,0.286431,-0.798128,0.267623,-0.836612,-0.477973,-0.891328,0.013942,0.453145,0.429334,-0.295107,0.853571,0.145627,0.955362,0.257052,-0.80463,-0.466945,0.366788,-0.530046,0.286431,-0.798128,0.267623,-0.836612,-0.477973,-0.891328,0.013942,0.453145,0.429334,-0.295107,0.853571,0.145627,0.955362,0.257052,-110587.0,-44977.0,13851.0,-76409.0,39234.0,8298.0,36401.0,10394.0,-63292.0,0.0,-20630.0,-19871.0,-21209.0,-20816.0,-5563.0,7634.0,54034.0,0.0,18123.0,19319.0,17036.0,20758.0,109.0,142.0,-44.0,0.0,515.0,-15.0,145.0,416.0,-231.0,-150.0,43.0,0.0,621.0,670.0,569.0,221.0,-0.029571,-0.038488,0.012145,0.0,0.018851,-0.000573,-0.005311,0.015227,-0.062679,-0.040621,0.01172,0.0,0.022741,0.024541,-0.020848,0.008091,4645.350098,11185.110352,46956.691406,0.0,-16065.451172,-16197.84082,16545.689453,-15923.070312,5474.880371,11073.780273,51227.28125,0.0,17771.490234,17618.759766,-17270.460938,18002.339844,0.0,0.0,0.0,0.0,0.0,0.0,0.0,0.0,0.0,0.0,0.0,0.0,0.0,0.0,0.0,0.0,0.0,0.0,0.0,0.0,0.0,0.0,0.0,0.0,0.0,0.0,0.0,0.0,0.0,0.0,0.0,0.0,4645.347168,11185.108398,46956.800781,0.0,-16065.451172,-16197.84082,16545.955078,-15923.075195,5474.877441,11073.780273,51227.417969,0.0,17771.490234,17618.580078,-17270.214844,18002.314453,34.107746,87.080811,20.784121,0.0,14.471919,-6.039988,47.773857,21.496742,40.198441,85.278809,22.729612,0.0,29.609543,0.760454,37.601139,43.816162,1.208,1.42,-88016.0,-134673.0,-458449.0,0.0,157875.0,160105.0,-162632.0,156107.0,-66395.0,-115408.0,-515158.0,0.0,-179338.0,-176445.0,174858.0,-179268.0,0.0,0.0,0.0,0.0,0.0,0.0,0.0,0.0,0.0,0.0,0.0,0.0,0.0,0.0,0.0,0.0,0.0,0.0,0.0,0.0,0.0,0.0,0.0,0.0
13,221.32694697380066,34.107765,87.080818,20.784069,0.0,14.471938,-6.03997,47.74437,21.497425,40.198463,85.278809,22.729549,0.0,29.609547,0.780503,37.563831,43.828854,3.0,1.0,111.0,0.0,1.0,-110587.0,-44977.0,13851.0,-76409.0,39234.0,8298.0,-0.80463,-0.466945,0.366788,-0.530046,0.286431,-0.798128,0.267623,-0.836612,-0.477973,-0.891328,0.013942,0.453145,0.429334,-0.295107,0.853571,0.145627,0.955362,0.257052,-0.80463,-0.466945,0.366788,-0.530046,0.286431,-0.798128,0.267623,-0.836612,-0.477973,-0.891328,0.013942,0.453145,0.429334,-0.295107,0.853571,0.145627,0.955362,0.257052,-110587.0,-44977.0,13851.0,-76409.0,39234.0,8298.0,36401.0,10394.0,-63292.0,0.0,-20630.0,-19871.0,-21209.0,-20816.0,-5563.0,7634.0,54034.0,0.0,18123.0,19319.0,17036.0,20758.0,109.0,142.0,-44.0,0.0,515.0,-15.0,144.0,416.0,-231.0,-150.0,43.0,0.0,621.0,670.0,569.0,221.0,-0.029571,-0.038488,0.012145,0.0,0.018851,-0.000573,-0.005296,0.015227,-0.062679,-0.040621,0.01172,0.0,0.022741,0.024531,-0.020835,0.008089,4645.350098,11185.110352,46956.691406,0.0,-16065.451172,-16197.84082,16545.689453,-15923.070312,5474.880371,11073.780273,51227.28125,0.0,17771.490234,17618.759766,-17270.460938,18002.339844,0.0,0.0,0.0,0.0,0.0,0.0,0.0,0.0,0.0,0.0,0.0,0.0,0.0,0.0,0.0,0.0,0.0,0.0,0.0,0.0,0.0,0.0,0.0,0.0,0.0,0.0,0.0,0.0,0.0,0.0,0.0,0.0,4645.347168,11185.108398,46956.800781,0.0,-16065.451172,-16197.84082,16545.955078,-15923.075195,5474.877441,11073.780273,51227.417969,0.0,17771.490234,17618.580078,-17270.214844,18002.314453,34.107746,87.080811,20.784121,0.0,14.471919,-6.039988,47.773857,21.496742,40.198441,85.278809,22.729612,0.0,29.609543,0.760454,37.601139,43.816162,1.208,1.42,-88016.0,-134673.0,-458449.0,0.0,157875.0,160105.0,-162632.0,156107.0,-66395.0,-115408.0,-515158.0,0.0,-179338.0,-176445.0,174858.0,-179268.0,0.0,0.0,0.0,0.0,0.0,0.0,0.0,0.0,0.0,0.0,0.0,0.0,0.0,0.0,0.0,0.0,0.0,0.0,0.0,0.0,0.0,0.0,0.0,0.0
14,221.3899359703064,34.107765,87.080818,20.784069,0.0,14.471938,-6.03997,47.74437,21.497425,40.198463,85.278809,22.729549,0.0,29.609547,0.780503,37.563831,43.828854,3.0,1.0,111.0,0.0,1.0,-110587.0,-44977.0,13851.0,-76409.0,39234.0,8298.0,-0.80463,-0.466945,0.366788,-0.530046,0.286431,-0.798128,0.267623,-0.836612,-0.477973,-0.891328,0.013942,0.453145,0.429334,-0.295107,0.853571,0.145627,0.955362,0.257052,-0.80463,-0.466945,0.366788,-0.530046,0.286431,-0.798128,0.267623,-0.836612,-0.477973,-0.891328,0.013942,0.453145,0.429334,-0.295107,0.853571,0.145627,0.955362,0.257052,-110587.0,-44977.0,13851.0,-76409.0,39234.0,8298.0,36401.0,10394.0,-63292.0,0.0,-20630.0,-19871.0,-21209.0,-20816.0,-5563.0,7634.0,54034.0,0.0,18123.0,19319.0,17036.0,20758.0,109.0,142.0,-44.0,0.0,515.0,-15.0,144.0,416.0,-231.0,-150.0,43.0,0.0,621.0,670.0,569.0,221.0,-0.029571,-0.038488,0.012145,0.0,0.018851,-0.000573,-0.005281,0.015226,-0.062679,-0.040621,0.01172,0.0,0.022741,0.024522,-0.020821,0.008088,4645.350098,11185.110352,46956.691406,0.0,-16065.451172,-16197.84082,16545.689453,-15923.070312,5474.880371,11073.780273,51227.28125,0.0,17771.490234,17618.759766,-17270.460938,18002.339844,0.0,0.0,0.0,0.0,0.0,0.0,0.0,0.0,0.0,0.0,0.0,0.0,0.0,0.0,0.0,0.0,0.0,0.0,0.0,0.0,0.0,0.0,0.0,0.0,0.0,0.0,0.0,0.0,0.0,0.0,0.0,0.0,4645.347168,11185.108398,46956.800781,0.0,-16065.451172,-16197.84082,16545.955078,-15923.075195,5474.877441,11073.780273,51227.417969,0.0,17771.490234,17618.580078,-17270.214844,18002.314453,34.107746,87.080811,20.784121,0.0,14.471919,-6.039988,47.773857,21.496742,40.198441,85.278809,22.729612,0.0,29.609543,0.760454,37.601139,43.816162,1.208,1.42,-88016.0,-134673.0,-458449.0,0.0,157875.0,160105.0,-162632.0,156107.0,-66395.0,-115408.0,-515158.0,0.0,-179338.0,-176445.0,174858.0,-179268.0,0.0,0.0,0.0,0.0,0.0,0.0,0.0,0.0,0.0,0.0,0.0,0.0,0.0,0.0,0.0,0.0,0.0,0.0,0.0,0.0,0.0,0.0,0.0,0.0
15,221.4539840221405,34.107765,87.080818,20.784069,0.0,14.471938,-6.03997,47.74437,21.497425,40.198463,85.278809,22.729549,0.0,29.609547,0.780503,37.563831,43.828854,3.0,1.0,111.0,0.0,1.0,-110587.0,-44977.0,13851.0,-76409.0,39234.0,8298.0,-0.80463,-0.466945,0.366788,-0.530046,0.286431,-0.798128,0.267623,-0.836612,-0.477973,-0.891328,0.013942,0.453145,0.429334,-0.295107,0.853571,0.145627,0.955362,0.257052,-0.80463,-0.466945,0.366788,-0.530046,0.286431,-0.798128,0.267623,-0.836612,-0.477973,-0.891328,0.013942,0.453145,0.429334,-0.295107,0.853571,0.145627,0.955362,0.257052,-110587.0,-44977.0,13851.0,-76409.0,39234.0,8298.0,36401.0,10394.0,-63292.0,0.0,-20630.0,-19871.0,-21209.0,-20816.0,-5563.0,7634.0,54034.0,0.0,18123.0,19319.0,17036.0,20758.0,109.0,142.0,-44.0,0.0,515.0,-15.0,143.0,416.0,-231.0,-150.0,43.0,0.0,621.0,669.0,568.0,220.0,-0.029571,-0.038488,0.012145,0.0,0.018851,-0.000573,-0.005266,0.015226,-0.062679,-0.040621,0.01172,0.0,0.022741,0.024512,-0.020807,0.008087,4645.350098,11185.110352,46956.691406,0.0,-16065.451172,-16197.84082,16545.689453,-15923.070312,5474.880371,11073.780273,51227.28125,0.0,17771.490234,17618.759766,-17270.460938,18002.339844,0.0,0.0,0.0,0.0,0.0,0.0,0.0,0.0,0.0,0.0,0.0,0.0,0.0,0.0,0.0,0.0,0.0,0.0,0.0,0.0,0.0,0.0,0.0,0.0,0.0,0.0,0.0,0.0,0.0,0.0,0.0,0.0,4645.347168,11185.108398,46956.800781,0.0,-16065.451172,-16197.84082,16545.955078,-15923.075195,5474.877441,11073.780273,51227.417969,0.0,17771.490234,17618.580078,-17270.214844,18002.314453,34.107746,87.080811,20.784121,0.0,14.471919,-6.039988,47.773857,21.496742,40.198441,85.278809,22.729612,0.0,29.609543,0.760454,37.601139,43.816162,1.208,1.42,-88016.0,-134673.0,-458449.0,0.0,157875.0,160105.0,-162632.0,156107.0,-66395.0,-115408.0,-515158.0,0.0,-179338.0,-176445.0,174858.0,-179268.0,0.0,0.0,0.0,0.0,0.0,0.0,0.0,0.0,0.0,0.0,0.0,0.0,0.0,0.0,0.0,0.0,0.0,0.0,0.0,0.0,0.0,0.0,0.0,0.0
16,221.51594495773315,34.107765,87.080818,20.784069,0.0,14.471938,-6.03997,47.74437,21.497425,40.198463,85.278809,22.729549,0.0,29.609547,0.780503,37.563831,43.828854,3.0,1.0,111.0,0.0,1.0,-110587.0,-44977.0,13851.0,-76409.0,39234.0,8298.0,-0.80463,-0.466945,0.366788,-0.530046,0.286431,-0.798128,0.267623,-0.836612,-0.477973,-0.891328,0.013942,0.453145,0.429334,-0.295107,0.853571,0.145627,0.955362,0.257052,-0.80463,-0.466945,0.366788,-0.530046,0.286431,-0.798128,0.267623,-0.836612,-0.477973,-0.891328,0.013942,0.453145,0.429334,-0.295107,0.853571,0.145627,0.955362,0.257052,-110587.0,-44977.0,13851.0,-76409.0,39234.0,8298.0,36401.0,10394.0,-63292.0,0.0,-20630.0,-19871.0,-21209.0,-20816.0,-5563.0,7634.0,54034.0,0.0,18123.0,19319.0,17036.0,20758.0,109.0,142.0,-44.0,0.0,515.0,-15.0,143.0,416.0,-231.0,-150.0,43.0,0.0,621.0,669.0,568.0,220.0,-0.029571,-0.038488,0.012145,0.0,0.018851,-0.000573,-0.005252,0.015226,-0.062679,-0.040621,0.01172,0.0,0.022741,0.024502,-0.020794,0.008085,4645.350098,11185.110352,46956.691406,0.0,-16065.451172,-16197.84082,16545.689453,-15923.070312,5474.880371,11073.780273,51227.28125,0.0,17771.490234,17618.759766,-17270.460938,18002.339844,0.0,0.0,0.0,0.0,0.0,0.0,0.0,0.0,0.0,0.0,0.0,0.0,0.0,0.0,0.0,0.0,0.0,0.0,0.0,0.0,0.0,0.0,0.0,0.0,0.0,0.0,0.0,0.0,0.0,0.0,0.0,0.0,4645.347168,11185.108398,46956.800781,0.0,-16065.451172,-16197.84082,16545.955078,-15923.075195,5474.877441,11073.780273,51227.417969,0.0,17771.490234,17618.580078,-17270.214844,18002.314453,34.107746,87.080811,20.784121,0.0,14.471919,-6.039988,47.773857,21.496742,40.198441,85.278809,22.729612,0.0,29.609543,0.760454,37.601139,43.816162,1.208,1.42,-88016.0,-134673.0,-458449.0,0.0,157875.0,160105.0,-162632.0,156107.0,-66395.0,-115408.0,-515158.0,0.0,-179338.0,-176445.0,174858.0,-179268.0,0.0,0.0,0.0,0.0,0.0,0.0,0.0,0.0,0.0,0.0,0.0,0.0,0.0,0.0,0.0,0.0,0.0,0.0,0.0,0.0,0.0,0.0,0.0,0.0
17,221.58095502853394,34.107765,87.080818,20.784069,0.0,14.471938,-6.03997,47.74437,21.497425,40.198463,85.278809,22.729549,0.0,29.609547,0.780503,37.563831,43.828854,3.0,1.0,111.0,0.0,1.0,-110587.0,-44977.0,13851.0,-76409.0,39234.0,8298.0,-0.80463,-0.466945,0.366788,-0.530046,0.286431,-0.798128,0.267623,-0.836612,-0.477973,-0.891328,0.013942,0.453145,0.429334,-0.295107,0.853571,0.145627,0.955362,0.257052,-0.80463,-0.466945,0.366788,-0.530046,0.286431,-0.798128,0.267623,-0.836612,-0.477973,-0.891328,0.013942,0.453145,0.429334,-0.295107,0.853571,0.145627,0.955362,0.257052,-110587.0,-44977.0,13851.0,-76409.0,39234.0,8298.0,36401.0,10394.0,-63292.0,0.0,-20630.0,-19871.0,-21209.0,-20816.0,-5563.0,7634.0,54034.0,0.0,18123.0,19319.0,17036.0,20758.0,109.0,142.0,-44.0,0.0,515.0,-15.0,143.0,416.0,-231.0,-150.0,43.0,0.0,621.0,669.0,567.0,220.0,-0.029571,-0.038488,0.012145,0.0,0.018851,-0.000573,-0.005237,0.015225,-0.062679,-0.040621,0.01172,0.0,0.022741,0.024492,-0.02078,0.008084,4645.350098,11185.110352,46956.691406,0.0,-16065.451172,-16197.84082,16545.689453,-15923.070312,5474.880371,11073.780273,51227.28125,0.0,17771.490234,17618.759766,-17270.460938,18002.339844,0.0,0.0,0.0,0.0,0.0,0.0,0.0,0.0,0.0,0.0,0.0,0.0,0.0,0.0,0.0,0.0,0.0,0.0,0.0,0.0,0.0,0.0,0.0,0.0,0.0,0.0,0.0,0.0,0.0,0.0,0.0,0.0,4645.347168,11185.108398,46956.800781,0.0,-16065.451172,-16197.84082,16545.955078,-15923.075195,5474.877441,11073.780273,51227.417969,0.0,17771.490234,17618.580078,-17270.214844,18002.314453,34.107746,87.080811,20.784121,0.0,14.471919,-6.039988,47.773857,21.496742,40.198441,85.278809,22.729612,0.0,29.609543,0.760454,37.601139,43.816162,1.208,1.42,-88016.0,-134673.0,-458449.0,0.0,157875.0,160105.0,-162632.0,156107.0,-66395.0,-115408.0,-515158.0,0.0,-179338.0,-176445.0,174858.0,-179268.0,0.0,0.0,0.0,0.0,0.0,0.0,0.0,0.0,0.0,0.0,0.0,0.0,0.0,0.0,0.0,0.0,0.0,0.0,0.0,0.0,0.0,0.0,0.0,0.0
18,221.64495706558228,34.107765,87.080818,20.784069,0.0,14.471938,-6.03997,47.74437,21.497425,40.198463,85.278809,22.729549,0.0,29.609547,0.780503,37.563831,43.828854,3.0,1.0,111.0,0.0,1.0,-110587.0,-44977.0,13851.0,-76409.0,39234.0,8298.0,-0.80463,-0.466945,0.366788,-0.530046,0.286431,-0.798128,0.267623,-0.836612,-0.477973,-0.891328,0.013942,0.453145,0.429334,-0.295107,0.853571,0.145627,0.955362,0.257052,-0.80463,-0.466945,0.366788,-0.530046,0.286431,-0.798128,0.267623,-0.836612,-0.477973,-0.891328,0.013942,0.453145,0.429334,-0.295107,0.853571,0.145627,0.955362,0.257052,-110587.0,-44977.0,13851.0,-76409.0,39234.0,8298.0,36401.0,10394.0,-63292.0,0.0,-20630.0,-19871.0,-21209.0,-20816.0,-5563.0,7634.0,54034.0,0.0,18123.0,19319.0,17036.0,20758.0,109.0,142.0,-44.0,0.0,515.0,-15.0,142.0,416.0,-231.0,-150.0,43.0,0.0,621.0,669.0,567.0,220.0,-0.029571,-0.038488,0.012145,0.0,0.018851,-0.000573,-0.005222,0.015225,-0.062679,-0.040621,0.01172,0.0,0.022741,0.024482,-0.020767,0.008083,4645.350098,11185.110352,46956.691406,0.0,-16065.451172,-16197.84082,16545.689453,-15923.070312,5474.880371,11073.780273,51227.28125,0.0,17771.490234,17618.759766,-17270.460938,18002.339844,0.0,0.0,0.0,0.0,0.0,0.0,0.0,0.0,0.0,0.0,0.0,0.0,0.0,0.0,0.0,0.0,0.0,0.0,0.0,0.0,0.0,0.0,0.0,0.0,0.0,0.0,0.0,0.0,0.0,0.0,0.0,0.0,4645.347168,11185.108398,46956.800781,0.0,-16065.451172,-16197.84082,16545.955078,-15923.075195,5474.877441,11073.780273,51227.417969,0.0,17771.490234,17618.580078,-17270.214844,18002.314453,34.107746,87.080811,20.784121,0.0,14.471919,-6.039988,47.773857,21.496742,40.198441,85.278809,22.729612,0.0,29.609543,0.760454,37.601139,43.816162,1.208,1.42,-88016.0,-134673.0,-458449.0,0.0,157875.0,160105.0,-162632.0,156107.0,-66395.0,-115408.0,-515158.0,0.0,-179338.0,-176445.0,174858.0,-179268.0,0.0,0.0,0.0,0.0,0.0,0.0,0.0,0.0,0.0,0.0,0.0,0.0,0.0,0.0,0.0,0.0,0.0,0.0,0.0,0.0,0.0,0.0,0.0,0.0
19,221.70694208145142,34.107765,87.080818,20.784069,0.0,14.471938,-6.03997,47.74437,21.497425,40.198463,85.278809,22.729549,0.0,29.609547,0.780503,37.563831,43.828854,3.0,1.0,111.0,0.0,1.0,-110587.0,-44977.0,13851.0,-76409.0,39234.0,8298.0,-0.80463,-0.466945,0.366788,-0.530046,0.286431,-0.798128,0.267623,-0.836612,-0.477973,-0.891328,0.013942,0.453145,0.429334,-0.295107,0.853571,0.145627,0.955362,0.257052,-0.80463,-0.466945,0.366788,-0.530046,0.286431,-0.798128,0.267623,-0.836612,-0.477973,-0.891328,0.013942,0.453145,0.429334,-0.295107,0.853571,0.145627,0.955362,0.257052,-110587.0,-44977.0,13851.0,-76409.0,39234.0,8298.0,36401.0,10394.0,-63292.0,0.0,-20630.0,-19871.0,-21209.0,-20816.0,-5563.0,7634.0,54034.0,0.0,18123.0,19319.0,17036.0,20758.0,109.0,142.0,-44.0,0.0,515.0,-15.0,142.0,416.0,-231.0,-150.0,43.0,0.0,621.0,668.0,567.0,220.0,-0.029571,-0.038488,0.012145,0.0,0.018851,-0.000573,-0.005208,0.015225,-0.062679,-0.040621,0.01172,0.0,0.022741,0.024472,-0.020754,0.008081,4645.350098,11185.110352,46956.691406,0.0,-16065.451172,-16197.84082,16545.689453,-15923.070312,5474.880371,11073.780273,51227.28125,0.0,17771.490234,17618.759766,-17270.460938,18002.339844,0.0,0.0,0.0,0.0,0.0,0.0,0.0,0.0,0.0,0.0,0.0,0.0,0.0,0.0,0.0,0.0,0.0,0.0,0.0,0.0,0.0,0.0,0.0,0.0,0.0,0.0,0.0,0.0,0.0,0.0,0.0,0.0,4645.347168,11185.108398,46956.800781,0.0,-16065.451172,-16197.84082,16545.955078,-15923.075195,5474.877441,11073.780273,51227.417969,0.0,17771.490234,17618.580078,-17270.214844,18002.314453,34.107746,87.080811,20.784121,0.0,14.471919,-6.039988,47.773857,21.496742,40.198441,85.278809,22.729612,0.0,29.609543,0.760454,37.601139,43.816162,1.208,1.42,-88016.0,-134673.0,-458449.0,0.0,157875.0,160105.0,-162632.0,156107.0,-66395.0,-115408.0,-515158.0,0.0,-179338.0,-176445.0,174858.0,-179268.0,0.0,0.0,0.0,0.0,0.0,0.0,0.0,0.0,0.0,0.0,0.0,0.0,0.0,0.0,0.0,0.0,0.0,0.0,0.0,0.0,0.0,0.0,0.0,0.0
20,221.77096796035767,34.107765,87.080818,20.784069,0.0,14.471938,-6.03997,47.74437,21.497425,40.198463,85.278809,22.729549,0.0,29.609547,0.780503,37.563831,43.828854,3.0,1.0,111.0,0.0,1.0,-110587.0,-44977.0,13851.0,-76409.0,39234.0,8298.0,-0.80463,-0.466945,0.366788,-0.530046,0.286431,-0.798128,0.267623,-0.836612,-0.477973,-0.891328,0.013942,0.453145,0.429334,-0.295107,0.853571,0.145627,0.955362,0.257052,-0.80463,-0.466945,0.366788,-0.530046,0.286431,-0.798128,0.267623,-0.836612,-0.477973,-0.891328,0.013942,0.453145,0.429334,-0.295107,0.853571,0.145627,0.955362,0.257052,-110587.0,-44977.0,13851.0,-76409.0,39234.0,8298.0,36401.0,10394.0,-63292.0,0.0,-20630.0,-19871.0,-21209.0,-20816.0,-5563.0,7634.0,54034.0,0.0,18123.0,19319.0,17036.0,20758.0,109.0,142.0,-44.0,0.0,515.0,-15.0,141.0,416.0,-231.0,-150.0,43.0,0.0,621.0,668.0,566.0,220.0,-0.029571,-0.038488,0.012145,0.0,0.018851,-0.000573,-0.005193,0.015225,-0.062679,-0.040621,0.01172,0.0,0.022741,0.024462,-0.02074,0.00808,4645.350098,11185.110352,46956.691406,0.0,-16065.451172,-16197.84082,16545.689453,-15923.070312,5474.880371,11073.780273,51227.28125,0.0,17771.490234,17618.759766,-17270.460938,18002.339844,0.0,0.0,0.0,0.0,0.0,0.0,0.0,0.0,0.0,0.0,0.0,0.0,0.0,0.0,0.0,0.0,0.0,0.0,0.0,0.0,0.0,0.0,0.0,0.0,0.0,0.0,0.0,0.0,0.0,0.0,0.0,0.0,4645.347168,11185.108398,46956.800781,0.0,-16065.451172,-16197.84082,16545.955078,-15923.075195,5474.877441,11073.780273,51227.417969,0.0,17771.490234,17618.580078,-17270.214844,18002.314453,34.107746,87.080811,20.784121,0.0,14.471919,-6.039988,47.773857,21.496742,40.198441,85.278809,22.729612,0.0,29.609543,0.760454,37.601139,43.816162,1.208,1.42,-88016.0,-134673.0,-458449.0,0.0,157875.0,160105.0,-162632.0,156107.0,-66395.0,-115408.0,-515158.0,0.0,-179338.0,-176445.0,174858.0,-179268.0,0.0,0.0,0.0,0.0,0.0,0.0,0.0,0.0,0.0,0.0,0.0,0.0,0.0,0.0,0.0,0.0,0.0,0.0,0.0,0.0,0.0,0.0,0.0,0.0
21,221.8339500427246,34.107765,87.080818,20.784069,0.0,14.471938,-6.03997,47.74437,21.497425,40.198463,85.278809,22.729549,0.0,29.609547,0.780503,37.563831,43.828854,3.0,1.0,111.0,0.0,1.0,-110587.0,-44977.0,13851.0,-76409.0,39234.0,8298.0,-0.80463,-0.466945,0.366788,-0.530046,0.286431,-0.798128,0.267623,-0.836612,-0.477973,-0.891328,0.013942,0.453145,0.429334,-0.295107,0.853571,0.145627,0.955362,0.257052,-0.80463,-0.466945,0.366788,-0.530046,0.286431,-0.798128,0.267623,-0.836612,-0.477973,-0.891328,0.013942,0.453145,0.429334,-0.295107,0.853571,0.145627,0.955362,0.257052,-110587.0,-44977.0,13851.0,-76409.0,39234.0,8298.0,36401.0,10394.0,-63292.0,0.0,-20630.0,-19871.0,-21209.0,-20816.0,-5563.0,7634.0,54034.0,0.0,18123.0,19319.0,17036.0,20758.0,109.0,142.0,-44.0,0.0,515.0,-15.0,141.0,416.0,-231.0,-150.0,43.0,0.0,621.0,668.0,566.0,220.0,-0.029571,-0.038488,0.012145,0.0,0.018851,-0.000573,-0.005178,0.015224,-0.062679,-0.040621,0.01172,0.0,0.022741,0.024452,-0.020726,0.008078,4645.350098,11185.110352,46956.691406,0.0,-16065.451172,-16197.84082,16545.689453,-15923.070312,5474.880371,11073.780273,51227.28125,0.0,17771.490234,17618.759766,-17270.460938,18002.339844,0.0,0.0,0.0,0.0,0.0,0.0,0.0,0.0,0.0,0.0,0.0,0.0,0.0,0.0,0.0,0.0,0.0,0.0,0.0,0.0,0.0,0.0,0.0,0.0,0.0,0.0,0.0,0.0,0.0,0.0,0.0,0.0,4645.347168,11185.108398,46956.800781,0.0,-16065.451172,-16197.84082,16545.955078,-15923.075195,5474.877441,11073.780273,51227.417969,0.0,17771.490234,17618.580078,-17270.214844,18002.314453,34.107746,87.080811,20.784121,0.0,14.471919,-6.039988,47.773857,21.496742,40.198441,85.278809,22.729612,0.0,29.609543,0.760454,37.601139,43.816162,1.208,1.42,-88016.0,-134673.0,-458449.0,0.0,157875.0,160105.0,-162632.0,156107.0,-66395.0,-115408.0,-515158.0,0.0,-179338.0,-176445.0,174858.0,-179268.0,0.0,0.0,0.0,0.0,0.0,0.0,0.0,0.0,0.0,0.0,0.0,0.0,0.0,0.0,0.0,0.0,0.0,0.0,0.0,0.0,0.0,0.0,0.0,0.0
22,221.8979721069336,34.107765,87.080818,20.784069,0.0,14.471938,-6.03997,47.74437,21.497425,40.198463,85.278809,22.729549,0.0,29.609547,0.780503,37.563831,43.828854,3.0,1.0,111.0,0.0,1.0,-110587.0,-44977.0,13851.0,-76409.0,39234.0,8298.0,-0.80463,-0.466945,0.366788,-0.530046,0.286431,-0.798128,0.267623,-0.836612,-0.477973,-0.891328,0.013942,0.453145,0.429334,-0.295107,0.853571,0.145627,0.955362,0.257052,-0.80463,-0.466945,0.366788,-0.530046,0.286431,-0.798128,0.267623,-0.836612,-0.477973,-0.891328,0.013942,0.453145,0.429334,-0.295107,0.853571,0.145627,0.955362,0.257052,-110587.0,-44977.0,13851.0,-76409.0,39234.0,8298.0,36401.0,10394.0,-63292.0,0.0,-20630.0,-19871.0,-21209.0,-20816.0,-5563.0,7634.0,54034.0,0.0,18123.0,19319.0,17036.0,20758.0,109.0,142.0,-44.0,0.0,515.0,-15.0,141.0,416.0,-231.0,-150.0,43.0,0.0,621.0,667.0,566.0,220.0,-0.029571,-0.038488,0.012145,0.0,0.018851,-0.000573,-0.005163,0.015224,-0.062679,-0.040621,0.01172,0.0,0.022741,0.024442,-0.020713,0.008077,4645.350098,11185.110352,46956.691406,0.0,-16065.451172,-16197.84082,16545.689453,-15923.070312,5474.880371,11073.780273,51227.28125,0.0,17771.490234,17618.759766,-17270.460938,18002.339844,0.0,0.0,0.0,0.0,0.0,0.0,0.0,0.0,0.0,0.0,0.0,0.0,0.0,0.0,0.0,0.0,0.0,0.0,0.0,0.0,0.0,0.0,0.0,0.0,0.0,0.0,0.0,0.0,0.0,0.0,0.0,0.0,4645.347168,11185.108398,46956.800781,0.0,-16065.451172,-16197.84082,16545.955078,-15923.075195,5474.877441,11073.780273,51227.417969,0.0,17771.490234,17618.580078,-17270.214844,18002.314453,34.107746,87.080811,20.784121,0.0,14.471919,-6.039988,47.773857,21.496742,40.198441,85.278809,22.729612,0.0,29.609543,0.760454,37.601139,43.816162,1.208,1.42,-88016.0,-134673.0,-458449.0,0.0,157875.0,160105.0,-162632.0,156107.0,-66395.0,-115408.0,-515158.0,0.0,-179338.0,-176445.0,174858.0,-179268.0,0.0,0.0,0.0,0.0,0.0,0.0,0.0,0.0,0.0,0.0,0.0,0.0,0.0,0.0,0.0,0.0,0.0,0.0,0.0,0.0,0.0,0.0,0.0,0.0
23,221.96096014976501,34.107765,87.080818,20.784069,0.0,14.471938,-6.03997,47.74437,21.497425,40.198463,85.278809,22.729549,0.0,29.609547,0.780503,37.563831,43.828854,3.0,1.0,111.0,0.0,1.0,-110587.0,-44977.0,13851.0,-76409.0,39234.0,8298.0,-0.80463,-0.466945,0.366788,-0.530046,0.286431,-0.798128,0.267623,-0.836612,-0.477973,-0.891328,0.013942,0.453145,0.429334,-0.295107,0.853571,0.145627,0.955362,0.257052,-0.80463,-0.466945,0.366788,-0.530046,0.286431,-0.798128,0.267623,-0.836612,-0.477973,-0.891328,0.013942,0.453145,0.429334,-0.295107,0.853571,0.145627,0.955362,0.257052,-110587.0,-44977.0,13851.0,-76409.0,39234.0,8298.0,36401.0,10394.0,-63292.0,0.0,-20630.0,-19871.0,-21209.0,-20816.0,-5563.0,7634.0,54034.0,0.0,18123.0,19319.0,17036.0,20758.0,109.0,142.0,-44.0,0.0,515.0,-15.0,140.0,416.0,-231.0,-150.0,43.0,0.0,621.0,667.0,565.0,220.0,-0.029571,-0.038488,0.012145,0.0,0.018851,-0.000573,-0.005149,0.015224,-0.062679,-0.040621,0.01172,0.0,0.022741,0.024432,-0.020699,0.008076,4645.350098,11185.110352,46956.691406,0.0,-16065.451172,-16197.84082,16545.689453,-15923.070312,5474.880371,11073.780273,51227.28125,0.0,17771.490234,17618.759766,-17270.460938,18002.339844,0.0,0.0,0.0,0.0,0.0,0.0,0.0,0.0,0.0,0.0,0.0,0.0,0.0,0.0,0.0,0.0,0.0,0.0,0.0,0.0,0.0,0.0,0.0,0.0,0.0,0.0,0.0,0.0,0.0,0.0,0.0,0.0,4645.347168,11185.108398,46956.800781,0.0,-16065.451172,-16197.84082,16545.955078,-15923.075195,5474.877441,11073.780273,51227.417969,0.0,17771.490234,17618.580078,-17270.214844,18002.314453,34.107746,87.080811,20.784121,0.0,14.471919,-6.039988,47.773857,21.496742,40.198441,85.278809,22.729612,0.0,29.609543,0.760454,37.601139,43.816162,1.208,1.42,-88016.0,-134673.0,-458449.0,0.0,157875.0,160105.0,-162632.0,156107.0,-66395.0,-115408.0,-515158.0,0.0,-179338.0,-176445.0,174858.0,-179268.0,0.0,0.0,0.0,0.0,0.0,0.0,0.0,0.0,0.0,0.0,0.0,0.0,0.0,0.0,0.0,0.0,0.0,0.0,0.0,0.0,0.0,0.0,0.0,0.0
24,222.02493405342102,34.107765,87.080818,20.784069,0.0,14.471938,-6.03997,47.74437,21.497425,40.198463,85.278809,22.729549,0.0,29.609547,0.780503,37.563831,43.828854,3.0,1.0,111.0,0.0,1.0,-110587.0,-44977.0,13851.0,-76409.0,39234.0,8298.0,-0.80463,-0.466945,0.366788,-0.530046,0.286431,-0.798128,0.267623,-0.836612,-0.477973,-0.891328,0.013942,0.453145,0.429334,-0.295107,0.853571,0.145627,0.955362,0.257052,-0.80463,-0.466945,0.366788,-0.530046,0.286431,-0.798128,0.267623,-0.836612,-0.477973,-0.891328,0.013942,0.453145,0.429334,-0.295107,0.853571,0.145627,0.955362,0.257052,-110587.0,-44977.0,13851.0,-76409.0,39234.0,8298.0,36401.0,10394.0,-63292.0,0.0,-20630.0,-19871.0,-21209.0,-20816.0,-5563.0,7634.0,54034.0,0.0,18123.0,19319.0,17036.0,20758.0,109.0,142.0,-44.0,0.0,515.0,-15.0,140.0,416.0,-231.0,-150.0,43.0,0.0,621.0,667.0,565.0,220.0,-0.029571,-0.038488,0.012145,0.0,0.018851,-0.000573,-0.005134,0.015223,-0.062679,-0.040621,0.01172,0.0,0.022741,0.024422,-0.020686,0.008074,4645.350098,11185.110352,46956.691406,0.0,-16065.451172,-16197.84082,16545.689453,-15923.070312,5474.880371,11073.780273,51227.28125,0.0,17771.490234,17618.759766,-17270.460938,18002.339844,0.0,0.0,0.0,0.0,0.0,0.0,0.0,0.0,0.0,0.0,0.0,0.0,0.0,0.0,0.0,0.0,0.0,0.0,0.0,0.0,0.0,0.0,0.0,0.0,0.0,0.0,0.0,0.0,0.0,0.0,0.0,0.0,4645.347168,11185.108398,46956.800781,0.0,-16065.451172,-16197.84082,16545.955078,-15923.075195,5474.877441,11073.780273,51227.417969,0.0,17771.490234,17618.580078,-17270.214844,18002.314453,34.107746,87.080811,20.784121,0.0,14.471919,-6.039988,47.773857,21.496742,40.198441,85.278809,22.729612,0.0,29.609543,0.760454,37.601139,43.816162,1.208,1.42,-88016.0,-134673.0,-458449.0,0.0,157875.0,160105.0,-162632.0,156107.0,-66395.0,-115408.0,-515158.0,0.0,-179338.0,-176445.0,174858.0,-179268.0,0.0,0.0,0.0,0.0,0.0,0.0,0.0,0.0,0.0,0.0,0.0,0.0,0.0,0.0,0.0,0.0,0.0,0.0,0.0,0.0,0.0,0.0,0.0,0.0
25,222.08698105812073,34.107765,87.080818,20.784069,0.0,14.471938,-6.03997,47.74437,21.497425,40.198463,85.278809,22.729549,0.0,29.609547,0.780503,37.563831,43.828854,3.0,1.0,111.0,0.0,1.0,-110587.0,-44977.0,13851.0,-76409.0,39234.0,8298.0,-0.80463,-0.466945,0.366788,-0.530046,0.286431,-0.798128,0.267623,-0.836612,-0.477973,-0.891328,0.013942,0.453145,0.429334,-0.295107,0.853571,0.145627,0.955362,0.257052,-0.80463,-0.466945,0.366788,-0.530046,0.286431,-0.798128,0.267623,-0.836612,-0.477973,-0.891328,0.013942,0.453145,0.429334,-0.295107,0.853571,0.145627,0.955362,0.257052,-110587.0,-44977.0,13851.0,-76409.0,39234.0,8298.0,36401.0,10394.0,-63292.0,0.0,-20630.0,-19871.0,-21209.0,-20816.0,-5563.0,7634.0,54034.0,0.0,18123.0,19319.0,17036.0,20758.0,109.0,142.0,-44.0,0.0,515.0,-15.0,139.0,416.0,-231.0,-150.0,43.0,0.0,621.0,667.0,564.0,220.0,-0.029571,-0.038488,0.012145,0.0,0.018851,-0.000573,-0.005119,0.015223,-0.062679,-0.040621,0.01172,0.0,0.022741,0.024413,-0.020673,0.008073,4645.350098,11185.110352,46956.691406,0.0,-16065.451172,-16197.84082,16545.689453,-15923.070312,5474.880371,11073.780273,51227.28125,0.0,17771.490234,17618.759766,-17270.460938,18002.339844,0.0,0.0,0.0,0.0,0.0,0.0,0.0,0.0,0.0,0.0,0.0,0.0,0.0,0.0,0.0,0.0,0.0,0.0,0.0,0.0,0.0,0.0,0.0,0.0,0.0,0.0,0.0,0.0,0.0,0.0,0.0,0.0,4645.347168,11185.108398,46956.800781,0.0,-16065.451172,-16197.84082,16545.955078,-15923.075195,5474.877441,11073.780273,51227.417969,0.0,17771.490234,17618.580078,-17270.214844,18002.314453,34.107746,87.080811,20.784121,0.0,14.471919,-6.039988,47.773857,21.496742,40.198441,85.278809,22.729612,0.0,29.609543,0.760454,37.601139,43.816162,1.208,1.42,-88016.0,-134673.0,-458449.0,0.0,157875.0,160105.0,-162632.0,156107.0,-66395.0,-115408.0,-515158.0,0.0,-179338.0,-176445.0,174858.0,-179268.0,0.0,0.0,0.0,0.0,0.0,0.0,0.0,0.0,0.0,0.0,0.0,0.0,0.0,0.0,0.0,0.0,0.0,0.0,0.0,0.0,0.0,0.0,0.0,0.0
26,222.15094995498657,34.107765,87.080818,20.784069,0.0,14.471938,-6.03997,47.74437,21.497425,40.198463,85.278809,22.729549,0.0,29.609547,0.780503,37.563831,43.828854,3.0,1.0,111.0,0.0,1.0,-110587.0,-44977.0,13851.0,-76409.0,39234.0,8298.0,-0.80463,-0.466945,0.366788,-0.530046,0.286431,-0.798128,0.267623,-0.836612,-0.477973,-0.891328,0.013942,0.453145,0.429334,-0.295107,0.853571,0.145627,0.955362,0.257052,-0.80463,-0.466945,0.366788,-0.530046,0.286431,-0.798128,0.267623,-0.836612,-0.477973,-0.891328,0.013942,0.453145,0.429334,-0.295107,0.853571,0.145627,0.955362,0.257052,-110587.0,-44977.0,13851.0,-76409.0,39234.0,8298.0,36401.0,10394.0,-63292.0,0.0,-20630.0,-19871.0,-21209.0,-20816.0,-5563.0,7634.0,54034.0,0.0,18123.0,19319.0,17036.0,20758.0,109.0,142.0,-44.0,0.0,515.0,-15.0,139.0,416.0,-231.0,-150.0,43.0,0.0,621.0,666.0,564.0,220.0,-0.029571,-0.038488,0.012145,0.0,0.018851,-0.000573,-0.005104,0.015223,-0.062679,-0.040621,0.01172,0.0,0.022741,0.024403,-0.020659,0.008072,4645.350098,11185.110352,46956.691406,0.0,-16065.451172,-16197.84082,16545.689453,-15923.070312,5474.880371,11073.780273,51227.28125,0.0,17771.490234,17618.759766,-17270.460938,18002.339844,0.0,0.0,0.0,0.0,0.0,0.0,0.0,0.0,0.0,0.0,0.0,0.0,0.0,0.0,0.0,0.0,0.0,0.0,0.0,0.0,0.0,0.0,0.0,0.0,0.0,0.0,0.0,0.0,0.0,0.0,0.0,0.0,4645.347168,11185.108398,46956.800781,0.0,-16065.451172,-16197.84082,16545.955078,-15923.075195,5474.877441,11073.780273,51227.417969,0.0,17771.490234,17618.580078,-17270.214844,18002.314453,34.107746,87.080811,20.784121,0.0,14.471919,-6.039988,47.773857,21.496742,40.198441,85.278809,22.729612,0.0,29.609543,0.760454,37.601139,43.816162,1.208,1.42,-88016.0,-134673.0,-458449.0,0.0,157875.0,160105.0,-162632.0,156107.0,-66395.0,-115408.0,-515158.0,0.0,-179338.0,-176445.0,174858.0,-179268.0,0.0,0.0,0.0,0.0,0.0,0.0,0.0,0.0,0.0,0.0,0.0,0.0,0.0,0.0,0.0,0.0,0.0,0.0,0.0,0.0,0.0,0.0,0.0,0.0
27,222.21498608589172,34.107765,87.080818,20.784069,0.0,14.471938,-6.03997,47.74437,21.497425,40.198463,85.278809,22.729549,0.0,29.609547,0.780503,37.563831,43.828854,3.0,1.0,111.0,0.0,1.0,-110587.0,-44977.0,13851.0,-76409.0,39234.0,8298.0,-0.80463,-0.466945,0.366788,-0.530046,0.286431,-0.798128,0.267623,-0.836612,-0.477973,-0.891328,0.013942,0.453145,0.429334,-0.295107,0.853571,0.145627,0.955362,0.257052,-0.80463,-0.466945,0.366788,-0.530046,0.286431,-0.798128,0.267623,-0.836612,-0.477973,-0.891328,0.013942,0.453145,0.429334,-0.295107,0.853571,0.145627,0.955362,0.257052,-110587.0,-44977.0,13851.0,-76409.0,39234.0,8298.0,36401.0,10394.0,-63292.0,0.0,-20630.0,-19871.0,-21209.0,-20816.0,-5563.0,7634.0,54034.0,0.0,18123.0,19319.0,17036.0,20758.0,109.0,142.0,-44.0,0.0,515.0,-15.0,139.0,416.0,-231.0,-150.0,43.0,0.0,621.0,666.0,564.0,220.0,-0.029571,-0.038488,0.012145,0.0,0.018851,-0.000573,-0.00509,0.015223,-0.062679,-0.040621,0.01172,0.0,0.022741,0.024393,-0.020645,0.00807,4645.350098,11185.110352,46956.691406,0.0,-16065.451172,-16197.84082,16545.689453,-15923.070312,5474.880371,11073.780273,51227.28125,0.0,17771.490234,17618.759766,-17270.460938,18002.339844,0.0,0.0,0.0,0.0,0.0,0.0,0.0,0.0,0.0,0.0,0.0,0.0,0.0,0.0,0.0,0.0,0.0,0.0,0.0,0.0,0.0,0.0,0.0,0.0,0.0,0.0,0.0,0.0,0.0,0.0,0.0,0.0,4645.347168,11185.108398,46956.800781,0.0,-16065.451172,-16197.84082,16545.955078,-15923.075195,5474.877441,11073.780273,51227.417969,0.0,17771.490234,17618.580078,-17270.214844,18002.314453,34.107746,87.080811,20.784121,0.0,14.471919,-6.039988,47.773857,21.496742,40.198441,85.278809,22.729612,0.0,29.609543,0.760454,37.601139,43.816162,1.208,1.42,-88016.0,-134673.0,-458449.0,0.0,157875.0,160105.0,-162632.0,156107.0,-66395.0,-115408.0,-515158.0,0.0,-179338.0,-176445.0,174858.0,-179268.0,0.0,0.0,0.0,0.0,0.0,0.0,0.0,0.0,0.0,0.0,0.0,0.0,0.0,0.0,0.0,0.0,0.0,0.0,0.0,0.0,0.0,0.0,0.0,0.0
28,222.27794909477234,34.107765,87.080818,20.784069,0.0,14.471938,-6.03997,47.74437,21.497425,40.198463,85.278809,22.729549,0.0,29.609547,0.780503,37.563831,43.828854,3.0,1.0,111.0,0.0,1.0,-110587.0,-44977.0,13851.0,-76409.0,39234.0,8298.0,-0.80463,-0.466945,0.366788,-0.530046,0.286431,-0.798128,0.267623,-0.836612,-0.477973,-0.891328,0.013942,0.453145,0.429334,-0.295107,0.853571,0.145627,0.955362,0.257052,-0.80463,-0.466945,0.366788,-0.530046,0.286431,-0.798128,0.267623,-0.836612,-0.477973,-0.891328,0.013942,0.453145,0.429334,-0.295107,0.853571,0.145627,0.955362,0.257052,-110587.0,-44977.0,13851.0,-76409.0,39234.0,8298.0,36401.0,10394.0,-63292.0,0.0,-20630.0,-19871.0,-21209.0,-20816.0,-5563.0,7634.0,54034.0,0.0,18123.0,19319.0,17036.0,20758.0,109.0,142.0,-44.0,0.0,515.0,-15.0,138.0,416.0,-231.0,-150.0,43.0,0.0,621.0,666.0,563.0,220.0,-0.029571,-0.038488,0.012145,0.0,0.018851,-0.000573,-0.005075,0.015222,-0.062679,-0.040621,0.01172,0.0,0.022741,0.024383,-0.020632,0.008069,4645.350098,11185.110352,46956.691406,0.0,-16065.451172,-16197.84082,16545.689453,-15923.070312,5474.880371,11073.780273,51227.28125,0.0,17771.490234,17618.759766,-17270.460938,18002.339844,0.0,0.0,0.0,0.0,0.0,0.0,0.0,0.0,0.0,0.0,0.0,0.0,0.0,0.0,0.0,0.0,0.0,0.0,0.0,0.0,0.0,0.0,0.0,0.0,0.0,0.0,0.0,0.0,0.0,0.0,0.0,0.0,4645.347168,11185.108398,46956.800781,0.0,-16065.451172,-16197.84082,16545.955078,-15923.075195,5474.877441,11073.780273,51227.417969,0.0,17771.490234,17618.580078,-17270.214844,18002.314453,34.107746,87.080811,20.784121,0.0,14.471919,-6.039988,47.773857,21.496742,40.198441,85.278809,22.729612,0.0,29.609543,0.760454,37.601139,43.816162,1.208,1.42,-88016.0,-134673.0,-458449.0,0.0,157875.0,160105.0,-162632.0,156107.0,-66395.0,-115408.0,-515158.0,0.0,-179338.0,-176445.0,174858.0,-179268.0,0.0,0.0,0.0,0.0,0.0,0.0,0.0,0.0,0.0,0.0,0.0,0.0,0.0,0.0,0.0,0.0,0.0,0.0,0.0,0.0,0.0,0.0,0.0,0.0
29,222.34193897247314,34.107765,87.080818,20.784069,0.0,14.471938,-6.03997,47.74437,21.497425,40.198463,85.278809,22.729549,0.0,29.609547,0.780503,37.563831,43.828854,3.0,1.0,111.0,0.0,1.0,-110587.0,-44977.0,13851.0,-76409.0,39234.0,8298.0,-0.80463,-0.466945,0.366788,-0.530046,0.286431,-0.798128,0.267623,-0.836612,-0.477973,-0.891328,0.013942,0.453145,0.429334,-0.295107,0.853571,0.145627,0.955362,0.257052,-0.80463,-0.466945,0.366788,-0.530046,0.286431,-0.798128,0.267623,-0.836612,-0.477973,-0.891328,0.013942,0.453145,0.429334,-0.295107,0.853571,0.145627,0.955362,0.257052,-110587.0,-44977.0,13851.0,-76409.0,39234.0,8298.0,36401.0,10394.0,-63292.0,0.0,-20630.0,-19871.0,-21209.0,-20816.0,-5563.0,7634.0,54034.0,0.0,18123.0,19319.0,17036.0,20758.0,109.0,142.0,-44.0,0.0,515.0,-15.0,138.0,415.0,-231.0,-150.0,43.0,0.0,621.0,666.0,563.0,220.0,-0.029571,-0.038488,0.012145,0.0,0.018851,-0.000573,-0.00506,0.015222,-0.062679,-0.040621,0.01172,0.0,0.022741,0.024373,-0.020618,0.008067,4645.350098,11185.110352,46956.691406,0.0,-16065.451172,-16197.84082,16545.689453,-15923.070312,5474.880371,11073.780273,51227.28125,0.0,17771.490234,17618.759766,-17270.460938,18002.339844,0.0,0.0,0.0,0.0,0.0,0.0,0.0,0.0,0.0,0.0,0.0,0.0,0.0,0.0,0.0,0.0,0.0,0.0,0.0,0.0,0.0,0.0,0.0,0.0,0.0,0.0,0.0,0.0,0.0,0.0,0.0,0.0,4645.347168,11185.108398,46956.800781,0.0,-16065.451172,-16197.84082,16545.955078,-15923.075195,5474.877441,11073.780273,51227.417969,0.0,17771.490234,17618.580078,-17270.214844,18002.314453,34.107746,87.080811,20.784121,0.0,14.471919,-6.039988,47.773857,21.496742,40.198441,85.278809,22.729612,0.0,29.609543,0.760454,37.601139,43.816162,1.208,1.42,-88016.0,-134673.0,-458449.0,0.0,157875.0,160105.0,-162632.0,156107.0,-66395.0,-115408.0,-515158.0,0.0,-179338.0,-176445.0,174858.0,-179268.0,0.0,0.0,0.0,0.0,0.0,0.0,0.0,0.0,0.0,0.0,0.0,0.0,0.0,0.0,0.0,0.0,0.0,0.0,0.0,0.0,0.0,0.0,0.0,0.0
30,222.4049961566925,34.107765,87.080818,20.784069,0.0,14.471938,-6.03997,47.74437,21.497425,40.198463,85.278809,22.729549,0.0,29.609547,0.780503,37.563831,43.828854,3.0,1.0,111.0,0.0,1.0,-110587.0,-44977.0,13851.0,-76409.0,39234.0,8298.0,-0.80463,-0.466945,0.366788,-0.530046,0.286431,-0.798128,0.267623,-0.836612,-0.477973,-0.891328,0.013942,0.453145,0.429334,-0.295107,0.853571,0.145627,0.955362,0.257052,-0.80463,-0.466945,0.366788,-0.530046,0.286431,-0.798128,0.267623,-0.836612,-0.477973,-0.891328,0.013942,0.453145,0.429334,-0.295107,0.853571,0.145627,0.955362,0.257052,-110587.0,-44977.0,13851.0,-76409.0,39234.0,8298.0,36401.0,10394.0,-63292.0,0.0,-20630.0,-19871.0,-21209.0,-20816.0,-5563.0,7634.0,54034.0,0.0,18123.0,19319.0,17036.0,20758.0,109.0,142.0,-44.0,0.0,515.0,-15.0,137.0,415.0,-231.0,-150.0,43.0,0.0,621.0,665.0,563.0,220.0,-0.029571,-0.038488,0.012145,0.0,0.018851,-0.000573,-0.005046,0.015222,-0.062679,-0.040621,0.01172,0.0,0.022741,0.024363,-0.020605,0.008066,4645.350098,11185.110352,46956.691406,0.0,-16065.451172,-16197.84082,16545.689453,-15923.070312,5474.880371,11073.780273,51227.28125,0.0,17771.490234,17618.759766,-17270.460938,18002.339844,0.0,0.0,0.0,0.0,0.0,0.0,0.0,0.0,0.0,0.0,0.0,0.0,0.0,0.0,0.0,0.0,0.0,0.0,0.0,0.0,0.0,0.0,0.0,0.0,0.0,0.0,0.0,0.0,0.0,0.0,0.0,0.0,4645.347168,11185.108398,46956.800781,0.0,-16065.451172,-16197.84082,16545.955078,-15923.075195,5474.877441,11073.780273,51227.417969,0.0,17771.490234,17618.580078,-17270.214844,18002.314453,34.107746,87.080811,20.784121,0.0,14.471919,-6.039988,47.773857,21.496742,40.198441,85.278809,22.729612,0.0,29.609543,0.760454,37.601139,43.816162,1.208,1.42,-88016.0,-134673.0,-458449.0,0.0,157875.0,160105.0,-162632.0,156107.0,-66395.0,-115408.0,-515158.0,0.0,-179338.0,-176445.0,174858.0,-179268.0,0.0,0.0,0.0,0.0,0.0,0.0,0.0,0.0,0.0,0.0,0.0,0.0,0.0,0.0,0.0,0.0,0.0,0.0,0.0,0.0,0.0,0.0,0.0,0.0
31,222.46694898605347,34.107765,87.080818,20.784069,0.0,14.471938,-6.03997,47.74437,21.497425,40.198463,85.278809,22.729549,0.0,29.609547,0.780503,37.563831,43.828854,3.0,1.0,111.0,0.0,1.0,-110587.0,-44977.0,13851.0,-76409.0,39234.0,8298.0,-0.80463,-0.466945,0.366788,-0.530046,0.286431,-0.798128,0.267623,-0.836612,-0.477973,-0.891328,0.013942,0.453145,0.429334,-0.295107,0.853571,0.145627,0.955362,0.257052,-0.80463,-0.466945,0.366788,-0.530046,0.286431,-0.798128,0.267623,-0.836612,-0.477973,-0.891328,0.013942,0.453145,0.429334,-0.295107,0.853571,0.145627,0.955362,0.257052,-110587.0,-44977.0,13851.0,-76409.0,39234.0,8298.0,36401.0,10394.0,-63292.0,0.0,-20630.0,-19871.0,-21209.0,-20816.0,-5563.0,7634.0,54034.0,0.0,18123.0,19319.0,17036.0,20758.0,109.0,142.0,-44.0,0.0,515.0,-15.0,137.0,415.0,-231.0,-150.0,43.0,0.0,621.0,665.0,562.0,220.0,-0.029571,-0.038488,0.012145,0.0,0.018851,-0.000573,-0.005031,0.015221,-0.062679,-0.040621,0.01172,0.0,0.022741,0.024353,-0.020592,0.008065,4645.350098,11185.110352,46956.691406,0.0,-16065.451172,-16197.84082,16545.689453,-15923.070312,5474.880371,11073.780273,51227.28125,0.0,17771.490234,17618.759766,-17270.460938,18002.339844,0.0,0.0,0.0,0.0,0.0,0.0,0.0,0.0,0.0,0.0,0.0,0.0,0.0,0.0,0.0,0.0,0.0,0.0,0.0,0.0,0.0,0.0,0.0,0.0,0.0,0.0,0.0,0.0,0.0,0.0,0.0,0.0,4645.347168,11185.108398,46956.800781,0.0,-16065.451172,-16197.84082,16545.955078,-15923.075195,5474.877441,11073.780273,51227.417969,0.0,17771.490234,17618.580078,-17270.214844,18002.314453,34.107746,87.080811,20.784121,0.0,14.471919,-6.039988,47.773857,21.496742,40.198441,85.278809,22.729612,0.0,29.609543,0.760454,37.601139,43.816162,1.208,1.42,-88016.0,-134673.0,-458449.0,0.0,157875.0,160105.0,-162632.0,156107.0,-66395.0,-115408.0,-515158.0,0.0,-179338.0,-176445.0,174858.0,-179268.0,0.0,0.0,0.0,0.0,0.0,0.0,0.0,0.0,0.0,0.0,0.0,0.0,0.0,0.0,0.0,0.0,0.0,0.0,0.0,0.0,0.0,0.0,0.0,0.0
32,222.53194117546082,34.107765,87.080818,20.784069,0.0,14.471938,-6.03997,47.74437,21.497425,40.198463,85.278809,22.729549,0.0,29.609547,0.780503,37.563831,43.828854,3.0,1.0,111.0,0.0,1.0,-110587.0,-44977.0,13851.0,-76409.0,39234.0,8298.0,-0.80463,-0.466945,0.366788,-0.530046,0.286431,-0.798128,0.267623,-0.836612,-0.477973,-0.891328,0.013942,0.453145,0.429334,-0.295107,0.853571,0.145627,0.955362,0.257052,-0.80463,-0.466945,0.366788,-0.530046,0.286431,-0.798128,0.267623,-0.836612,-0.477973,-0.891328,0.013942,0.453145,0.429334,-0.295107,0.853571,0.145627,0.955362,0.257052,-110587.0,-44977.0,13851.0,-76409.0,39234.0,8298.0,36401.0,10394.0,-63292.0,0.0,-20630.0,-19871.0,-21209.0,-20816.0,-5563.0,7634.0,54034.0,0.0,18123.0,19319.0,17036.0,20758.0,109.0,142.0,-44.0,0.0,515.0,-15.0,137.0,415.0,-231.0,-150.0,43.0,0.0,621.0,665.0,562.0,220.0,-0.029571,-0.038488,0.012145,0.0,0.018851,-0.000573,-0.005016,0.015221,-0.062679,-0.040621,0.01172,0.0,0.022741,0.024343,-0.020578,0.008063,4645.350098,11185.110352,46956.691406,0.0,-16065.451172,-16197.84082,16545.689453,-15923.070312,5474.880371,11073.780273,51227.28125,0.0,17771.490234,17618.759766,-17270.460938,18002.339844,0.0,0.0,0.0,0.0,0.0,0.0,0.0,0.0,0.0,0.0,0.0,0.0,0.0,0.0,0.0,0.0,0.0,0.0,0.0,0.0,0.0,0.0,0.0,0.0,0.0,0.0,0.0,0.0,0.0,0.0,0.0,0.0,4645.347168,11185.108398,46956.800781,0.0,-16065.451172,-16197.84082,16545.955078,-15923.075195,5474.877441,11073.780273,51227.417969,0.0,17771.490234,17618.580078,-17270.214844,18002.314453,34.107746,87.080811,20.784121,0.0,14.471919,-6.039988,47.773857,21.496742,40.198441,85.278809,22.729612,0.0,29.609543,0.760454,37.601139,43.816162,1.208,1.42,-88016.0,-134673.0,-458449.0,0.0,157875.0,160105.0,-162632.0,156107.0,-66395.0,-115408.0,-515158.0,0.0,-179338.0,-176445.0,174858.0,-179268.0,0.0,0.0,0.0,0.0,0.0,0.0,0.0,0.0,0.0,0.0,0.0,0.0,0.0,0.0,0.0,0.0,0.0,0.0,0.0,0.0,0.0,0.0,0.0,0.0
33,222.59494996070862,34.107765,87.080818,20.784069,0.0,14.471938,-6.03997,47.74437,21.497425,40.198463,85.278809,22.729549,0.0,29.609547,0.780503,37.563831,43.828854,3.0,1.0,111.0,0.0,1.0,-110587.0,-44977.0,13851.0,-76409.0,39234.0,8298.0,-0.80463,-0.466945,0.366788,-0.530046,0.286431,-0.798128,0.267623,-0.836612,-0.477973,-0.891328,0.013942,0.453145,0.429334,-0.295107,0.853571,0.145627,0.955362,0.257052,-0.80463,-0.466945,0.366788,-0.530046,0.286431,-0.798128,0.267623,-0.836612,-0.477973,-0.891328,0.013942,0.453145,0.429334,-0.295107,0.853571,0.145627,0.955362,0.257052,-110587.0,-44977.0,13851.0,-76409.0,39234.0,8298.0,36401.0,10394.0,-63292.0,0.0,-20630.0,-19871.0,-21209.0,-20816.0,-5563.0,7634.0,54034.0,0.0,18123.0,19319.0,17036.0,20758.0,109.0,142.0,-44.0,0.0,515.0,-15.0,136.0,415.0,-231.0,-150.0,43.0,0.0,621.0,664.0,561.0,220.0,-0.029571,-0.038488,0.012145,0.0,0.018851,-0.000573,-0.005001,0.015221,-0.062679,-0.040621,0.01172,0.0,0.022741,0.024333,-0.020564,0.008062,4645.350098,11185.110352,46956.691406,0.0,-16065.451172,-16197.84082,16545.689453,-15923.070312,5474.880371,11073.780273,51227.28125,0.0,17771.490234,17618.759766,-17270.460938,18002.339844,0.0,0.0,0.0,0.0,0.0,0.0,0.0,0.0,0.0,0.0,0.0,0.0,0.0,0.0,0.0,0.0,0.0,0.0,0.0,0.0,0.0,0.0,0.0,0.0,0.0,0.0,0.0,0.0,0.0,0.0,0.0,0.0,4645.347168,11185.108398,46956.800781,0.0,-16065.451172,-16197.84082,16545.955078,-15923.075195,5474.877441,11073.780273,51227.417969,0.0,17771.490234,17618.580078,-17270.214844,18002.314453,34.107746,87.080811,20.784121,0.0,14.471919,-6.039988,47.773857,21.496742,40.198441,85.278809,22.729612,0.0,29.609543,0.760454,37.601139,43.816162,1.208,1.42,-88016.0,-134673.0,-458449.0,0.0,157875.0,160105.0,-162632.0,156107.0,-66395.0,-115408.0,-515158.0,0.0,-179338.0,-176445.0,174858.0,-179268.0,0.0,0.0,0.0,0.0,0.0,0.0,0.0,0.0,0.0,0.0,0.0,0.0,0.0,0.0,0.0,0.0,0.0,0.0,0.0,0.0,0.0,0.0,0.0,0.0
34,222.65791296958923,34.107765,87.080818,20.784069,0.0,14.471938,-6.03997,47.74437,21.497425,40.198463,85.278809,22.729549,0.0,29.609547,0.780503,37.563831,43.828854,3.0,1.0,111.0,0.0,1.0,-110587.0,-44977.0,13851.0,-76409.0,39234.0,8298.0,-0.80463,-0.466945,0.366788,-0.530046,0.286431,-0.798128,0.267623,-0.836612,-0.477973,-0.891328,0.013942,0.453145,0.429334,-0.295107,0.853571,0.145627,0.955362,0.257052,-0.80463,-0.466945,0.366788,-0.530046,0.286431,-0.798128,0.267623,-0.836612,-0.477973,-0.891328,0.013942,0.453145,0.429334,-0.295107,0.853571,0.145627,0.955362,0.257052,-110587.0,-44977.0,13851.0,-76409.0,39234.0,8298.0,36401.0,10394.0,-63292.0,0.0,-20630.0,-19871.0,-21209.0,-20816.0,-5563.0,7634.0,54034.0,0.0,18123.0,19319.0,17036.0,20758.0,109.0,142.0,-44.0,0.0,515.0,-15.0,136.0,415.0,-231.0,-150.0,43.0,0.0,621.0,664.0,561.0,220.0,-0.029571,-0.038488,0.012145,0.0,0.018851,-0.000573,-0.004987,0.015221,-0.062679,-0.040621,0.01172,0.0,0.022741,0.024323,-0.020551,0.008061,4645.350098,11185.110352,46956.691406,0.0,-16065.451172,-16197.84082,16545.689453,-15923.070312,5474.880371,11073.780273,51227.28125,0.0,17771.490234,17618.759766,-17270.460938,18002.339844,0.0,0.0,0.0,0.0,0.0,0.0,0.0,0.0,0.0,0.0,0.0,0.0,0.0,0.0,0.0,0.0,0.0,0.0,0.0,0.0,0.0,0.0,0.0,0.0,0.0,0.0,0.0,0.0,0.0,0.0,0.0,0.0,4645.347168,11185.108398,46956.800781,0.0,-16065.451172,-16197.84082,16545.955078,-15923.075195,5474.877441,11073.780273,51227.417969,0.0,17771.490234,17618.580078,-17270.214844,18002.314453,34.107746,87.080811,20.784121,0.0,14.471919,-6.039988,47.773857,21.496742,40.198441,85.278809,22.729612,0.0,29.609543,0.760454,37.601139,43.816162,1.208,1.42,-88016.0,-134673.0,-458449.0,0.0,157875.0,160105.0,-162632.0,156107.0,-66395.0,-115408.0,-515158.0,0.0,-179338.0,-176445.0,174858.0,-179268.0,0.0,0.0,0.0,0.0,0.0,0.0,0.0,0.0,0.0,0.0,0.0,0.0,0.0,0.0,0.0,0.0,0.0,0.0,0.0,0.0,0.0,0.0,0.0,0.0
35,222.72100400924683,34.107765,87.080818,20.784069,0.0,14.471938,-6.03997,47.74437,21.497425,40.198463,85.278809,22.729549,0.0,29.609547,0.780503,37.563831,43.828854,3.0,1.0,111.0,0.0,1.0,-110587.0,-44977.0,13851.0,-76409.0,39234.0,8298.0,-0.80463,-0.466945,0.366788,-0.530046,0.286431,-0.798128,0.267623,-0.836612,-0.477973,-0.891328,0.013942,0.453145,0.429334,-0.295107,0.853571,0.145627,0.955362,0.257052,-0.80463,-0.466945,0.366788,-0.530046,0.286431,-0.798128,0.267623,-0.836612,-0.477973,-0.891328,0.013942,0.453145,0.429334,-0.295107,0.853571,0.145627,0.955362,0.257052,-110587.0,-44977.0,13851.0,-76409.0,39234.0,8298.0,36401.0,10394.0,-63292.0,0.0,-20630.0,-19871.0,-21209.0,-20816.0,-5563.0,7634.0,54034.0,0.0,18123.0,19319.0,17036.0,20758.0,109.0,142.0,-44.0,0.0,515.0,-15.0,135.0,415.0,-231.0,-150.0,43.0,0.0,621.0,664.0,561.0,220.0,-0.029571,-0.038488,0.012145,0.0,0.018851,-0.000573,-0.004972,0.01522,-0.062679,-0.040621,0.01172,0.0,0.022741,0.024313,-0.020537,0.008059,4645.350098,11185.110352,46956.691406,0.0,-16065.451172,-16197.84082,16545.689453,-15923.070312,5474.880371,11073.780273,51227.28125,0.0,17771.490234,17618.759766,-17270.460938,18002.339844,0.0,0.0,0.0,0.0,0.0,0.0,0.0,0.0,0.0,0.0,0.0,0.0,0.0,0.0,0.0,0.0,0.0,0.0,0.0,0.0,0.0,0.0,0.0,0.0,0.0,0.0,0.0,0.0,0.0,0.0,0.0,0.0,4645.347168,11185.108398,46956.800781,0.0,-16065.451172,-16197.84082,16545.955078,-15923.075195,5474.877441,11073.780273,51227.417969,0.0,17771.490234,17618.580078,-17270.214844,18002.314453,34.107746,87.080811,20.784121,0.0,14.471919,-6.039988,47.773857,21.496742,40.198441,85.278809,22.729612,0.0,29.609543,0.760454,37.601139,43.816162,1.208,1.42,-88016.0,-134673.0,-458449.0,0.0,157875.0,160105.0,-162632.0,156107.0,-66395.0,-115408.0,-515158.0,0.0,-179338.0,-176445.0,174858.0,-179268.0,0.0,0.0,0.0,0.0,0.0,0.0,0.0,0.0,0.0,0.0,0.0,0.0,0.0,0.0,0.0,0.0,0.0,0.0,0.0,0.0,0.0,0.0,0.0,0.0
36,222.78496313095093,34.107765,87.080818,20.784069,0.0,14.471938,-6.03997,47.74437,21.497425,40.198463,85.278809,22.729549,0.0,29.609547,0.780503,37.563831,43.828854,3.0,1.0,111.0,0.0,1.0,-110587.0,-44977.0,13851.0,-76409.0,39234.0,8298.0,-0.80463,-0.466945,0.366788,-0.530046,0.286431,-0.798128,0.267623,-0.836612,-0.477973,-0.891328,0.013942,0.453145,0.429334,-0.295107,0.853571,0.145627,0.955362,0.257052,-0.80463,-0.466945,0.366788,-0.530046,0.286431,-0.798128,0.267623,-0.836612,-0.477973,-0.891328,0.013942,0.453145,0.429334,-0.295107,0.853571,0.145627,0.955362,0.257052,-110587.0,-44977.0,13851.0,-76409.0,39234.0,8298.0,36401.0,10394.0,-63292.0,0.0,-20630.0,-19871.0,-21209.0,-20816.0,-5563.0,7634.0,54034.0,0.0,18123.0,19319.0,17036.0,20758.0,109.0,142.0,-44.0,0.0,515.0,-15.0,135.0,415.0,-231.0,-150.0,43.0,0.0,621.0,664.0,560.0,220.0,-0.029571,-0.038488,0.012145,0.0,0.018851,-0.000573,-0.004957,0.01522,-0.062679,-0.040621,0.01172,0.0,0.022741,0.024303,-0.020524,0.008058,4645.350098,11185.110352,46956.691406,0.0,-16065.451172,-16197.84082,16545.689453,-15923.070312,5474.880371,11073.780273,51227.28125,0.0,17771.490234,17618.759766,-17270.460938,18002.339844,0.0,0.0,0.0,0.0,0.0,0.0,0.0,0.0,0.0,0.0,0.0,0.0,0.0,0.0,0.0,0.0,0.0,0.0,0.0,0.0,0.0,0.0,0.0,0.0,0.0,0.0,0.0,0.0,0.0,0.0,0.0,0.0,4645.347168,11185.108398,46956.800781,0.0,-16065.451172,-16197.84082,16545.955078,-15923.075195,5474.877441,11073.780273,51227.417969,0.0,17771.490234,17618.580078,-17270.214844,18002.314453,34.107746,87.080811,20.784121,0.0,14.471919,-6.039988,47.773857,21.496742,40.198441,85.278809,22.729612,0.0,29.609543,0.760454,37.601139,43.816162,1.208,1.42,-88016.0,-134673.0,-458449.0,0.0,157875.0,160105.0,-162632.0,156107.0,-66395.0,-115408.0,-515158.0,0.0,-179338.0,-176445.0,174858.0,-179268.0,0.0,0.0,0.0,0.0,0.0,0.0,0.0,0.0,0.0,0.0,0.0,0.0,0.0,0.0,0.0,0.0,0.0,0.0,0.0,0.0,0.0,0.0,0.0,0.0
37,222.8489511013031,34.107765,87.080818,20.784069,0.0,14.471938,-6.03997,47.74437,21.497425,40.198463,85.278809,22.729549,0.0,29.609547,0.780503,37.563831,43.828854,3.0,1.0,111.0,0.0,1.0,-110587.0,-44977.0,13851.0,-76409.0,39234.0,8298.0,-0.80463,-0.466945,0.366788,-0.530046,0.286431,-0.798128,0.267623,-0.836612,-0.477973,-0.891328,0.013942,0.453145,0.429334,-0.295107,0.853571,0.145627,0.955362,0.257052,-0.80463,-0.466945,0.366788,-0.530046,0.286431,-0.798128,0.267623,-0.836612,-0.477973,-0.891328,0.013942,0.453145,0.429334,-0.295107,0.853571,0.145627,0.955362,0.257052,-110587.0,-44977.0,13851.0,-76409.0,39234.0,8298.0,36401.0,10394.0,-63292.0,0.0,-20630.0,-19871.0,-21209.0,-20816.0,-5563.0,7634.0,54034.0,0.0,18123.0,19319.0,17036.0,20758.0,109.0,142.0,-44.0,0.0,515.0,-15.0,135.0,415.0,-231.0,-150.0,43.0,0.0,621.0,663.0,560.0,220.0,-0.029571,-0.038488,0.012145,0.0,0.018851,-0.000573,-0.004942,0.01522,-0.062679,-0.040621,0.01172,0.0,0.022741,0.024293,-0.02051,0.008057,4645.350098,11185.110352,46956.691406,0.0,-16065.451172,-16197.84082,16545.689453,-15923.070312,5474.880371,11073.780273,51227.28125,0.0,17771.490234,17618.759766,-17270.460938,18002.339844,0.0,0.0,0.0,0.0,0.0,0.0,0.0,0.0,0.0,0.0,0.0,0.0,0.0,0.0,0.0,0.0,0.0,0.0,0.0,0.0,0.0,0.0,0.0,0.0,0.0,0.0,0.0,0.0,0.0,0.0,0.0,0.0,4645.347168,11185.108398,46956.800781,0.0,-16065.451172,-16197.84082,16545.955078,-15923.075195,5474.877441,11073.780273,51227.417969,0.0,17771.490234,17618.580078,-17270.214844,18002.314453,34.107746,87.080811,20.784121,0.0,14.471919,-6.039988,47.773857,21.496742,40.198441,85.278809,22.729612,0.0,29.609543,0.760454,37.601139,43.816162,1.208,1.42,-88016.0,-134673.0,-458449.0,0.0,157875.0,160105.0,-162632.0,156107.0,-66395.0,-115408.0,-515158.0,0.0,-179338.0,-176445.0,174858.0,-179268.0,0.0,0.0,0.0,0.0,0.0,0.0,0.0,0.0,0.0,0.0,0.0,0.0,0.0,0.0,0.0,0.0,0.0,0.0,0.0,0.0,0.0,0.0,0.0,0.0
38,222.91194701194763,34.107765,87.080818,20.784069,0.0,14.471938,-6.03997,47.74437,21.497425,40.198463,85.278809,22.729549,0.0,29.609547,0.780503,37.563831,43.828854,3.0,1.0,111.0,0.0,1.0,-110587.0,-44977.0,13851.0,-76409.0,39234.0,8298.0,-0.80463,-0.466945,0.366788,-0.530046,0.286431,-0.798128,0.267623,-0.836612,-0.477973,-0.891328,0.013942,0.453145,0.429334,-0.295107,0.853571,0.145627,0.955362,0.257052,-0.80463,-0.466945,0.366788,-0.530046,0.286431,-0.798128,0.267623,-0.836612,-0.477973,-0.891328,0.013942,0.453145,0.429334,-0.295107,0.853571,0.145627,0.955362,0.257052,-110587.0,-44977.0,13851.0,-76409.0,39234.0,8298.0,36401.0,10394.0,-63292.0,0.0,-20630.0,-19871.0,-21209.0,-20816.0,-5563.0,7634.0,54034.0,0.0,18123.0,19319.0,17036.0,20758.0,109.0,142.0,-44.0,0.0,515.0,-15.0,134.0,415.0,-231.0,-150.0,43.0,0.0,621.0,663.0,560.0,220.0,-0.029571,-0.038488,0.012145,0.0,0.018851,-0.000573,-0.004928,0.015219,-0.062679,-0.040621,0.01172,0.0,0.022741,0.024283,-0.020497,0.008055,4645.350098,11185.110352,46956.691406,0.0,-16065.451172,-16197.84082,16545.689453,-15923.070312,5474.880371,11073.780273,51227.28125,0.0,17771.490234,17618.759766,-17270.460938,18002.339844,0.0,0.0,0.0,0.0,0.0,0.0,0.0,0.0,0.0,0.0,0.0,0.0,0.0,0.0,0.0,0.0,0.0,0.0,0.0,0.0,0.0,0.0,0.0,0.0,0.0,0.0,0.0,0.0,0.0,0.0,0.0,0.0,4645.347168,11185.108398,46956.800781,0.0,-16065.451172,-16197.84082,16545.955078,-15923.075195,5474.877441,11073.780273,51227.417969,0.0,17771.490234,17618.580078,-17270.214844,18002.314453,34.107746,87.080811,20.784121,0.0,14.471919,-6.039988,47.773857,21.496742,40.198441,85.278809,22.729612,0.0,29.609543,0.760454,37.601139,43.816162,1.208,1.42,-88016.0,-134673.0,-458449.0,0.0,157875.0,160105.0,-162632.0,156107.0,-66395.0,-115408.0,-515158.0,0.0,-179338.0,-176445.0,174858.0,-179268.0,0.0,0.0,0.0,0.0,0.0,0.0,0.0,0.0,0.0,0.0,0.0,0.0,0.0,0.0,0.0,0.0,0.0,0.0,0.0,0.0,0.0,0.0,0.0,0.0
39,222.97504115104675,34.107765,87.080818,20.784069,0.0,14.471938,-6.03997,47.74437,21.497425,40.198463,85.278809,22.729549,0.0,29.609547,0.780503,37.563831,43.828854,3.0,1.0,111.0,0.0,1.0,-110587.0,-44977.0,13851.0,-76409.0,39234.0,8298.0,-0.80463,-0.466945,0.366788,-0.530046,0.286431,-0.798128,0.267623,-0.836612,-0.477973,-0.891328,0.013942,0.453145,0.429334,-0.295107,0.853571,0.145627,0.955362,0.257052,-0.80463,-0.466945,0.366788,-0.530046,0.286431,-0.798128,0.267623,-0.836612,-0.477973,-0.891328,0.013942,0.453145,0.429334,-0.295107,0.853571,0.145627,0.955362,0.257052,-110587.0,-44977.0,13851.0,-76409.0,39234.0,8298.0,36401.0,10394.0,-63292.0,0.0,-20630.0,-19871.0,-21209.0,-20816.0,-5563.0,7634.0,54034.0,0.0,18123.0,19319.0,17036.0,20758.0,109.0,142.0,-44.0,0.0,515.0,-15.0,134.0,415.0,-231.0,-150.0,43.0,0.0,621.0,663.0,559.0,220.0,-0.029571,-0.038488,0.012145,0.0,0.018851,-0.000573,-0.004913,0.015219,-0.062679,-0.040621,0.01172,0.0,0.022741,0.024274,-0.020483,0.008054,4645.350098,11185.110352,46956.691406,0.0,-16065.451172,-16197.84082,16545.689453,-15923.070312,5474.880371,11073.780273,51227.28125,0.0,17771.490234,17618.759766,-17270.460938,18002.339844,0.0,0.0,0.0,0.0,0.0,0.0,0.0,0.0,0.0,0.0,0.0,0.0,0.0,0.0,0.0,0.0,0.0,0.0,0.0,0.0,0.0,0.0,0.0,0.0,0.0,0.0,0.0,0.0,0.0,0.0,0.0,0.0,4645.347168,11185.108398,46956.800781,0.0,-16065.451172,-16197.84082,16545.955078,-15923.075195,5474.877441,11073.780273,51227.417969,0.0,17771.490234,17618.580078,-17270.214844,18002.314453,34.107746,87.080811,20.784121,0.0,14.471919,-6.039988,47.773857,21.496742,40.198441,85.278809,22.729612,0.0,29.609543,0.760454,37.601139,43.816162,1.208,1.42,-88016.0,-134673.0,-458449.0,0.0,157875.0,160105.0,-162632.0,156107.0,-66395.0,-115408.0,-515158.0,0.0,-179338.0,-176445.0,174858.0,-179268.0,0.0,0.0,0.0,0.0,0.0,0.0,0.0,0.0,0.0,0.0,0.0,0.0,0.0,0.0,0.0,0.0,0.0,0.0,0.0,0.0,0.0,0.0,0.0,0.0
40,223.03701305389404,34.107765,87.080818,20.784069,0.0,14.471938,-6.03997,47.74437,21.497425,40.198463,85.278809,22.729549,0.0,29.609547,0.780503,37.563831,43.828854,3.0,1.0,111.0,0.0,1.0,-110587.0,-44977.0,13851.0,-76409.0,39234.0,8298.0,-0.80463,-0.466945,0.366788,-0.530046,0.286431,-0.798128,0.267623,-0.836612,-0.477973,-0.891328,0.013942,0.453145,0.429334,-0.295107,0.853571,0.145627,0.955362,0.257052,-0.80463,-0.466945,0.366788,-0.530046,0.286431,-0.798128,0.267623,-0.836612,-0.477973,-0.891328,0.013942,0.453145,0.429334,-0.295107,0.853571,0.145627,0.955362,0.257052,-110587.0,-44977.0,13851.0,-76409.0,39234.0,8298.0,36401.0,10394.0,-63292.0,0.0,-20630.0,-19871.0,-21209.0,-20816.0,-5563.0,7634.0,54034.0,0.0,18123.0,19319.0,17036.0,20758.0,109.0,142.0,-44.0,0.0,515.0,-15.0,133.0,415.0,-231.0,-150.0,43.0,0.0,621.0,663.0,559.0,220.0,-0.029571,-0.038488,0.012145,0.0,0.018851,-0.000573,-0.004899,0.015219,-0.062679,-0.040621,0.01172,0.0,0.022741,0.024264,-0.02047,0.008052,4645.350098,11185.110352,46956.691406,0.0,-16065.451172,-16197.84082,16545.689453,-15923.070312,5474.880371,11073.780273,51227.28125,0.0,17771.490234,17618.759766,-17270.460938,18002.339844,0.0,0.0,0.0,0.0,0.0,0.0,0.0,0.0,0.0,0.0,0.0,0.0,0.0,0.0,0.0,0.0,0.0,0.0,0.0,0.0,0.0,0.0,0.0,0.0,0.0,0.0,0.0,0.0,0.0,0.0,0.0,0.0,4645.347168,11185.108398,46956.800781,0.0,-16065.451172,-16197.84082,16545.955078,-15923.075195,5474.877441,11073.780273,51227.417969,0.0,17771.490234,17618.580078,-17270.214844,18002.314453,34.107746,87.080811,20.784121,0.0,14.471919,-6.039988,47.773857,21.496742,40.198441,85.278809,22.729612,0.0,29.609543,0.760454,37.601139,43.816162,1.208,1.42,-88016.0,-134673.0,-458449.0,0.0,157875.0,160105.0,-162632.0,156107.0,-66395.0,-115408.0,-515158.0,0.0,-179338.0,-176445.0,174858.0,-179268.0,0.0,0.0,0.0,0.0,0.0,0.0,0.0,0.0,0.0,0.0,0.0,0.0,0.0,0.0,0.0,0.0,0.0,0.0,0.0,0.0,0.0,0.0,0.0,0.0
41,223.10208296775818,34.107765,87.080818,20.784069,0.0,14.471938,-6.03997,47.74437,21.497425,40.198463,85.278809,22.729549,0.0,29.609547,0.780503,37.563831,43.828854,3.0,1.0,111.0,0.0,1.0,-110587.0,-44977.0,13851.0,-76409.0,39234.0,8298.0,-0.80463,-0.466945,0.366788,-0.530046,0.286431,-0.798128,0.267623,-0.836612,-0.477973,-0.891328,0.013942,0.453145,0.429334,-0.295107,0.853571,0.145627,0.955362,0.257052,-0.80463,-0.466945,0.366788,-0.530046,0.286431,-0.798128,0.267623,-0.836612,-0.477973,-0.891328,0.013942,0.453145,0.429334,-0.295107,0.853571,0.145627,0.955362,0.257052,-110587.0,-44977.0,13851.0,-76409.0,39234.0,8298.0,36401.0,10394.0,-63292.0,0.0,-20630.0,-19871.0,-21209.0,-20816.0,-5563.0,7634.0,54034.0,0.0,18123.0,19319.0,17036.0,20758.0,109.0,142.0,-44.0,0.0,515.0,-15.0,133.0,415.0,-231.0,-150.0,43.0,0.0,621.0,662.0,559.0,220.0,-0.029571,-0.038488,0.012145,0.0,0.018851,-0.000573,-0.004884,0.015219,-0.062679,-0.040621,0.01172,0.0,0.022741,0.024254,-0.020456,0.008051,4645.350098,11185.110352,46956.691406,0.0,-16065.451172,-16197.84082,16545.689453,-15923.070312,5474.880371,11073.780273,51227.28125,0.0,17771.490234,17618.759766,-17270.460938,18002.339844,0.0,0.0,0.0,0.0,0.0,0.0,0.0,0.0,0.0,0.0,0.0,0.0,0.0,0.0,0.0,0.0,0.0,0.0,0.0,0.0,0.0,0.0,0.0,0.0,0.0,0.0,0.0,0.0,0.0,0.0,0.0,0.0,4645.347168,11185.108398,46956.800781,0.0,-16065.451172,-16197.84082,16545.955078,-15923.075195,5474.877441,11073.780273,51227.417969,0.0,17771.490234,17618.580078,-17270.214844,18002.314453,34.107746,87.080811,20.784121,0.0,14.471919,-6.039988,47.773857,21.496742,40.198441,85.278809,22.729612,0.0,29.609543,0.760454,37.601139,43.816162,1.208,1.42,-88016.0,-134673.0,-458449.0,0.0,157875.0,160105.0,-162632.0,156107.0,-66395.0,-115408.0,-515158.0,0.0,-179338.0,-176445.0,174858.0,-179268.0,0.0,0.0,0.0,0.0,0.0,0.0,0.0,0.0,0.0,0.0,0.0,0.0,0.0,0.0,0.0,0.0,0.0,0.0,0.0,0.0,0.0,0.0,0.0,0.0
42,223.16504907608032,34.107765,87.080818,20.784069,0.0,14.471938,-6.03997,47.74437,21.497425,40.198463,85.278809,22.729549,0.0,29.609547,0.780503,37.563831,43.828854,3.0,1.0,111.0,0.0,1.0,-110587.0,-44977.0,13851.0,-76409.0,39234.0,8298.0,-0.80463,-0.466945,0.366788,-0.530046,0.286431,-0.798128,0.267623,-0.836612,-0.477973,-0.891328,0.013942,0.453145,0.429334,-0.295107,0.853571,0.145627,0.955362,0.257052,-0.80463,-0.466945,0.366788,-0.530046,0.286431,-0.798128,0.267623,-0.836612,-0.477973,-0.891328,0.013942,0.453145,0.429334,-0.295107,0.853571,0.145627,0.955362,0.257052,-110587.0,-44977.0,13851.0,-76409.0,39234.0,8298.0,36401.0,10394.0,-63292.0,0.0,-20630.0,-19871.0,-21209.0,-20816.0,-5563.0,7634.0,54034.0,0.0,18123.0,19319.0,17036.0,20758.0,109.0,142.0,-44.0,0.0,515.0,-15.0,133.0,415.0,-231.0,-150.0,43.0,0.0,621.0,662.0,558.0,219.0,-0.029571,-0.038488,0.012145,0.0,0.018851,-0.000573,-0.004869,0.015218,-0.062679,-0.040621,0.01172,0.0,0.022741,0.024244,-0.020443,0.00805,4645.350098,11185.110352,46956.691406,0.0,-16065.451172,-16197.84082,16545.689453,-15923.070312,5474.880371,11073.780273,51227.28125,0.0,17771.490234,17618.759766,-17270.460938,18002.339844,0.0,0.0,0.0,0.0,0.0,0.0,0.0,0.0,0.0,0.0,0.0,0.0,0.0,0.0,0.0,0.0,0.0,0.0,0.0,0.0,0.0,0.0,0.0,0.0,0.0,0.0,0.0,0.0,0.0,0.0,0.0,0.0,4645.347168,11185.108398,46956.800781,0.0,-16065.451172,-16197.84082,16545.955078,-15923.075195,5474.877441,11073.780273,51227.417969,0.0,17771.490234,17618.580078,-17270.214844,18002.314453,34.107746,87.080811,20.784121,0.0,14.471919,-6.039988,47.773857,21.496742,40.198441,85.278809,22.729612,0.0,29.609543,0.760454,37.601139,43.816162,1.208,1.42,-88016.0,-134673.0,-458449.0,0.0,157875.0,160105.0,-162632.0,156107.0,-66395.0,-115408.0,-515158.0,0.0,-179338.0,-176445.0,174858.0,-179268.0,0.0,0.0,0.0,0.0,0.0,0.0,0.0,0.0,0.0,0.0,0.0,0.0,0.0,0.0,0.0,0.0,0.0,0.0,0.0,0.0,0.0,0.0,0.0,0.0
43,223.229012966156,34.107765,87.080818,20.784069,0.0,14.471938,-6.03997,47.74437,21.497425,40.198463,85.278809,22.729549,0.0,29.609547,0.780503,37.563831,43.828854,3.0,1.0,111.0,0.0,1.0,-110587.0,-44977.0,13851.0,-76409.0,39234.0,8298.0,-0.80463,-0.466945,0.366788,-0.530046,0.286431,-0.798128,0.267623,-0.836612,-0.477973,-0.891328,0.013942,0.453145,0.429334,-0.295107,0.853571,0.145627,0.955362,0.257052,-0.80463,-0.466945,0.366788,-0.530046,0.286431,-0.798128,0.267623,-0.836612,-0.477973,-0.891328,0.013942,0.453145,0.429334,-0.295107,0.853571,0.145627,0.955362,0.257052,-110587.0,-44977.0,13851.0,-76409.0,39234.0,8298.0,36401.0,10394.0,-63292.0,0.0,-20630.0,-19871.0,-21209.0,-20816.0,-5563.0,7634.0,54034.0,0.0,18123.0,19319.0,17036.0,20758.0,109.0,142.0,-44.0,0.0,515.0,-15.0,132.0,415.0,-231.0,-150.0,43.0,0.0,621.0,662.0,558.0,219.0,-0.029571,-0.038488,0.012145,0.0,0.018851,-0.000573,-0.004854,0.015218,-0.062679,-0.040621,0.01172,0.0,0.022741,0.024234,-0.020429,0.008048,4645.350098,11185.110352,46956.691406,0.0,-16065.451172,-16197.84082,16545.689453,-15923.070312,5474.880371,11073.780273,51227.28125,0.0,17771.490234,17618.759766,-17270.460938,18002.339844,0.0,0.0,0.0,0.0,0.0,0.0,0.0,0.0,0.0,0.0,0.0,0.0,0.0,0.0,0.0,0.0,0.0,0.0,0.0,0.0,0.0,0.0,0.0,0.0,0.0,0.0,0.0,0.0,0.0,0.0,0.0,0.0,4645.347168,11185.108398,46956.800781,0.0,-16065.451172,-16197.84082,16545.955078,-15923.075195,5474.877441,11073.780273,51227.417969,0.0,17771.490234,17618.580078,-17270.214844,18002.314453,34.107746,87.080811,20.784121,0.0,14.471919,-6.039988,47.773857,21.496742,40.198441,85.278809,22.729612,0.0,29.609543,0.760454,37.601139,43.816162,1.208,1.42,-88016.0,-134673.0,-458449.0,0.0,157875.0,160105.0,-162632.0,156107.0,-66395.0,-115408.0,-515158.0,0.0,-179338.0,-176445.0,174858.0,-179268.0,0.0,0.0,0.0,0.0,0.0,0.0,0.0,0.0,0.0,0.0,0.0,0.0,0.0,0.0,0.0,0.0,0.0,0.0,0.0,0.0,0.0,0.0,0.0,0.0
44,223.29103207588196,34.107765,87.080818,20.784069,0.0,14.471938,-6.03997,47.74437,21.497425,40.198463,85.278809,22.729549,0.0,29.609547,0.780503,37.563831,43.828854,3.0,1.0,111.0,0.0,1.0,-110587.0,-44977.0,13851.0,-76409.0,39234.0,8298.0,-0.80463,-0.466945,0.366788,-0.530046,0.286431,-0.798128,0.267623,-0.836612,-0.477973,-0.891328,0.013942,0.453145,0.429334,-0.295107,0.853571,0.145627,0.955362,0.257052,-0.80463,-0.466945,0.366788,-0.530046,0.286431,-0.798128,0.267623,-0.836612,-0.477973,-0.891328,0.013942,0.453145,0.429334,-0.295107,0.853571,0.145627,0.955362,0.257052,-110587.0,-44977.0,13851.0,-76409.0,39234.0,8298.0,36401.0,10394.0,-63292.0,0.0,-20630.0,-19871.0,-21209.0,-20816.0,-5563.0,7634.0,54034.0,0.0,18123.0,19319.0,17036.0,20758.0,109.0,142.0,-44.0,0.0,515.0,-15.0,132.0,415.0,-231.0,-150.0,43.0,0.0,621.0,662.0,557.0,219.0,-0.029571,-0.038488,0.012145,0.0,0.018851,-0.000573,-0.00484,0.015218,-0.062679,-0.040621,0.01172,0.0,0.022741,0.024224,-0.020416,0.008047,4645.350098,11185.110352,46956.691406,0.0,-16065.451172,-16197.84082,16545.689453,-15923.070312,5474.880371,11073.780273,51227.28125,0.0,17771.490234,17618.759766,-17270.460938,18002.339844,0.0,0.0,0.0,0.0,0.0,0.0,0.0,0.0,0.0,0.0,0.0,0.0,0.0,0.0,0.0,0.0,0.0,0.0,0.0,0.0,0.0,0.0,0.0,0.0,0.0,0.0,0.0,0.0,0.0,0.0,0.0,0.0,4645.347168,11185.108398,46956.800781,0.0,-16065.451172,-16197.84082,16545.955078,-15923.075195,5474.877441,11073.780273,51227.417969,0.0,17771.490234,17618.580078,-17270.214844,18002.314453,34.107746,87.080811,20.784121,0.0,14.471919,-6.039988,47.773857,21.496742,40.198441,85.278809,22.729612,0.0,29.609543,0.760454,37.601139,43.816162,1.208,1.42,-88016.0,-134673.0,-458449.0,0.0,157875.0,160105.0,-162632.0,156107.0,-66395.0,-115408.0,-515158.0,0.0,-179338.0,-176445.0,174858.0,-179268.0,0.0,0.0,0.0,0.0,0.0,0.0,0.0,0.0,0.0,0.0,0.0,0.0,0.0,0.0,0.0,0.0,0.0,0.0,0.0,0.0,0.0,0.0,0.0,0.0
45,223.35499596595764,34.107765,87.080818,20.784069,0.0,14.471938,-6.03997,47.74437,21.497425,40.198463,85.278809,22.729549,0.0,29.609547,0.780503,37.563831,43.828854,3.0,1.0,111.0,0.0,1.0,-110587.0,-44977.0,13851.0,-76409.0,39234.0,8298.0,-0.80463,-0.466945,0.366788,-0.530046,0.286431,-0.798128,0.267623,-0.836612,-0.477973,-0.891328,0.013942,0.453145,0.429334,-0.295107,0.853571,0.145627,0.955362,0.257052,-0.80463,-0.466945,0.366788,-0.530046,0.286431,-0.798128,0.267623,-0.836612,-0.477973,-0.891328,0.013942,0.453145,0.429334,-0.295107,0.853571,0.145627,0.955362,0.257052,-110587.0,-44977.0,13851.0,-76409.0,39234.0,8298.0,36401.0,10394.0,-63292.0,0.0,-20630.0,-19871.0,-21209.0,-20816.0,-5563.0,7634.0,54034.0,0.0,18123.0,19319.0,17036.0,20758.0,109.0,142.0,-44.0,0.0,515.0,-15.0,131.0,415.0,-231.0,-150.0,43.0,0.0,621.0,661.0,557.0,219.0,-0.029571,-0.038488,0.012145,0.0,0.018851,-0.000573,-0.004825,0.015218,-0.062679,-0.040621,0.01172,0.0,0.022741,0.024214,-0.020402,0.008046,4645.350098,11185.110352,46956.691406,0.0,-16065.451172,-16197.84082,16545.689453,-15923.070312,5474.880371,11073.780273,51227.28125,0.0,17771.490234,17618.759766,-17270.460938,18002.339844,0.0,0.0,0.0,0.0,0.0,0.0,0.0,0.0,0.0,0.0,0.0,0.0,0.0,0.0,0.0,0.0,0.0,0.0,0.0,0.0,0.0,0.0,0.0,0.0,0.0,0.0,0.0,0.0,0.0,0.0,0.0,0.0,4645.347168,11185.108398,46956.800781,0.0,-16065.451172,-16197.84082,16545.955078,-15923.075195,5474.877441,11073.780273,51227.417969,0.0,17771.490234,17618.580078,-17270.214844,18002.314453,34.107746,87.080811,20.784121,0.0,14.471919,-6.039988,47.773857,21.496742,40.198441,85.278809,22.729612,0.0,29.609543,0.760454,37.601139,43.816162,1.208,1.42,-88016.0,-134673.0,-458449.0,0.0,157875.0,160105.0,-162632.0,156107.0,-66395.0,-115408.0,-515158.0,0.0,-179338.0,-176445.0,174858.0,-179268.0,0.0,0.0,0.0,0.0,0.0,0.0,0.0,0.0,0.0,0.0,0.0,0.0,0.0,0.0,0.0,0.0,0.0,0.0,0.0,0.0,0.0,0.0,0.0,0.0
46,223.41900300979614,34.107765,87.080818,20.784069,0.0,14.471938,-6.03997,47.74437,21.497425,40.198463,85.278809,22.729549,0.0,29.609547,0.780503,37.563831,43.828854,3.0,1.0,111.0,0.0,1.0,-110587.0,-44977.0,13851.0,-76409.0,39234.0,8298.0,-0.80463,-0.466945,0.366788,-0.530046,0.286431,-0.798128,0.267623,-0.836612,-0.477973,-0.891328,0.013942,0.453145,0.429334,-0.295107,0.853571,0.145627,0.955362,0.257052,-0.80463,-0.466945,0.366788,-0.530046,0.286431,-0.798128,0.267623,-0.836612,-0.477973,-0.891328,0.013942,0.453145,0.429334,-0.295107,0.853571,0.145627,0.955362,0.257052,-110587.0,-44977.0,13851.0,-76409.0,39234.0,8298.0,36401.0,10394.0,-63292.0,0.0,-20630.0,-19871.0,-21209.0,-20816.0,-5563.0,7634.0,54034.0,0.0,18123.0,19319.0,17036.0,20758.0,109.0,142.0,-44.0,0.0,515.0,-15.0,131.0,415.0,-231.0,-150.0,43.0,0.0,621.0,661.0,557.0,219.0,-0.029571,-0.038488,0.012145,0.0,0.018851,-0.000573,-0.00481,0.015217,-0.062679,-0.040621,0.01172,0.0,0.022741,0.024204,-0.020389,0.008044,4645.350098,11185.110352,46956.691406,0.0,-16065.451172,-16197.84082,16545.689453,-15923.070312,5474.880371,11073.780273,51227.28125,0.0,17771.490234,17618.759766,-17270.460938,18002.339844,0.0,0.0,0.0,0.0,0.0,0.0,0.0,0.0,0.0,0.0,0.0,0.0,0.0,0.0,0.0,0.0,0.0,0.0,0.0,0.0,0.0,0.0,0.0,0.0,0.0,0.0,0.0,0.0,0.0,0.0,0.0,0.0,4645.347168,11185.108398,46956.800781,0.0,-16065.451172,-16197.84082,16545.955078,-15923.075195,5474.877441,11073.780273,51227.417969,0.0,17771.490234,17618.580078,-17270.214844,18002.314453,34.107746,87.080811,20.784121,0.0,14.471919,-6.039988,47.773857,21.496742,40.198441,85.278809,22.729612,0.0,29.609543,0.760454,37.601139,43.816162,1.208,1.42,-88016.0,-134673.0,-458449.0,0.0,157875.0,160105.0,-162632.0,156107.0,-66395.0,-115408.0,-515158.0,0.0,-179338.0,-176445.0,174858.0,-179268.0,0.0,0.0,0.0,0.0,0.0,0.0,0.0,0.0,0.0,0.0,0.0,0.0,0.0,0.0,0.0,0.0,0.0,0.0,0.0,0.0,0.0,0.0,0.0,0.0
47,223.48200607299805,34.107765,87.080818,20.784069,0.0,14.471938,-6.03997,47.74437,21.497425,40.198463,85.278809,22.729549,0.0,29.609547,0.780503,37.563831,43.828854,3.0,1.0,111.0,0.0,1.0,-110587.0,-44977.0,13851.0,-76409.0,39234.0,8298.0,-0.80463,-0.466945,0.366788,-0.530046,0.286431,-0.798128,0.267623,-0.836612,-0.477973,-0.891328,0.013942,0.453145,0.429334,-0.295107,0.853571,0.145627,0.955362,0.257052,-0.80463,-0.466945,0.366788,-0.530046,0.286431,-0.798128,0.267623,-0.836612,-0.477973,-0.891328,0.013942,0.453145,0.429334,-0.295107,0.853571,0.145627,0.955362,0.257052,-110587.0,-44977.0,13851.0,-76409.0,39234.0,8298.0,36401.0,10394.0,-63292.0,0.0,-20630.0,-19871.0,-21209.0,-20816.0,-5563.0,7634.0,54034.0,0.0,18123.0,19319.0,17036.0,20758.0,109.0,142.0,-44.0,0.0,515.0,-15.0,131.0,415.0,-231.0,-150.0,43.0,0.0,621.0,661.0,556.0,219.0,-0.029571,-0.038488,0.012145,0.0,0.018851,-0.000573,-0.004796,0.015217,-0.062679,-0.040621,0.01172,0.0,0.022741,0.024194,-0.020375,0.008043,4645.350098,11185.110352,46956.691406,0.0,-16065.451172,-16197.84082,16545.689453,-15923.070312,5474.880371,11073.780273,51227.28125,0.0,17771.490234,17618.759766,-17270.460938,18002.339844,0.0,0.0,0.0,0.0,0.0,0.0,0.0,0.0,0.0,0.0,0.0,0.0,0.0,0.0,0.0,0.0,0.0,0.0,0.0,0.0,0.0,0.0,0.0,0.0,0.0,0.0,0.0,0.0,0.0,0.0,0.0,0.0,4645.347168,11185.108398,46956.800781,0.0,-16065.451172,-16197.84082,16545.955078,-15923.075195,5474.877441,11073.780273,51227.417969,0.0,17771.490234,17618.580078,-17270.214844,18002.314453,34.107746,87.080811,20.784121,0.0,14.471919,-6.039988,47.773857,21.496742,40.198441,85.278809,22.729612,0.0,29.609543,0.760454,37.601139,43.816162,1.208,1.42,-88016.0,-134673.0,-458449.0,0.0,157875.0,160105.0,-162632.0,156107.0,-66395.0,-115408.0,-515158.0,0.0,-179338.0,-176445.0,174858.0,-179268.0,0.0,0.0,0.0,0.0,0.0,0.0,0.0,0.0,0.0,0.0,0.0,0.0,0.0,0.0,0.0,0.0,0.0,0.0,0.0,0.0,0.0,0.0,0.0,0.0
48,223.54502296447754,34.107765,87.080818,20.784069,0.0,14.471938,-6.03997,47.74437,21.497425,40.198463,85.278809,22.729549,0.0,29.609547,0.780503,37.563831,43.828854,3.0,1.0,111.0,0.0,1.0,-110587.0,-44977.0,13851.0,-76409.0,39234.0,8298.0,-0.80463,-0.466945,0.366788,-0.530046,0.286431,-0.798128,0.267623,-0.836612,-0.477973,-0.891328,0.013942,0.453145,0.429334,-0.295107,0.853571,0.145627,0.955362,0.257052,-0.80463,-0.466945,0.366788,-0.530046,0.286431,-0.798128,0.267623,-0.836612,-0.477973,-0.891328,0.013942,0.453145,0.429334,-0.295107,0.853571,0.145627,0.955362,0.257052,-110587.0,-44977.0,13851.0,-76409.0,39234.0,8298.0,36401.0,10394.0,-63292.0,0.0,-20630.0,-19871.0,-21209.0,-20816.0,-5563.0,7634.0,54034.0,0.0,18123.0,19319.0,17036.0,20758.0,109.0,142.0,-44.0,0.0,515.0,-15.0,130.0,415.0,-231.0,-150.0,43.0,0.0,621.0,660.0,556.0,219.0,-0.029571,-0.038488,0.012145,0.0,0.018851,-0.000573,-0.004781,0.015217,-0.062679,-0.040621,0.01172,0.0,0.022741,0.024184,-0.020362,0.008042,4645.350098,11185.110352,46956.691406,0.0,-16065.451172,-16197.84082,16545.689453,-15923.070312,5474.880371,11073.780273,51227.28125,0.0,17771.490234,17618.759766,-17270.460938,18002.339844,0.0,0.0,0.0,0.0,0.0,0.0,0.0,0.0,0.0,0.0,0.0,0.0,0.0,0.0,0.0,0.0,0.0,0.0,0.0,0.0,0.0,0.0,0.0,0.0,0.0,0.0,0.0,0.0,0.0,0.0,0.0,0.0,4645.347168,11185.108398,46956.800781,0.0,-16065.451172,-16197.84082,16545.955078,-15923.075195,5474.877441,11073.780273,51227.417969,0.0,17771.490234,17618.580078,-17270.214844,18002.314453,34.107746,87.080811,20.784121,0.0,14.471919,-6.039988,47.773857,21.496742,40.198441,85.278809,22.729612,0.0,29.609543,0.760454,37.601139,43.816162,1.208,1.42,-88016.0,-134673.0,-458449.0,0.0,157875.0,160105.0,-162632.0,156107.0,-66395.0,-115408.0,-515158.0,0.0,-179338.0,-176445.0,174858.0,-179268.0,0.0,0.0,0.0,0.0,0.0,0.0,0.0,0.0,0.0,0.0,0.0,0.0,0.0,0.0,0.0,0.0,0.0,0.0,0.0,0.0,0.0,0.0,0.0,0.0
49,223.60703206062317,34.107765,87.080818,20.784069,0.0,14.471938,-6.03997,47.74437,21.497425,40.198463,85.278809,22.729549,0.0,29.609547,0.780503,37.563831,43.828854,3.0,1.0,111.0,0.0,1.0,-110587.0,-44977.0,13851.0,-76409.0,39234.0,8298.0,-0.80463,-0.466945,0.366788,-0.530046,0.286431,-0.798128,0.267623,-0.836612,-0.477973,-0.891328,0.013942,0.453145,0.429334,-0.295107,0.853571,0.145627,0.955362,0.257052,-0.80463,-0.466945,0.366788,-0.530046,0.286431,-0.798128,0.267623,-0.836612,-0.477973,-0.891328,0.013942,0.453145,0.429334,-0.295107,0.853571,0.145627,0.955362,0.257052,-110587.0,-44977.0,13851.0,-76409.0,39234.0,8298.0,36401.0,10394.0,-63292.0,0.0,-20630.0,-19871.0,-21209.0,-20816.0,-5563.0,7634.0,54034.0,0.0,18123.0,19319.0,17036.0,20758.0,109.0,142.0,-44.0,0.0,515.0,-15.0,130.0,415.0,-231.0,-150.0,43.0,0.0,621.0,660.0,556.0,219.0,-0.029571,-0.038488,0.012145,0.0,0.018851,-0.000573,-0.004767,0.015216,-0.062679,-0.040621,0.01172,0.0,0.022741,0.024175,-0.020349,0.00804,4645.350098,11185.110352,46956.691406,0.0,-16065.451172,-16197.84082,16545.689453,-15923.070312,5474.880371,11073.780273,51227.28125,0.0,17771.490234,17618.759766,-17270.460938,18002.339844,0.0,0.0,0.0,0.0,0.0,0.0,0.0,0.0,0.0,0.0,0.0,0.0,0.0,0.0,0.0,0.0,0.0,0.0,0.0,0.0,0.0,0.0,0.0,0.0,0.0,0.0,0.0,0.0,0.0,0.0,0.0,0.0,4645.347168,11185.108398,46956.800781,0.0,-16065.451172,-16197.84082,16545.955078,-15923.075195,5474.877441,11073.780273,51227.417969,0.0,17771.490234,17618.580078,-17270.214844,18002.314453,34.107746,87.080811,20.784121,0.0,14.471919,-6.039988,47.773857,21.496742,40.198441,85.278809,22.729612,0.0,29.609543,0.760454,37.601139,43.816162,1.208,1.42,-88016.0,-134673.0,-458449.0,0.0,157875.0,160105.0,-162632.0,156107.0,-66395.0,-115408.0,-515158.0,0.0,-179338.0,-176445.0,174858.0,-179268.0,0.0,0.0,0.0,0.0,0.0,0.0,0.0,0.0,0.0,0.0,0.0,0.0,0.0,0.0,0.0,0.0,0.0,0.0,0.0,0.0,0.0,0.0,0.0,0.0
50,223.67106914520264,34.107765,87.080818,20.784069,0.0,14.471938,-6.03997,47.74437,21.497425,40.198463,85.278809,22.729549,0.0,29.609547,0.780503,37.563831,43.828854,3.0,1.0,111.0,0.0,1.0,-110587.0,-44977.0,13851.0,-76409.0,39234.0,8298.0,-0.80463,-0.466945,0.366788,-0.530046,0.286431,-0.798128,0.267623,-0.836612,-0.477973,-0.891328,0.013942,0.453145,0.429334,-0.295107,0.853571,0.145627,0.955362,0.257052,-0.80463,-0.466945,0.366788,-0.530046,0.286431,-0.798128,0.267623,-0.836612,-0.477973,-0.891328,0.013942,0.453145,0.429334,-0.295107,0.853571,0.145627,0.955362,0.257052,-110587.0,-44977.0,13851.0,-76409.0,39234.0,8298.0,36401.0,10394.0,-63292.0,0.0,-20630.0,-19871.0,-21209.0,-20816.0,-5563.0,7634.0,54034.0,0.0,18123.0,19319.0,17036.0,20758.0,109.0,142.0,-44.0,0.0,515.0,-15.0,129.0,415.0,-231.0,-150.0,43.0,0.0,621.0,660.0,555.0,219.0,-0.029571,-0.038488,0.012145,0.0,0.018851,-0.000573,-0.004752,0.015216,-0.062679,-0.040621,0.01172,0.0,0.022741,0.024165,-0.020335,0.008039,4645.350098,11185.110352,46956.691406,0.0,-16065.451172,-16197.84082,16545.689453,-15923.070312,5474.880371,11073.780273,51227.28125,0.0,17771.490234,17618.759766,-17270.460938,18002.339844,0.0,0.0,0.0,0.0,0.0,0.0,0.0,0.0,0.0,0.0,0.0,0.0,0.0,0.0,0.0,0.0,0.0,0.0,0.0,0.0,0.0,0.0,0.0,0.0,0.0,0.0,0.0,0.0,0.0,0.0,0.0,0.0,4645.347168,11185.108398,46956.800781,0.0,-16065.451172,-16197.84082,16545.955078,-15923.075195,5474.877441,11073.780273,51227.417969,0.0,17771.490234,17618.580078,-17270.214844,18002.314453,34.107746,87.080811,20.784121,0.0,14.471919,-6.039988,47.773857,21.496742,40.198441,85.278809,22.729612,0.0,29.609543,0.760454,37.601139,43.816162,1.208,1.42,-88016.0,-134673.0,-458449.0,0.0,157875.0,160105.0,-162632.0,156107.0,-66395.0,-115408.0,-515158.0,0.0,-179338.0,-176445.0,174858.0,-179268.0,0.0,0.0,0.0,0.0,0.0,0.0,0.0,0.0,0.0,0.0,0.0,0.0,0.0,0.0,0.0,0.0,0.0,0.0,0.0,0.0,0.0,0.0,0.0,0.0
