MHC-RobotSimulators-Research/Data_Analysis_MotionReplication/mai_plotter/raven_data/this_might_be_ok/twoarm_p5_phys1.csv
,time,jpos0,jpos1,jpos2,jpos3,jpos4,jpos5,jpos6,jpos7,jpos8,jpos9,jpos10,jpos11,jpos12,jpos13,jpos14,jpos15,runlevel,sublevel,last_seq,type0,type1,pos0,pos1,pos2,pos3,pos4,pos5,ori0,ori1,ori2,ori3,ori4,ori5,ori6,ori7,ori8,ori9,ori10,ori11,ori12,ori13,ori14,ori15,ori16,ori17,ori_d0,ori_d1,ori_d2,ori_d3,ori_d4,ori_d5,ori_d6,ori_d7,ori_d8,ori_d9,ori_d10,ori_d11,ori_d12,ori_d13,ori_d14,ori_d15,ori_d16,ori_d17,pos_d0,pos_d1,pos_d2,pos_d3,pos_d4,pos_d5,encVals0,encVals1,encVals2,encVals3,encVals4,encVals5,encVals6,encVals7,encVals8,encVals9,encVals10,encVals11,encVals12,encVals13,encVals14,encVals15,dac_vals0,dac_vals1,dac_vals2,dac_vals3,dac_vals4,dac_vals5,dac_vals6,dac_vals7,dac_vals8,dac_vals9,dac_vals10,dac_vals11,dac_vals12,dac_vals13,dac_vals14,dac_vals15,Tau0,Tau1,Tau2,Tau3,Tau4,Tau5,Tau6,Tau7,Tau8,Tau9,Tau10,Tau11,Tau12,Tau13,Tau14,Tau15,mpos0,mpos1,mpos2,mpos3,mpos4,mpos5,mpos6,mpos7,mpos8,mpos9,mpos10,mpos11,mpos12,mpos13,mpos14,mpos15,mvel0,mvel1,mvel2,mvel3,mvel4,mvel5,mvel6,mvel7,mvel8,mvel9,mvel10,mvel11,mvel12,mvel13,mvel14,mvel15,jvel0,jvel1,jvel2,jvel3,jvel4,jvel5,jvel6,jvel7,jvel8,jvel9,jvel10,jvel11,jvel12,jvel13,jvel14,jvel15,mpos_d0,mpos_d1,mpos_d2,mpos_d3,mpos_d4,mpos_d5,mpos_d6,mpos_d7,mpos_d8,mpos_d9,mpos_d10,mpos_d11,mpos_d12,mpos_d13,mpos_d14,mpos_d15,jpos_d0,jpos_d1,jpos_d2,jpos_d3,jpos_d4,jpos_d5,jpos_d6,jpos_d7,jpos_d8,jpos_d9,jpos_d10,jpos_d11,jpos_d12,jpos_d13,jpos_d14,jpos_d15,grasp_d0,grasp_d1,encoffsets0,encoffsets1,encoffsets2,encoffsets3,encoffsets4,encoffsets5,encoffsets6,encoffsets7,encoffsets8,encoffsets9,encoffsets10,encoffsets11,encoffsets12,encoffsets13,encoffsets14,encoffsets15,jac_vel0,jac_vel1,jac_vel2,jac_vel3,jac_vel4,jac_vel5,jac_vel6,jac_vel7,jac_vel8,jac_vel9,jac_vel10,jac_vel11,jac_f0,jac_f1,jac_f2,jac_f3,jac_f4,jac_f5,jac_f6,jac_f7,jac_f8,jac_f9,jac_f10,jac_f11
0,0.0,0.522691,1.569224,0.399693,0.0,-0.012041,0.007098,0.802007,0.826795,0.526842,1.568219,0.399712,0.0,-0.007064,-0.004239,0.818661,0.827082,3.0,1.0,111.0,0.0,1.0,-78305.0,-25185.0,13192.0,-78155.0,25633.0,13096.0,-0.944066,-0.19603,0.265162,-0.294927,0.142257,-0.944871,0.147502,-0.970224,-0.192115,-0.936494,0.21689,0.27557,0.311779,0.155203,0.937393,0.160542,0.963779,-0.212968,-0.943967,-0.196638,0.265065,-0.29491,0.141992,-0.944916,0.14817,-0.97014,-0.192026,-0.936639,0.216571,0.275325,0.311381,0.154701,0.937609,0.160466,0.963932,-0.212335,-78304.0,-25183.0,13190.0,-78161.0,25627.0,13097.0,18518.0,17977.0,-162711.0,0.0,-49695.0,-56233.0,-56321.0,-55617.0,-15207.0,-13202.0,155277.0,0.0,59029.0,53747.0,53056.0,53343.0,44.0,163.0,-47.0,0.0,519.0,-55.0,-300.0,165.0,-54.0,-161.0,40.0,0.0,111.0,212.0,-239.0,464.0,-0.012036,-0.044369,0.012768,0.0,0.019001,-0.002026,0.010987,0.006055,-0.014718,-0.043638,0.010904,0.0,0.004084,0.007764,0.008751,0.017001,4078.800049,11455.379883,51504.933594,0.0,-17710.919922,-17703.541016,18122.220703,-17283.060547,4111.199707,11452.589844,51510.332031,0.0,17706.869141,17706.869141,-17288.371094,18136.259766,0.0,0.0,0.0,0.0,0.0,0.0,0.0,0.0,0.0,0.0,0.0,0.0,0.0,0.0,0.0,0.0,0.0,0.0,0.0,0.0,0.0,0.0,0.0,0.0,0.0,0.0,0.0,0.0,0.0,0.0,0.0,0.0,4078.803223,11455.094727,51505.199219,0.0,-17710.949219,-17703.480469,18122.919922,-17283.140625,4110.92334,11452.447266,51509.890625,0.0,17707.056641,17707.054688,-17288.134766,18136.15625,29.947983,89.907562,22.900837,0.0,-0.695363,0.413495,46.025871,47.366249,30.183819,89.851471,22.901627,0.0,-0.370129,-0.222179,46.921711,47.387142,1.63,1.646,-63838.0,-145259.0,-409566.0,0.0,147093.0,140473.0,-145037.0,136417.0,-60887.0,-140453.0,-417060.0,0.0,-137714.0,-142996.0,139037.0,-148171.0,0.0,0.0,0.0,0.0,0.0,0.0,0.0,0.0,0.0,0.0,0.0,0.0,0.0,0.0,0.0,0.0,0.0,0.0,0.0,0.0,0.0,0.0,0.0,0.0
1,6.1775689125061035,0.522691,1.569224,0.399693,0.0,-1.56066,0.007098,0.505209,0.506939,0.526842,1.568219,0.399712,0.0,-1.562958,-0.003889,0.505442,0.502687,3.0,1.0,111.0,0.0,1.0,-78299.0,-25257.0,13085.0,-78181.0,25574.0,13059.0,-0.94092,0.267979,0.207018,-0.303039,-0.939175,-0.161612,0.151118,-0.214798,0.964896,-0.939741,0.273443,-0.205222,0.305294,0.941353,-0.143701,0.153892,-0.197695,-0.968108,-0.940944,0.267835,0.207095,-0.302955,-0.939155,-0.161883,0.151137,-0.215063,0.964834,-0.939741,0.273503,-0.205142,0.305295,0.941394,-0.14343,0.153891,-0.197416,-0.968166,-78299.0,-25257.0,13085.0,-78181.0,25574.0,13059.0,18518.0,17977.0,-162711.0,0.0,-55014.0,-56233.0,-54622.0,-57448.0,-15207.0,-13202.0,155277.0,0.0,53685.0,53749.0,54848.0,51485.0,44.0,163.0,-47.0,0.0,-864.0,-401.0,627.0,-588.0,-54.0,-161.0,40.0,0.0,-972.0,446.0,802.0,-1000.0,-0.012036,-0.044369,0.012768,0.0,-0.031634,-0.014687,-0.022972,-0.02153,-0.014718,-0.043638,0.010904,0.0,-0.035587,0.016342,-0.029371,-0.036598,4078.800049,11455.379883,51504.933594,0.0,-18189.630859,-17703.541016,17969.310547,-17447.849609,4111.199707,11452.589844,51510.332031,0.0,17225.910156,17707.050781,-17449.650391,17969.041016,0.0,0.0,0.0,0.0,-89.174942,0.0,-90.92347,0.0,0.0,0.0,0.0,0.0,-89.174942,0.0,0.0,0.0,0.0,0.0,0.0,0.0,-0.288479,0.0,-0.176481,0.0,0.0,0.0,0.0,0.0,-0.288479,0.0,0.0,0.0,4078.803223,11455.094727,51505.199219,0.0,-18191.517578,-17707.126953,17965.945312,-17448.634766,4110.92334,11452.447266,51509.890625,0.0,17224.306641,17709.238281,-17451.013672,17966.791016,29.947983,89.907562,22.900837,0.0,-89.768944,0.00792,28.771503,28.758795,30.183819,89.851471,22.901627,0.0,-89.848328,0.020356,28.686573,28.673206,1.012,1.008,-63838.0,-145259.0,-409566.0,0.0,147093.0,140473.0,-145037.0,136417.0,-60887.0,-140453.0,-417060.0,0.0,-137714.0,-142996.0,139037.0,-148171.0,0.0,0.0,0.0,-0.001792,0.000991,0.111991,0.0,0.0,0.0,0.000982,-0.000543,0.288477,0.0,0.0,0.0,-0.001792,0.000991,0.111991,0.0,0.0,0.0,0.000982,-0.000543,0.288477
2,6.2005980014801025,0.522691,1.569224,0.399693,0.0,-1.562702,0.007098,0.504859,0.506064,0.526842,1.568219,0.399712,0.0,-1.567036,-0.003889,0.504048,0.501289,3.0,1.0,111.0,0.0,1.0,-78299.0,-25258.0,13085.0,-78181.0,25574.0,13059.0,-0.940986,0.268168,0.206472,-0.302806,-0.939578,-0.159693,0.151172,-0.21279,0.965333,-0.939745,0.272587,-0.20634,0.305278,0.940765,-0.147538,0.153901,-0.201639,-0.967293,-0.940986,0.268168,0.206472,-0.302806,-0.939578,-0.159693,0.151172,-0.21279,0.965333,-0.939745,0.272587,-0.20634,0.305278,0.940765,-0.147538,0.153901,-0.201639,-0.967293,-78299.0,-25258.0,13085.0,-78181.0,25574.0,13059.0,18518.0,17977.0,-162711.0,0.0,-55021.0,-56233.0,-54620.0,-57453.0,-15207.0,-13202.0,155277.0,0.0,53671.0,53749.0,54856.0,51477.0,44.0,163.0,-47.0,0.0,-851.0,-403.0,627.0,-580.0,-54.0,-161.0,40.0,0.0,-968.0,447.0,787.0,-985.0,-0.012036,-0.044369,0.012768,0.0,-0.031157,-0.014761,-0.022974,-0.021246,-0.014718,-0.043638,0.010904,0.0,-0.035437,0.016386,-0.028813,-0.036056,4078.800049,11455.379883,51504.933594,0.0,-18190.261719,-17703.541016,17969.130859,-17448.300781,4111.199707,11452.589844,51510.332031,0.0,17224.650391,17707.050781,-17450.369141,17968.320312,0.0,0.0,0.0,0.0,-90.92347,0.0,0.0,0.0,0.0,0.0,0.0,0.0,0.0,0.0,0.0,0.0,0.0,0.0,0.0,0.0,-0.294136,0.0,0.0,0.0,0.0,0.0,0.0,0.0,0.0,0.0,0.0,0.0,4078.803223,11455.094727,51505.199219,0.0,-18191.839844,-17707.128906,17965.839844,-17448.746094,4110.92334,11452.447266,51509.890625,0.0,17224.144531,17709.238281,-17451.068359,17966.734375,29.947983,89.907562,22.900837,0.0,-89.828751,0.007648,28.759918,28.746302,30.183819,89.851471,22.901627,0.0,-89.878326,0.020438,28.68046,28.666933,1.01,1.005,-63838.0,-145259.0,-409566.0,0.0,147093.0,140473.0,-145037.0,136417.0,-60887.0,-140453.0,-417060.0,0.0,-137714.0,-142996.0,139037.0,-148171.0,0.0,0.0,0.0,-0.001827,0.00101,0.294128,0.0,0.0,0.0,0.0,0.0,0.0,0.0,0.0,0.0,-0.001827,0.00101,0.294128,0.0,0.0,0.0,0.0,0.0,0.0
3,6.220580816268921,0.522691,1.569224,0.399693,0.0,-1.563284,0.007098,0.504686,0.505541,0.526842,1.568219,0.399712,0.0,-1.568784,-0.003889,0.503348,0.500067,3.0,1.0,111.0,0.0,1.0,-78299.0,-25258.0,13085.0,-78181.0,25574.0,13059.0,-0.941032,0.268127,0.206316,-0.302646,-0.939722,-0.159146,0.151209,-0.212202,0.965456,-0.939817,0.271974,-0.206819,0.305026,0.940587,-0.149181,0.153958,-0.203288,-0.966939,-0.941009,0.268209,0.206316,-0.302727,-0.939696,-0.159146,0.151191,-0.212215,0.965456,-0.939817,0.271974,-0.206819,0.305026,0.940587,-0.149181,0.153958,-0.203288,-0.966939,-78299.0,-25258.0,13085.0,-78181.0,25574.0,13059.0,18518.0,17977.0,-162711.0,0.0,-55023.0,-56233.0,-54619.0,-57456.0,-15207.0,-13202.0,155277.0,0.0,53665.0,53749.0,54860.0,51470.0,44.0,163.0,-47.0,0.0,-887.0,-405.0,627.0,-574.0,-54.0,-161.0,40.0,0.0,-945.0,448.0,779.0,-970.0,-0.012036,-0.044369,0.012768,0.0,-0.032487,-0.014823,-0.022953,-0.021016,-0.014718,-0.043638,0.010904,0.0,-0.034591,0.016425,-0.028507,-0.035529,4078.800049,11455.379883,51504.933594,0.0,-18190.441406,-17703.541016,17969.041016,-17448.570312,4111.199707,11452.589844,51510.332031,0.0,17224.109375,17707.050781,-17450.730469,17967.691406,0.0,0.0,0.0,0.0,0.0,0.0,0.0,-89.174942,0.0,0.0,0.0,0.0,0.0,0.0,-89.174942,-89.174942,0.0,0.0,0.0,0.0,0.0,0.0,0.0,-0.173088,0.0,0.0,0.0,0.0,0.0,0.0,-0.173088,-0.173088,4078.803223,11455.094727,51505.199219,0.0,-18191.839844,-17707.128906,17965.839844,-17448.746094,4110.92334,11452.447266,51509.890625,0.0,17224.144531,17709.238281,-17451.068359,17966.734375,29.947983,89.907562,22.900837,0.0,-89.828751,0.007648,28.759918,28.746302,30.183819,89.851471,22.901627,0.0,-89.878326,0.020438,28.68046,28.666933,1.01,1.003,-63838.0,-145259.0,-409566.0,0.0,147093.0,140473.0,-145037.0,136417.0,-60887.0,-140453.0,-417060.0,0.0,-137714.0,-142996.0,139037.0,-148171.0,0.0,0.0,0.0,0.0,0.0,0.0,0.0,0.0,0.0,0.0,0.0,-0.173088,0.0,0.0,0.0,0.0,0.0,0.0,0.0,0.0,0.0,0.0,0.0,-0.173088
4,6.2426087856292725,0.522691,1.569224,0.399693,0.0,-1.563573,0.007098,0.50451,0.505364,0.526842,1.568219,0.399712,0.0,-1.569949,-0.003889,0.502999,0.499019,3.0,1.0,111.0,0.0,1.0,-78299.0,-25258.0,13085.0,-78181.0,25574.0,13059.0,-0.941031,0.268189,0.206239,-0.302648,-0.939768,-0.158874,0.151209,-0.211924,0.965518,-0.939913,0.2714,-0.207137,0.304693,0.940521,-0.150276,0.154032,-0.20436,-0.966701,-0.941031,0.268189,0.206239,-0.302648,-0.939768,-0.158874,0.151209,-0.211924,0.965518,-0.939913,0.2714,-0.207137,0.304693,0.940521,-0.150276,0.154032,-0.20436,-0.966701,-78299.0,-25258.0,13085.0,-78181.0,25574.0,13059.0,18518.0,17977.0,-162711.0,0.0,-55024.0,-56233.0,-54618.0,-57457.0,-15207.0,-13202.0,155277.0,0.0,53661.0,53749.0,54862.0,51464.0,44.0,163.0,-47.0,0.0,-884.0,-406.0,626.0,-572.0,-54.0,-161.0,40.0,0.0,-929.0,450.0,774.0,-958.0,-0.012036,-0.044369,0.012768,0.0,-0.032373,-0.014892,-0.022934,-0.020939,-0.014718,-0.043638,0.010904,0.0,-0.034021,0.016467,-0.028356,-0.03507,4078.800049,11455.379883,51504.933594,0.0,-18190.53125,-17703.541016,17968.949219,-17448.662109,4111.199707,11452.589844,51510.332031,0.0,17223.75,17707.050781,-17450.910156,17967.150391,0.0,0.0,0.0,0.0,0.0,0.0,0.0,0.0,0.0,0.0,0.0,0.0,0.0,0.0,-89.174942,0.0,0.0,0.0,0.0,0.0,0.0,0.0,0.0,0.0,0.0,0.0,0.0,0.0,0.0,0.0,-0.173088,0.0,4078.803223,11455.094727,51505.199219,0.0,-18191.839844,-17707.128906,17965.839844,-17448.746094,4110.92334,11452.447266,51509.890625,0.0,17224.144531,17709.238281,-17451.068359,17966.734375,29.947983,89.907562,22.900837,0.0,-89.828751,0.007648,28.759918,28.746302,30.183819,89.851471,22.901627,0.0,-89.878326,0.020438,28.68046,28.666933,1.009,1.002,-63838.0,-145259.0,-409566.0,0.0,147093.0,140473.0,-145037.0,136417.0,-60887.0,-140453.0,-417060.0,0.0,-137714.0,-142996.0,139037.0,-148171.0,0.0,0.0,0.0,0.0,0.0,0.0,0.0,0.0,0.0,0.0,0.0,-0.173088,0.0,0.0,0.0,0.0,0.0,0.0,0.0,0.0,0.0,0.0,0.0,-0.173088
5,6.263574838638306,0.522691,1.569224,0.399693,0.0,-1.563861,0.006924,0.504423,0.504932,0.526842,1.568219,0.399712,0.0,-1.570531,-0.003889,0.502822,0.498669,3.0,1.0,111.0,0.0,1.0,-78299.0,-25258.0,13088.0,-78181.0,25574.0,13059.0,-0.941042,0.268087,0.206325,-0.302515,-0.939865,-0.158551,0.151412,-0.211619,0.965553,-0.939937,0.271196,-0.207297,0.30461,0.94046,-0.150824,0.154051,-0.204909,-0.966582,-0.941042,0.268087,0.206325,-0.302515,-0.939865,-0.158551,0.151412,-0.211619,0.965553,-0.939937,0.271196,-0.207297,0.30461,0.94046,-0.150824,0.154051,-0.204909,-0.966582,-78299.0,-25258.0,13088.0,-78181.0,25574.0,13059.0,18518.0,17977.0,-162711.0,0.0,-55025.0,-56234.0,-54617.0,-57459.0,-15207.0,-13202.0,155277.0,0.0,53659.0,53749.0,54863.0,51462.0,44.0,163.0,-47.0,0.0,-881.0,-406.0,626.0,-567.0,-54.0,-161.0,40.0,0.0,-878.0,451.0,772.0,-954.0,-0.012036,-0.044369,0.012768,0.0,-0.032256,-0.014879,-0.022913,-0.020784,-0.014718,-0.043638,0.010904,0.0,-0.032143,0.016507,-0.028279,-0.034918,4078.800049,11455.379883,51504.933594,0.0,-18190.619141,-17703.630859,17968.861328,-17448.839844,4111.199707,11452.589844,51510.332031,0.0,17223.570312,17707.050781,-17451.0,17966.970703,0.0,0.0,0.0,0.0,0.0,0.0,0.0,0.0,0.0,0.0,0.0,0.0,-90.92347,0.0,0.0,0.0,0.0,0.0,0.0,0.0,0.0,0.0,0.0,0.0,0.0,0.0,0.0,0.0,-0.294136,0.0,0.0,0.0,4078.803223,11455.094727,51505.199219,0.0,-18191.839844,-17707.128906,17965.839844,-17448.746094,4110.92334,11452.447266,51509.890625,0.0,17224.144531,17709.238281,-17451.068359,17966.734375,29.947983,89.907562,22.900837,0.0,-89.828751,0.007648,28.759918,28.746302,30.183819,89.851471,22.901627,0.0,-89.878326,0.020438,28.68046,28.666933,1.009,1.001,-63838.0,-145259.0,-409566.0,0.0,147093.0,140473.0,-145037.0,136417.0,-60887.0,-140453.0,-417060.0,0.0,-137714.0,-142996.0,139037.0,-148171.0,0.0,0.0,0.0,0.0,0.0,0.0,0.0,0.0,0.0,0.001002,-0.000551,0.294133,0.0,0.0,0.0,0.0,0.0,0.0,0.0,0.0,0.0,0.001002,-0.000551,0.294133
6,6.2846269607543945,0.522691,1.569224,0.399693,0.0,-1.563861,0.006924,0.504247,0.504755,0.526842,1.568219,0.399712,0.0,-1.57082,-0.003889,0.502473,0.49832,3.0,1.0,111.0,0.0,1.0,-78299.0,-25258.0,13088.0,-78181.0,25574.0,13059.0,-0.941042,0.268087,0.206325,-0.302515,-0.939865,-0.158551,0.151412,-0.211619,0.965553,-0.939937,0.271135,-0.207375,0.304609,0.940417,-0.151095,0.154052,-0.205188,-0.966523,-0.941042,0.268087,0.206325,-0.302515,-0.939865,-0.158551,0.151412,-0.211619,0.965553,-0.939937,0.271135,-0.207375,0.304609,0.940417,-0.151095,0.154052,-0.205188,-0.966523,-78299.0,-25258.0,13088.0,-78181.0,25574.0,13059.0,18518.0,17977.0,-162711.0,0.0,-55025.0,-56234.0,-54616.0,-57460.0,-15207.0,-13202.0,155277.0,0.0,53658.0,53749.0,54865.0,51460.0,44.0,163.0,-47.0,0.0,-882.0,-408.0,625.0,-565.0,-54.0,-161.0,40.0,0.0,-917.0,452.0,768.0,-950.0,-0.012036,-0.044369,0.012768,0.0,-0.032278,-0.014943,-0.022889,-0.020702,-0.014718,-0.043638,0.010904,0.0,-0.033579,0.016547,-0.028121,-0.034764,4078.800049,11455.379883,51504.933594,0.0,-18190.619141,-17703.630859,17968.769531,-17448.929688,4111.199707,11452.589844,51510.332031,0.0,17223.480469,17707.050781,-17451.181641,17966.791016,0.0,0.0,0.0,0.0,0.0,0.0,0.0,0.0,0.0,0.0,0.0,0.0,0.0,0.0,-90.92347,0.0,0.0,0.0,0.0,0.0,0.0,0.0,0.0,0.0,0.0,0.0,0.0,0.0,0.0,0.0,-0.176481,0.0,4078.803223,11455.094727,51505.199219,0.0,-18191.839844,-17707.128906,17965.839844,-17448.746094,4110.92334,11452.447266,51509.890625,0.0,17224.144531,17709.238281,-17451.068359,17966.734375,29.947983,89.907562,22.900837,0.0,-89.828751,0.007648,28.759918,28.746302,30.183819,89.851471,22.901627,0.0,-89.878326,0.020438,28.68046,28.666933,1.009,1.0,-63838.0,-145259.0,-409566.0,0.0,147093.0,140473.0,-145037.0,136417.0,-60887.0,-140453.0,-417060.0,0.0,-137714.0,-142996.0,139037.0,-148171.0,0.0,0.0,0.0,0.0,0.0,0.0,0.0,0.0,0.0,0.0,0.0,-0.176481,0.0,0.0,0.0,0.0,0.0,0.0,0.0,0.0,0.0,0.0,0.0,-0.176481
7,6.304581880569458,0.522691,1.569224,0.399693,0.0,-1.564156,0.006924,0.504247,0.504582,0.526842,1.568219,0.399712,0.0,-1.571114,-0.003889,0.5023,0.498146,3.0,1.0,111.0,0.0,1.0,-78299.0,-25258.0,13088.0,-78181.0,25574.0,13059.0,-0.941064,0.268068,0.206246,-0.302435,-0.939937,-0.158275,0.15143,-0.211323,0.965615,-0.939937,0.271073,-0.207456,0.304608,0.940373,-0.151371,0.154053,-0.205472,-0.966462,-0.941064,0.268068,0.206246,-0.302435,-0.939937,-0.158275,0.15143,-0.211323,0.965615,-0.939937,0.271073,-0.207456,0.304608,0.940373,-0.151371,0.154053,-0.205472,-0.966462,-78299.0,-25258.0,13088.0,-78181.0,25574.0,13059.0,18518.0,17977.0,-162711.0,0.0,-55026.0,-56234.0,-54616.0,-57461.0,-15207.0,-13202.0,155277.0,0.0,53657.0,53749.0,54866.0,51459.0,44.0,163.0,-47.0,0.0,-878.0,-410.0,626.0,-563.0,-54.0,-161.0,40.0,0.0,-913.0,453.0,766.0,-947.0,-0.012036,-0.044369,0.012768,0.0,-0.032156,-0.015004,-0.02294,-0.02062,-0.014718,-0.043638,0.010904,0.0,-0.033424,0.016585,-0.028041,-0.034685,4078.800049,11455.379883,51504.933594,0.0,-18190.710938,-17703.630859,17968.769531,-17449.019531,4111.199707,11452.589844,51510.332031,0.0,17223.390625,17707.050781,-17451.269531,17966.701172,0.0,0.0,0.0,0.0,0.0,0.0,0.0,0.0,0.0,0.0,0.0,0.0,0.0,0.0,0.0,0.0,0.0,0.0,0.0,0.0,0.0,0.0,0.0,0.0,0.0,0.0,0.0,0.0,0.0,0.0,0.0,0.0,4078.803223,11455.094727,51505.199219,0.0,-18191.839844,-17707.128906,17965.839844,-17448.746094,4110.92334,11452.447266,51509.890625,0.0,17224.144531,17709.238281,-17451.068359,17966.734375,29.947983,89.907562,22.900837,0.0,-89.828751,0.007648,28.759918,28.746302,30.183819,89.851471,22.901627,0.0,-89.878326,0.020438,28.68046,28.666933,1.008,1.0,-63838.0,-145259.0,-409566.0,0.0,147093.0,140473.0,-145037.0,136417.0,-60887.0,-140453.0,-417060.0,0.0,-137714.0,-142996.0,139037.0,-148171.0,0.0,0.0,0.0,0.0,0.0,0.0,0.0,0.0,0.0,0.0,0.0,0.0,0.0,0.0,0.0,0.0,0.0,0.0,0.0,0.0,0.0,0.0,0.0,0.0
8,6.325567960739136,0.522691,1.569224,0.399693,0.0,-1.564156,0.006924,0.504074,0.504406,0.526842,1.568219,0.399712,0.0,-1.571403,-0.003889,0.5023,0.49797,3.0,1.0,111.0,0.0,1.0,-78299.0,-25258.0,13088.0,-78181.0,25574.0,13059.0,-0.941065,0.268067,0.206246,-0.302434,-0.939938,-0.158275,0.15143,-0.211322,0.965615,-0.939961,0.270929,-0.207534,0.304524,0.940356,-0.151642,0.154072,-0.205737,-0.966403,-0.941065,0.268067,0.206246,-0.302434,-0.939938,-0.158275,0.15143,-0.211322,0.965615,-0.939961,0.270929,-0.207534,0.304524,0.940356,-0.151642,0.154072,-0.205737,-0.966403,-78299.0,-25258.0,13088.0,-78181.0,25574.0,13059.0,18518.0,17977.0,-162711.0,0.0,-55026.0,-56234.0,-54615.0,-57462.0,-15207.0,-13202.0,155277.0,0.0,53656.0,53749.0,54866.0,51458.0,44.0,163.0,-47.0,0.0,-879.0,-411.0,626.0,-561.0,-54.0,-161.0,40.0,0.0,-909.0,454.0,766.0,-945.0,-0.012036,-0.044369,0.012768,0.0,-0.032177,-0.015068,-0.022915,-0.020534,-0.014718,-0.043638,0.010904,0.0,-0.03327,0.016625,-0.028038,-0.034604,4078.800049,11455.379883,51504.933594,0.0,-18190.710938,-17703.630859,17968.681641,-17449.111328,4111.199707,11452.589844,51510.332031,0.0,17223.300781,17707.050781,-17451.269531,17966.611328,0.0,0.0,0.0,0.0,0.0,0.0,0.0,0.0,0.0,0.0,0.0,0.0,0.0,0.0,0.0,0.0,0.0,0.0,0.0,0.0,0.0,0.0,0.0,0.0,0.0,0.0,0.0,0.0,0.0,0.0,0.0,0.0,4078.803223,11455.094727,51505.199219,0.0,-18191.839844,-17707.128906,17965.839844,-17448.746094,4110.92334,11452.447266,51509.890625,0.0,17224.144531,17709.238281,-17451.068359,17966.734375,29.947983,89.907562,22.900837,0.0,-89.828751,0.007648,28.759918,28.746302,30.183819,89.851471,22.901627,0.0,-89.878326,0.020438,28.68046,28.666933,1.008,1.0,-63838.0,-145259.0,-409566.0,0.0,147093.0,140473.0,-145037.0,136417.0,-60887.0,-140453.0,-417060.0,0.0,-137714.0,-142996.0,139037.0,-148171.0,0.0,0.0,0.0,0.0,0.0,0.0,0.0,0.0,0.0,0.0,0.0,0.0,0.0,0.0,0.0,0.0,0.0,0.0,0.0,0.0,0.0,0.0,0.0,0.0
9,6.347621917724609,0.522691,1.569224,0.399693,0.0,-1.564156,0.006924,0.503897,0.504233,0.526842,1.568219,0.399712,0.0,-1.571403,-0.003889,0.502123,0.497797,3.0,1.0,111.0,0.0,1.0,-78299.0,-25258.0,13088.0,-78181.0,25574.0,13059.0,-0.941064,0.268068,0.206246,-0.302435,-0.939937,-0.158275,0.15143,-0.211323,0.965615,-0.939961,0.270931,-0.207534,0.304526,0.940356,-0.151642,0.154072,-0.205737,-0.966403,-0.941064,0.268068,0.206246,-0.302435,-0.939937,-0.158275,0.15143,-0.211323,0.965615,-0.939961,0.270931,-0.207534,0.304526,0.940356,-0.151642,0.154072,-0.205737,-0.966403,-78299.0,-25258.0,13088.0,-78181.0,25574.0,13059.0,18518.0,17977.0,-162711.0,0.0,-55026.0,-56234.0,-54614.0,-57463.0,-15207.0,-13202.0,155277.0,0.0,53656.0,53749.0,54867.0,51457.0,44.0,163.0,-47.0,0.0,-879.0,-413.0,625.0,-558.0,-54.0,-161.0,40.0,0.0,-908.0,455.0,763.0,-943.0,-0.012036,-0.044369,0.012768,0.0,-0.032199,-0.015136,-0.022888,-0.020448,-0.014718,-0.043638,0.010904,0.0,-0.033253,0.016667,-0.027953,-0.034523,4078.800049,11455.379883,51504.933594,0.0,-18190.710938,-17703.630859,17968.589844,-17449.199219,4111.199707,11452.589844,51510.332031,0.0,17223.300781,17707.050781,-17451.361328,17966.521484,0.0,0.0,0.0,0.0,0.0,0.0,0.0,0.0,0.0,0.0,0.0,0.0,0.0,0.0,0.0,0.0,0.0,0.0,0.0,0.0,0.0,0.0,0.0,0.0,0.0,0.0,0.0,0.0,0.0,0.0,0.0,0.0,4078.803223,11455.094727,51505.199219,0.0,-18191.839844,-17707.128906,17965.839844,-17448.746094,4110.92334,11452.447266,51509.890625,0.0,17224.144531,17709.238281,-17451.068359,17966.734375,29.947983,89.907562,22.900837,0.0,-89.828751,0.007648,28.759918,28.746302,30.183819,89.851471,22.901627,0.0,-89.878326,0.020438,28.68046,28.666933,1.008,0.999,-63838.0,-145259.0,-409566.0,0.0,147093.0,140473.0,-145037.0,136417.0,-60887.0,-140453.0,-417060.0,0.0,-137714.0,-142996.0,139037.0,-148171.0,0.0,0.0,0.0,0.0,0.0,0.0,0.0,0.0,0.0,0.0,0.0,0.0,0.0,0.0,0.0,0.0,0.0,0.0,0.0,0.0,0.0,0.0,0.0,0.0
10,6.3675758838653564,0.522691,1.569224,0.399693,0.0,-1.564444,0.006924,0.503724,0.504056,0.526842,1.568219,0.399712,0.0,-1.571691,-0.003889,0.50195,0.49762,3.0,1.0,111.0,0.0,1.0,-78299.0,-25258.0,13088.0,-78181.0,25574.0,13059.0,-0.941064,0.268128,0.206169,-0.302435,-0.939983,-0.158003,0.15143,-0.211044,0.965676,-0.939961,0.270868,-0.207613,0.304523,0.940313,-0.151913,0.154073,-0.206016,-0.966343,-0.941064,0.268128,0.206169,-0.302435,-0.939983,-0.158003,0.15143,-0.211044,0.965676,-0.939961,0.270868,-0.207613,0.304523,0.940313,-0.151913,0.154073,-0.206016,-0.966343,-78299.0,-25258.0,13088.0,-78181.0,25574.0,13059.0,18518.0,17977.0,-162711.0,0.0,-55027.0,-56234.0,-54613.0,-57464.0,-15207.0,-13202.0,155277.0,0.0,53655.0,53749.0,54868.0,51456.0,44.0,163.0,-47.0,0.0,-876.0,-415.0,624.0,-556.0,-54.0,-161.0,40.0,0.0,-904.0,456.0,761.0,-941.0,-0.012036,-0.044369,0.012768,0.0,-0.032078,-0.015197,-0.022858,-0.020359,-0.014718,-0.043638,0.010904,0.0,-0.033097,0.016705,-0.027869,-0.034439,4078.800049,11455.379883,51504.933594,0.0,-18190.798828,-17703.630859,17968.5,-17449.291016,4111.199707,11452.589844,51510.332031,0.0,17223.210938,17707.050781,-17451.451172,17966.429688,0.0,0.0,0.0,0.0,0.0,0.0,0.0,0.0,0.0,0.0,0.0,0.0,0.0,0.0,0.0,0.0,0.0,0.0,0.0,0.0,0.0,0.0,0.0,0.0,0.0,0.0,0.0,0.0,0.0,0.0,0.0,0.0,4078.803223,11455.094727,51505.199219,0.0,-18191.839844,-17707.128906,17965.839844,-17448.746094,4110.92334,11452.447266,51509.890625,0.0,17224.144531,17709.238281,-17451.068359,17966.734375,29.947983,89.907562,22.900837,0.0,-89.828751,0.007648,28.759918,28.746302,30.183819,89.851471,22.901627,0.0,-89.878326,0.020438,28.68046,28.666933,1.007,0.999,-63838.0,-145259.0,-409566.0,0.0,147093.0,140473.0,-145037.0,136417.0,-60887.0,-140453.0,-417060.0,0.0,-137714.0,-142996.0,139037.0,-148171.0,0.0,0.0,0.0,0.0,0.0,0.0,0.0,0.0,0.0,0.0,0.0,0.0,0.0,0.0,0.0,0.0,0.0,0.0,0.0,0.0,0.0,0.0,0.0,0.0
11,6.388625860214233,0.522691,1.569224,0.399693,0.0,-1.564444,0.006924,0.503724,0.503883,0.526842,1.568219,0.399712,0.0,-1.571985,-0.003889,0.50195,0.497447,3.0,1.0,111.0,0.0,1.0,-78299.0,-25258.0,13088.0,-78181.0,25573.0,13059.0,-0.941087,0.268047,0.206169,-0.302354,-0.940009,-0.158003,0.151448,-0.211031,0.965676,-0.939985,0.270725,-0.207693,0.304441,0.940295,-0.15219,0.154091,-0.206287,-0.966282,-0.941087,0.268047,0.206169,-0.302354,-0.940009,-0.158003,0.151448,-0.211031,0.965676,-0.939985,0.270725,-0.207693,0.304441,0.940295,-0.15219,0.154091,-0.206287,-0.966282,-78299.0,-25258.0,13088.0,-78181.0,25573.0,13059.0,18518.0,17977.0,-162711.0,0.0,-55027.0,-56234.0,-54613.0,-57465.0,-15207.0,-13202.0,155277.0,0.0,53654.0,53749.0,54868.0,51455.0,44.0,163.0,-47.0,0.0,-877.0,-417.0,626.0,-553.0,-54.0,-161.0,40.0,0.0,-900.0,457.0,761.0,-938.0,-0.012036,-0.044369,0.012768,0.0,-0.032097,-0.015261,-0.022907,-0.02027,-0.014718,-0.043638,0.010904,0.0,-0.032936,0.016745,-0.027862,-0.034355,4078.800049,11455.379883,51504.933594,0.0,-18190.798828,-17703.630859,17968.5,-17449.380859,4111.199707,11452.589844,51510.332031,0.0,17223.121094,17707.050781,-17451.451172,17966.341797,0.0,0.0,0.0,0.0,0.0,0.0,0.0,0.0,0.0,0.0,0.0,0.0,0.0,0.0,0.0,0.0,0.0,0.0,0.0,0.0,0.0,0.0,0.0,0.0,0.0,0.0,0.0,0.0,0.0,0.0,0.0,0.0,4078.803223,11455.094727,51505.199219,0.0,-18191.839844,-17707.128906,17965.839844,-17448.746094,4110.92334,11452.447266,51509.890625,0.0,17224.144531,17709.238281,-17451.068359,17966.734375,29.947983,89.907562,22.900837,0.0,-89.828751,0.007648,28.759918,28.746302,30.183819,89.851471,22.901627,0.0,-89.878326,0.020438,28.68046,28.666933,1.007,0.999,-63838.0,-145259.0,-409566.0,0.0,147093.0,140473.0,-145037.0,136417.0,-60887.0,-140453.0,-417060.0,0.0,-137714.0,-142996.0,139037.0,-148171.0,0.0,0.0,0.0,0.0,0.0,0.0,0.0,0.0,0.0,0.0,0.0,0.0,0.0,0.0,0.0,0.0,0.0,0.0,0.0,0.0,0.0,0.0,0.0,0.0
12,6.408582925796509,0.522691,1.569224,0.399693,0.0,-1.564444,0.006924,0.503548,0.503707,0.526842,1.568219,0.399712,0.0,-1.571985,-0.003889,0.501774,0.497447,3.0,1.0,111.0,0.0,1.0,-78299.0,-25258.0,13088.0,-78181.0,25573.0,13059.0,-0.941087,0.268047,0.206169,-0.302354,-0.940009,-0.158003,0.151448,-0.211031,0.965676,-0.939961,0.270808,-0.207693,0.304524,0.940268,-0.15219,0.154073,-0.2063,-0.966282,-0.941087,0.268047,0.206169,-0.302354,-0.940009,-0.158003,0.151448,-0.211031,0.965676,-0.939961,0.270808,-0.207693,0.304524,0.940268,-0.15219,0.154073,-0.2063,-0.966282,-78299.0,-25258.0,13088.0,-78181.0,25573.0,13059.0,18518.0,17977.0,-162711.0,0.0,-55027.0,-56234.0,-54612.0,-57466.0,-15207.0,-13202.0,155277.0,0.0,53654.0,53749.0,54869.0,51455.0,44.0,163.0,-47.0,0.0,-877.0,-418.0,625.0,-551.0,-54.0,-161.0,40.0,0.0,-899.0,458.0,759.0,-938.0,-0.012036,-0.044369,0.012768,0.0,-0.032115,-0.015322,-0.022872,-0.020178,-0.014718,-0.043638,0.010904,0.0,-0.032918,0.016783,-0.027774,-0.034349,4078.800049,11455.379883,51504.933594,0.0,-18190.798828,-17703.630859,17968.410156,-17449.470703,4111.199707,11452.589844,51510.332031,0.0,17223.121094,17707.050781,-17451.541016,17966.341797,0.0,0.0,0.0,0.0,0.0,0.0,0.0,0.0,0.0,0.0,0.0,0.0,0.0,0.0,0.0,0.0,0.0,0.0,0.0,0.0,0.0,0.0,0.0,0.0,0.0,0.0,0.0,0.0,0.0,0.0,0.0,0.0,4078.803223,11455.094727,51505.199219,0.0,-18191.839844,-17707.128906,17965.839844,-17448.746094,4110.92334,11452.447266,51509.890625,0.0,17224.144531,17709.238281,-17451.068359,17966.734375,29.947983,89.907562,22.900837,0.0,-89.828751,0.007648,28.759918,28.746302,30.183819,89.851471,22.901627,0.0,-89.878326,0.020438,28.68046,28.666933,1.007,0.999,-63838.0,-145259.0,-409566.0,0.0,147093.0,140473.0,-145037.0,136417.0,-60887.0,-140453.0,-417060.0,0.0,-137714.0,-142996.0,139037.0,-148171.0,0.0,0.0,0.0,0.0,0.0,0.0,0.0,0.0,0.0,0.0,0.0,0.0,0.0,0.0,0.0,0.0,0.0,0.0,0.0,0.0,0.0,0.0,0.0,0.0
13,6.429566860198975,0.522691,1.569224,0.399693,0.0,-1.564444,0.006924,0.503375,0.503533,0.526842,1.568219,0.399712,0.0,-1.572274,-0.003889,0.501774,0.497271,3.0,1.0,111.0,0.0,1.0,-78299.0,-25258.0,13088.0,-78181.0,25573.0,13059.0,-0.941087,0.268047,0.206169,-0.302354,-0.940009,-0.158003,0.151448,-0.211031,0.965676,-0.939985,0.270664,-0.207772,0.30444,0.940251,-0.152461,0.154092,-0.206565,-0.966223,-0.941087,0.268047,0.206169,-0.302354,-0.940009,-0.158003,0.151448,-0.211031,0.965676,-0.939985,0.270664,-0.207772,0.30444,0.940251,-0.152461,0.154092,-0.206565,-0.966223,-78299.0,-25258.0,13088.0,-78181.0,25573.0,13059.0,18518.0,17977.0,-162711.0,0.0,-55027.0,-56234.0,-54611.0,-57467.0,-15207.0,-13202.0,155277.0,0.0,53653.0,53749.0,54869.0,51454.0,44.0,163.0,-47.0,0.0,-878.0,-420.0,624.0,-548.0,-54.0,-161.0,40.0,0.0,-895.0,459.0,758.0,-936.0,-0.012036,-0.044369,0.012768,0.0,-0.032134,-0.015386,-0.022841,-0.020087,-0.014718,-0.043638,0.010904,0.0,-0.032759,0.016824,-0.027766,-0.034262,4078.800049,11455.379883,51504.933594,0.0,-18190.798828,-17703.630859,17968.320312,-17449.560547,4111.199707,11452.589844,51510.332031,0.0,17223.03125,17707.050781,-17451.541016,17966.25,0.0,0.0,0.0,0.0,0.0,0.0,0.0,0.0,0.0,0.0,0.0,0.0,0.0,0.0,0.0,0.0,0.0,0.0,0.0,0.0,0.0,0.0,0.0,0.0,0.0,0.0,0.0,0.0,0.0,0.0,0.0,0.0,4078.803223,11455.094727,51505.199219,0.0,-18191.839844,-17707.128906,17965.839844,-17448.746094,4110.92334,11452.447266,51509.890625,0.0,17224.144531,17709.238281,-17451.068359,17966.734375,29.947983,89.907562,22.900837,0.0,-89.828751,0.007648,28.759918,28.746302,30.183819,89.851471,22.901627,0.0,-89.878326,0.020438,28.68046,28.666933,1.006,0.999,-63838.0,-145259.0,-409566.0,0.0,147093.0,140473.0,-145037.0,136417.0,-60887.0,-140453.0,-417060.0,0.0,-137714.0,-142996.0,139037.0,-148171.0,0.0,0.0,0.0,0.0,0.0,0.0,0.0,0.0,0.0,0.0,0.0,0.0,0.0,0.0,0.0,0.0,0.0,0.0,0.0,0.0,0.0,0.0,0.0,0.0
14,6.451574802398682,0.522691,1.569224,0.399693,0.0,-1.564444,0.006924,0.503375,0.503533,0.526842,1.568219,0.399712,0.0,-1.572274,-0.003889,0.5016,0.497271,3.0,1.0,111.0,0.0,1.0,-78299.0,-25258.0,13088.0,-78181.0,25573.0,13059.0,-0.941087,0.268047,0.206169,-0.302354,-0.940009,-0.158003,0.151448,-0.211031,0.965676,-0.939962,0.270745,-0.207772,0.304521,0.940225,-0.152461,0.154074,-0.206578,-0.966223,-0.941087,0.268047,0.206169,-0.302354,-0.940009,-0.158003,0.151448,-0.211031,0.965676,-0.939962,0.270745,-0.207772,0.304521,0.940225,-0.152461,0.154074,-0.206578,-0.966223,-78299.0,-25258.0,13088.0,-78181.0,25573.0,13059.0,18518.0,17977.0,-162711.0,0.0,-55027.0,-56234.0,-54611.0,-57467.0,-15207.0,-13202.0,155277.0,0.0,53653.0,53749.0,54870.0,51454.0,44.0,163.0,-47.0,0.0,-878.0,-422.0,625.0,-548.0,-54.0,-161.0,40.0,0.0,-894.0,460.0,756.0,-936.0,-0.012036,-0.044369,0.012768,0.0,-0.032154,-0.015453,-0.022889,-0.020071,-0.014718,-0.043638,0.010904,0.0,-0.032738,0.016866,-0.027678,-0.034252,4078.800049,11455.379883,51504.933594,0.0,-18190.798828,-17703.630859,17968.320312,-17449.560547,4111.199707,11452.589844,51510.332031,0.0,17223.03125,17707.050781,-17451.630859,17966.25,0.0,0.0,0.0,0.0,0.0,0.0,0.0,0.0,0.0,0.0,0.0,0.0,0.0,0.0,0.0,0.0,0.0,0.0,0.0,0.0,0.0,0.0,0.0,0.0,0.0,0.0,0.0,0.0,0.0,0.0,0.0,0.0,4078.803223,11455.094727,51505.199219,0.0,-18191.839844,-17707.128906,17965.839844,-17448.746094,4110.92334,11452.447266,51509.890625,0.0,17224.144531,17709.238281,-17451.068359,17966.734375,29.947983,89.907562,22.900837,0.0,-89.828751,0.007648,28.759918,28.746302,30.183819,89.851471,22.901627,0.0,-89.878326,0.020438,28.68046,28.666933,1.006,0.998,-63838.0,-145259.0,-409566.0,0.0,147093.0,140473.0,-145037.0,136417.0,-60887.0,-140453.0,-417060.0,0.0,-137714.0,-142996.0,139037.0,-148171.0,0.0,0.0,0.0,0.0,0.0,0.0,0.0,0.0,0.0,0.0,0.0,0.0,0.0,0.0,0.0,0.0,0.0,0.0,0.0,0.0,0.0,0.0,0.0,0.0
15,6.472590923309326,0.522691,1.569224,0.399693,0.0,-1.564738,0.006924,0.503201,0.503357,0.526842,1.568219,0.399712,0.0,-1.572568,-0.003889,0.5016,0.497271,3.0,1.0,111.0,0.0,1.0,-78299.0,-25258.0,13088.0,-78181.0,25573.0,13059.0,-0.941087,0.268108,0.20609,-0.302354,-0.940055,-0.157727,0.151448,-0.210747,0.965738,-0.939962,0.270683,-0.207852,0.30452,0.94018,-0.152737,0.154075,-0.206862,-0.966162,-0.941087,0.268108,0.20609,-0.302354,-0.940055,-0.157727,0.151448,-0.210747,0.965738,-0.939962,0.270683,-0.207852,0.30452,0.94018,-0.152737,0.154075,-0.206862,-0.966162,-78299.0,-25258.0,13088.0,-78181.0,25573.0,13059.0,18518.0,17977.0,-162711.0,0.0,-55028.0,-56234.0,-54610.0,-57468.0,-15207.0,-13202.0,155277.0,0.0,53652.0,53749.0,54870.0,51454.0,44.0,163.0,-47.0,0.0,-875.0,-424.0,624.0,-545.0,-54.0,-161.0,40.0,0.0,-890.0,462.0,756.0,-935.0,-0.012036,-0.044369,0.012768,0.0,-0.032029,-0.015517,-0.022856,-0.019976,-0.014718,-0.043638,0.010904,0.0,-0.032574,0.016906,-0.027667,-0.034244,4078.800049,11455.379883,51504.933594,0.0,-18190.890625,-17703.630859,17968.230469,-17449.650391,4111.199707,11452.589844,51510.332031,0.0,17222.939453,17707.050781,-17451.630859,17966.25,0.0,0.0,0.0,0.0,0.0,0.0,0.0,0.0,0.0,0.0,0.0,0.0,0.0,0.0,0.0,0.0,0.0,0.0,0.0,0.0,0.0,0.0,0.0,0.0,0.0,0.0,0.0,0.0,0.0,0.0,0.0,0.0,4078.803223,11455.094727,51505.199219,0.0,-18191.839844,-17707.128906,17965.839844,-17448.746094,4110.92334,11452.447266,51509.890625,0.0,17224.144531,17709.238281,-17451.068359,17966.734375,29.947983,89.907562,22.900837,0.0,-89.828751,0.007648,28.759918,28.746302,30.183819,89.851471,22.901627,0.0,-89.878326,0.020438,28.68046,28.666933,1.006,0.998,-63838.0,-145259.0,-409566.0,0.0,147093.0,140473.0,-145037.0,136417.0,-60887.0,-140453.0,-417060.0,0.0,-137714.0,-142996.0,139037.0,-148171.0,0.0,0.0,0.0,0.0,0.0,0.0,0.0,0.0,0.0,0.0,0.0,0.0,0.0,0.0,0.0,0.0,0.0,0.0,0.0,0.0,0.0,0.0,0.0,0.0
16,6.492583990097046,0.522691,1.569224,0.399693,0.0,-1.564738,0.006924,0.503025,0.503357,0.526842,1.568219,0.399712,0.0,-1.572568,-0.003889,0.501424,0.497098,3.0,1.0,111.0,0.0,1.0,-78299.0,-25258.0,13088.0,-78181.0,25573.0,13059.0,-0.941064,0.268191,0.20609,-0.302437,-0.940029,-0.157727,0.15143,-0.21076,0.965738,-0.939961,0.270685,-0.207852,0.304522,0.94018,-0.152737,0.154075,-0.206863,-0.966162,-0.941064,0.268191,0.20609,-0.302437,-0.940029,-0.157727,0.15143,-0.21076,0.965738,-0.939961,0.270685,-0.207852,0.304522,0.94018,-0.152737,0.154075,-0.206863,-0.966162,-78299.0,-25258.0,13088.0,-78181.0,25573.0,13059.0,18518.0,17977.0,-162711.0,0.0,-55028.0,-56234.0,-54609.0,-57468.0,-15207.0,-13202.0,155277.0,0.0,53652.0,53749.0,54871.0,51453.0,44.0,163.0,-47.0,0.0,-875.0,-425.0,623.0,-545.0,-54.0,-161.0,40.0,0.0,-889.0,463.0,753.0,-933.0,-0.012036,-0.044369,0.012768,0.0,-0.032046,-0.015578,-0.022818,-0.019961,-0.014718,-0.043638,0.010904,0.0,-0.032553,0.016944,-0.027577,-0.034157,4078.800049,11455.379883,51504.933594,0.0,-18190.890625,-17703.630859,17968.140625,-17449.650391,4111.199707,11452.589844,51510.332031,0.0,17222.939453,17707.050781,-17451.720703,17966.160156,0.0,0.0,0.0,0.0,0.0,0.0,0.0,0.0,0.0,0.0,0.0,0.0,0.0,0.0,0.0,0.0,0.0,0.0,0.0,0.0,0.0,0.0,0.0,0.0,0.0,0.0,0.0,0.0,0.0,0.0,0.0,0.0,4078.803223,11455.094727,51505.199219,0.0,-18191.839844,-17707.128906,17965.839844,-17448.746094,4110.92334,11452.447266,51509.890625,0.0,17224.144531,17709.238281,-17451.068359,17966.734375,29.947983,89.907562,22.900837,0.0,-89.828751,0.007648,28.759918,28.746302,30.183819,89.851471,22.901627,0.0,-89.878326,0.020438,28.68046,28.666933,1.006,0.998,-63838.0,-145259.0,-409566.0,0.0,147093.0,140473.0,-145037.0,136417.0,-60887.0,-140453.0,-417060.0,0.0,-137714.0,-142996.0,139037.0,-148171.0,0.0,0.0,0.0,0.0,0.0,0.0,0.0,0.0,0.0,0.0,0.0,0.0,0.0,0.0,0.0,0.0,0.0,0.0,0.0,0.0,0.0,0.0,0.0,0.0
17,6.514572858810425,0.522691,1.569224,0.399693,0.0,-1.564738,0.006924,0.503025,0.503184,0.526842,1.568219,0.399712,0.0,-1.572568,-0.003889,0.501424,0.497098,3.0,1.0,111.0,0.0,1.0,-78299.0,-25258.0,13088.0,-78181.0,25573.0,13059.0,-0.941087,0.268109,0.20609,-0.302356,-0.940055,-0.157727,0.151448,-0.210747,0.965738,-0.939961,0.270685,-0.207852,0.304522,0.94018,-0.152737,0.154075,-0.206863,-0.966162,-0.941087,0.268109,0.20609,-0.302356,-0.940055,-0.157727,0.151448,-0.210747,0.965738,-0.939961,0.270685,-0.207852,0.304522,0.94018,-0.152737,0.154075,-0.206863,-0.966162,-78299.0,-25258.0,13088.0,-78181.0,25573.0,13059.0,18518.0,17977.0,-162711.0,0.0,-55028.0,-56234.0,-54609.0,-57469.0,-15207.0,-13202.0,155277.0,0.0,53652.0,53749.0,54871.0,51453.0,44.0,163.0,-47.0,0.0,-876.0,-427.0,624.0,-542.0,-54.0,-161.0,40.0,0.0,-888.0,464.0,753.0,-933.0,-0.012036,-0.044369,0.012768,0.0,-0.032064,-0.015645,-0.022862,-0.019864,-0.014718,-0.043638,0.010904,0.0,-0.03253,0.016986,-0.027565,-0.034146,4078.800049,11455.379883,51504.933594,0.0,-18190.890625,-17703.630859,17968.140625,-17449.740234,4111.199707,11452.589844,51510.332031,0.0,17222.939453,17707.050781,-17451.720703,17966.160156,0.0,0.0,0.0,0.0,0.0,0.0,0.0,0.0,0.0,0.0,0.0,0.0,0.0,0.0,0.0,0.0,0.0,0.0,0.0,0.0,0.0,0.0,0.0,0.0,0.0,0.0,0.0,0.0,0.0,0.0,0.0,0.0,4078.803223,11455.094727,51505.199219,0.0,-18191.839844,-17707.128906,17965.839844,-17448.746094,4110.92334,11452.447266,51509.890625,0.0,17224.144531,17709.238281,-17451.068359,17966.734375,29.947983,89.907562,22.900837,0.0,-89.828751,0.007648,28.759918,28.746302,30.183819,89.851471,22.901627,0.0,-89.878326,0.020438,28.68046,28.666933,1.006,0.998,-63838.0,-145259.0,-409566.0,0.0,147093.0,140473.0,-145037.0,136417.0,-60887.0,-140453.0,-417060.0,0.0,-137714.0,-142996.0,139037.0,-148171.0,0.0,0.0,0.0,0.0,0.0,0.0,0.0,0.0,0.0,0.0,0.0,0.0,0.0,0.0,0.0,0.0,0.0,0.0,0.0,0.0,0.0,0.0,0.0,0.0
18,6.535573959350586,0.522691,1.569224,0.399693,0.0,-1.564738,0.006924,0.502852,0.503184,0.526842,1.568219,0.399712,0.0,-1.572856,-0.003713,0.501336,0.497186,3.0,1.0,111.0,0.0,1.0,-78299.0,-25258.0,13088.0,-78180.0,25574.0,13061.0,-0.941064,0.268191,0.20609,-0.302437,-0.940029,-0.157727,0.15143,-0.21076,0.965738,-0.939901,0.270707,-0.208097,0.304631,0.940109,-0.152954,0.154228,-0.207154,-0.966075,-0.941064,0.268191,0.20609,-0.302437,-0.940029,-0.157727,0.15143,-0.21076,0.965738,-0.939901,0.270707,-0.208097,0.304631,0.940109,-0.152954,0.154228,-0.207154,-0.966075,-78299.0,-25258.0,13088.0,-78180.0,25574.0,13061.0,18518.0,17977.0,-162711.0,0.0,-55028.0,-56234.0,-54608.0,-57469.0,-15207.0,-13202.0,155277.0,0.0,53651.0,53750.0,54871.0,51453.0,44.0,163.0,-47.0,0.0,-876.0,-429.0,623.0,-542.0,-54.0,-161.0,40.0,0.0,-884.0,463.0,752.0,-932.0,-0.012036,-0.044369,0.012768,0.0,-0.032081,-0.01571,-0.022826,-0.019846,-0.014718,-0.043638,0.010904,0.0,-0.032366,0.016945,-0.027553,-0.034135,4078.800049,11455.379883,51504.933594,0.0,-18190.890625,-17703.630859,17968.050781,-17449.740234,4111.199707,11452.589844,51510.332031,0.0,17222.851562,17707.140625,-17451.720703,17966.160156,0.0,0.0,0.0,0.0,0.0,0.0,0.0,0.0,0.0,0.0,0.0,0.0,0.0,0.0,0.0,0.0,0.0,0.0,0.0,0.0,0.0,0.0,0.0,0.0,0.0,0.0,0.0,0.0,0.0,0.0,0.0,0.0,4078.803223,11455.094727,51505.199219,0.0,-18191.839844,-17707.128906,17965.839844,-17448.746094,4110.92334,11452.447266,51509.890625,0.0,17224.144531,17709.238281,-17451.068359,17966.734375,29.947983,89.907562,22.900837,0.0,-89.828751,0.007648,28.759918,28.746302,30.183819,89.851471,22.901627,0.0,-89.878326,0.020438,28.68046,28.666933,1.006,0.998,-63838.0,-145259.0,-409566.0,0.0,147093.0,140473.0,-145037.0,136417.0,-60887.0,-140453.0,-417060.0,0.0,-137714.0,-142996.0,139037.0,-148171.0,0.0,0.0,0.0,0.0,0.0,0.0,0.0,0.0,0.0,0.0,0.0,0.0,0.0,0.0,0.0,0.0,0.0,0.0,0.0,0.0,0.0,0.0,0.0,0.0
19,6.556588888168335,0.522691,1.569224,0.399693,0.0,-1.565027,0.006924,0.502852,0.503007,0.526842,1.568219,0.399712,0.0,-1.572856,-0.003713,0.501163,0.497009,3.0,1.0,111.0,0.0,1.0,-78299.0,-25258.0,13088.0,-78180.0,25574.0,13061.0,-0.941087,0.268169,0.206013,-0.302356,-0.9401,-0.157456,0.151448,-0.210469,0.965798,-0.939901,0.270705,-0.208097,0.304629,0.94011,-0.152954,0.154228,-0.207154,-0.966075,-0.941087,0.268169,0.206013,-0.302356,-0.9401,-0.157456,0.151448,-0.210469,0.965798,-0.939901,0.270705,-0.208097,0.304629,0.94011,-0.152954,0.154228,-0.207154,-0.966075,-78299.0,-25258.0,13088.0,-78180.0,25574.0,13061.0,18518.0,17977.0,-162711.0,0.0,-55029.0,-56234.0,-54608.0,-57470.0,-15207.0,-13202.0,155277.0,0.0,53651.0,53750.0,54872.0,51452.0,44.0,163.0,-47.0,0.0,-873.0,-431.0,624.0,-539.0,-54.0,-161.0,40.0,0.0,-883.0,464.0,750.0,-930.0,-0.012036,-0.044369,0.012768,0.0,-0.031958,-0.015774,-0.022866,-0.019747,-0.014718,-0.043638,0.010904,0.0,-0.032343,0.016983,-0.027461,-0.034044,4078.800049,11455.379883,51504.933594,0.0,-18190.980469,-17703.630859,17968.050781,-17449.832031,4111.199707,11452.589844,51510.332031,0.0,17222.851562,17707.140625,-17451.810547,17966.070312,0.0,0.0,0.0,0.0,0.0,0.0,0.0,0.0,0.0,0.0,0.0,0.0,0.0,0.0,0.0,0.0,0.0,0.0,0.0,0.0,0.0,0.0,0.0,0.0,0.0,0.0,0.0,0.0,0.0,0.0,0.0,0.0,4078.803223,11455.094727,51505.199219,0.0,-18191.839844,-17707.128906,17965.839844,-17448.746094,4110.92334,11452.447266,51509.890625,0.0,17224.144531,17709.238281,-17451.068359,17966.734375,29.947983,89.907562,22.900837,0.0,-89.828751,0.007648,28.759918,28.746302,30.183819,89.851471,22.901627,0.0,-89.878326,0.020438,28.68046,28.666933,1.005,0.998,-63838.0,-145259.0,-409566.0,0.0,147093.0,140473.0,-145037.0,136417.0,-60887.0,-140453.0,-417060.0,0.0,-137714.0,-142996.0,139037.0,-148171.0,0.0,0.0,0.0,0.0,0.0,0.0,0.0,0.0,0.0,0.0,0.0,0.0,0.0,0.0,0.0,0.0,0.0,0.0,0.0,0.0,0.0,0.0,0.0,0.0
20,6.576589822769165,0.522691,1.569224,0.399693,0.0,-1.565027,0.006924,0.502675,0.503007,0.526842,1.568219,0.399712,0.0,-1.572856,-0.003713,0.501163,0.497009,3.0,1.0,111.0,0.0,1.0,-78299.0,-25258.0,13088.0,-78180.0,25574.0,13061.0,-0.941063,0.268252,0.206013,-0.302439,-0.940074,-0.157456,0.151429,-0.210482,0.965798,-0.939901,0.270705,-0.208097,0.304629,0.94011,-0.152954,0.154228,-0.207154,-0.966075,-0.941063,0.268252,0.206013,-0.302439,-0.940074,-0.157456,0.151429,-0.210482,0.965798,-0.939901,0.270705,-0.208097,0.304629,0.94011,-0.152954,0.154228,-0.207154,-0.966075,-78299.0,-25258.0,13088.0,-78180.0,25574.0,13061.0,18518.0,17977.0,-162711.0,0.0,-55029.0,-56234.0,-54607.0,-57470.0,-15207.0,-13202.0,155277.0,0.0,53651.0,53750.0,54872.0,51452.0,44.0,163.0,-47.0,0.0,-873.0,-432.0,623.0,-539.0,-54.0,-161.0,40.0,0.0,-883.0,465.0,750.0,-930.0,-0.012036,-0.044369,0.012768,0.0,-0.031973,-0.015835,-0.022825,-0.019728,-0.014718,-0.043638,0.010904,0.0,-0.03232,0.01702,-0.027448,-0.034032,4078.800049,11455.379883,51504.933594,0.0,-18190.980469,-17703.630859,17967.960938,-17449.832031,4111.199707,11452.589844,51510.332031,0.0,17222.851562,17707.140625,-17451.810547,17966.070312,0.0,0.0,0.0,0.0,0.0,0.0,0.0,0.0,0.0,0.0,0.0,0.0,0.0,0.0,0.0,0.0,0.0,0.0,0.0,0.0,0.0,0.0,0.0,0.0,0.0,0.0,0.0,0.0,0.0,0.0,0.0,0.0,4078.803223,11455.094727,51505.199219,0.0,-18191.839844,-17707.128906,17965.839844,-17448.746094,4110.92334,11452.447266,51509.890625,0.0,17224.144531,17709.238281,-17451.068359,17966.734375,29.947983,89.907562,22.900837,0.0,-89.828751,0.007648,28.759918,28.746302,30.183819,89.851471,22.901627,0.0,-89.878326,0.020438,28.68046,28.666933,1.005,0.998,-63838.0,-145259.0,-409566.0,0.0,147093.0,140473.0,-145037.0,136417.0,-60887.0,-140453.0,-417060.0,0.0,-137714.0,-142996.0,139037.0,-148171.0,0.0,0.0,0.0,0.0,0.0,0.0,0.0,0.0,0.0,0.0,0.0,0.0,0.0,0.0,0.0,0.0,0.0,0.0,0.0,0.0,0.0,0.0,0.0,0.0
21,6.596583843231201,0.522691,1.569224,0.399693,0.0,-1.565027,0.006924,0.502502,0.503007,0.526842,1.568219,0.399712,0.0,-1.57315,-0.003713,0.501163,0.497009,3.0,1.0,111.0,0.0,1.0,-78299.0,-25258.0,13088.0,-78180.0,25574.0,13061.0,-0.94104,0.268333,0.206013,-0.302521,-0.940047,-0.157456,0.151411,-0.210495,0.965798,-0.939902,0.270643,-0.208177,0.304628,0.940065,-0.15323,0.154229,-0.207438,-0.966014,-0.941063,0.268252,0.206013,-0.302439,-0.940074,-0.157456,0.151429,-0.210482,0.965798,-0.939902,0.270643,-0.208177,0.304628,0.940065,-0.15323,0.154229,-0.207438,-0.966014,-78299.0,-25258.0,13088.0,-78180.0,25574.0,13061.0,18518.0,17977.0,-162711.0,0.0,-55029.0,-56234.0,-54606.0,-57470.0,-15207.0,-13202.0,155277.0,0.0,53650.0,53750.0,54872.0,51452.0,44.0,163.0,-47.0,0.0,-874.0,-434.0,622.0,-538.0,-54.0,-161.0,40.0,0.0,-878.0,466.0,749.0,-929.0,-0.012036,-0.044369,0.012768,0.0,-0.031988,-0.015896,-0.022784,-0.019709,-0.014718,-0.043638,0.010904,0.0,-0.032153,0.017057,-0.027436,-0.034021,4078.800049,11455.379883,51504.933594,0.0,-18190.980469,-17703.630859,17967.871094,-17449.832031,4111.199707,11452.589844,51510.332031,0.0,17222.759766,17707.140625,-17451.810547,17966.070312,0.0,0.0,0.0,0.0,0.0,0.0,-89.174942,0.0,0.0,0.0,0.0,0.0,0.0,0.0,0.0,0.0,0.0,0.0,0.0,0.0,0.0,0.0,-0.173088,0.0,0.0,0.0,0.0,0.0,0.0,0.0,0.0,0.0,4078.803223,11455.094727,51505.199219,0.0,-18191.839844,-17707.128906,17965.839844,-17448.746094,4110.92334,11452.447266,51509.890625,0.0,17224.144531,17709.238281,-17451.068359,17966.734375,29.947983,89.907562,22.900837,0.0,-89.828751,0.007648,28.759918,28.746302,30.183819,89.851471,22.901627,0.0,-89.878326,0.020438,28.68046,28.666933,1.005,0.998,-63838.0,-145259.0,-409566.0,0.0,147093.0,140473.0,-145037.0,136417.0,-60887.0,-140453.0,-417060.0,0.0,-137714.0,-142996.0,139037.0,-148171.0,0.0,0.0,0.0,0.0,0.0,-0.173088,0.0,0.0,0.0,0.0,0.0,0.0,0.0,0.0,0.0,0.0,0.0,-0.173088,0.0,0.0,0.0,0.0,0.0,0.0
22,6.618575811386108,0.522691,1.569224,0.399693,0.0,-1.565027,0.006924,0.502326,0.502834,0.526842,1.568219,0.399712,0.0,-1.57315,-0.003713,0.50099,0.497009,3.0,1.0,111.0,0.0,1.0,-78299.0,-25258.0,13088.0,-78180.0,25574.0,13061.0,-0.941039,0.268335,0.206013,-0.302522,-0.940047,-0.157456,0.151411,-0.210495,0.965798,-0.939878,0.270724,-0.208177,0.30471,0.940039,-0.15323,0.154211,-0.207451,-0.966014,-0.941039,0.268335,0.206013,-0.302522,-0.940047,-0.157456,0.151411,-0.210495,0.965798,-0.939878,0.270724,-0.208177,0.30471,0.940039,-0.15323,0.154211,-0.207451,-0.966014,-78299.0,-25258.0,13088.0,-78180.0,25574.0,13061.0,18518.0,17977.0,-162711.0,0.0,-55029.0,-56234.0,-54605.0,-57471.0,-15207.0,-13202.0,155277.0,0.0,53650.0,53750.0,54873.0,51452.0,44.0,163.0,-47.0,0.0,-874.0,-436.0,621.0,-535.0,-54.0,-161.0,40.0,0.0,-877.0,467.0,747.0,-929.0,-0.012036,-0.044369,0.012768,0.0,-0.032005,-0.015963,-0.022743,-0.01961,-0.014718,-0.043638,0.010904,0.0,-0.032126,0.017097,-0.027342,-0.034008,4078.800049,11455.379883,51504.933594,0.0,-18190.980469,-17703.630859,17967.779297,-17449.919922,4111.199707,11452.589844,51510.332031,0.0,17222.759766,17707.140625,-17451.900391,17966.070312,0.0,0.0,0.0,0.0,0.0,0.0,0.0,0.0,0.0,0.0,0.0,0.0,0.0,0.0,0.0,0.0,0.0,0.0,0.0,0.0,0.0,0.0,0.0,0.0,0.0,0.0,0.0,0.0,0.0,0.0,0.0,0.0,4078.803223,11455.094727,51505.199219,0.0,-18191.839844,-17707.128906,17965.839844,-17448.746094,4110.92334,11452.447266,51509.890625,0.0,17224.144531,17709.238281,-17451.068359,17966.734375,29.947983,89.907562,22.900837,0.0,-89.828751,0.007648,28.759918,28.746302,30.183819,89.851471,22.901627,0.0,-89.878326,0.020438,28.68046,28.666933,1.005,0.997,-63838.0,-145259.0,-409566.0,0.0,147093.0,140473.0,-145037.0,136417.0,-60887.0,-140453.0,-417060.0,0.0,-137714.0,-142996.0,139037.0,-148171.0,0.0,0.0,0.0,0.0,0.0,0.0,0.0,0.0,0.0,0.0,0.0,0.0,0.0,0.0,0.0,0.0,0.0,0.0,0.0,0.0,0.0,0.0,0.0,0.0
23,6.639580965042114,0.522691,1.569224,0.399693,0.0,-1.565321,0.006924,0.502153,0.502834,0.526842,1.568219,0.399712,0.0,-1.57315,-0.003713,0.50099,0.496836,3.0,1.0,111.0,0.0,1.0,-78299.0,-25258.0,13088.0,-78180.0,25574.0,13061.0,-0.941016,0.268479,0.205934,-0.302605,-0.940066,-0.157179,0.151392,-0.210225,0.96586,-0.939902,0.270643,-0.208177,0.304628,0.940065,-0.15323,0.154229,-0.207438,-0.966014,-0.941016,0.268479,0.205934,-0.302605,-0.940066,-0.157179,0.151392,-0.210225,0.96586,-0.939902,0.270643,-0.208177,0.304628,0.940065,-0.15323,0.154229,-0.207438,-0.966014,-78299.0,-25258.0,13088.0,-78180.0,25574.0,13061.0,18518.0,17977.0,-162711.0,0.0,-55030.0,-56234.0,-54604.0,-57471.0,-15207.0,-13202.0,155277.0,0.0,53650.0,53750.0,54873.0,51451.0,44.0,163.0,-47.0,0.0,-871.0,-437.0,620.0,-535.0,-54.0,-161.0,40.0,0.0,-877.0,468.0,746.0,-926.0,-0.012036,-0.044369,0.012768,0.0,-0.031877,-0.016027,-0.0227,-0.019588,-0.014718,-0.043638,0.010904,0.0,-0.032101,0.017135,-0.027327,-0.033918,4078.800049,11455.379883,51504.933594,0.0,-18191.070312,-17703.630859,17967.691406,-17449.919922,4111.199707,11452.589844,51510.332031,0.0,17222.759766,17707.140625,-17451.900391,17965.980469,0.0,0.0,0.0,0.0,0.0,0.0,0.0,0.0,0.0,0.0,0.0,0.0,0.0,0.0,0.0,0.0,0.0,0.0,0.0,0.0,0.0,0.0,0.0,0.0,0.0,0.0,0.0,0.0,0.0,0.0,0.0,0.0,4078.803223,11455.094727,51505.199219,0.0,-18191.839844,-17707.128906,17965.839844,-17448.746094,4110.92334,11452.447266,51509.890625,0.0,17224.144531,17709.238281,-17451.068359,17966.734375,29.947983,89.907562,22.900837,0.0,-89.828751,0.007648,28.759918,28.746302,30.183819,89.851471,22.901627,0.0,-89.878326,0.020438,28.68046,28.666933,1.004,0.997,-63838.0,-145259.0,-409566.0,0.0,147093.0,140473.0,-145037.0,136417.0,-60887.0,-140453.0,-417060.0,0.0,-137714.0,-142996.0,139037.0,-148171.0,0.0,0.0,0.0,0.0,0.0,0.0,0.0,0.0,0.0,0.0,0.0,0.0,0.0,0.0,0.0,0.0,0.0,0.0,0.0,0.0,0.0,0.0,0.0,0.0
24,6.660561800003052,0.522691,1.569224,0.399693,0.0,-1.565321,0.006924,0.501976,0.502834,0.526842,1.568219,0.399712,0.0,-1.573439,-0.003713,0.50099,0.496836,3.0,1.0,111.0,0.0,1.0,-78299.0,-25258.0,13088.0,-78180.0,25574.0,13061.0,-0.940992,0.268562,0.205934,-0.302688,-0.94004,-0.157179,0.151374,-0.210238,0.96586,-0.939902,0.270582,-0.208256,0.304628,0.940021,-0.153501,0.15423,-0.207717,-0.965954,-0.940992,0.268562,0.205934,-0.302688,-0.94004,-0.157179,0.151374,-0.210238,0.96586,-0.939902,0.270582,-0.208256,0.304628,0.940021,-0.153501,0.15423,-0.207717,-0.965954,-78299.0,-25258.0,13088.0,-78180.0,25574.0,13061.0,18518.0,17977.0,-162711.0,0.0,-55030.0,-56234.0,-54603.0,-57471.0,-15207.0,-13202.0,155277.0,0.0,53649.0,53750.0,54873.0,51451.0,44.0,163.0,-47.0,0.0,-871.0,-439.0,619.0,-534.0,-54.0,-161.0,40.0,0.0,-872.0,469.0,746.0,-926.0,-0.012036,-0.044369,0.012768,0.0,-0.031891,-0.016091,-0.022654,-0.019567,-0.014718,-0.043638,0.010904,0.0,-0.031935,0.017174,-0.027312,-0.033904,4078.800049,11455.379883,51504.933594,0.0,-18191.070312,-17703.630859,17967.599609,-17449.919922,4111.199707,11452.589844,51510.332031,0.0,17222.671875,17707.140625,-17451.900391,17965.980469,0.0,0.0,0.0,0.0,0.0,0.0,0.0,0.0,0.0,0.0,0.0,0.0,0.0,0.0,0.0,0.0,0.0,0.0,0.0,0.0,0.0,0.0,0.0,0.0,0.0,0.0,0.0,0.0,0.0,0.0,0.0,0.0,4078.803223,11455.094727,51505.199219,0.0,-18191.839844,-17707.128906,17965.839844,-17448.746094,4110.92334,11452.447266,51509.890625,0.0,17224.144531,17709.238281,-17451.068359,17966.734375,29.947983,89.907562,22.900837,0.0,-89.828751,0.007648,28.759918,28.746302,30.183819,89.851471,22.901627,0.0,-89.878326,0.020438,28.68046,28.666933,1.004,0.997,-63838.0,-145259.0,-409566.0,0.0,147093.0,140473.0,-145037.0,136417.0,-60887.0,-140453.0,-417060.0,0.0,-137714.0,-142996.0,139037.0,-148171.0,0.0,0.0,0.0,0.0,0.0,0.0,0.0,0.0,0.0,0.0,0.0,0.0,0.0,0.0,0.0,0.0,0.0,0.0,0.0,0.0,0.0,0.0,0.0,0.0
25,6.680583953857422,0.522691,1.569224,0.399693,0.0,-1.565321,0.006924,0.501803,0.502834,0.526842,1.568219,0.399712,0.0,-1.573439,-0.003713,0.500813,0.496836,3.0,1.0,111.0,0.0,1.0,-78299.0,-25258.0,13088.0,-78180.0,25574.0,13061.0,-0.940969,0.268643,0.205934,-0.30277,-0.940013,-0.157179,0.151355,-0.210251,0.96586,-0.939878,0.270665,-0.208256,0.30471,0.939994,-0.153501,0.154212,-0.20773,-0.965954,-0.940969,0.268643,0.205934,-0.30277,-0.940013,-0.157179,0.151355,-0.210251,0.96586,-0.939878,0.270665,-0.208256,0.30471,0.939994,-0.153501,0.154212,-0.20773,-0.965954,-78299.0,-25258.0,13088.0,-78180.0,25574.0,13061.0,18518.0,17977.0,-162711.0,0.0,-55030.0,-56234.0,-54602.0,-57471.0,-15207.0,-13202.0,155277.0,0.0,53649.0,53750.0,54874.0,51451.0,44.0,163.0,-47.0,0.0,-871.0,-441.0,617.0,-534.0,-54.0,-161.0,40.0,0.0,-872.0,470.0,743.0,-926.0,-0.012036,-0.044369,0.012768,0.0,-0.031905,-0.016152,-0.022606,-0.019546,-0.014718,-0.043638,0.010904,0.0,-0.031909,0.01721,-0.027217,-0.033891,4078.800049,11455.379883,51504.933594,0.0,-18191.070312,-17703.630859,17967.511719,-17449.919922,4111.199707,11452.589844,51510.332031,0.0,17222.671875,17707.140625,-17451.990234,17965.980469,0.0,0.0,0.0,0.0,0.0,0.0,0.0,0.0,0.0,0.0,0.0,0.0,0.0,0.0,0.0,0.0,0.0,0.0,0.0,0.0,0.0,0.0,0.0,0.0,0.0,0.0,0.0,0.0,0.0,0.0,0.0,0.0,4078.803223,11455.094727,51505.199219,0.0,-18191.839844,-17707.128906,17965.839844,-17448.746094,4110.92334,11452.447266,51509.890625,0.0,17224.144531,17709.238281,-17451.068359,17966.734375,29.947983,89.907562,22.900837,0.0,-89.828751,0.007648,28.759918,28.746302,30.183819,89.851471,22.901627,0.0,-89.878326,0.020438,28.68046,28.666933,1.004,0.997,-63838.0,-145259.0,-409566.0,0.0,147093.0,140473.0,-145037.0,136417.0,-60887.0,-140453.0,-417060.0,0.0,-137714.0,-142996.0,139037.0,-148171.0,0.0,0.0,0.0,0.0,0.0,0.0,0.0,0.0,0.0,0.0,0.0,0.0,0.0,0.0,0.0,0.0,0.0,0.0,0.0,0.0,0.0,0.0,0.0,0.0
26,6.702577829360962,0.522691,1.569224,0.399693,0.0,-1.565321,0.006924,0.501627,0.502834,0.526842,1.568219,0.399712,0.0,-1.573439,-0.003713,0.500813,0.496836,3.0,1.0,111.0,0.0,1.0,-78299.0,-25258.0,13088.0,-78180.0,25574.0,13061.0,-0.940945,0.268726,0.205934,-0.302853,-0.939987,-0.157179,0.151337,-0.210265,0.96586,-0.939878,0.270665,-0.208256,0.30471,0.939994,-0.153501,0.154212,-0.20773,-0.965954,-0.940945,0.268726,0.205934,-0.302853,-0.939987,-0.157179,0.151337,-0.210265,0.96586,-0.939878,0.270665,-0.208256,0.30471,0.939994,-0.153501,0.154212,-0.20773,-0.965954,-78299.0,-25258.0,13088.0,-78180.0,25574.0,13061.0,18518.0,17977.0,-162711.0,0.0,-55030.0,-56234.0,-54601.0,-57471.0,-15207.0,-13202.0,155277.0,0.0,53649.0,53750.0,54874.0,51451.0,44.0,163.0,-47.0,0.0,-872.0,-443.0,616.0,-533.0,-54.0,-161.0,40.0,0.0,-871.0,471.0,743.0,-925.0,-0.012036,-0.044369,0.012768,0.0,-0.03192,-0.016219,-0.022559,-0.019524,-0.014718,-0.043638,0.010904,0.0,-0.031881,0.017251,-0.0272,-0.033876,4078.800049,11455.379883,51504.933594,0.0,-18191.070312,-17703.630859,17967.419922,-17449.919922,4111.199707,11452.589844,51510.332031,0.0,17222.671875,17707.140625,-17451.990234,17965.980469,0.0,0.0,0.0,0.0,0.0,0.0,0.0,0.0,0.0,0.0,0.0,0.0,0.0,0.0,0.0,0.0,0.0,0.0,0.0,0.0,0.0,0.0,0.0,0.0,0.0,0.0,0.0,0.0,0.0,0.0,0.0,0.0,4078.803223,11455.094727,51505.199219,0.0,-18191.839844,-17707.128906,17965.839844,-17448.746094,4110.92334,11452.447266,51509.890625,0.0,17224.144531,17709.238281,-17451.068359,17966.734375,29.947983,89.907562,22.900837,0.0,-89.828751,0.007648,28.759918,28.746302,30.183819,89.851471,22.901627,0.0,-89.878326,0.020438,28.68046,28.666933,1.004,0.997,-63838.0,-145259.0,-409566.0,0.0,147093.0,140473.0,-145037.0,136417.0,-60887.0,-140453.0,-417060.0,0.0,-137714.0,-142996.0,139037.0,-148171.0,0.0,0.0,0.0,0.0,0.0,0.0,0.0,0.0,0.0,0.0,0.0,0.0,0.0,0.0,0.0,0.0,0.0,0.0,0.0,0.0,0.0,0.0,0.0,0.0
27,6.72357177734375,0.522691,1.569224,0.399693,0.0,-1.565609,0.006924,0.501454,0.502658,0.526842,1.568219,0.399712,0.0,-1.573439,-0.003713,0.500813,0.496836,3.0,1.0,111.0,0.0,1.0,-78299.0,-25258.0,13088.0,-78180.0,25574.0,13061.0,-0.940945,0.268786,0.205856,-0.302853,-0.940032,-0.156908,0.151337,-0.209986,0.965921,-0.939878,0.270665,-0.208256,0.30471,0.939994,-0.153501,0.154212,-0.20773,-0.965954,-0.940945,0.268786,0.205856,-0.302853,-0.940032,-0.156908,0.151337,-0.209986,0.965921,-0.939878,0.270665,-0.208256,0.30471,0.939994,-0.153501,0.154212,-0.20773,-0.965954,-78299.0,-25258.0,13088.0,-78180.0,25574.0,13061.0,18518.0,17977.0,-162711.0,0.0,-55031.0,-56234.0,-54600.0,-57472.0,-15207.0,-13202.0,155277.0,0.0,53649.0,53750.0,54874.0,51451.0,44.0,163.0,-47.0,0.0,-868.0,-445.0,615.0,-530.0,-54.0,-161.0,40.0,0.0,-870.0,472.0,742.0,-925.0,-0.012036,-0.044369,0.012768,0.0,-0.031793,-0.016284,-0.022509,-0.019423,-0.014718,-0.043638,0.010904,0.0,-0.031854,0.017289,-0.027183,-0.033862,4078.800049,11455.379883,51504.933594,0.0,-18191.160156,-17703.630859,17967.330078,-17450.011719,4111.199707,11452.589844,51510.332031,0.0,17222.671875,17707.140625,-17451.990234,17965.980469,0.0,0.0,0.0,0.0,0.0,0.0,0.0,0.0,0.0,0.0,0.0,0.0,0.0,0.0,0.0,0.0,0.0,0.0,0.0,0.0,0.0,0.0,0.0,0.0,0.0,0.0,0.0,0.0,0.0,0.0,0.0,0.0,4078.803223,11455.094727,51505.199219,0.0,-18191.839844,-17707.128906,17965.839844,-17448.746094,4110.92334,11452.447266,51509.890625,0.0,17224.144531,17709.238281,-17451.068359,17966.734375,29.947983,89.907562,22.900837,0.0,-89.828751,0.007648,28.759918,28.746302,30.183819,89.851471,22.901627,0.0,-89.878326,0.020438,28.68046,28.666933,1.004,0.997,-63838.0,-145259.0,-409566.0,0.0,147093.0,140473.0,-145037.0,136417.0,-60887.0,-140453.0,-417060.0,0.0,-137714.0,-142996.0,139037.0,-148171.0,0.0,0.0,0.0,0.0,0.0,0.0,0.0,0.0,0.0,0.0,0.0,0.0,0.0,0.0,0.0,0.0,0.0,0.0,0.0,0.0,0.0,0.0,0.0,0.0
28,6.7446229457855225,0.522691,1.569224,0.399693,0.0,-1.565609,0.006924,0.501454,0.502658,0.526842,1.568219,0.399712,0.0,-1.573733,-0.003713,0.500813,0.496836,3.0,1.0,111.0,0.0,1.0,-78299.0,-25258.0,13088.0,-78180.0,25574.0,13061.0,-0.940945,0.268786,0.205856,-0.302853,-0.940032,-0.156908,0.151337,-0.209986,0.965921,-0.939878,0.270602,-0.208336,0.30471,0.939949,-0.153778,0.154212,-0.208014,-0.965893,-0.940945,0.268786,0.205856,-0.302853,-0.940032,-0.156908,0.151337,-0.209986,0.965921,-0.939878,0.270602,-0.208336,0.30471,0.939949,-0.153778,0.154212,-0.208014,-0.965893,-78299.0,-25258.0,13088.0,-78180.0,25574.0,13061.0,18518.0,17977.0,-162711.0,0.0,-55031.0,-56234.0,-54600.0,-57472.0,-15207.0,-13202.0,155277.0,0.0,53648.0,53750.0,54874.0,51451.0,44.0,163.0,-47.0,0.0,-869.0,-446.0,615.0,-530.0,-54.0,-161.0,40.0,0.0,-865.0,473.0,742.0,-925.0,-0.012036,-0.044369,0.012768,0.0,-0.031805,-0.016348,-0.022536,-0.019399,-0.014718,-0.043638,0.010904,0.0,-0.031684,0.017327,-0.027166,-0.033849,4078.800049,11455.379883,51504.933594,0.0,-18191.160156,-17703.630859,17967.330078,-17450.011719,4111.199707,11452.589844,51510.332031,0.0,17222.580078,17707.140625,-17451.990234,17965.980469,0.0,0.0,0.0,0.0,0.0,0.0,0.0,0.0,0.0,0.0,0.0,0.0,0.0,0.0,0.0,0.0,0.0,0.0,0.0,0.0,0.0,0.0,0.0,0.0,0.0,0.0,0.0,0.0,0.0,0.0,0.0,0.0,4078.803223,11455.094727,51505.199219,0.0,-18191.839844,-17707.128906,17965.839844,-17448.746094,4110.92334,11452.447266,51509.890625,0.0,17224.144531,17709.238281,-17451.068359,17966.734375,29.947983,89.907562,22.900837,0.0,-89.828751,0.007648,28.759918,28.746302,30.183819,89.851471,22.901627,0.0,-89.878326,0.020438,28.68046,28.666933,1.004,0.997,-63838.0,-145259.0,-409566.0,0.0,147093.0,140473.0,-145037.0,136417.0,-60887.0,-140453.0,-417060.0,0.0,-137714.0,-142996.0,139037.0,-148171.0,0.0,0.0,0.0,0.0,0.0,0.0,0.0,0.0,0.0,0.0,0.0,0.0,0.0,0.0,0.0,0.0,0.0,0.0,0.0,0.0,0.0,0.0,0.0,0.0
29,6.764582872390747,0.522691,1.569224,0.399693,0.0,-1.565609,0.006748,0.501365,0.50257,0.526842,1.568219,0.399712,0.0,-1.573733,-0.003713,0.500813,0.496836,3.0,1.0,111.0,0.0,1.0,-78298.0,-25259.0,13090.0,-78180.0,25574.0,13061.0,-0.940908,0.268786,0.206022,-0.302881,-0.940032,-0.156855,0.151507,-0.209986,0.965894,-0.939878,0.270602,-0.208336,0.30471,0.939949,-0.153778,0.154212,-0.208014,-0.965893,-0.940908,0.268786,0.206022,-0.302881,-0.940032,-0.156855,0.151507,-0.209986,0.965894,-0.939878,0.270602,-0.208336,0.30471,0.939949,-0.153778,0.154212,-0.208014,-0.965893,-78298.0,-25259.0,13090.0,-78180.0,25574.0,13061.0,18518.0,17977.0,-162711.0,0.0,-55031.0,-56235.0,-54599.0,-57472.0,-15207.0,-13202.0,155277.0,0.0,53648.0,53750.0,54874.0,51451.0,44.0,163.0,-47.0,0.0,-869.0,-446.0,614.0,-529.0,-54.0,-161.0,40.0,0.0,-865.0,474.0,741.0,-924.0,-0.012036,-0.044369,0.012768,0.0,-0.031817,-0.016329,-0.022482,-0.019377,-0.014718,-0.043638,0.010904,0.0,-0.031656,0.017364,-0.02715,-0.033835,4078.800049,11455.379883,51504.933594,0.0,-18191.160156,-17703.720703,17967.240234,-17450.011719,4111.199707,11452.589844,51510.332031,0.0,17222.580078,17707.140625,-17451.990234,17965.980469,0.0,0.0,0.0,0.0,0.0,0.0,0.0,0.0,0.0,0.0,0.0,0.0,0.0,0.0,0.0,0.0,0.0,0.0,0.0,0.0,0.0,0.0,0.0,0.0,0.0,0.0,0.0,0.0,0.0,0.0,0.0,0.0,4078.803223,11455.094727,51505.199219,0.0,-18191.839844,-17707.128906,17965.839844,-17448.746094,4110.92334,11452.447266,51509.890625,0.0,17224.144531,17709.238281,-17451.068359,17966.734375,29.947983,89.907562,22.900837,0.0,-89.828751,0.007648,28.759918,28.746302,30.183819,89.851471,22.901627,0.0,-89.878326,0.020438,28.68046,28.666933,1.003,0.997,-63838.0,-145259.0,-409566.0,0.0,147093.0,140473.0,-145037.0,136417.0,-60887.0,-140453.0,-417060.0,0.0,-137714.0,-142996.0,139037.0,-148171.0,0.0,0.0,0.0,0.0,0.0,0.0,0.0,0.0,0.0,0.0,0.0,0.0,0.0,0.0,0.0,0.0,0.0,0.0,0.0,0.0,0.0,0.0,0.0,0.0
30,6.786610841751099,0.522691,1.569224,0.399693,0.0,-1.565609,0.006748,0.501365,0.50257,0.526842,1.568219,0.399712,0.0,-1.573733,-0.003713,0.50064,0.496836,3.0,1.0,111.0,0.0,1.0,-78298.0,-25259.0,13090.0,-78180.0,25574.0,13061.0,-0.940908,0.268786,0.206022,-0.302881,-0.940032,-0.156855,0.151507,-0.209986,0.965894,-0.939855,0.270684,-0.208336,0.304791,0.939923,-0.153778,0.154194,-0.208028,-0.965893,-0.940908,0.268786,0.206022,-0.302881,-0.940032,-0.156855,0.151507,-0.209986,0.965894,-0.939855,0.270684,-0.208336,0.304791,0.939923,-0.153778,0.154194,-0.208028,-0.965893,-78298.0,-25259.0,13090.0,-78180.0,25574.0,13061.0,18518.0,17977.0,-162711.0,0.0,-55031.0,-56235.0,-54599.0,-57472.0,-15207.0,-13202.0,155277.0,0.0,53648.0,53750.0,54875.0,51451.0,44.0,163.0,-47.0,0.0,-869.0,-448.0,615.0,-528.0,-54.0,-161.0,40.0,0.0,-864.0,475.0,739.0,-924.0,-0.012036,-0.044369,0.012768,0.0,-0.03183,-0.016394,-0.022509,-0.019353,-0.014718,-0.043638,0.010904,0.0,-0.031626,0.017404,-0.027054,-0.033821,4078.800049,11455.379883,51504.933594,0.0,-18191.160156,-17703.720703,17967.240234,-17450.011719,4111.199707,11452.589844,51510.332031,0.0,17222.580078,17707.140625,-17452.080078,17965.980469,0.0,0.0,0.0,0.0,0.0,0.0,0.0,0.0,0.0,0.0,0.0,0.0,0.0,0.0,0.0,0.0,0.0,0.0,0.0,0.0,0.0,0.0,0.0,0.0,0.0,0.0,0.0,0.0,0.0,0.0,0.0,0.0,4078.803223,11455.094727,51505.199219,0.0,-18191.839844,-17707.128906,17965.839844,-17448.746094,4110.92334,11452.447266,51509.890625,0.0,17224.144531,17709.238281,-17451.068359,17966.734375,29.947983,89.907562,22.900837,0.0,-89.828751,0.007648,28.759918,28.746302,30.183819,89.851471,22.901627,0.0,-89.878326,0.020438,28.68046,28.666933,1.003,0.997,-63838.0,-145259.0,-409566.0,0.0,147093.0,140473.0,-145037.0,136417.0,-60887.0,-140453.0,-417060.0,0.0,-137714.0,-142996.0,139037.0,-148171.0,0.0,0.0,0.0,0.0,0.0,0.0,0.0,0.0,0.0,0.0,0.0,0.0,0.0,0.0,0.0,0.0,0.0,0.0,0.0,0.0,0.0,0.0,0.0,0.0
31,6.807590961456299,0.522691,1.569224,0.399693,0.0,-1.565609,0.006748,0.501192,0.50257,0.526842,1.568219,0.399712,0.0,-1.573733,-0.003713,0.50064,0.496836,3.0,1.0,111.0,0.0,1.0,-78298.0,-25259.0,13090.0,-78180.0,25574.0,13061.0,-0.940885,0.268867,0.206022,-0.302962,-0.940006,-0.156855,0.151489,-0.209999,0.965894,-0.939855,0.270684,-0.208336,0.304791,0.939923,-0.153778,0.154194,-0.208028,-0.965893,-0.940885,0.268867,0.206022,-0.302962,-0.940006,-0.156855,0.151489,-0.209999,0.965894,-0.939855,0.270684,-0.208336,0.304791,0.939923,-0.153778,0.154194,-0.208028,-0.965893,-78298.0,-25259.0,13090.0,-78180.0,25574.0,13061.0,18518.0,17977.0,-162711.0,0.0,-55031.0,-56235.0,-54598.0,-57472.0,-15207.0,-13202.0,155277.0,0.0,53648.0,53750.0,54875.0,51451.0,44.0,163.0,-47.0,0.0,-870.0,-449.0,613.0,-528.0,-54.0,-161.0,40.0,0.0,-863.0,476.0,738.0,-923.0,-0.012036,-0.044369,0.012768,0.0,-0.031843,-0.016457,-0.022457,-0.01933,-0.014718,-0.043638,0.010904,0.0,-0.031598,0.017443,-0.027035,-0.033807,4078.800049,11455.379883,51504.933594,0.0,-18191.160156,-17703.720703,17967.150391,-17450.011719,4111.199707,11452.589844,51510.332031,0.0,17222.580078,17707.140625,-17452.080078,17965.980469,0.0,0.0,0.0,0.0,0.0,0.0,-89.174942,0.0,0.0,0.0,0.0,0.0,0.0,0.0,0.0,0.0,0.0,0.0,0.0,0.0,0.0,0.0,-0.173088,0.0,0.0,0.0,0.0,0.0,0.0,0.0,0.0,0.0,4078.803223,11455.094727,51505.199219,0.0,-18191.839844,-17707.128906,17965.839844,-17448.746094,4110.92334,11452.447266,51509.890625,0.0,17224.144531,17709.238281,-17451.068359,17966.734375,29.947983,89.907562,22.900837,0.0,-89.828751,0.007648,28.759918,28.746302,30.183819,89.851471,22.901627,0.0,-89.878326,0.020438,28.68046,28.666933,1.003,0.997,-63838.0,-145259.0,-409566.0,0.0,147093.0,140473.0,-145037.0,136417.0,-60887.0,-140453.0,-417060.0,0.0,-137714.0,-142996.0,139037.0,-148171.0,0.0,0.0,0.0,0.0,0.0,-0.173088,0.0,0.0,0.0,0.0,0.0,0.0,0.0,0.0,0.0,0.0,0.0,-0.173088,0.0,0.0,0.0,0.0,0.0,0.0
32,6.8285908699035645,0.522691,1.569224,0.399693,0.0,-1.565609,0.006748,0.501192,0.50257,0.526842,1.568219,0.399712,0.0,-1.573733,-0.003713,0.50064,0.496836,3.0,1.0,111.0,0.0,1.0,-78298.0,-25259.0,13090.0,-78180.0,25574.0,13061.0,-0.940885,0.268867,0.206022,-0.302962,-0.940006,-0.156855,0.151489,-0.209999,0.965894,-0.939855,0.270684,-0.208336,0.304791,0.939923,-0.153778,0.154194,-0.208028,-0.965893,-0.940885,0.268867,0.206022,-0.302962,-0.940006,-0.156855,0.151489,-0.209999,0.965894,-0.939855,0.270684,-0.208336,0.304791,0.939923,-0.153778,0.154194,-0.208028,-0.965893,-78298.0,-25259.0,13090.0,-78180.0,25574.0,13061.0,18518.0,17977.0,-162711.0,0.0,-55031.0,-56235.0,-54598.0,-57472.0,-15207.0,-13202.0,155277.0,0.0,53648.0,53750.0,54875.0,51451.0,44.0,163.0,-47.0,0.0,-870.0,-451.0,614.0,-527.0,-54.0,-161.0,40.0,0.0,-862.0,477.0,738.0,-923.0,-0.012036,-0.044369,0.012768,0.0,-0.031855,-0.016519,-0.022481,-0.019307,-0.014718,-0.043638,0.010904,0.0,-0.031569,0.017481,-0.027017,-0.033793,4078.800049,11455.379883,51504.933594,0.0,-18191.160156,-17703.720703,17967.150391,-17450.011719,4111.199707,11452.589844,51510.332031,0.0,17222.580078,17707.140625,-17452.080078,17965.980469,0.0,0.0,0.0,0.0,0.0,0.0,0.0,0.0,0.0,0.0,0.0,0.0,0.0,0.0,0.0,0.0,0.0,0.0,0.0,0.0,0.0,0.0,0.0,0.0,0.0,0.0,0.0,0.0,0.0,0.0,0.0,0.0,4078.803223,11455.094727,51505.199219,0.0,-18191.839844,-17707.128906,17965.839844,-17448.746094,4110.92334,11452.447266,51509.890625,0.0,17224.144531,17709.238281,-17451.068359,17966.734375,29.947983,89.907562,22.900837,0.0,-89.828751,0.007648,28.759918,28.746302,30.183819,89.851471,22.901627,0.0,-89.878326,0.020438,28.68046,28.666933,1.003,0.997,-63838.0,-145259.0,-409566.0,0.0,147093.0,140473.0,-145037.0,136417.0,-60887.0,-140453.0,-417060.0,0.0,-137714.0,-142996.0,139037.0,-148171.0,0.0,0.0,0.0,0.0,0.0,0.0,0.0,0.0,0.0,0.0,0.0,0.0,0.0,0.0,0.0,0.0,0.0,0.0,0.0,0.0,0.0,0.0,0.0,0.0
33,6.849579811096191,0.522691,1.569224,0.399693,0.0,-1.565609,0.006748,0.501192,0.50257,0.526842,1.568219,0.399712,0.0,-1.574022,-0.003713,0.50064,0.496836,3.0,1.0,111.0,0.0,1.0,-78298.0,-25259.0,13090.0,-78180.0,25574.0,13061.0,-0.940885,0.268867,0.206022,-0.302962,-0.940006,-0.156855,0.151489,-0.209999,0.965894,-0.939855,0.270622,-0.208414,0.30479,0.939879,-0.154049,0.154195,-0.208306,-0.965833,-0.940885,0.268867,0.206022,-0.302962,-0.940006,-0.156855,0.151489,-0.209999,0.965894,-0.939855,0.270622,-0.208414,0.30479,0.939879,-0.154049,0.154195,-0.208306,-0.965833,-78298.0,-25259.0,13090.0,-78180.0,25574.0,13061.0,18518.0,17977.0,-162711.0,0.0,-55031.0,-56235.0,-54598.0,-57472.0,-15207.0,-13202.0,155277.0,0.0,53647.0,53750.0,54875.0,51451.0,44.0,163.0,-47.0,0.0,-870.0,-453.0,615.0,-526.0,-54.0,-161.0,40.0,0.0,-858.0,478.0,737.0,-923.0,-0.012036,-0.044369,0.012768,0.0,-0.031868,-0.016582,-0.022505,-0.019284,-0.014718,-0.043638,0.010904,0.0,-0.0314,0.01752,-0.026998,-0.033779,4078.800049,11455.379883,51504.933594,0.0,-18191.160156,-17703.720703,17967.150391,-17450.011719,4111.199707,11452.589844,51510.332031,0.0,17222.490234,17707.140625,-17452.080078,17965.980469,0.0,0.0,0.0,0.0,0.0,0.0,0.0,0.0,0.0,0.0,0.0,0.0,0.0,0.0,0.0,0.0,0.0,0.0,0.0,0.0,0.0,0.0,0.0,0.0,0.0,0.0,0.0,0.0,0.0,0.0,0.0,0.0,4078.803223,11455.094727,51505.199219,0.0,-18191.839844,-17707.128906,17965.839844,-17448.746094,4110.92334,11452.447266,51509.890625,0.0,17224.144531,17709.238281,-17451.068359,17966.734375,29.947983,89.907562,22.900837,0.0,-89.828751,0.007648,28.759918,28.746302,30.183819,89.851471,22.901627,0.0,-89.878326,0.020438,28.68046,28.666933,1.003,0.997,-63838.0,-145259.0,-409566.0,0.0,147093.0,140473.0,-145037.0,136417.0,-60887.0,-140453.0,-417060.0,0.0,-137714.0,-142996.0,139037.0,-148171.0,0.0,0.0,0.0,0.0,0.0,0.0,0.0,0.0,0.0,0.0,0.0,0.0,0.0,0.0,0.0,0.0,0.0,0.0,0.0,0.0,0.0,0.0,0.0,0.0
34,6.871571779251099,0.522691,1.569224,0.399693,0.0,-1.565609,0.006748,0.501016,0.50257,0.526842,1.568219,0.399712,0.0,-1.574022,-0.003713,0.50064,0.496836,3.0,1.0,111.0,0.0,1.0,-78298.0,-25259.0,13090.0,-78180.0,25574.0,13061.0,-0.940862,0.26895,0.206022,-0.303045,-0.939979,-0.156855,0.151471,-0.210012,0.965894,-0.939855,0.270622,-0.208414,0.30479,0.939879,-0.154049,0.154195,-0.208306,-0.965833,-0.940862,0.26895,0.206022,-0.303045,-0.939979,-0.156855,0.151471,-0.210012,0.965894,-0.939855,0.270622,-0.208414,0.30479,0.939879,-0.154049,0.154195,-0.208306,-0.965833,-78298.0,-25259.0,13090.0,-78180.0,25574.0,13061.0,18518.0,17977.0,-162711.0,0.0,-55031.0,-56235.0,-54597.0,-57472.0,-15207.0,-13202.0,155277.0,0.0,53647.0,53750.0,54875.0,51451.0,44.0,163.0,-47.0,0.0,-871.0,-454.0,613.0,-526.0,-54.0,-161.0,40.0,0.0,-857.0,479.0,737.0,-922.0,-0.012036,-0.044369,0.012768,0.0,-0.031881,-0.016647,-0.022449,-0.019259,-0.014718,-0.043638,0.010904,0.0,-0.031368,0.01756,-0.026979,-0.033765,4078.800049,11455.379883,51504.933594,0.0,-18191.160156,-17703.720703,17967.060547,-17450.011719,4111.199707,11452.589844,51510.332031,0.0,17222.490234,17707.140625,-17452.080078,17965.980469,0.0,0.0,0.0,0.0,0.0,0.0,0.0,0.0,0.0,0.0,0.0,0.0,0.0,0.0,0.0,0.0,0.0,0.0,0.0,0.0,0.0,0.0,0.0,0.0,0.0,0.0,0.0,0.0,0.0,0.0,0.0,0.0,4078.803223,11455.094727,51505.199219,0.0,-18191.839844,-17707.128906,17965.839844,-17448.746094,4110.92334,11452.447266,51509.890625,0.0,17224.144531,17709.238281,-17451.068359,17966.734375,29.947983,89.907562,22.900837,0.0,-89.828751,0.007648,28.759918,28.746302,30.183819,89.851471,22.901627,0.0,-89.878326,0.020438,28.68046,28.666933,1.003,0.997,-63838.0,-145259.0,-409566.0,0.0,147093.0,140473.0,-145037.0,136417.0,-60887.0,-140453.0,-417060.0,0.0,-137714.0,-142996.0,139037.0,-148171.0,0.0,0.0,0.0,0.0,0.0,0.0,0.0,0.0,0.0,0.0,0.0,0.0,0.0,0.0,0.0,0.0,0.0,0.0,0.0,0.0,0.0,0.0,0.0,0.0
35,6.89258885383606,0.522691,1.569224,0.399693,0.0,-1.565609,0.006748,0.501016,0.50257,0.526842,1.568219,0.399712,0.0,-1.574022,-0.00354,0.500553,0.496923,3.0,1.0,111.0,0.0,1.0,-78298.0,-25259.0,13090.0,-78180.0,25574.0,13063.0,-0.940862,0.26895,0.206022,-0.303045,-0.939979,-0.156855,0.151471,-0.210012,0.965894,-0.939795,0.270704,-0.208577,0.304898,0.939852,-0.153996,0.154344,-0.208319,-0.965806,-0.940862,0.26895,0.206022,-0.303045,-0.939979,-0.156855,0.151471,-0.210012,0.965894,-0.939795,0.270704,-0.208577,0.304898,0.939852,-0.153996,0.154344,-0.208319,-0.965806,-78298.0,-25259.0,13090.0,-78180.0,25574.0,13063.0,18518.0,17977.0,-162711.0,0.0,-55031.0,-56235.0,-54597.0,-57472.0,-15207.0,-13202.0,155277.0,0.0,53647.0,53751.0,54875.0,51451.0,44.0,163.0,-47.0,0.0,-871.0,-456.0,614.0,-525.0,-54.0,-161.0,40.0,0.0,-856.0,478.0,736.0,-922.0,-0.012036,-0.044369,0.012768,0.0,-0.031893,-0.01671,-0.022471,-0.019236,-0.014718,-0.043638,0.010904,0.0,-0.031338,0.017519,-0.02696,-0.033751,4078.800049,11455.379883,51504.933594,0.0,-18191.160156,-17703.720703,17967.060547,-17450.011719,4111.199707,11452.589844,51510.332031,0.0,17222.490234,17707.230469,-17452.080078,17965.980469,0.0,0.0,0.0,0.0,0.0,0.0,0.0,0.0,0.0,0.0,0.0,0.0,0.0,0.0,0.0,0.0,0.0,0.0,0.0,0.0,0.0,0.0,0.0,0.0,0.0,0.0,0.0,0.0,0.0,0.0,0.0,0.0,4078.803223,11455.094727,51505.199219,0.0,-18191.839844,-17707.128906,17965.839844,-17448.746094,4110.92334,11452.447266,51509.890625,0.0,17224.144531,17709.238281,-17451.068359,17966.734375,29.947983,89.907562,22.900837,0.0,-89.828751,0.007648,28.759918,28.746302,30.183819,89.851471,22.901627,0.0,-89.878326,0.020438,28.68046,28.666933,1.003,0.997,-63838.0,-145259.0,-409566.0,0.0,147093.0,140473.0,-145037.0,136417.0,-60887.0,-140453.0,-417060.0,0.0,-137714.0,-142996.0,139037.0,-148171.0,0.0,0.0,0.0,0.0,0.0,0.0,0.0,0.0,0.0,0.0,0.0,0.0,0.0,0.0,0.0,0.0,0.0,0.0,0.0,0.0,0.0,0.0,0.0,0.0
36,6.9145729541778564,0.522691,1.569224,0.399693,0.0,-1.565609,0.006748,0.501016,0.50257,0.526842,1.568219,0.399712,0.0,-1.574022,-0.00354,0.500553,0.496746,3.0,1.0,111.0,0.0,1.0,-78298.0,-25259.0,13090.0,-78180.0,25574.0,13063.0,-0.940862,0.26895,0.206022,-0.303045,-0.939979,-0.156855,0.151471,-0.210012,0.965894,-0.939819,0.270621,-0.208577,0.304815,0.939879,-0.153996,0.154363,-0.208306,-0.965806,-0.940862,0.26895,0.206022,-0.303045,-0.939979,-0.156855,0.151471,-0.210012,0.965894,-0.939819,0.270621,-0.208577,0.304815,0.939879,-0.153996,0.154363,-0.208306,-0.965806,-78298.0,-25259.0,13090.0,-78180.0,25574.0,13063.0,18518.0,17977.0,-162711.0,0.0,-55031.0,-56235.0,-54597.0,-57472.0,-15207.0,-13202.0,155277.0,0.0,53647.0,53751.0,54875.0,51450.0,44.0,163.0,-47.0,0.0,-871.0,-458.0,614.0,-525.0,-54.0,-161.0,40.0,0.0,-855.0,479.0,736.0,-919.0,-0.012036,-0.044369,0.012768,0.0,-0.031906,-0.016775,-0.022495,-0.019212,-0.014718,-0.043638,0.010904,0.0,-0.031306,0.017558,-0.026941,-0.033657,4078.800049,11455.379883,51504.933594,0.0,-18191.160156,-17703.720703,17967.060547,-17450.011719,4111.199707,11452.589844,51510.332031,0.0,17222.490234,17707.230469,-17452.080078,17965.890625,0.0,0.0,0.0,0.0,0.0,0.0,0.0,0.0,0.0,0.0,0.0,0.0,0.0,0.0,0.0,-90.92347,0.0,0.0,0.0,0.0,0.0,0.0,0.0,0.0,0.0,0.0,0.0,0.0,0.0,0.0,0.0,-0.176481,4078.803223,11455.094727,51505.199219,0.0,-18191.839844,-17707.128906,17965.839844,-17448.746094,4110.92334,11452.447266,51509.890625,0.0,17224.144531,17709.238281,-17451.068359,17966.734375,29.947983,89.907562,22.900837,0.0,-89.828751,0.007648,28.759918,28.746302,30.183819,89.851471,22.901627,0.0,-89.878326,0.020438,28.68046,28.666933,1.003,0.997,-63838.0,-145259.0,-409566.0,0.0,147093.0,140473.0,-145037.0,136417.0,-60887.0,-140453.0,-417060.0,0.0,-137714.0,-142996.0,139037.0,-148171.0,0.0,0.0,0.0,0.0,0.0,0.0,0.0,0.0,0.0,0.0,0.0,0.0,0.0,0.0,0.0,0.0,0.0,0.0,0.0,0.0,0.0,0.0,0.0,0.0
37,6.935572862625122,0.522691,1.569224,0.399693,0.0,-1.565609,0.006748,0.500843,0.50257,0.526842,1.568219,0.399712,0.0,-1.574022,-0.00354,0.500553,0.496746,3.0,1.0,111.0,0.0,1.0,-78298.0,-25259.0,13090.0,-78180.0,25574.0,13063.0,-0.940838,0.269032,0.206022,-0.303126,-0.939953,-0.156855,0.151452,-0.210026,0.965894,-0.939819,0.270621,-0.208577,0.304815,0.939879,-0.153996,0.154363,-0.208306,-0.965806,-0.940838,0.269032,0.206022,-0.303126,-0.939953,-0.156855,0.151452,-0.210026,0.965894,-0.939819,0.270621,-0.208577,0.304815,0.939879,-0.153996,0.154363,-0.208306,-0.965806,-78298.0,-25259.0,13090.0,-78180.0,25574.0,13063.0,18518.0,17977.0,-162711.0,0.0,-55031.0,-56235.0,-54596.0,-57472.0,-15207.0,-13202.0,155277.0,0.0,53647.0,53751.0,54875.0,51450.0,44.0,163.0,-47.0,0.0,-872.0,-460.0,613.0,-524.0,-54.0,-161.0,40.0,0.0,-854.0,480.0,735.0,-919.0,-0.012036,-0.044369,0.012768,0.0,-0.031919,-0.016838,-0.022438,-0.019189,-0.014718,-0.043638,0.010904,0.0,-0.031276,0.017594,-0.026922,-0.033642,4078.800049,11455.379883,51504.933594,0.0,-18191.160156,-17703.720703,17966.970703,-17450.011719,4111.199707,11452.589844,51510.332031,0.0,17222.490234,17707.230469,-17452.080078,17965.890625,0.0,0.0,0.0,0.0,0.0,0.0,0.0,0.0,0.0,0.0,0.0,0.0,0.0,0.0,0.0,0.0,0.0,0.0,0.0,0.0,0.0,0.0,0.0,0.0,0.0,0.0,0.0,0.0,0.0,0.0,0.0,0.0,4078.803223,11455.094727,51505.199219,0.0,-18191.839844,-17707.128906,17965.839844,-17448.746094,4110.92334,11452.447266,51509.890625,0.0,17224.144531,17709.238281,-17451.068359,17966.734375,29.947983,89.907562,22.900837,0.0,-89.828751,0.007648,28.759918,28.746302,30.183819,89.851471,22.901627,0.0,-89.878326,0.020438,28.68046,28.666933,1.003,0.997,-63838.0,-145259.0,-409566.0,0.0,147093.0,140473.0,-145037.0,136417.0,-60887.0,-140453.0,-417060.0,0.0,-137714.0,-142996.0,139037.0,-148171.0,0.0,0.0,0.0,0.0,0.0,0.0,0.0,0.0,0.0,0.0,0.0,0.0,0.0,0.0,0.0,0.0,0.0,0.0,0.0,0.0,0.0,0.0,0.0,0.0
38,6.956589937210083,0.522691,1.569224,0.399693,0.0,-1.565903,0.006748,0.500843,0.50257,0.526842,1.568219,0.399712,0.0,-1.574022,-0.00354,0.500553,0.496746,3.0,1.0,111.0,0.0,1.0,-78298.0,-25259.0,13090.0,-78180.0,25574.0,13063.0,-0.940838,0.269094,0.205944,-0.303128,-0.939998,-0.156578,0.151452,-0.209742,0.965956,-0.939819,0.270621,-0.208577,0.304815,0.939879,-0.153996,0.154363,-0.208306,-0.965806,-0.940838,0.269094,0.205944,-0.303128,-0.939998,-0.156578,0.151452,-0.209742,0.965956,-0.939819,0.270621,-0.208577,0.304815,0.939879,-0.153996,0.154363,-0.208306,-0.965806,-78298.0,-25259.0,13090.0,-78180.0,25574.0,13063.0,18518.0,17977.0,-162711.0,0.0,-55032.0,-56235.0,-54596.0,-57472.0,-15207.0,-13202.0,155277.0,0.0,53647.0,53751.0,54875.0,51450.0,44.0,163.0,-47.0,0.0,-868.0,-461.0,613.0,-523.0,-54.0,-161.0,40.0,0.0,-853.0,481.0,735.0,-918.0,-0.012036,-0.044369,0.012768,0.0,-0.031788,-0.0169,-0.022459,-0.019166,-0.014718,-0.043638,0.010904,0.0,-0.031245,0.017631,-0.026904,-0.033626,4078.800049,11455.379883,51504.933594,0.0,-18191.25,-17703.720703,17966.970703,-17450.011719,4111.199707,11452.589844,51510.332031,0.0,17222.490234,17707.230469,-17452.080078,17965.890625,0.0,0.0,0.0,0.0,0.0,0.0,0.0,0.0,0.0,0.0,0.0,0.0,0.0,0.0,0.0,0.0,0.0,0.0,0.0,0.0,0.0,0.0,0.0,0.0,0.0,0.0,0.0,0.0,0.0,0.0,0.0,0.0,4078.803223,11455.094727,51505.199219,0.0,-18191.839844,-17707.128906,17965.839844,-17448.746094,4110.92334,11452.447266,51509.890625,0.0,17224.144531,17709.238281,-17451.068359,17966.734375,29.947983,89.907562,22.900837,0.0,-89.828751,0.007648,28.759918,28.746302,30.183819,89.851471,22.901627,0.0,-89.878326,0.020438,28.68046,28.666933,1.003,0.997,-63838.0,-145259.0,-409566.0,0.0,147093.0,140473.0,-145037.0,136417.0,-60887.0,-140453.0,-417060.0,0.0,-137714.0,-142996.0,139037.0,-148171.0,0.0,0.0,0.0,0.0,0.0,0.0,0.0,0.0,0.0,0.0,0.0,0.0,0.0,0.0,0.0,0.0,0.0,0.0,0.0,0.0,0.0,0.0,0.0,0.0
39,6.976580858230591,0.522691,1.569224,0.399693,0.0,-1.565903,0.006748,0.500843,0.502397,0.526842,1.568219,0.399712,0.0,-1.574022,-0.00354,0.500377,0.496746,3.0,1.0,111.0,0.0,1.0,-78298.0,-25259.0,13090.0,-78180.0,25574.0,13063.0,-0.940861,0.269013,0.205944,-0.303047,-0.940024,-0.156578,0.15147,-0.209729,0.965956,-0.939795,0.270704,-0.208577,0.304898,0.939852,-0.153996,0.154344,-0.208319,-0.965806,-0.940861,0.269013,0.205944,-0.303047,-0.940024,-0.156578,0.15147,-0.209729,0.965956,-0.939795,0.270704,-0.208577,0.304898,0.939852,-0.153996,0.154344,-0.208319,-0.965806,-78298.0,-25259.0,13090.0,-78180.0,25574.0,13063.0,18518.0,17977.0,-162711.0,0.0,-55032.0,-56235.0,-54596.0,-57473.0,-15207.0,-13202.0,155277.0,0.0,53647.0,53751.0,54876.0,51450.0,44.0,163.0,-47.0,0.0,-868.0,-463.0,614.0,-521.0,-54.0,-161.0,40.0,0.0,-853.0,482.0,732.0,-918.0,-0.012036,-0.044369,0.012768,0.0,-0.031798,-0.016959,-0.022478,-0.019065,-0.014718,-0.043638,0.010904,0.0,-0.031217,0.017666,-0.026806,-0.033612,4078.800049,11455.379883,51504.933594,0.0,-18191.25,-17703.720703,17966.970703,-17450.099609,4111.199707,11452.589844,51510.332031,0.0,17222.490234,17707.230469,-17452.169922,17965.890625,0.0,0.0,0.0,0.0,0.0,0.0,0.0,0.0,0.0,0.0,0.0,0.0,0.0,0.0,0.0,0.0,0.0,0.0,0.0,0.0,0.0,0.0,0.0,0.0,0.0,0.0,0.0,0.0,0.0,0.0,0.0,0.0,4078.803223,11455.094727,51505.199219,0.0,-18191.839844,-17707.128906,17965.839844,-17448.746094,4110.92334,11452.447266,51509.890625,0.0,17224.144531,17709.238281,-17451.068359,17966.734375,29.947983,89.907562,22.900837,0.0,-89.828751,0.007648,28.759918,28.746302,30.183819,89.851471,22.901627,0.0,-89.878326,0.020438,28.68046,28.666933,1.003,0.997,-63838.0,-145259.0,-409566.0,0.0,147093.0,140473.0,-145037.0,136417.0,-60887.0,-140453.0,-417060.0,0.0,-137714.0,-142996.0,139037.0,-148171.0,0.0,0.0,0.0,0.0,0.0,0.0,0.0,0.0,0.0,0.0,0.0,0.0,0.0,0.0,0.0,0.0,0.0,0.0,0.0,0.0,0.0,0.0,0.0,0.0
40,6.9985737800598145,0.522691,1.569224,0.399693,0.0,-1.565903,0.006748,0.500843,0.502397,0.526842,1.568219,0.399712,0.0,-1.574022,-0.00354,0.500377,0.496746,3.0,1.0,111.0,0.0,1.0,-78298.0,-25259.0,13090.0,-78180.0,25574.0,13063.0,-0.940861,0.269013,0.205944,-0.303047,-0.940024,-0.156578,0.15147,-0.209729,0.965956,-0.939795,0.270704,-0.208577,0.304898,0.939852,-0.153996,0.154344,-0.208319,-0.965806,-0.940861,0.269013,0.205944,-0.303047,-0.940024,-0.156578,0.15147,-0.209729,0.965956,-0.939795,0.270704,-0.208577,0.304898,0.939852,-0.153996,0.154344,-0.208319,-0.965806,-78298.0,-25259.0,13090.0,-78180.0,25574.0,13063.0,18518.0,17977.0,-162711.0,0.0,-55032.0,-56235.0,-54596.0,-57473.0,-15207.0,-13202.0,155277.0,0.0,53647.0,53751.0,54876.0,51450.0,44.0,163.0,-47.0,0.0,-869.0,-465.0,614.0,-520.0,-54.0,-161.0,40.0,0.0,-852.0,483.0,731.0,-918.0,-0.012036,-0.044369,0.012768,0.0,-0.03181,-0.017025,-0.0225,-0.019039,-0.014718,-0.043638,0.010904,0.0,-0.031185,0.017705,-0.026785,-0.033595,4078.800049,11455.379883,51504.933594,0.0,-18191.25,-17703.720703,17966.970703,-17450.099609,4111.199707,11452.589844,51510.332031,0.0,17222.490234,17707.230469,-17452.169922,17965.890625,0.0,0.0,0.0,0.0,0.0,0.0,0.0,0.0,0.0,0.0,0.0,0.0,0.0,0.0,0.0,0.0,0.0,0.0,0.0,0.0,0.0,0.0,0.0,0.0,0.0,0.0,0.0,0.0,0.0,0.0,0.0,0.0,4078.803223,11455.094727,51505.199219,0.0,-18191.839844,-17707.128906,17965.839844,-17448.746094,4110.92334,11452.447266,51509.890625,0.0,17224.144531,17709.238281,-17451.068359,17966.734375,29.947983,89.907562,22.900837,0.0,-89.828751,0.007648,28.759918,28.746302,30.183819,89.851471,22.901627,0.0,-89.878326,0.020438,28.68046,28.666933,1.003,0.997,-63838.0,-145259.0,-409566.0,0.0,147093.0,140473.0,-145037.0,136417.0,-60887.0,-140453.0,-417060.0,0.0,-137714.0,-142996.0,139037.0,-148171.0,0.0,0.0,0.0,0.0,0.0,0.0,0.0,0.0,0.0,0.0,0.0,0.0,0.0,0.0,0.0,0.0,0.0,0.0,0.0,0.0,0.0,0.0,0.0,0.0
41,7.019574880599976,0.522691,1.569224,0.399693,0.0,-1.565903,0.006748,0.500843,0.502397,0.526842,1.568219,0.399712,0.0,-1.574316,-0.00354,0.500377,0.496746,3.0,1.0,111.0,0.0,1.0,-78298.0,-25259.0,13090.0,-78180.0,25574.0,13063.0,-0.940861,0.269013,0.205944,-0.303047,-0.940024,-0.156578,0.15147,-0.209729,0.965956,-0.939795,0.270642,-0.208657,0.304897,0.939807,-0.154272,0.154345,-0.208603,-0.965744,-0.940861,0.269013,0.205944,-0.303047,-0.940024,-0.156578,0.15147,-0.209729,0.965956,-0.939795,0.270642,-0.208657,0.304897,0.939807,-0.154272,0.154345,-0.208603,-0.965744,-78298.0,-25259.0,13090.0,-78180.0,25574.0,13063.0,18518.0,17977.0,-162711.0,0.0,-55032.0,-56235.0,-54596.0,-57473.0,-15207.0,-13202.0,155277.0,0.0,53646.0,53751.0,54876.0,51450.0,44.0,163.0,-47.0,0.0,-869.0,-466.0,615.0,-519.0,-54.0,-161.0,40.0,0.0,-847.0,484.0,731.0,-917.0,-0.012036,-0.044369,0.012768,0.0,-0.03182,-0.017087,-0.022521,-0.019014,-0.014718,-0.043638,0.010904,0.0,-0.03101,0.017742,-0.026765,-0.03358,4078.800049,11455.379883,51504.933594,0.0,-18191.25,-17703.720703,17966.970703,-17450.099609,4111.199707,11452.589844,51510.332031,0.0,17222.400391,17707.230469,-17452.169922,17965.890625,0.0,0.0,0.0,0.0,0.0,0.0,0.0,0.0,0.0,0.0,0.0,0.0,0.0,0.0,0.0,0.0,0.0,0.0,0.0,0.0,0.0,0.0,0.0,0.0,0.0,0.0,0.0,0.0,0.0,0.0,0.0,0.0,4078.803223,11455.094727,51505.199219,0.0,-18191.839844,-17707.128906,17965.839844,-17448.746094,4110.92334,11452.447266,51509.890625,0.0,17224.144531,17709.238281,-17451.068359,17966.734375,29.947983,89.907562,22.900837,0.0,-89.828751,0.007648,28.759918,28.746302,30.183819,89.851471,22.901627,0.0,-89.878326,0.020438,28.68046,28.666933,1.003,0.997,-63838.0,-145259.0,-409566.0,0.0,147093.0,140473.0,-145037.0,136417.0,-60887.0,-140453.0,-417060.0,0.0,-137714.0,-142996.0,139037.0,-148171.0,0.0,0.0,0.0,0.0,0.0,0.0,0.0,0.0,0.0,0.0,0.0,0.0,0.0,0.0,0.0,0.0,0.0,0.0,0.0,0.0,0.0,0.0,0.0,0.0
42,7.040588855743408,0.522691,1.569224,0.399693,0.0,-1.565903,0.006748,0.500666,0.502397,0.526842,1.568219,0.399712,0.0,-1.574316,-0.00354,0.500377,0.496746,3.0,1.0,111.0,0.0,1.0,-78298.0,-25259.0,13090.0,-78180.0,25574.0,13063.0,-0.940837,0.269096,0.205944,-0.30313,-0.939998,-0.156578,0.151452,-0.209742,0.965956,-0.939795,0.270642,-0.208657,0.304897,0.939807,-0.154272,0.154345,-0.208603,-0.965744,-0.940837,0.269096,0.205944,-0.30313,-0.939998,-0.156578,0.151452,-0.209742,0.965956,-0.939795,0.270642,-0.208657,0.304897,0.939807,-0.154272,0.154345,-0.208603,-0.965744,-78298.0,-25259.0,13090.0,-78180.0,25574.0,13063.0,18518.0,17977.0,-162711.0,0.0,-55032.0,-56235.0,-54595.0,-57473.0,-15207.0,-13202.0,155277.0,0.0,53646.0,53751.0,54876.0,51450.0,44.0,163.0,-47.0,0.0,-869.0,-468.0,613.0,-518.0,-54.0,-161.0,40.0,0.0,-846.0,485.0,730.0,-917.0,-0.012036,-0.044369,0.012768,0.0,-0.031831,-0.01715,-0.022461,-0.018989,-0.014718,-0.043638,0.010904,0.0,-0.030978,0.017778,-0.026745,-0.033564,4078.800049,11455.379883,51504.933594,0.0,-18191.25,-17703.720703,17966.878906,-17450.099609,4111.199707,11452.589844,51510.332031,0.0,17222.400391,17707.230469,-17452.169922,17965.890625,0.0,0.0,0.0,0.0,0.0,0.0,0.0,0.0,0.0,0.0,0.0,0.0,0.0,0.0,0.0,0.0,0.0,0.0,0.0,0.0,0.0,0.0,0.0,0.0,0.0,0.0,0.0,0.0,0.0,0.0,0.0,0.0,4078.803223,11455.094727,51505.199219,0.0,-18191.839844,-17707.128906,17965.839844,-17448.746094,4110.92334,11452.447266,51509.890625,0.0,17224.144531,17709.238281,-17451.068359,17966.734375,29.947983,89.907562,22.900837,0.0,-89.828751,0.007648,28.759918,28.746302,30.183819,89.851471,22.901627,0.0,-89.878326,0.020438,28.68046,28.666933,1.003,0.997,-63838.0,-145259.0,-409566.0,0.0,147093.0,140473.0,-145037.0,136417.0,-60887.0,-140453.0,-417060.0,0.0,-137714.0,-142996.0,139037.0,-148171.0,0.0,0.0,0.0,0.0,0.0,0.0,0.0,0.0,0.0,0.0,0.0,0.0,0.0,0.0,0.0,0.0,0.0,0.0,0.0,0.0,0.0,0.0,0.0,0.0
43,7.062609910964966,0.522691,1.569224,0.399693,0.0,-1.565903,0.006748,0.500666,0.502397,0.526842,1.568219,0.399712,0.0,-1.574316,-0.00354,0.500377,0.496746,3.0,1.0,111.0,0.0,1.0,-78298.0,-25259.0,13090.0,-78180.0,25574.0,13063.0,-0.940837,0.269096,0.205944,-0.30313,-0.939998,-0.156578,0.151452,-0.209742,0.965956,-0.939795,0.270642,-0.208657,0.304897,0.939807,-0.154272,0.154345,-0.208603,-0.965744,-0.940837,0.269096,0.205944,-0.30313,-0.939998,-0.156578,0.151452,-0.209742,0.965956,-0.939795,0.270642,-0.208657,0.304897,0.939807,-0.154272,0.154345,-0.208603,-0.965744,-78298.0,-25259.0,13090.0,-78180.0,25574.0,13063.0,18518.0,17977.0,-162711.0,0.0,-55032.0,-56235.0,-54595.0,-57473.0,-15207.0,-13202.0,155277.0,0.0,53646.0,53751.0,54876.0,51450.0,44.0,163.0,-47.0,0.0,-870.0,-470.0,614.0,-518.0,-54.0,-161.0,40.0,0.0,-845.0,486.0,730.0,-916.0,-0.012036,-0.044369,0.012768,0.0,-0.031843,-0.017215,-0.022481,-0.018963,-0.014718,-0.043638,0.010904,0.0,-0.030945,0.017817,-0.026724,-0.033548,4078.800049,11455.379883,51504.933594,0.0,-18191.25,-17703.720703,17966.878906,-17450.099609,4111.199707,11452.589844,51510.332031,0.0,17222.400391,17707.230469,-17452.169922,17965.890625,0.0,0.0,0.0,0.0,0.0,0.0,0.0,0.0,0.0,0.0,0.0,0.0,0.0,0.0,0.0,0.0,0.0,0.0,0.0,0.0,0.0,0.0,0.0,0.0,0.0,0.0,0.0,0.0,0.0,0.0,0.0,0.0,4078.803223,11455.094727,51505.199219,0.0,-18191.839844,-17707.128906,17965.839844,-17448.746094,4110.92334,11452.447266,51509.890625,0.0,17224.144531,17709.238281,-17451.068359,17966.734375,29.947983,89.907562,22.900837,0.0,-89.828751,0.007648,28.759918,28.746302,30.183819,89.851471,22.901627,0.0,-89.878326,0.020438,28.68046,28.666933,1.003,0.997,-63838.0,-145259.0,-409566.0,0.0,147093.0,140473.0,-145037.0,136417.0,-60887.0,-140453.0,-417060.0,0.0,-137714.0,-142996.0,139037.0,-148171.0,0.0,0.0,0.0,0.0,0.0,0.0,0.0,0.0,0.0,0.0,0.0,0.0,0.0,0.0,0.0,0.0,0.0,0.0,0.0,0.0,0.0,0.0,0.0,0.0
44,7.083589792251587,0.522691,1.569224,0.399693,0.0,-1.565903,0.006748,0.500666,0.502397,0.526842,1.568219,0.399712,0.0,-1.574316,-0.00354,0.500377,0.496746,3.0,1.0,111.0,0.0,1.0,-78298.0,-25259.0,13090.0,-78180.0,25574.0,13063.0,-0.940837,0.269096,0.205944,-0.30313,-0.939998,-0.156578,0.151452,-0.209742,0.965956,-0.939795,0.270642,-0.208657,0.304897,0.939807,-0.154272,0.154345,-0.208603,-0.965744,-0.940837,0.269096,0.205944,-0.30313,-0.939998,-0.156578,0.151452,-0.209742,0.965956,-0.939795,0.270642,-0.208657,0.304897,0.939807,-0.154272,0.154345,-0.208603,-0.965744,-78298.0,-25259.0,13090.0,-78180.0,25574.0,13063.0,18518.0,17977.0,-162711.0,0.0,-55032.0,-56235.0,-54595.0,-57473.0,-15207.0,-13202.0,155277.0,0.0,53646.0,53751.0,54876.0,51450.0,44.0,163.0,-47.0,0.0,-870.0,-472.0,614.0,-517.0,-54.0,-161.0,40.0,0.0,-844.0,487.0,729.0,-916.0,-0.012036,-0.044369,0.012768,0.0,-0.031853,-0.017278,-0.0225,-0.018938,-0.014718,-0.043638,0.010904,0.0,-0.030913,0.017854,-0.026703,-0.033533,4078.800049,11455.379883,51504.933594,0.0,-18191.25,-17703.720703,17966.878906,-17450.099609,4111.199707,11452.589844,51510.332031,0.0,17222.400391,17707.230469,-17452.169922,17965.890625,0.0,0.0,0.0,0.0,0.0,0.0,0.0,0.0,0.0,0.0,0.0,0.0,0.0,0.0,0.0,0.0,0.0,0.0,0.0,0.0,0.0,0.0,0.0,0.0,0.0,0.0,0.0,0.0,0.0,0.0,0.0,0.0,4078.803223,11455.094727,51505.199219,0.0,-18191.839844,-17707.128906,17965.839844,-17448.746094,4110.92334,11452.447266,51509.890625,0.0,17224.144531,17709.238281,-17451.068359,17966.734375,29.947983,89.907562,22.900837,0.0,-89.828751,0.007648,28.759918,28.746302,30.183819,89.851471,22.901627,0.0,-89.878326,0.020438,28.68046,28.666933,1.003,0.997,-63838.0,-145259.0,-409566.0,0.0,147093.0,140473.0,-145037.0,136417.0,-60887.0,-140453.0,-417060.0,0.0,-137714.0,-142996.0,139037.0,-148171.0,0.0,0.0,0.0,0.0,0.0,0.0,0.0,0.0,0.0,0.0,0.0,0.0,0.0,0.0,0.0,0.0,0.0,0.0,0.0,0.0,0.0,0.0,0.0,0.0
45,7.104590892791748,0.522691,1.569224,0.399693,0.0,-1.565903,0.006748,0.500666,0.502397,0.526842,1.568219,0.399712,0.0,-1.574316,-0.00354,0.500377,0.496746,3.0,1.0,111.0,0.0,1.0,-78298.0,-25259.0,13090.0,-78180.0,25574.0,13063.0,-0.940837,0.269096,0.205944,-0.30313,-0.939998,-0.156578,0.151452,-0.209742,0.965956,-0.939795,0.270642,-0.208657,0.304897,0.939807,-0.154272,0.154345,-0.208603,-0.965744,-0.940837,0.269096,0.205944,-0.30313,-0.939998,-0.156578,0.151452,-0.209742,0.965956,-0.939795,0.270642,-0.208657,0.304897,0.939807,-0.154272,0.154345,-0.208603,-0.965744,-78298.0,-25259.0,13090.0,-78180.0,25574.0,13063.0,18518.0,17977.0,-162711.0,0.0,-55032.0,-56235.0,-54595.0,-57473.0,-15207.0,-13202.0,155277.0,0.0,53646.0,53751.0,54876.0,51450.0,44.0,163.0,-47.0,0.0,-870.0,-473.0,615.0,-516.0,-54.0,-161.0,40.0,0.0,-843.0,488.0,729.0,-915.0,-0.012036,-0.044369,0.012768,0.0,-0.031864,-0.01734,-0.022519,-0.018913,-0.014718,-0.043638,0.010904,0.0,-0.030881,0.017891,-0.026683,-0.033517,4078.800049,11455.379883,51504.933594,0.0,-18191.25,-17703.720703,17966.878906,-17450.099609,4111.199707,11452.589844,51510.332031,0.0,17222.400391,17707.230469,-17452.169922,17965.890625,0.0,0.0,0.0,0.0,0.0,0.0,0.0,0.0,0.0,0.0,0.0,0.0,0.0,0.0,0.0,0.0,0.0,0.0,0.0,0.0,0.0,0.0,0.0,0.0,0.0,0.0,0.0,0.0,0.0,0.0,0.0,0.0,4078.803223,11455.094727,51505.199219,0.0,-18191.839844,-17707.128906,17965.839844,-17448.746094,4110.92334,11452.447266,51509.890625,0.0,17224.144531,17709.238281,-17451.068359,17966.734375,29.947983,89.907562,22.900837,0.0,-89.828751,0.007648,28.759918,28.746302,30.183819,89.851471,22.901627,0.0,-89.878326,0.020438,28.68046,28.666933,1.003,0.997,-63838.0,-145259.0,-409566.0,0.0,147093.0,140473.0,-145037.0,136417.0,-60887.0,-140453.0,-417060.0,0.0,-137714.0,-142996.0,139037.0,-148171.0,0.0,0.0,0.0,0.0,0.0,0.0,0.0,0.0,0.0,0.0,0.0,0.0,0.0,0.0,0.0,0.0,0.0,0.0,0.0,0.0,0.0,0.0,0.0,0.0
46,7.124584913253784,0.522691,1.569224,0.399693,0.0,-1.565903,0.006748,0.500666,0.502397,0.526842,1.568219,0.399712,0.0,-1.574316,-0.00354,0.500377,0.496746,3.0,1.0,111.0,0.0,1.0,-78298.0,-25259.0,13090.0,-78180.0,25574.0,13063.0,-0.940837,0.269096,0.205944,-0.30313,-0.939998,-0.156578,0.151452,-0.209742,0.965956,-0.939795,0.270642,-0.208657,0.304897,0.939807,-0.154272,0.154345,-0.208603,-0.965744,-0.940837,0.269096,0.205944,-0.30313,-0.939998,-0.156578,0.151452,-0.209742,0.965956,-0.939795,0.270642,-0.208657,0.304897,0.939807,-0.154272,0.154345,-0.208603,-0.965744,-78298.0,-25259.0,13090.0,-78180.0,25574.0,13063.0,18518.0,17977.0,-162711.0,0.0,-55032.0,-56235.0,-54595.0,-57473.0,-15207.0,-13202.0,155277.0,0.0,53646.0,53751.0,54876.0,51450.0,44.0,163.0,-47.0,0.0,-871.0,-475.0,615.0,-516.0,-54.0,-161.0,40.0,0.0,-843.0,489.0,728.0,-915.0,-0.012036,-0.044369,0.012768,0.0,-0.031875,-0.0174,-0.022537,-0.01889,-0.014718,-0.043638,0.010904,0.0,-0.03085,0.017926,-0.026664,-0.033503,4078.800049,11455.379883,51504.933594,0.0,-18191.25,-17703.720703,17966.878906,-17450.099609,4111.199707,11452.589844,51510.332031,0.0,17222.400391,17707.230469,-17452.169922,17965.890625,0.0,0.0,0.0,0.0,0.0,0.0,0.0,0.0,0.0,0.0,0.0,0.0,0.0,0.0,0.0,0.0,0.0,0.0,0.0,0.0,0.0,0.0,0.0,0.0,0.0,0.0,0.0,0.0,0.0,0.0,0.0,0.0,4078.803223,11455.094727,51505.199219,0.0,-18191.839844,-17707.128906,17965.839844,-17448.746094,4110.92334,11452.447266,51509.890625,0.0,17224.144531,17709.238281,-17451.068359,17966.734375,29.947983,89.907562,22.900837,0.0,-89.828751,0.007648,28.759918,28.746302,30.183819,89.851471,22.901627,0.0,-89.878326,0.020438,28.68046,28.666933,1.003,0.997,-63838.0,-145259.0,-409566.0,0.0,147093.0,140473.0,-145037.0,136417.0,-60887.0,-140453.0,-417060.0,0.0,-137714.0,-142996.0,139037.0,-148171.0,0.0,0.0,0.0,0.0,0.0,0.0,0.0,0.0,0.0,0.0,0.0,0.0,0.0,0.0,0.0,0.0,0.0,0.0,0.0,0.0,0.0,0.0,0.0,0.0
47,7.146610975265503,0.522691,1.569224,0.399693,0.0,-1.565903,0.006748,0.500666,0.502397,0.526842,1.568219,0.399712,0.0,-1.574316,-0.00354,0.500377,0.496746,3.0,1.0,111.0,0.0,1.0,-78298.0,-25259.0,13090.0,-78180.0,25574.0,13063.0,-0.940837,0.269096,0.205944,-0.30313,-0.939998,-0.156578,0.151452,-0.209742,0.965956,-0.939795,0.270642,-0.208657,0.304897,0.939807,-0.154272,0.154345,-0.208603,-0.965744,-0.940837,0.269096,0.205944,-0.30313,-0.939998,-0.156578,0.151452,-0.209742,0.965956,-0.939795,0.270642,-0.208657,0.304897,0.939807,-0.154272,0.154345,-0.208603,-0.965744,-78298.0,-25259.0,13090.0,-78180.0,25574.0,13063.0,18518.0,17977.0,-162711.0,0.0,-55032.0,-56235.0,-54595.0,-57473.0,-15207.0,-13202.0,155277.0,0.0,53646.0,53751.0,54876.0,51450.0,44.0,163.0,-47.0,0.0,-871.0,-477.0,616.0,-515.0,-54.0,-161.0,40.0,0.0,-842.0,490.0,728.0,-915.0,-0.012036,-0.044369,0.012768,0.0,-0.031886,-0.017465,-0.022557,-0.018864,-0.014718,-0.043638,0.010904,0.0,-0.030817,0.017964,-0.026643,-0.033486,4078.800049,11455.379883,51504.933594,0.0,-18191.25,-17703.720703,17966.878906,-17450.099609,4111.199707,11452.589844,51510.332031,0.0,17222.400391,17707.230469,-17452.169922,17965.890625,0.0,0.0,0.0,0.0,0.0,0.0,0.0,0.0,0.0,0.0,0.0,0.0,0.0,0.0,0.0,0.0,0.0,0.0,0.0,0.0,0.0,0.0,0.0,0.0,0.0,0.0,0.0,0.0,0.0,0.0,0.0,0.0,4078.803223,11455.094727,51505.199219,0.0,-18191.839844,-17707.128906,17965.839844,-17448.746094,4110.92334,11452.447266,51509.890625,0.0,17224.144531,17709.238281,-17451.068359,17966.734375,29.947983,89.907562,22.900837,0.0,-89.828751,0.007648,28.759918,28.746302,30.183819,89.851471,22.901627,0.0,-89.878326,0.020438,28.68046,28.666933,1.003,0.997,-63838.0,-145259.0,-409566.0,0.0,147093.0,140473.0,-145037.0,136417.0,-60887.0,-140453.0,-417060.0,0.0,-137714.0,-142996.0,139037.0,-148171.0,0.0,0.0,0.0,0.0,0.0,0.0,0.0,0.0,0.0,0.0,0.0,0.0,0.0,0.0,0.0,0.0,0.0,0.0,0.0,0.0,0.0,0.0,0.0,0.0
48,7.167576789855957,0.522691,1.569224,0.399693,0.0,-1.565903,0.006748,0.500666,0.502397,0.526842,1.568219,0.399712,0.0,-1.574316,-0.00354,0.500377,0.496746,3.0,1.0,111.0,0.0,1.0,-78298.0,-25259.0,13090.0,-78180.0,25574.0,13063.0,-0.940837,0.269096,0.205944,-0.30313,-0.939998,-0.156578,0.151452,-0.209742,0.965956,-0.939795,0.270642,-0.208657,0.304897,0.939807,-0.154272,0.154345,-0.208603,-0.965744,-0.940837,0.269096,0.205944,-0.30313,-0.939998,-0.156578,0.151452,-0.209742,0.965956,-0.939795,0.270642,-0.208657,0.304897,0.939807,-0.154272,0.154345,-0.208603,-0.965744,-78298.0,-25259.0,13090.0,-78180.0,25574.0,13063.0,18518.0,17977.0,-162711.0,0.0,-55032.0,-56235.0,-54595.0,-57473.0,-15207.0,-13202.0,155277.0,0.0,53646.0,53751.0,54876.0,51450.0,44.0,163.0,-47.0,0.0,-871.0,-479.0,616.0,-514.0,-54.0,-161.0,40.0,0.0,-841.0,491.0,727.0,-914.0,-0.012036,-0.044369,0.012768,0.0,-0.031897,-0.017528,-0.022576,-0.018839,-0.014718,-0.043638,0.010904,0.0,-0.030785,0.018001,-0.026622,-0.033471,4078.800049,11455.379883,51504.933594,0.0,-18191.25,-17703.720703,17966.878906,-17450.099609,4111.199707,11452.589844,51510.332031,0.0,17222.400391,17707.230469,-17452.169922,17965.890625,0.0,0.0,0.0,0.0,0.0,0.0,0.0,0.0,0.0,0.0,0.0,0.0,0.0,0.0,0.0,0.0,0.0,0.0,0.0,0.0,0.0,0.0,0.0,0.0,0.0,0.0,0.0,0.0,0.0,0.0,0.0,0.0,4078.803223,11455.094727,51505.199219,0.0,-18191.839844,-17707.128906,17965.839844,-17448.746094,4110.92334,11452.447266,51509.890625,0.0,17224.144531,17709.238281,-17451.068359,17966.734375,29.947983,89.907562,22.900837,0.0,-89.828751,0.007648,28.759918,28.746302,30.183819,89.851471,22.901627,0.0,-89.878326,0.020438,28.68046,28.666933,1.003,0.997,-63838.0,-145259.0,-409566.0,0.0,147093.0,140473.0,-145037.0,136417.0,-60887.0,-140453.0,-417060.0,0.0,-137714.0,-142996.0,139037.0,-148171.0,0.0,0.0,0.0,0.0,0.0,0.0,0.0,0.0,0.0,0.0,0.0,0.0,0.0,0.0,0.0,0.0,0.0,0.0,0.0,0.0,0.0,0.0,0.0,0.0
49,7.188592910766602,0.522691,1.569224,0.399693,0.0,-1.565903,0.006748,0.500493,0.502397,0.526842,1.568219,0.399712,0.0,-1.574316,-0.00354,0.500377,0.496746,3.0,1.0,111.0,0.0,1.0,-78298.0,-25259.0,13090.0,-78180.0,25574.0,13063.0,-0.940814,0.269177,0.205944,-0.303211,-0.939971,-0.156578,0.151434,-0.209755,0.965956,-0.939795,0.270642,-0.208657,0.304897,0.939807,-0.154272,0.154345,-0.208603,-0.965744,-0.940814,0.269177,0.205944,-0.303211,-0.939971,-0.156578,0.151434,-0.209755,0.965956,-0.939795,0.270642,-0.208657,0.304897,0.939807,-0.154272,0.154345,-0.208603,-0.965744,-78298.0,-25259.0,13090.0,-78180.0,25574.0,13063.0,18518.0,17977.0,-162711.0,0.0,-55032.0,-56235.0,-54594.0,-57473.0,-15207.0,-13202.0,155277.0,0.0,53646.0,53751.0,54876.0,51450.0,44.0,163.0,-47.0,0.0,-871.0,-480.0,615.0,-514.0,-54.0,-161.0,40.0,0.0,-840.0,492.0,726.0,-914.0,-0.012036,-0.044369,0.012768,0.0,-0.031908,-0.01759,-0.022517,-0.018814,-0.014718,-0.043638,0.010904,0.0,-0.030753,0.018038,-0.026602,-0.033455,4078.800049,11455.379883,51504.933594,0.0,-18191.25,-17703.720703,17966.791016,-17450.099609,4111.199707,11452.589844,51510.332031,0.0,17222.400391,17707.230469,-17452.169922,17965.890625,0.0,0.0,0.0,0.0,0.0,0.0,0.0,0.0,0.0,0.0,0.0,0.0,0.0,0.0,0.0,0.0,0.0,0.0,0.0,0.0,0.0,0.0,0.0,0.0,0.0,0.0,0.0,0.0,0.0,0.0,0.0,0.0,4078.803223,11455.094727,51505.199219,0.0,-18191.839844,-17707.128906,17965.839844,-17448.746094,4110.92334,11452.447266,51509.890625,0.0,17224.144531,17709.238281,-17451.068359,17966.734375,29.947983,89.907562,22.900837,0.0,-89.828751,0.007648,28.759918,28.746302,30.183819,89.851471,22.901627,0.0,-89.878326,0.020438,28.68046,28.666933,1.002,0.997,-63838.0,-145259.0,-409566.0,0.0,147093.0,140473.0,-145037.0,136417.0,-60887.0,-140453.0,-417060.0,0.0,-137714.0,-142996.0,139037.0,-148171.0,0.0,0.0,0.0,0.0,0.0,0.0,0.0,0.0,0.0,0.0,0.0,0.0,0.0,0.0,0.0,0.0,0.0,0.0,0.0,0.0,0.0,0.0,0.0,0.0
50,7.208525896072388,0.522691,1.569224,0.399693,0.0,-1.565903,0.006748,0.500493,0.502397,0.526842,1.568219,0.399712,0.0,-1.574316,-0.00354,0.500377,0.496746,3.0,1.0,111.0,0.0,1.0,-78298.0,-25259.0,13090.0,-78180.0,25574.0,13063.0,-0.940814,0.269177,0.205944,-0.303211,-0.939971,-0.156578,0.151434,-0.209755,0.965956,-0.939795,0.270642,-0.208657,0.304897,0.939807,-0.154272,0.154345,-0.208603,-0.965744,-0.940814,0.269177,0.205944,-0.303211,-0.939971,-0.156578,0.151434,-0.209755,0.965956,-0.939795,0.270642,-0.208657,0.304897,0.939807,-0.154272,0.154345,-0.208603,-0.965744,-78298.0,-25259.0,13090.0,-78180.0,25574.0,13063.0,18518.0,17977.0,-162711.0,0.0,-55032.0,-56235.0,-54594.0,-57473.0,-15207.0,-13202.0,155277.0,0.0,53646.0,53751.0,54876.0,51450.0,44.0,163.0,-47.0,0.0,-872.0,-482.0,615.0,-513.0,-54.0,-161.0,40.0,0.0,-839.0,493.0,726.0,-913.0,-0.012036,-0.044369,0.012768,0.0,-0.031918,-0.01765,-0.022534,-0.018791,-0.014718,-0.043638,0.010904,0.0,-0.030722,0.018073,-0.026583,-0.033441,4078.800049,11455.379883,51504.933594,0.0,-18191.25,-17703.720703,17966.791016,-17450.099609,4111.199707,11452.589844,51510.332031,0.0,17222.400391,17707.230469,-17452.169922,17965.890625,0.0,0.0,0.0,0.0,0.0,0.0,0.0,0.0,0.0,0.0,0.0,0.0,0.0,0.0,0.0,0.0,0.0,0.0,0.0,0.0,0.0,0.0,0.0,0.0,0.0,0.0,0.0,0.0,0.0,0.0,0.0,0.0,4078.803223,11455.094727,51505.199219,0.0,-18191.839844,-17707.128906,17965.839844,-17448.746094,4110.92334,11452.447266,51509.890625,0.0,17224.144531,17709.238281,-17451.068359,17966.734375,29.947983,89.907562,22.900837,0.0,-89.828751,0.007648,28.759918,28.746302,30.183819,89.851471,22.901627,0.0,-89.878326,0.020438,28.68046,28.666933,1.002,0.997,-63838.0,-145259.0,-409566.0,0.0,147093.0,140473.0,-145037.0,136417.0,-60887.0,-140453.0,-417060.0,0.0,-137714.0,-142996.0,139037.0,-148171.0,0.0,0.0,0.0,0.0,0.0,0.0,0.0,0.0,0.0,0.0,0.0,0.0,0.0,0.0,0.0,0.0,0.0,0.0,0.0,0.0,0.0,0.0,0.0,0.0
