MHC-RobotSimulators-Research/Data_Analysis_MotionReplication/mai_plotter/raven_data/this_might_be_ok/twoarm_p5_ambf1.csv
,time,jpos0,jpos1,jpos2,jpos3,jpos4,jpos5,jpos6,jpos7,jpos8,jpos9,jpos10,jpos11,jpos12,jpos13,jpos14,jpos15,runlevel,sublevel,last_seq,type0,type1,pos0,pos1,pos2,pos3,pos4,pos5,ori0,ori1,ori2,ori3,ori4,ori5,ori6,ori7,ori8,ori9,ori10,ori11,ori12,ori13,ori14,ori15,ori16,ori17,ori_d0,ori_d1,ori_d2,ori_d3,ori_d4,ori_d5,ori_d6,ori_d7,ori_d8,ori_d9,ori_d10,ori_d11,ori_d12,ori_d13,ori_d14,ori_d15,ori_d16,ori_d17,pos_d0,pos_d1,pos_d2,pos_d3,pos_d4,pos_d5,encVals0,encVals1,encVals2,encVals3,encVals4,encVals5,encVals6,encVals7,encVals8,encVals9,encVals10,encVals11,encVals12,encVals13,encVals14,encVals15,dac_vals0,dac_vals1,dac_vals2,dac_vals3,dac_vals4,dac_vals5,dac_vals6,dac_vals7,dac_vals8,dac_vals9,dac_vals10,dac_vals11,dac_vals12,dac_vals13,dac_vals14,dac_vals15,Tau0,Tau1,Tau2,Tau3,Tau4,Tau5,Tau6,Tau7,Tau8,Tau9,Tau10,Tau11,Tau12,Tau13,Tau14,Tau15,mpos0,mpos1,mpos2,mpos3,mpos4,mpos5,mpos6,mpos7,mpos8,mpos9,mpos10,mpos11,mpos12,mpos13,mpos14,mpos15,mvel0,mvel1,mvel2,mvel3,mvel4,mvel5,mvel6,mvel7,mvel8,mvel9,mvel10,mvel11,mvel12,mvel13,mvel14,mvel15,jvel0,jvel1,jvel2,jvel3,jvel4,jvel5,jvel6,jvel7,jvel8,jvel9,jvel10,jvel11,jvel12,jvel13,jvel14,jvel15,mpos_d0,mpos_d1,mpos_d2,mpos_d3,mpos_d4,mpos_d5,mpos_d6,mpos_d7,mpos_d8,mpos_d9,mpos_d10,mpos_d11,mpos_d12,mpos_d13,mpos_d14,mpos_d15,jpos_d0,jpos_d1,jpos_d2,jpos_d3,jpos_d4,jpos_d5,jpos_d6,jpos_d7,jpos_d8,jpos_d9,jpos_d10,jpos_d11,jpos_d12,jpos_d13,jpos_d14,jpos_d15,grasp_d0,grasp_d1,encoffsets0,encoffsets1,encoffsets2,encoffsets3,encoffsets4,encoffsets5,encoffsets6,encoffsets7,encoffsets8,encoffsets9,encoffsets10,encoffsets11,encoffsets12,encoffsets13,encoffsets14,encoffsets15,jac_vel0,jac_vel1,jac_vel2,jac_vel3,jac_vel4,jac_vel5,jac_vel6,jac_vel7,jac_vel8,jac_vel9,jac_vel10,jac_vel11,jac_f0,jac_f1,jac_f2,jac_f3,jac_f4,jac_f5,jac_f6,jac_f7,jac_f8,jac_f9,jac_f10,jac_f11
0,0.0,0.6107973456382751,1.5706218481063843,0.39000777810812,0.0,-0.0002617776374131964,-3.1586241955317007e-10,0.7853109240531921,0.7853109240531921,0.6107973456382751,1.5706218481063843,0.39000777810812,0.0,-0.0002617776374131964,-1.249517572743386e-10,0.7853109240531921,0.7853109240531921,,,,,,,,,,,,,,,,,,,,,,,,,,,,,,,,,,,,,,,,,,,,,,,,,,,,,,,,,,,,,,,,,,,,,,,,,,,,,,,,,,,,,,,,,,,,,,,,,,,,,,,,,,,,,,,,,,,,,,,,,,,,,,,,,,,,,,0.0,0.0,0.0,0.0,0.0,0.0,0.0,0.0,0.0,0.0,0.0,0.0,0.0,0.0,0.0,0.0,,,,,,,,,,,,,,,,,,,,,,,,,,,,,,,,,,,,,,,,,,,,,,,,,,,,,,,,,,,,,,,,,,,,,,,,,,
1,6.203573226928711,0.6064969301223755,1.5596120357513428,0.3904982572793961,0.0,-1.5358346641043932,-1.209961101267254e-05,0.5062689185142517,0.5062694549560547,0.6065371632575989,1.5596799850463867,0.390495984852314,0.0,-1.5421599090079576,9.855784810497425e-06,0.5050787925720215,0.5050801038742065,,,,,,,,,,,,,,,,,,,,,,,,,,,,,,,,,,,,,,,,,,,,,,,,,,,,,,,,,,,,,,,,,,,,,,,,,,,,,,,,,,,,,,,,,,,,,,,,,,,,,,,,,,,,,,,,,,,,,,,,,,,,,,,,,,,,,,-2.095001946145203e-06,1.1271738912910223e-05,-3.891002009481781e-08,0.0,0.0018866253085434437,0.0030159601010382175,-0.028639813885092735,-0.024489160627126694,-2.907313728428562e-06,3.0243576475186273e-05,2.1939314365226892e-07,0.0,0.00229879398830235,-0.004840758629143238,-0.013200158253312111,0.022464405745267868,,,,,,,,,,,,,,,,,,,,,,,,,,,,,,,,,,,,,,,,,,,,,,,,,,,,,,,,,,,,,,,,,,,,,,,,,,
2,6.228620767593384,0.6064969301223755,1.5596119165420532,0.3904982572793961,0.0,-1.5454216539840013,-1.2464954124880023e-05,0.5046612620353699,0.5046586394309998,0.6065371632575989,1.5596799850463867,0.390495984852314,0.0,-1.5421599090079576,9.855784810497425e-06,0.5050787925720215,0.5050801038742065,,,,,,,,,,,,,,,,,,,,,,,,,,,,,,,,,,,,,,,,,,,,,,,,,,,,,,,,,,,,,,,,,,,,,,,,,,,,,,,,,,,,,,,,,,,,,,,,,,,,,,,,,,,,,,,,,,,,,,,,,,,,,,,,,,,,,,2.58254362961452e-06,-1.976933162950445e-05,4.624747020898212e-07,0.0,-0.567316472530365,-0.0004348017100710422,-0.042005881667137146,-0.046140506863594055,-2.907313728428562e-06,3.0243576475186273e-05,2.1939314365226892e-07,0.0,0.00229879398830235,-0.004840758629143238,-0.013200158253312111,0.022464405745267868,,,,,,,,,,,,,,,,,,,,,,,,,,,,,,,,,,,,,,,,,,,,,,,,,,,,,,,,,,,,,,,,,,,,,,,,,,
3,6.249500036239624,0.6064969301223755,1.5596120357513428,0.3904982572793961,0.0,-1.5497496068457872,-4.084716692887014e-06,0.5038079023361206,0.5037941932678223,0.6065371632575989,1.5596801042556763,0.390495984852314,0.0,-1.5483637392501146,4.794798314833315e-06,0.5039983987808228,0.5040382146835327,,,,,,,,,,,,,,,,,,,,,,,,,,,,,,,,,,,,,,,,,,,,,,,,,,,,,,,,,,,,,,,,,,,,,,,,,,,,,,,,,,,,,,,,,,,,,,,,,,,,,,,,,,,,,,,,,,,,,,,,,,,,,,,,,,,,,,-1.3355982986240633e-08,1.2664869153411473e-08,3.328656905665639e-09,0.0,-0.10459056496620178,-6.746188591932878e-05,-0.019184060394763947,-0.018939606845378876,-2.673250598661525e-08,1.756293272592302e-06,-1.8045426264379216e-09,0.0,-0.10916738212108612,-0.0006508590304292738,0.018386077135801315,0.0197139885276556,,,,,,,,,,,,,,,,,,,,,,,,,,,,,,,,,,,,,,,,,,,,,,,,,,,,,,,,,,,,,,,,,,,,,,,,,,
4,6.271579027175903,0.6064969301223755,1.5596120357513428,0.3904982572793961,0.0,-1.5499564349631578,-4.199207978672348e-06,0.5037699341773987,0.5037567615509033,0.6065371632575989,1.5596801042556763,0.390495984852314,0.0,-1.55185853838723,4.370112037577201e-06,0.5033751130104065,0.5034036636352539,,,,,,,,,,,,,,,,,,,,,,,,,,,,,,,,,,,,,,,,,,,,,,,,,,,,,,,,,,,,,,,,,,,,,,,,,,,,,,,,,,,,,,,,,,,,,,,,,,,,,,,,,,,,,,,,,,,,,,,,,,,,,,,,,,,,,,-3.365818912470786e-08,3.4439562313082206e-08,-2.006714350244465e-09,0.0,-0.10339720547199249,-5.724561560782604e-05,-0.018998784944415092,-0.01871388405561447,-5.777933687056702e-09,1.939406359952045e-07,-6.996486723309658e-10,0.0,-0.0951039046049118,-3.570831097476912e-07,0.016972221434116364,0.0171513594686985,,,,,,,,,,,,,,,,,,,,,,,,,,,,,,,,,,,,,,,,,,,,,,,,,,,,,,,,,,,,,,,,,,,,,,,,,,
5,6.293142795562744,0.6064969301223755,1.5596120357513428,0.3904982572793961,0.0,-1.5535557210425646,-4.113716840947745e-06,0.5031164884567261,0.50310879945755,0.6065371632575989,1.5596801042556763,0.390495984852314,0.0,-1.552046948669365,4.352248652139679e-06,0.5033414959907532,0.5033697485923767,,,,,,,,,,,,,,,,,,,,,,,,,,,,,,,,,,,,,,,,,,,,,,,,,,,,,,,,,,,,,,,,,,,,,,,,,,,,,,,,,,,,,,,,,,,,,,,,,,,,,,,,,,,,,,,,,,,,,,,,,,,,,,,,,,,,,,2.3407997318258822e-08,1.0025947005942726e-07,-1.4002896620013416e-09,0.0,-0.08674515038728714,2.356424374738708e-05,-0.015674909576773643,-0.015643693506717682,-3.912981050291364e-09,2.0720736415569263e-07,-8.245001903439686e-10,0.0,-0.09420358389616013,-8.931586307880934e-06,0.016801558434963226,0.016969816759228706,,,,,,,,,,,,,,,,,,,,,,,,,,,,,,,,,,,,,,,,,,,,,,,,,,,,,,,,,,,,,,,,,,,,,,,,,,
6,6.315326452255249,0.6064969301223755,1.5596120357513428,0.3904982572793961,0.0,-1.5535557210425646,-4.113716840947745e-06,0.5031164884567261,0.50310879945755,0.6065371632575989,1.5596801042556763,0.390495984852314,0.0,-1.5552940905074388,3.4256679555255687e-06,0.5027632713317871,0.50278639793396,,,,,,,,,,,,,,,,,,,,,,,,,,,,,,,,,,,,,,,,,,,,,,,,,,,,,,,,,,,,,,,,,,,,,,,,,,,,,,,,,,,,,,,,,,,,,,,,,,,,,,,,,,,,,,,,,,,,,,,,,,,,,,,,,,,,,,2.3407997318258822e-08,1.0025947005942726e-07,-1.4002896620013416e-09,0.0,-0.08674515038728714,2.356424374738708e-05,-0.015674909576773643,-0.015643693506717682,-1.0521028492860296e-09,1.9834978104427137e-07,-7.892297926304082e-10,0.0,-0.07796993851661682,-2.0496134311542846e-05,0.013883179053664207,0.014005826786160469,,,,,,,,,,,,,,,,,,,,,,,,,,,,,,,,,,,,,,,,,,,,,,,,,,,,,,,,,,,,,,,,,,,,,,,,,,
7,6.33676290512085,0.6064969301223755,1.5596120357513428,0.3904982572793961,0.0,-1.5563983261565477,-3.3874346172524383e-06,0.5026026964187622,0.5025960803031921,0.6065371632575989,1.5596801042556763,0.390495984852314,0.0,-1.5552940905074388,3.4256679555255687e-06,0.5027632713317871,0.50278639793396,,,,,,,,,,,,,,,,,,,,,,,,,,,,,,,,,,,,,,,,,,,,,,,,,,,,,,,,,,,,,,,,,,,,,,,,,,,,,,,,,,,,,,,,,,,,,,,,,,,,,,,,,,,,,,,,,,,,,,,,,,,,,,,,,,,,,,1.7898127424587074e-08,8.133249451702795e-08,-1.12306697275244e-09,0.0,-0.0724141076207161,1.7734990251483396e-05,-0.013091656379401684,-0.013061052188277245,-1.0521028492860296e-09,1.9834978104427137e-07,-7.892297926304082e-10,0.0,-0.07796993851661682,-2.0496134311542846e-05,0.013883179053664207,0.014005826786160469,,,,,,,,,,,,,,,,,,,,,,,,,,,,,,,,,,,,,,,,,,,,,,,,,,,,,,,,,,,,,,,,,,,,,,,,,,
8,6.357849836349487,0.6064969301223755,1.5596120357513428,0.3904982572793961,0.0,-1.5563983261565477,-3.3874346172524383e-06,0.5026026964187622,0.5025960803031921,0.6065371632575989,1.5596801042556763,0.390495984852314,0.0,-1.5578497588614733,2.784071284622769e-06,0.5023081302642822,0.5023272633552551,,,,,,,,,,,,,,,,,,,,,,,,,,,,,,,,,,,,,,,,,,,,,,,,,,,,,,,,,,,,,,,,,,,,,,,,,,,,,,,,,,,,,,,,,,,,,,,,,,,,,,,,,,,,,,,,,,,,,,,,,,,,,,,,,,,,,,1.7898127424587074e-08,8.133249451702795e-08,-1.12306697275244e-09,0.0,-0.0724141076207161,1.7734990251483396e-05,-0.013091656379401684,-0.013061052188277245,-1.2403966742624561e-09,1.6158907101271325e-07,-6.428468868335813e-10,0.0,-0.06511306762695312,-1.6094072634587064e-05,0.011596857570111752,0.011698918417096138,,,,,,,,,,,,,,,,,,,,,,,,,,,,,,,,,,,,,,,,,,,,,,,,,,,,,,,,,,,,,,,,,,,,,,,,,,
9,6.38015604019165,0.6064969301223755,1.5596120357513428,0.3904982572793961,0.0,-1.5588917672614366,-2.778877387754619e-06,0.5021519064903259,0.5021463632583618,0.6065371632575989,1.5596801042556763,0.390495984852314,0.0,-1.5578497588614733,2.784071284622769e-06,0.5023081302642822,0.5023272633552551,,,,,,,,,,,,,,,,,,,,,,,,,,,,,,,,,,,,,,,,,,,,,,,,,,,,,,,,,,,,,,,,,,,,,,,,,,,,,,,,,,,,,,,,,,,,,,,,,,,,,,,,,,,,,,,,,,,,,,,,,,,,,,,,,,,,,,1.4424905714349734e-08,6.606170899203789e-08,-9.144421331264141e-10,0.0,-0.059874020516872406,1.4587394616683014e-05,-0.010824481025338173,-0.010798492468893528,-1.2403966742624561e-09,1.6158907101271325e-07,-6.428468868335813e-10,0.0,-0.06511306762695312,-1.6094072634587064e-05,0.011596857570111752,0.011698918417096138,,,,,,,,,,,,,,,,,,,,,,,,,,,,,,,,,,,,,,,,,,,,,,,,,,,,,,,,,,,,,,,,,,,,,,,,,,
10,6.401075601577759,0.6064969301223755,1.5596120357513428,0.3904982572793961,0.0,-1.560854369399956,-2.302116627106443e-06,0.501797080039978,0.5017923712730408,0.6065371632575989,1.5596801042556763,0.390495984852314,0.0,-1.5600917875746996,2.2378155790647725e-06,0.5019087791442871,0.5019243955612183,,,,,,,,,,,,,,,,,,,,,,,,,,,,,,,,,,,,,,,,,,,,,,,,,,,,,,,,,,,,,,,,,,,,,,,,,,,,,,,,,,,,,,,,,,,,,,,,,,,,,,,,,,,,,,,,,,,,,,,,,,,,,,,,,,,,,,1.1826262635850071e-08,5.4282466521726747e-08,-7.512740429760356e-10,0.0,-0.0500030592083931,1.21106713777408e-05,-0.00903987605124712,-0.009017759002745152,-1.0550449403012863e-09,1.3110224017509609e-07,-5.203407149600991e-10,0.0,-0.05383717641234398,-1.2923450412927195e-05,0.009590525180101395,0.009673948399722576,,,,,,,,,,,,,,,,,,,,,,,,,,,,,,,,,,,,,,,,,,,,,,,,,,,,,,,,,,,,,,,,,,,,,,,,,,
11,6.4218590259552,0.6064969301223755,1.5596120357513428,0.3904982572793961,0.0,-1.5609533727149278,-2.278145075251814e-06,0.5017791986465454,0.5017745494842529,0.6065371632575989,1.5596801042556763,0.390495984852314,0.0,-1.5618565022925646,1.820319653234037e-06,0.5015944242477417,0.5016072988510132,,,,,,,,,,,,,,,,,,,,,,,,,,,,,,,,,,,,,,,,,,,,,,,,,,,,,,,,,,,,,,,,,,,,,,,,,,,,,,,,,,,,,,,,,,,,,,,,,,,,,,,,,,,,,,,,,,,,,,,,,,,,,,,,,,,,,,1.169647756427139e-08,5.369260591692182e-08,-7.431347204267524e-10,0.0,-0.0495050847530365,1.1985834134975448e-05,-0.008949844166636467,-0.008927925489842892,-9.009459844833145e-10,1.0750622436717094e-07,-4.2568032432299674e-10,0.0,-0.044961657375097275,-1.0492414730833843e-05,0.00801096297800541,0.0080798901617527,,,,,,,,,,,,,,,,,,,,,,,,,,,,,,,,,,,,,,,,,,,,,,,,,,,,,,,,,,,,,,,,,,,,,,,,,,
12,6.444289684295654,0.6064969301223755,1.5596120357513428,0.3904982572793961,0.0,-1.5626579463462145,-1.866895559032855e-06,0.5014710426330566,0.5014671087265015,0.6065371632575989,1.5596801042556763,0.390495984852314,0.0,-1.5618565022925646,1.820319653234037e-06,0.5015944242477417,0.5016072988510132,,,,,,,,,,,,,,,,,,,,,,,,,,,,,,,,,,,,,,,,,,,,,,,,,,,,,,,,,,,,,,,,,,,,,,,,,,,,,,,,,,,,,,,,,,,,,,,,,,,,,,,,,,,,,,,,,,,,,,,,,,,,,,,,,,,,,,9.481693652446666e-09,4.3620886458484165e-08,-6.036490751704093e-10,0.0,-0.04093185067176819,9.84093094302807e-06,-0.007399816066026688,-0.007381373550742865,-9.009459844833145e-10,1.0750622436717094e-07,-4.2568032432299674e-10,0.0,-0.044961657375097275,-1.0492414730833843e-05,0.00801096297800541,0.0080798901617527,,,,,,,,,,,,,,,,,,,,,,,,,,,,,,,,,,,,,,,,,,,,,,,,,,,,,,,,,,,,,,,,,,,,,,,,,,
13,6.465390920639038,0.6064969301223755,1.5596120357513428,0.3904982572793961,0.0,-1.5626579463462145,-1.866895559032855e-06,0.5014710426330566,0.5014671087265015,0.6065371632575989,1.5596801042556763,0.390495984852314,0.0,-1.5632551848868639,1.498224378337909e-06,0.501345157623291,0.5013559460639954,,,,,,,,,,,,,,,,,,,,,,,,,,,,,,,,,,,,,,,,,,,,,,,,,,,,,,,,,,,,,,,,,,,,,,,,,,,,,,,,,,,,,,,,,,,,,,,,,,,,,,,,,,,,,,,,,,,,,,,,,,,,,,,,,,,,,,9.481693652446666e-09,4.3620886458484165e-08,-6.036490751704093e-10,0.0,-0.04093185067176819,9.84093094302807e-06,-0.007399816066026688,-0.007381373550742865,-7.7099437945094e-10,8.912726201515397e-08,-3.5216968230500356e-10,0.0,-0.0379270575940609,-8.626050657767337e-06,0.006758771371096373,0.006816323846578598,,,,,,,,,,,,,,,,,,,,,,,,,,,,,,,,,,,,,,,,,,,,,,,,,,,,,,,,,,,,,,,,,,,,,,,,,,
14,6.4865171909332275,0.6064969301223755,1.5596120357513428,0.3904982572793961,0.0,-1.5639996469001085,-1.5454913864232367e-06,0.5012284517288208,0.5012251734733582,0.6065371632575989,1.5596801042556763,0.390495984852314,0.0,-1.5632551848868639,1.498224378337909e-06,0.501345157623291,0.5013559460639954,,,,,,,,,,,,,,,,,,,,,,,,,,,,,,,,,,,,,,,,,,,,,,,,,,,,,,,,,,,,,,,,,,,,,,,,,,,,,,,,,,,,,,,,,,,,,,,,,,,,,,,,,,,,,,,,,,,,,,,,,,,,,,,,,,,,,,7.770950993801762e-09,3.5814242238529914e-08,-4.956313137682855e-10,0.0,-0.03418375924229622,8.159828212228604e-06,-0.006179754622280598,-0.006164125166833401,-7.7099437945094e-10,8.912726201515397e-08,-3.5216968230500356e-10,0.0,-0.0379270575940609,-8.626050657767337e-06,0.006758771371096373,0.006816323846578598,,,,,,,,,,,,,,,,,,,,,,,,,,,,,,,,,,,,,,,,,,,,,,,,,,,,,,,,,,,,,,,,,,,,,,,,,,
15,6.507741451263428,0.6064969301223755,1.5596120357513428,0.3904982572793961,0.0,-1.5639996469001085,-1.5454913864232367e-06,0.5012284517288208,0.5012251734733582,0.6065371632575989,1.5596801042556763,0.390495984852314,0.0,-1.5645611226538927,1.2054217677359702e-06,0.5011124014854431,0.5011212229728699,,,,,,,,,,,,,,,,,,,,,,,,,,,,,,,,,,,,,,,,,,,,,,,,,,,,,,,,,,,,,,,,,,,,,,,,,,,,,,,,,,,,,,,,,,,,,,,,,,,,,,,,,,,,,,,,,,,,,,,,,,,,,,,,,,,,,,7.770950993801762e-09,3.5814242238529914e-08,-4.956313137682855e-10,0.0,-0.03418375924229622,8.159828212228604e-06,-0.006179754622280598,-0.006164125166833401,-6.441513988875158e-10,7.226774556556848e-08,-2.8488322811881517e-10,0.0,-0.03135903924703598,-6.935777491889894e-06,0.005589399021118879,0.005636441055685282,,,,,,,,,,,,,,,,,,,,,,,,,,,,,,,,,,,,,,,,,,,,,,,,,,,,,,,,,,,,,,,,,,,,,,,,,,
16,6.529174327850342,0.6064969301223755,1.5596120357513428,0.3904982572793961,0.0,-1.565120154617241,-1.279054686165182e-06,0.501025915145874,0.5010231733322144,0.6065371632575989,1.5596801042556763,0.390495984852314,0.0,-1.565589064357689,9.810714800551068e-07,0.5009291768074036,0.5009364485740662,,,,,,,,,,,,,,,,,,,,,,,,,,,,,,,,,,,,,,,,,,,,,,,,,,,,,,,,,,,,,,,,,,,,,,,,,,,,,,,,,,,,,,,,,,,,,,,,,,,,,,,,,,,,,,,,,,,,,,,,,,,,,,,,,,,,,,6.367795180040048e-09,2.9394154665851602e-08,-4.0675796064704173e-10,0.0,-0.02854817360639572,6.762860266462667e-06,-0.005160831846296787,-0.0051476070657372475,-5.406786129924512e-10,5.9237169836023895e-08,-2.3293172946026175e-10,0.0,-0.026189249008893967,-5.644564225804061e-06,0.004668782465159893,0.004707639571279287,,,,,,,,,,,,,,,,,,,,,,,,,,,,,,,,,,,,,,,,,,,,,,,,,,,,,,,,,,,,,,,,,,,,,,,,,,
17,6.549984455108643,0.6064969301223755,1.5596120357513428,0.3904982572793961,0.0,-1.5661031544188768,-1.0471884479557048e-06,0.5008482336997986,0.5008459091186523,0.6065371632575989,1.5596801042556763,0.390495984852314,0.0,-1.5656409203986437,9.699106158223003e-07,0.5009199380874634,0.5009271502494812,,,,,,,,,,,,,,,,,,,,,,,,,,,,,,,,,,,,,,,,,,,,,,,,,,,,,,,,,,,,,,,,,,,,,,,,,,,,,,,,,,,,,,,,,,,,,,,,,,,,,,,,,,,,,,,,,,,,,,,,,,,,,,,,,,,,,,5.1596504846429525e-09,2.3852587460737595e-08,-3.300415496454434e-10,0.0,-0.023604249581694603,5.544523446587846e-06,-0.004266966599971056,-0.00425589457154274,-5.35682609381638e-10,5.8586248741221425e-08,-2.3031576645848872e-10,0.0,-0.0259284395724535,-5.580413471761858e-06,0.004622333683073521,0.004660780541598797,,,,,,,,,,,,,,,,,,,,,,,,,,,,,,,,,,,,,,,,,,,,,,,,,,,,,,,,,,,,,,,,,,,,,,,,,,
18,6.571260452270508,0.6064969301223755,1.5596120357513428,0.3904982572793961,0.0,-1.5661031544188768,-1.0471884479557048e-06,0.5008482336997986,0.5008459091186523,0.6065371632575989,1.5596801042556763,0.390495984852314,0.0,-1.5664474904517443,7.984444891917519e-07,0.5007761716842651,0.5007821321487427,,,,,,,,,,,,,,,,,,,,,,,,,,,,,,,,,,,,,,,,,,,,,,,,,,,,,,,,,,,,,,,,,,,,,,,,,,,,,,,,,,,,,,,,,,,,,,,,,,,,,,,,,,,,,,,,,,,,,,,,,,,,,,,,,,,,,,5.1596504846429525e-09,2.3852587460737595e-08,-3.300415496454434e-10,0.0,-0.023604249581694603,5.544523446587846e-06,-0.004266966599971056,-0.00425589457154274,-4.523048602322888e-10,4.854639001905525e-08,-1.904518209805417e-10,0.0,-0.021871743723750114,-4.5957526708662044e-06,0.0038997901137918234,0.003931884188205004,,,,,,,,,,,,,,,,,,,,,,,,,,,,,,,,,,,,,,,,,,,,,,,,,,,,,,,,,,,,,,,,,,,,,,,,,,
19,6.592374801635742,0.6064969301223755,1.5596120357513428,0.3904982572793961,0.0,-1.5669158637503893,-8.571312264393782e-07,0.5007013082504272,0.5006993412971497,0.6065371632575989,1.5596801042556763,0.390495984852314,0.0,-1.5664474904517443,7.984444891917519e-07,0.5007761716842651,0.5007821321487427,,,,,,,,,,,,,,,,,,,,,,,,,,,,,,,,,,,,,,,,,,,,,,,,,,,,,,,,,,,,,,,,,,,,,,,,,,,,,,,,,,,,,,,,,,,,,,,,,,,,,,,,,,,,,,,,,,,,,,,,,,,,,,,,,,,,,,4.179767643108789e-09,1.9347190516327828e-08,-2.677164046005487e-10,0.0,-0.019516507163643837,4.54392829851713e-06,-0.0035279092844575644,-0.0035186500754207373,-4.523048602322888e-10,4.854639001905525e-08,-1.904518209805417e-10,0.0,-0.021871743723750114,-4.5957526708662044e-06,0.0038997901137918234,0.003931884188205004,,,,,,,,,,,,,,,,,,,,,,,,,,,,,,,,,,,,,,,,,,,,,,,,,,,,,,,,,,,,,,,,,,,,,,,,,,
20,6.614022731781006,0.6064969301223755,1.5596120357513428,0.3904982572793961,0.0,-1.5669158637503893,-8.571312264393782e-07,0.5007013082504272,0.5006993412971497,0.6065371632575989,1.5596801042556763,0.390495984852314,0.0,-1.5672005951384813,6.423256877496897e-07,0.5006418824195862,0.5006467700004578,,,,,,,,,,,,,,,,,,,,,,,,,,,,,,,,,,,,,,,,,,,,,,,,,,,,,,,,,,,,,,,,,,,,,,,,,,,,,,,,,,,,,,,,,,,,,,,,,,,,,,,,,,,,,,,,,,,,,,,,,,,,,,,,,,,,,,4.179767643108789e-09,1.9347190516327828e-08,-2.677164046005487e-10,0.0,-0.019516507163643837,4.54392829851713e-06,-0.0035279092844575644,-0.0035186500754207373,-3.7320146972774637e-10,3.9337312074394504e-08,-1.5393242236427795e-10,0.0,-0.01808411255478859,-3.700532943184953e-06,0.0032250445801764727,0.003251268994063139,,,,,,,,,,,,,,,,,,,,,,,,,,,,,,,,,,,,,,,,,,,,,,,,,,,,,,,,,,,,,,,,,,,,,,,,,,
21,6.635575532913208,0.6064969301223755,1.5596120357513428,0.3904982572793961,0.0,-1.5675879061202318,-7.014002108007844e-07,0.500579833984375,0.5005782246589661,0.6065371632575989,1.5596801042556763,0.390495984852314,0.0,-1.5672005951384813,6.423256877496897e-07,0.5006418824195862,0.5006467700004578,,,,,,,,,,,,,,,,,,,,,,,,,,,,,,,,,,,,,,,,,,,,,,,,,,,,,,,,,,,,,,,,,,,,,,,,,,,,,,,,,,,,,,,,,,,,,,,,,,,,,,,,,,,,,,,,,,,,,,,,,,,,,,,,,,,,,,3.3849034686284085e-09,1.5686563159533762e-08,-2.1708329578373764e-10,0.0,-0.01613667607307434,3.7226438962534303e-06,-0.0029168520122766495,-0.0029091162141412497,-3.7320146972774637e-10,3.9337312074394504e-08,-1.5393242236427795e-10,0.0,-0.01808411255478859,-3.700532943184953e-06,0.0032250445801764727,0.003251268994063139,,,,,,,,,,,,,,,,,,,,,,,,,,,,,,,,,,,,,,,,,,,,,,,,,,,,,,,,,,,,,,,,,,,,,,,,,,
22,6.657198429107666,0.6064969301223755,1.5596120357513428,0.3904982572793961,0.0,-1.5675879061202318,-7.014002108007844e-07,0.500579833984375,0.5005782246589661,0.6065371632575989,1.5596801042556763,0.390495984852314,0.0,-1.5678232848624498,5.166040182302822e-07,0.5005307793617249,0.5005347728729248,,,,,,,,,,,,,,,,,,,,,,,,,,,,,,,,,,,,,,,,,,,,,,,,,,,,,,,,,,,,,,,,,,,,,,,,,,,,,,,,,,,,,,,,,,,,,,,,,,,,,,,,,,,,,,,,,,,,,,,,,,,,,,,,,,,,,,3.3849034686284085e-09,1.5686563159533762e-08,-2.1708329578373764e-10,0.0,-0.01613667607307434,3.7226438962534303e-06,-0.0029168520122766495,-0.0029091162141412497,-3.0714319976254956e-10,3.186606534200109e-08,-1.2439355101534488e-10,0.0,-0.014952403493225574,-2.9802702101733303e-06,0.002667039865627885,0.002688465639948845,,,,,,,,,,,,,,,,,,,,,,,,,,,,,,,,,,,,,,,,,,,,,,,,,,,,,,,,,,,,,,,,,,,,,,,,,,
23,6.679389715194702,0.6064969301223755,1.5596120357513428,0.3904982572793961,0.0,-1.5681168377379686,-5.799342375212291e-07,0.5004842281341553,0.5004828572273254,0.6065371632575989,1.5596801042556763,0.390495984852314,0.0,-1.5683381497840196,4.1534804040566087e-07,0.500438928604126,0.5004422068595886,,,,,,,,,,,,,,,,,,,,,,,,,,,,,,,,,,,,,,,,,,,,,,,,,,,,,,,,,,,,,,,,,,,,,,,,,,,,,,,,,,,,,,,,,,,,,,,,,,,,,,,,,,,,,,,,,,,,,,,,,,,,,,,,,,,,,,2.7712276917668532e-09,1.2854606268319912e-08,-1.778785452266618e-10,0.0,-0.013476366177201271,3.081109980485053e-06,-0.0024358918890357018,-0.002429372165352106,-2.522981823460668e-10,2.5805025671843396e-08,-1.0044048925905713e-10,0.0,-0.012363027781248093,-2.4003566068131477e-06,0.0022055795416235924,0.002223082585260272,,,,,,,,,,,,,,,,,,,,,,,,,,,,,,,,,,,,,,,,,,,,,,,,,,,,,,,,,,,,,,,,,,,,,,,,,,
24,6.7014031410217285,0.6064969301223755,1.5596120357513428,0.3904982572793961,0.0,-1.568558567760399,-4.794136998498288e-07,0.5004043579101562,0.5004032254219055,0.6065371632575989,1.5596801042556763,0.390495984852314,0.0,-1.5683381497840196,4.1534804040566087e-07,0.500438928604126,0.5004422068595886,,,,,,,,,,,,,,,,,,,,,,,,,,,,,,,,,,,,,,,,,,,,,,,,,,,,,,,,,,,,,,,,,,,,,,,,,,,,,,,,,,,,,,,,,,,,,,,,,,,,,,,,,,,,,,,,,,,,,,,,,,,,,,,,,,,,,,2.2679080835530385e-09,1.052957721014991e-08,-1.458208553906104e-10,0.0,-0.011254639364778996,2.5495085083093727e-06,-0.0020342341158539057,-0.002028742339462042,-2.522981823460668e-10,2.5805025671843396e-08,-1.0044048925905713e-10,0.0,-0.012363027781248093,-2.4003566068131477e-06,0.0022055795416235924,0.002223082585260272,,,,,,,,,,,,,,,,,,,,,,,,,,,,,,,,,,,,,,,,,,,,,,,,,,,,,,,,,,,,,,,,,,,,,,,,,,
25,6.722490310668945,0.6064969301223755,1.5596120357513428,0.3904982572793961,0.0,-1.568558567760399,-4.794136998498288e-07,0.5004043579101562,0.5004032254219055,0.6065371632575989,1.5596801042556763,0.390495984852314,0.0,-1.5687638461570055,3.3379615160811227e-07,0.5003629922866821,0.500365674495697,,,,,,,,,,,,,,,,,,,,,,,,,,,,,,,,,,,,,,,,,,,,,,,,,,,,,,,,,,,,,,,,,,,,,,,,,,,,,,,,,,,,,,,,,,,,,,,,,,,,,,,,,,,,,,,,,,,,,,,,,,,,,,,,,,,,,,2.2679080835530385e-09,1.052957721014991e-08,-1.458208553906104e-10,0.0,-0.011254639364778996,2.5495085083093727e-06,-0.0020342341158539057,-0.002028742339462042,-2.067790383364354e-10,2.0889512342137095e-08,-8.108791416105987e-11,0.0,-0.01022206712514162,-1.9331932890054304e-06,0.001823960687033832,0.0018382573034614325,,,,,,,,,,,,,,,,,,,,,,,,,,,,,,,,,,,,,,,,,,,,,,,,,,,,,,,,,,,,,,,,,,,,,,,,,,
26,6.744444847106934,0.6064969301223755,1.5596120357513428,0.3904982572793961,0.0,-1.568927460906914,-3.9624617897970893e-07,0.5003376603126526,0.5003367066383362,0.6065371632575989,1.5596801042556763,0.390495984852314,0.0,-1.5687638461570055,3.3379615160811227e-07,0.5003629922866821,0.500365674495697,,,,,,,,,,,,,,,,,,,,,,,,,,,,,,,,,,,,,,,,,,,,,,,,,,,,,,,,,,,,,,,,,,,,,,,,,,,,,,,,,,,,,,,,,,,,,,,,,,,,,,,,,,,,,,,,,,,,,,,,,,,,,,,,,,,,,,1.8554602299047929e-09,8.62176996463404e-09,-1.1939754740453168e-10,0.0,-0.009399189613759518,2.1091545931994915e-06,-0.0016988038551062346,-0.001694180304184556,-2.067790383364354e-10,2.0889512342137095e-08,-8.108791416105987e-11,0.0,-0.01022206712514162,-1.9331932890054304e-06,0.001823960687033832,0.0018382573034614325,,,,,,,,,,,,,,,,,,,,,,,,,,,,,,,,,,,,,,,,,,,,,,,,,,,,,,,,,,,,,,,,,,,,,,,,,,
27,6.765586614608765,0.6064969301223755,1.5596120357513428,0.3904982572793961,0.0,-1.568927460906914,-3.9624617897970893e-07,0.5003376603126526,0.5003367066383362,0.6065371632575989,1.5596801042556763,0.390495984852314,0.0,-1.5691158115844042,2.681205160115496e-07,0.5003001689910889,0.5003023743629456,,,,,,,,,,,,,,,,,,,,,,,,,,,,,,,,,,,,,,,,,,,,,,,,,,,,,,,,,,,,,,,,,,,,,,,,,,,,,,,,,,,,,,,,,,,,,,,,,,,,,,,,,,,,,,,,,,,,,,,,,,,,,,,,,,,,,,1.8554602299047929e-09,8.62176996463404e-09,-1.1939754740453168e-10,0.0,-0.009399189613759518,2.1091545931994915e-06,-0.0016988038551062346,-0.001694180304184556,-1.6903145549918008e-10,1.6903923594213666e-08,-6.54684639833647e-11,0.0,-0.008451866917312145,-1.5567187574561103e-06,0.0015083698090165854,0.0015200458001345396,,,,,,,,,,,,,,,,,,,,,,,,,,,,,,,,,,,,,,,,,,,,,,,,,,,,,,,,,,,,,,,,,,,,,,,,,,
28,6.786847114562988,0.6064969301223755,1.5596120357513428,0.3904982572793961,0.0,-1.569235557315758,-3.2745080602580856e-07,0.5002819895744324,0.5002812147140503,0.6065371632575989,1.5596801042556763,0.390495984852314,0.0,-1.5691158115844042,2.681205160115496e-07,0.5003001689910889,0.5003023743629456,,,,,,,,,,,,,,,,,,,,,,,,,,,,,,,,,,,,,,,,,,,,,,,,,,,,,,,,,,,,,,,,,,,,,,,,,,,,,,,,,,,,,,,,,,,,,,,,,,,,,,,,,,,,,,,,,,,,,,,,,,,,,,,,,,,,,,1.5173418077552014e-09,7.0564665222150325e-09,-9.776207621214894e-11,0.0,-0.007849630899727345,1.7444994000470615e-06,-0.0014186820480972528,-0.0014147909823805094,-1.6903145549918008e-10,1.6903923594213666e-08,-6.54684639833647e-11,0.0,-0.008451866917312145,-1.5567187574561103e-06,0.0015083698090165854,0.0015200458001345396,,,,,,,,,,,,,,,,,,,,,,,,,,,,,,,,,,,,,,,,,,,,,,,,,,,,,,,,,,,,,,,,,,,,,,,,,,
29,6.809038877487183,0.6064969301223755,1.5596120357513428,0.3904982572793961,0.0,-1.5694797575454027,-2.7344049158273265e-07,0.5002378821372986,0.5002371668815613,0.6065371632575989,1.5596801042556763,0.390495984852314,0.0,-1.5694068014601976,2.1524081716961518e-07,0.5002482533454895,0.5002500414848328,,,,,,,,,,,,,,,,,,,,,,,,,,,,,,,,,,,,,,,,,,,,,,,,,,,,,,,,,,,,,,,,,,,,,,,,,,,,,,,,,,,,,,,,,,,,,,,,,,,,,,,,,,,,,,,,,,,,,,,,,,,,,,,,,,,,,,1.2546630401288894e-09,5.837663685781536e-09,-8.085893066223093e-11,0.0,-0.006621476262807846,1.457928533454833e-06,-0.001196669414639473,-0.0011933642672374845,-1.3788969965844444e-10,1.3672840637468653e-08,-5.2811921502637915e-11,0.0,-0.006988219916820526,-1.2532576647572569e-06,0.001247383072040975,0.001256917486898601,,,,,,,,,,,,,,,,,,,,,,,,,,,,,,,,,,,,,,,,,,,,,,,,,,,,,,,,,,,,,,,,,,,,,,,,,,
30,6.830913305282593,0.6064969301223755,1.5596120357513428,0.3904982572793961,0.0,-1.5694797575454027,-2.7344049158273265e-07,0.5002378821372986,0.5002371668815613,0.6065371632575989,1.5596801042556763,0.390495984852314,0.0,-1.5696242392043382,1.7673372099125118e-07,0.5002094507217407,0.5002109408378601,,,,,,,,,,,,,,,,,,,,,,,,,,,,,,,,,,,,,,,,,,,,,,,,,,,,,,,,,,,,,,,,,,,,,,,,,,,,,,,,,,,,,,,,,,,,,,,,,,,,,,,,,,,,,,,,,,,,,,,,,,,,,,,,,,,,,,1.2546630401288894e-09,5.837663685781536e-09,-8.085893066223093e-11,0.0,-0.006621476262807846,1.457928533454833e-06,-0.001196669414639473,-0.0011933642672374845,-1.149080830487037e-10,1.1305179015153044e-08,-4.350686477749832e-11,0.0,-0.005894863978028297,-1.0319639613953768e-06,0.0010523899691179395,0.0010603424161672592,,,,,,,,,,,,,,,,,,,,,,,,,,,,,,,,,,,,,,,,,,,,,,,,,,,,,,,,,,,,,,,,,,,,,,,,,,
31,6.852793216705322,0.6064969301223755,1.5596120357513428,0.3904982572793961,0.0,-1.5697077453116686,-2.2350991457642522e-07,0.5001966953277588,0.500196099281311,0.6065371632575989,1.5596801042556763,0.390495984852314,0.0,-1.5696242392043382,1.7673372099125118e-07,0.5002094507217407,0.5002109408378601,,,,,,,,,,,,,,,,,,,,,,,,,,,,,,,,,,,,,,,,,,,,,,,,,,,,,,,,,,,,,,,,,,,,,,,,,,,,,,,,,,,,,,,,,,,,,,,,,,,,,,,,,,,,,,,,,,,,,,,,,,,,,,,,,,,,,,1.0136891326339992e-09,4.720890345311091e-09,-6.539907504432563e-11,0.0,-0.005474783480167389,1.1927517107324093e-06,-0.0009893900714814663,-0.0009866367327049375,-1.149080830487037e-10,1.1305179015153044e-08,-4.350686477749832e-11,0.0,-0.005894863978028297,-1.0319639613953768e-06,0.0010523899691179395,0.0010603424161672592,,,,,,,,,,,,,,,,,,,,,,,,,,,,,,,,,,,,,,,,,,,,,,,,,,,,,,,,,,,,,,,,,,,,,,,,,,
32,6.874035596847534,0.6064969301223755,1.5596120357513428,0.3904982572793961,0.0,-1.5698688566664964,-1.885812253021868e-07,0.5001675486564636,0.5001670718193054,0.6065371632575989,1.5596801042556763,0.390495984852314,0.0,-1.5698174178580553,1.4335144271626632e-07,0.5001749396324158,0.500176191329956,,,,,,,,,,,,,,,,,,,,,,,,,,,,,,,,,,,,,,,,,,,,,,,,,,,,,,,,,,,,,,,,,,,,,,,,,,,,,,,,,,,,,,,,,,,,,,,,,,,,,,,,,,,,,,,,,,,,,,,,,,,,,,,,,,,,,,8.467115897303756e-10,3.946287741030119e-09,-5.467154506888505e-11,0.0,-0.004664652515202761,1.007084051707352e-06,-0.0008429537992924452,-0.0008405937114730477,-9.475753515175711e-11,9.23960907783794e-09,-3.55201978941011e-11,0.0,-0.004923051223158836,-8.397980195695709e-07,0.0008790443534962833,0.0008856060449033976,,,,,,,,,,,,,,,,,,,,,,,,,,,,,,,,,,,,,,,,,,,,,,,,,,,,,,,,,,,,,,,,,,,,,,,,,,
33,6.8960747718811035,0.6064969301223755,1.5596120357513428,0.3904982572793961,0.0,-1.5698780953864366,-1.8658825240436272e-07,0.5001658797264099,0.5001654028892517,0.6065371632575989,1.5596801042556763,0.390495984852314,0.0,-1.5698174178580553,1.4335144271626632e-07,0.5001749396324158,0.500176191329956,,,,,,,,,,,,,,,,,,,,,,,,,,,,,,,,,,,,,,,,,,,,,,,,,,,,,,,,,,,,,,,,,,,,,,,,,,,,,,,,,,,,,,,,,,,,,,,,,,,,,,,,,,,,,,,,,,,,,,,,,,,,,,,,,,,,,,8.375522497772181e-10,3.9022118869525e-09,-5.403316682972559e-11,0.0,-0.004618198145180941,9.964858236344298e-07,-0.0008345570531673729,-0.0008322196081280708,-9.475753515175711e-11,9.23960907783794e-09,-3.55201978941011e-11,0.0,-0.004923051223158836,-8.397980195695709e-07,0.0008790443534962833,0.0008856060449033976,,,,,,,,,,,,,,,,,,,,,,,,,,,,,,,,,,,,,,,,,,,,,,,,,,,,,,,,,,,,,,,,,,,,,,,,,,
34,6.916884899139404,0.6064969301223755,1.5596120357513428,0.3904982572793961,0.0,-1.5700294315795214,-1.5409710840685875e-07,0.500138521194458,0.5001381039619446,0.6065371632575989,1.5596801042556763,0.390495984852314,0.0,-1.5699869334677965,1.1484041095854991e-07,0.5001446604728699,0.500145673751831,,,,,,,,,,,,,,,,,,,,,,,,,,,,,,,,,,,,,,,,,,,,,,,,,,,,,,,,,,,,,,,,,,,,,,,,,,,,,,,,,,,,,,,,,,,,,,,,,,,,,,,,,,,,,,,,,,,,,,,,,,,,,,,,,,,,,,6.836753385641714e-10,3.1881164375135995e-09,-4.4172998592273416e-11,0.0,-0.003856838447973132,8.236257258431579e-07,-0.0006969419191591442,-0.0006949768285267055,-7.716050021144838e-11,7.463807349950002e-09,-2.853967062677043e-11,0.0,-0.004070505499839783,-6.753295451744634e-07,0.0007269459892995656,0.0007323017925955355,,,,,,,,,,,,,,,,,,,,,,,,,,,,,,,,,,,,,,,,,,,,,,,,,,,,,,,,,,,,,,,,,,,,,,,,,,
35,6.939096450805664,0.6064969301223755,1.5596120357513428,0.3904982572793961,0.0,-1.5700294315795214,-1.5409710840685875e-07,0.500138521194458,0.5001381039619446,0.6065371632575989,1.5596801042556763,0.390495984852314,0.0,-1.5701271235923082,9.191918337592142e-08,0.5001196265220642,0.5001204609870911,,,,,,,,,,,,,,,,,,,,,,,,,,,,,,,,,,,,,,,,,,,,,,,,,,,,,,,,,,,,,,,,,,,,,,,,,,,,,,,,,,,,,,,,,,,,,,,,,,,,,,,,,,,,,,,,,,,,,,,,,,,,,,,,,,,,,,6.836753385641714e-10,3.1881164375135995e-09,-4.4172998592273416e-11,0.0,-0.003856838447973132,8.236257258431579e-07,-0.0006969419191591442,-0.0006949768285267055,-6.256106743762757e-11,6.026179555362887e-09,-2.2946922140221204e-11,0.0,-0.0033655986189842224,-5.427792757473071e-07,0.0006011644727550447,0.0006055354024283588,,,,,,,,,,,,,,,,,,,,,,,,,,,,,,,,,,,,,,,,,,,,,,,,,,,,,,,,,,,,,,,,,,,,,,,,,,
36,6.960336685180664,0.6064969301223755,1.5596120357513428,0.3904982572793961,0.0,-1.570162230728081,-1.2589742937052506e-07,0.5001145601272583,0.5001142024993896,0.6065371632575989,1.5596801042556763,0.390495984852314,0.0,-1.5701271235923082,9.191918337592142e-08,0.5001196265220642,0.5001204609870911,,,,,,,,,,,,,,,,,,,,,,,,,,,,,,,,,,,,,,,,,,,,,,,,,,,,,,,,,,,,,,,,,,,,,,,,,,,,,,,,,,,,,,,,,,,,,,,,,,,,,,,,,,,,,,,,,,,,,,,,,,,,,,,,,,,,,,5.517808432387028e-10,2.5742741271983505e-09,-3.572142581731441e-11,0.0,-0.003188919974491,6.734687758580549e-07,-0.000576221093069762,-0.0005745852249674499,-6.256106743762757e-11,6.026179555362887e-09,-2.2946922140221204e-11,0.0,-0.0033655986189842224,-5.427792757473071e-07,0.0006011644727550447,0.0006055354024283588,,,,,,,,,,,,,,,,,,,,,,,,,,,,,,,,,,,,,,,,,,,,,,,,,,,,,,,,,,,,,,,,,,,,,,,,,,
37,6.982121467590332,0.6064969301223755,1.5596120357513428,0.3904982572793961,0.0,-1.570162230728081,-1.2589742937052506e-07,0.5001145601272583,0.5001142024993896,0.6065371632575989,1.5596801042556763,0.390495984852314,0.0,-1.5702374517897875,7.43743484576953e-08,0.5000999569892883,0.5001006126403809,,,,,,,,,,,,,,,,,,,,,,,,,,,,,,,,,,,,,,,,,,,,,,,,,,,,,,,,,,,,,,,,,,,,,,,,,,,,,,,,,,,,,,,,,,,,,,,,,,,,,,,,,,,,,,,,,,,,,,,,,,,,,,,,,,,,,,5.517808432387028e-10,2.5742741271983505e-09,-3.572142581731441e-11,0.0,-0.003188919974491,6.734687758580549e-07,-0.000576221093069762,-0.0005745852249674499,-5.1514348342607263e-11,4.917621865274668e-09,-1.8693380177126073e-11,0.0,-0.002810754580423236,-4.410448184444249e-07,0.0005021424731239676,0.0005057473317719996,,,,,,,,,,,,,,,,,,,,,,,,,,,,,,,,,,,,,,,,,,,,,,,,,,,,,,,,,,,,,,,,,,,,,,,,,,
38,7.003533363342285,0.6064969301223755,1.5596120357513428,0.3904982572793961,0.0,-1.570272082088402,-1.0284092866186256e-07,0.5000947117805481,0.5000944137573242,0.6065371632575989,1.5596801042556763,0.390495984852314,0.0,-1.5702374517897875,7.43743484576953e-08,0.5000999569892883,0.5001006126403809,,,,,,,,,,,,,,,,,,,,,,,,,,,,,,,,,,,,,,,,,,,,,,,,,,,,,,,,,,,,,,,,,,,,,,,,,,,,,,,,,,,,,,,,,,,,,,,,,,,,,,,,,,,,,,,,,,,,,,,,,,,,,,,,,,,,,,4.45032899420994e-10,2.077005234468743e-09,-2.8796409701214998e-11,0.0,-0.0026366703677922487,5.505929721039138e-07,-0.00047641072887927294,-0.0004750491352751851,-5.1514348342607263e-11,4.917621865274668e-09,-1.8693380177126073e-11,0.0,-0.002810754580423236,-4.410448184444249e-07,0.0005021424731239676,0.0005057473317719996,,,,,,,,,,,,,,,,,,,,,,,,,,,,,,,,,,,,,,,,,,,,,,,,,,,,,,,,,,,,,,,,,,,,,,,,,,
39,7.026061058044434,0.6064969301223755,1.5596120357513428,0.3904982572793961,0.0,-1.5703628599623949,-8.399273809800434e-08,0.5000783205032349,0.5000780820846558,0.6065371632575989,1.5596801042556763,0.390495984852314,0.0,-1.570334190128258,5.9414229980347955e-08,0.5000826716423035,0.5000832080841064,,,,,,,,,,,,,,,,,,,,,,,,,,,,,,,,,,,,,,,,,,,,,,,,,,,,,,,,,,,,,,,,,,,,,,,,,,,,,,,,,,,,,,,,,,,,,,,,,,,,,,,,,,,,,,,,,,,,,,,,,,,,,,,,,,,,,,3.586575481051568e-10,1.6752155218568987e-09,-2.3189783426857957e-11,0.0,-0.0021800578106194735,4.5006075310993765e-07,-0.0003938889130949974,-0.0003927558136638254,-4.18554080283684e-11,3.966160733170909e-09,-1.5008827514151335e-11,0.0,-0.00232400419190526,-3.540381783295743e-07,0.0004152578767389059,0.0004181988479103893,,,,,,,,,,,,,,,,,,,,,,,,,,,,,,,,,,,,,,,,,,,,,,,,,,,,,,,,,,,,,,,,,,,,,,,,,,
40,7.0473809242248535,0.6064969301223755,1.5596120357513428,0.3904982572793961,0.0,-1.5703628599623949,-8.399273809800434e-08,0.5000783205032349,0.5000780820846558,0.6065371632575989,1.5596801042556763,0.390495984852314,0.0,-1.5704064905623705,4.855237278889035e-08,0.5000697374343872,0.5000701546669006,,,,,,,,,,,,,,,,,,,,,,,,,,,,,,,,,,,,,,,,,,,,,,,,,,,,,,,,,,,,,,,,,,,,,,,,,,,,,,,,,,,,,,,,,,,,,,,,,,,,,,,,,,,,,,,,,,,,,,,,,,,,,,,,,,,,,,3.586575481051568e-10,1.6752155218568987e-09,-2.3189783426857957e-11,0.0,-0.0021800578106194735,4.5006075310993765e-07,-0.0003938889130949974,-0.0003927558136638254,-3.452793606584237e-11,3.2701619190333986e-09,-1.2358170042858774e-11,0.0,-0.0019603976979851723,-2.9066421802781406e-07,0.00035034335451200604,0.00035279427538625896,,,,,,,,,,,,,,,,,,,,,,,,,,,,,,,,,,,,,,,,,,,,,,,,,,,,,,,,,,,,,,,,,,,,,,,,,,
41,7.069151401519775,0.6064969301223755,1.5596120357513428,0.3904982572793961,0.0,-1.570437902210167,-6.858731893544245e-08,0.5000647306442261,0.5000645518302917,0.6065371632575989,1.5596801042556763,0.390495984852314,0.0,-1.5704104244689256,4.797776043119484e-08,0.5000690221786499,0.5000694990158081,,,,,,,,,,,,,,,,,,,,,,,,,,,,,,,,,,,,,,,,,,,,,,,,,,,,,,,,,,,,,,,,,,,,,,,,,,,,,,,,,,,,,,,,,,,,,,,,,,,,,,,,,,,,,,,,,,,,,,,,,,,,,,,,,,,,,,2.887690087050032e-10,1.3499201756417278e-09,-1.8721135752741702e-11,0.0,-0.0018025204772129655,3.6782404322366347e-07,-0.0003256610652897507,-0.00032471821759827435,-3.4361402612148595e-11,3.233191492313381e-09,-1.2212453270876722e-11,0.0,-0.0019408749649301171,-2.8730585199809866e-07,0.00034685764694586396,0.0003492824616841972,,,,,,,,,,,,,,,,,,,,,,,,,,,,,,,,,,,,,,,,,,,,,,,,,,,,,,,,,,,,,,,,,,,,,,,,,,
42,7.09023118019104,0.6064969301223755,1.5596120357513428,0.3904982572793961,0.0,-1.570437902210167,-6.858731893544245e-08,0.5000647306442261,0.5000645518302917,0.6065371632575989,1.5596801042556763,0.390495984852314,0.0,-1.570474022624901,3.870031761721293e-08,0.5000576376914978,0.5000580549240112,,,,,,,,,,,,,,,,,,,,,,,,,,,,,,,,,,,,,,,,,,,,,,,,,,,,,,,,,,,,,,,,,,,,,,,,,,,,,,,,,,,,,,,,,,,,,,,,,,,,,,,,,,,,,,,,,,,,,,,,,,,,,,,,,,,,,,2.887690087050032e-10,1.3499201756417278e-09,-1.8721135752741702e-11,0.0,-0.0018025204772129655,3.6782404322366347e-07,-0.0003256610652897507,-0.00032471821759827435,-2.8144153674247718e-11,2.634226170528109e-09,-9.867107131356079e-12,0.0,-0.001620907336473465,-2.329833534986392e-07,0.00028972409199923277,0.0002917229721788317,,,,,,,,,,,,,,,,,,,,,,,,,,,,,,,,,,,,,,,,,,,,,,,,,,,,,,,,,,,,,,,,,,,,,,,,,,
43,7.111501693725586,0.6064969301223755,1.5596120357513428,0.3904982572793961,0.0,-1.5704999506453783,-5.599788366339453e-08,0.5000535249710083,0.500053346157074,0.6065371632575989,1.5596801042556763,0.390495984852314,0.0,-1.570474022624901,3.870031761721293e-08,0.5000576376914978,0.5000580549240112,,,,,,,,,,,,,,,,,,,,,,,,,,,,,,,,,,,,,,,,,,,,,,,,,,,,,,,,,,,,,,,,,,,,,,,,,,,,,,,,,,,,,,,,,,,,,,,,,,,,,,,,,,,,,,,,,,,,,,,,,,,,,,,,,,,,,,2.3242519020527652e-10,1.0872414080154158e-09,-1.4988010832439613e-11,0.0,-0.0014903642004355788,3.0056489208618586e-07,-0.00026925132260657847,-0.00026846685796044767,-2.8144153674247718e-11,2.634226170528109e-09,-9.867107131356079e-12,0.0,-0.001620907336473465,-2.329833534986392e-07,0.00028972409199923277,0.0002917229721788317,,,,,,,,,,,,,,,,,,,,,,,,,,,,,,,,,,,,,,,,,,,,,,,,,,,,,,,,,,,,,,,,,,,,,,,,,,
44,7.1335289478302,0.6064969301223755,1.5596120357513428,0.3904982572793961,0.0,-1.5704999506453783,-5.599788366339453e-08,0.5000535249710083,0.500053346157074,0.6065371632575989,1.5596801042556763,0.390495984852314,0.0,-1.5705298125724108,3.080679888967097e-08,0.5000476837158203,0.5000479817390442,,,,,,,,,,,,,,,,,,,,,,,,,,,,,,,,,,,,,,,,,,,,,,,,,,,,,,,,,,,,,,,,,,,,,,,,,,,,,,,,,,,,,,,,,,,,,,,,,,,,,,,,,,,,,,,,,,,,,,,,,,,,,,,,,,,,,,2.3242519020527652e-10,1.0872414080154158e-09,-1.4988010832439613e-11,0.0,-0.0014903642004355788,3.0056489208618586e-07,-0.00026925132260657847,-0.00026846685796044767,-2.2870594307278225e-11,2.120525977034049e-09,-7.903400156550333e-12,0.0,-0.0013402079930528998,-1.8658622025213845e-07,0.00023959364625625312,0.00024122354807332158,,,,,,,,,,,,,,,,,,,,,,,,,,,,,,,,,,,,,,,,,,,,,,,,,,,,,,,,,,,,,,,,,,,,,,,,,,
45,7.1549072265625,0.6064969301223755,1.5596120357513428,0.3904982572793961,0.0,-1.57055127024453,-4.57113671359366e-08,0.5000442266464233,0.5000441074371338,0.6065371632575989,1.5596801042556763,0.390495984852314,0.0,-1.5705298125724108,3.080679888967097e-08,0.5000476837158203,0.5000479817390442,,,,,,,,,,,,,,,,,,,,,,,,,,,,,,,,,,,,,,,,,,,,,,,,,,,,,,,,,,,,,,,,,,,,,,,,,,,,,,,,,,,,,,,,,,,,,,,,,,,,,,,,,,,,,,,,,,,,,,,,,,,,,,,,,,,,,,1.8685053504441385e-10,8.750777880095484e-10,-1.2170819907453279e-11,0.0,-0.0012322664260864258,2.4556442212997354e-07,-0.00022261259437073022,-0.00022195997007656842,-2.2870594307278225e-11,2.120525977034049e-09,-7.903400156550333e-12,0.0,-0.0013402079930528998,-1.8658622025213845e-07,0.00023959364625625312,0.00024122354807332158,,,,,,,,,,,,,,,,,,,,,,,,,,,,,,,,,,,,,,,,,,,,,,,,,,,,,,,,,,,,,,,,,,,,,,,,,,
46,7.176147699356079,0.6064969301223755,1.5596120357513428,0.3904982572793961,0.0,-1.5705916821936876,-3.7709067868263446e-08,0.5000369548797607,0.5000368356704712,0.6065371632575989,1.5596801042556763,0.390495984852314,0.0,-1.5705737411956102,2.478679839157394e-08,0.50003981590271,0.5000400543212891,,,,,,,,,,,,,,,,,,,,,,,,,,,,,,,,,,,,,,,,,,,,,,,,,,,,,,,,,,,,,,,,,,,,,,,,,,,,,,,,,,,,,,,,,,,,,,,,,,,,,,,,,,,,,,,,,,,,,,,,,,,,,,,,,,,,,,1.5193402091995267e-10,7.116529587847253e-10,-9.825473767932635e-12,0.0,-0.0010291141225025058,2.0274389100904955e-07,-0.00018590426770970225,-0.00018535608251113445,-1.8596235662471372e-11,1.7250645356625682e-09,-6.411537967210279e-12,0.0,-0.0011192647507414222,-1.510538112370341e-07,0.00020012829918414354,0.0002014714409597218,,,,,,,,,,,,,,,,,,,,,,,,,,,,,,,,,,,,,,,,,,,,,,,,,,,,,,,,,,,,,,,,,,,,,,,,,,
47,7.1978349685668945,0.6064969301223755,1.5596120357513428,0.3904982572793961,0.0,-1.57059370875161,-3.73078776760849e-08,0.5000365972518921,0.5000364780426025,0.6065371632575989,1.5596801042556763,0.390495984852314,0.0,-1.570608550308159,2.015982047964826e-08,0.5000336170196533,0.5000337958335876,,,,,,,,,,,,,,,,,,,,,,,,,,,,,,,,,,,,,,,,,,,,,,,,,,,,,,,,,,,,,,,,,,,,,,,,,,,,,,,,,,,,,,,,,,,,,,,,,,,,,,,,,,,,,,,,,,,,,,,,,,,,,,,,,,,,,,1.5037970868547745e-10,7.036593530074242e-10,-9.728329253277934e-12,0.0,-0.0010188653832301497,2.0059583505371847e-07,-0.00018405243463348597,-0.0001835095463320613,-1.5432100042289676e-11,1.4189760477734126e-09,-5.204170427930421e-12,0.0,-0.0009441480506211519,-1.2362761481199414e-07,0.00016884345677681267,0.00016996207705233246,,,,,,,,,,,,,,,,,,,,,,,,,,,,,,,,,,,,,,,,,,,,,,,,,,,,,,,,,,,,,,,,,,,,,,,,,,
48,7.218800067901611,0.6064969301223755,1.5596120357513428,0.3904982572793961,0.0,-1.570627146957329,-3.077150267927209e-08,0.5000305771827698,0.5000304579734802,0.6065371632575989,1.5596801042556763,0.390495984852314,0.0,-1.570608550308159,2.015982047964826e-08,0.5000336170196533,0.5000337958335876,,,,,,,,,,,,,,,,,,,,,,,,,,,,,,,,,,,,,,,,,,,,,,,,,,,,,,,,,,,,,,,,,,,,,,,,,,,,,,,,,,,,,,,,,,,,,,,,,,,,,,,,,,,,,,,,,,,,,,,,,,,,,,,,,,,,,,1.220135104063047e-10,5.719869022868806e-10,-7.91033905045424e-12,0.0,-0.0008508946048095822,1.655908192788047e-07,-0.00015370258188340813,-0.00015324659761972725,-1.5432100042289676e-11,1.4189760477734126e-09,-5.204170427930421e-12,0.0,-0.0009441480506211519,-1.2362761481199414e-07,0.00016884345677681267,0.00016996207705233246,,,,,,,,,,,,,,,,,,,,,,,,,,,,,,,,,,,,,,,,,,,,,,,,,,,,,,,,,,,,,,,,,,,,,,,,,,
49,7.240410804748535,0.6064969301223755,1.5596120357513428,0.3904982572793961,0.0,-1.570627146957329,-3.077150267927209e-08,0.5000305771827698,0.5000304579734802,0.6065371632575989,1.5596801042556763,0.390495984852314,0.0,-1.5706410944442064,1.5977382972209853e-08,0.5000277757644653,0.5000279545783997,,,,,,,,,,,,,,,,,,,,,,,,,,,,,,,,,,,,,,,,,,,,,,,,,,,,,,,,,,,,,,,,,,,,,,,,,,,,,,,,,,,,,,,,,,,,,,,,,,,,,,,,,,,,,,,,,,,,,,,,,,,,,,,,,,,,,,1.220135104063047e-10,5.719869022868806e-10,-7.91033905045424e-12,0.0,-0.0008508946048095822,1.655908192788047e-07,-0.00015370258188340813,-0.00015324659761972725,-1.2434497875801753e-11,1.1397549570801857e-09,-4.191091917959966e-12,0.0,-0.0007806459907442331,-9.872113082565193e-08,0.00013962871162220836,0.00014054034545551986,,,,,,,,,,,,,,,,,,,,,,,,,,,,,,,,,,,,,,,,,,,,,,,,,,,,,,,,,,,,,,,,,,,,,,,,,,
50,7.261871099472046,0.6064969301223755,1.5596120357513428,0.3904982572793961,0.0,-1.5706550419310839,-2.537616872189119e-08,0.5000255107879639,0.5000254511833191,0.6065371632575989,1.5596801042556763,0.390495984852314,0.0,-1.5706410944442064,1.5977382972209853e-08,0.5000277757644653,0.5000279545783997,,,,,,,,,,,,,,,,,,,,,,,,,,,,,,,,,,,,,,,,,,,,,,,,,,,,,,,,,,,,,,,,,,,,,,,,,,,,,,,,,,,,,,,,,,,,,,,,,,,,,,,,,,,,,,,,,,,,,,,,,,,,,,,,,,,,,,9.914291609902648e-11,4.64406291200703e-10,-6.467049118441537e-12,0.0,-0.0007106155389919877,1.3667427367636265e-07,-0.00012835733650717884,-0.0001279743737541139,-1.2434497875801753e-11,1.1397549570801857e-09,-4.191091917959966e-12,0.0,-0.0007806459907442331,-9.872113082565193e-08,0.00013962871162220836,0.00014054034545551986,,,,,,,,,,,,,,,,,,,,,,,,,,,,,,,,,,,,,,,,,,,,,,,,,,,,,,,,,,,,,,,,,,,,,,,,,,
51,7.283610582351685,0.6064969301223755,1.5596120357513428,0.3904982572793961,0.0,-1.5706550419310839,-2.537616872189119e-08,0.5000255107879639,0.5000254511833191,0.6065371632575989,1.5596801042556763,0.390495984852314,0.0,-1.570667976139,1.2639540969416885e-08,0.5000230073928833,0.5000231266021729,,,,,,,,,,,,,,,,,,,,,,,,,,,,,,,,,,,,,,,,,,,,,,,,,,,,,,,,,,,,,,,,,,,,,,,,,,,,,,,,,,,,,,,,,,,,,,,,,,,,,,,,,,,,,,,,,,,,,,,,,,,,,,,,,,,,,,9.914291609902648e-11,4.64406291200703e-10,-6.467049118441537e-12,0.0,-0.0007106155389919877,1.3667427367636265e-07,-0.00012835733650717884,-0.0001279743737541139,-1.0325074129013956e-11,9.144907053837414e-10,-3.3514857555871913e-12,0.0,-0.0006454582326114178,-7.873886431752908e-08,0.00011546894529601559,0.00011621171870501712,,,,,,,,,,,,,,,,,,,,,,,,,,,,,,,,,,,,,,,,,,,,,,,,,,,,,,,,,,,,,,,,,,,,,,,,,,
52,7.305234909057617,0.6064969301223755,1.5596120357513428,0.3904982572793961,0.0,-1.5706794798354418,-2.0700161584841226e-08,0.5000211000442505,0.5000210404396057,0.6065371632575989,1.5596801042556763,0.390495984852314,0.0,-1.5706891357878954,1.010446304405832e-08,0.5000191926956177,0.5000193119049072,,,,,,,,,,,,,,,,,,,,,,,,,,,,,,,,,,,,,,,,,,,,,,,,,,,,,,,,,,,,,,,,,,,,,,,,,,,,,,,,,,,,,,,,,,,,,,,,,,,,,,,,,,,,,,,,,,,,,,,,,,,,,,,,,,,,,,7.932543510946743e-11,3.7247982476174e-10,-5.1833537462187e-12,0.0,-0.000587552844081074,1.1159283275219423e-07,-0.00010612369806040078,-0.00010580518573988229,-8.215650382226158e-12,7.417400027520671e-10,-2.6922908347160046e-12,0.0,-0.0005390496808104217,-6.347842429477168e-08,9.644910460337996e-05,9.706075070425868e-05,,,,,,,,,,,,,,,,,,,,,,,,,,,,,,,,,,,,,,,,,,,,,,,,,,,,,,,,,,,,,,,,,,,,,,,,,,
53,7.328019857406616,0.6064969301223755,1.5596120357513428,0.3904982572793961,0.0,-1.5706996858100206,-1.6882596653999826e-08,0.5000174641609192,0.5000174045562744,0.6065371632575989,1.5596801042556763,0.390495984852314,0.0,-1.5706891357878954,1.010446304405832e-08,0.5000191926956177,0.5000193119049072,,,,,,,,,,,,,,,,,,,,,,,,,,,,,,,,,,,,,,,,,,,,,,,,,,,,,,,,,,,,,,,,,,,,,,,,,,,,,,,,,,,,,,,,,,,,,,,,,,,,,,,,,,,,,,,,,,,,,,,,,,,,,,,,,,,,,,6.339373470609644e-11,2.9887203822909214e-10,-4.15639744844043e-12,0.0,-0.0004858018073718995,9.10984070401355e-08,-8.774128946242854e-05,-8.747639367356896e-05,-8.215650382226158e-12,7.417400027520671e-10,-2.6922908347160046e-12,0.0,-0.0005390496808104217,-6.347842429477168e-08,9.644910460337996e-05,9.706075070425868e-05,,,,,,,,,,,,,,,,,,,,,,,,,,,,,,,,,,,,,,,,,,,,,,,,,,,,,,,,,,,,,,,,,,,,,,,,,,
54,7.349451780319214,0.6064969301223755,1.5596120357513428,0.3904982572793961,0.0,-1.5706996858100206,-1.6882596653999826e-08,0.5000174641609192,0.5000174045562744,0.6065371632575989,1.5596801042556763,0.390495984852314,0.0,-1.570706778762749,8.061996403796456e-09,0.5000160336494446,0.5000161528587341,,,,,,,,,,,,,,,,,,,,,,,,,,,,,,,,,,,,,,,,,,,,,,,,,,,,,,,,,,,,,,,,,,,,,,,,,,,,,,,,,,,,,,,,,,,,,,,,,,,,,,,,,,,,,,,,,,,,,,,,,,,,,,,,,,,,,,6.339373470609644e-11,2.9887203822909214e-10,-4.15639744844043e-12,0.0,-0.0004858018073718995,9.10984070401355e-08,-8.774128946242854e-05,-8.747639367356896e-05,-6.716849298982197e-12,6.011857678345223e-10,-2.192690473634684e-12,0.0,-0.00045018334640190005,-5.111197154406e-08,8.05621748440899e-05,8.106573659460992e-05,,,,,,,,,,,,,,,,,,,,,,,,,,,,,,,,,,,,,,,,,,,,,,,,,,,,,,,,,,,,,,,,,,,,,,,,,,
55,7.37101411819458,0.6064969301223755,1.5596120357513428,0.3904982572793961,0.0,-1.5707164347152025,-1.3766406681270382e-08,0.5000144243240356,0.5000143647193909,0.6065371632575989,1.5596801042556763,0.390495984852314,0.0,-1.570706778762749,8.061996403796456e-09,0.5000160336494446,0.5000161528587341,,,,,,,,,,,,,,,,,,,,,,,,,,,,,,,,,,,,,,,,,,,,,,,,,,,,,,,,,,,,,,,,,,,,,,,,,,,,,,,,,,,,,,,,,,,,,,,,,,,,,,,,,,,,,,,,,,,,,,,,,,,,,,,,,,,,,,5.084821452783217e-11,2.3936408410918375e-10,-3.372302437298913e-12,0.0,-0.0004016718012280762,7.435521354182129e-08,-7.254302181536332e-05,-7.232272764667869e-05,-6.716849298982197e-12,6.011857678345223e-10,-2.192690473634684e-12,0.0,-0.00045018334640190005,-5.111197154406e-08,8.05621748440899e-05,8.106573659460992e-05,,,,,,,,,,,,,,,,,,,,,,,,,,,,,,,,,,,,,,,,,,,,,,,,,,,,,,,,,,,,,,,,,,,,,,,,,,
56,7.393190383911133,0.6064969301223755,1.5596120357513428,0.3904982572793961,0.0,-1.5707164347152025,-1.3766406681270382e-08,0.5000144243240356,0.5000143647193909,0.6065371632575989,1.5596801042556763,0.390495984852314,0.0,-1.5707222759703905,6.337336433404062e-09,0.5000132322311401,0.5000133514404297,,,,,,,,,,,,,,,,,,,,,,,,,,,,,,,,,,,,,,,,,,,,,,,,,,,,,,,,,,,,,,,,,,,,,,,,,,,,,,,,,,,,,,,,,,,,,,,,,,,,,,,,,,,,,,,,,,,,,,,,,,,,,,,,,,,,,,5.084821452783217e-11,2.3936408410918375e-10,-3.372302437298913e-12,0.0,-0.0004016718012280762,7.435521354182129e-08,-7.254302181536332e-05,-7.232272764667869e-05,-5.329070518200751e-12,4.813927034774679e-10,-1.7208456881689926e-12,0.0,-0.00037222320679575205,-4.060279934492428e-08,6.662258965661749e-05,6.70326262479648e-05,,,,,,,,,,,,,,,,,,,,,,,,,,,,,,,,,,,,,,,,,,,,,,,,,,,,,,,,,,,,,,,,,,,,,,,,,,
57,7.414810657501221,0.6064969301223755,1.5596120357513428,0.3904982572793961,0.0,-1.5707296073416979,-1.1344533312751537e-08,0.5000120401382446,0.5000119805335999,0.6065371632575989,1.5596801042556763,0.390495984852314,0.0,-1.5707344949225694,5.032798622295331e-09,0.5000110864639282,0.500011146068573,,,,,,,,,,,,,,,,,,,,,,,,,,,,,,,,,,,,,,,,,,,,,,,,,,,,,,,,,,,,,,,,,,,,,,,,,,,,,,,,,,,,,,,,,,,,,,,,,,,,,,,,,,,,,,,,,,,,,,,,,,,,,,,,,,,,,,4.107825191113079e-11,1.9351187319216478e-10,-2.6367796834847468e-12,0.0,-0.0003354519431013614,6.133153362952726e-08,-6.058080543880351e-05,-6.0395828768378124e-05,-4.496403249731884e-12,3.892441924335799e-10,-1.4085954624931674e-12,0.0,-0.0003108594682998955,-3.259888359252727e-08,5.564862658502534e-05,5.598606003331952e-05,,,,,,,,,,,,,,,,,,,,,,,,,,,,,,,,,,,,,,,,,,,,,,,,,,,,,,,,,,,,,,,,,,,,,,,,,,
58,7.436215162277222,0.6064969301223755,1.5596120357513428,0.3904982572793961,0.0,-1.5707405745963365,-9.347024487738054e-09,0.500010073184967,0.5000100135803223,0.6065371632575989,1.5596801042556763,0.390495984852314,0.0,-1.5707350909690172,4.968394140547616e-09,0.5000109672546387,0.5000110268592834,,,,,,,,,,,,,,,,,,,,,,,,,,,,,,,,,,,,,,,,,,,,,,,,,,,,,,,,,,,,,,,,,,,,,,,,,,,,,,,,,,,,,,,,,,,,,,,,,,,,,,,,,,,,,,,,,,,,,,,,,,,,,,,,,,,,,,3.319566843629218e-11,1.5643042416968456e-10,-2.1788126858268697e-12,0.0,-0.0002801491064019501,5.0581043353759014e-08,-5.05911375512369e-05,-5.043582132202573e-05,-4.385380947269368e-12,3.845812557301542e-10,-1.3600232051658168e-12,0.0,-0.0003077637520618737,-3.220214495058826e-08,5.509495531441644e-05,5.542875442188233e-05,,,,,,,,,,,,,,,,,,,,,,,,,,,,,,,,,,,,,,,,,,,,,,,,,,,,,,,,,,,,,,,,,,,,,,,,,,
59,7.457969903945923,0.6064969301223755,1.5596120357513428,0.3904982572793961,0.0,-1.5707411706427843,-9.246940990692565e-09,0.5000099539756775,0.5000099539756775,0.6065371632575989,1.5596801042556763,0.390495984852314,0.0,-1.5707457005957872,3.883645849356299e-09,0.5000090599060059,0.5000091195106506,,,,,,,,,,,,,,,,,,,,,,,,,,,,,,,,,,,,,,,,,,,,,,,,,,,,,,,,,,,,,,,,,,,,,,,,,,,,,,,,,,,,,,,,,,,,,,,,,,,,,,,,,,,,,,,,,,,,,,,,,,,,,,,,,,,,,,3.2862601528904634e-11,1.546540673302843e-10,-2.130240428499519e-12,0.0,-0.0002773591550067067,5.004191905300104e-08,-5.008718653698452e-05,-4.9933369155041873e-05,-3.3861802251067274e-12,3.069766663088558e-10,-1.1102230246251565e-12,0.0,-0.0002544670132920146,-2.549428401721343e-08,4.5561930164694786e-05,4.5833603508071974e-05,,,,,,,,,,,,,,,,,,,,,,,,,,,,,,,,,,,,,,,,,,,,,,,,,,,,,,,,,,,,,,,,,,,,,,,,,,
60,7.480243682861328,0.6064969301223755,1.5596120357513428,0.3904982572793961,0.0,-1.5707507073859484,-7.535619239718017e-09,0.500008225440979,0.500008225440979,0.6065371632575989,1.5596801042556763,0.390495984852314,0.0,-1.5707457005957872,3.883645849356299e-09,0.5000090599060059,0.5000091195106506,,,,,,,,,,,,,,,,,,,,,,,,,,,,,,,,,,,,,,,,,,,,,,,,,,,,,,,,,,,,,,,,,,,,,,,,,,,,,,,,,,,,,,,,,,,,,,,,,,,,,,,,,,,,,,,,,,,,,,,,,,,,,,,,,,,,,,2.6201263381153694e-11,1.233457780358549e-10,-1.7069679003611782e-12,0.0,-0.00022932676074560732,4.08232203596981e-08,-4.141123645240441e-05,-4.1283336031483486e-05,-3.3861802251067274e-12,3.069766663088558e-10,-1.1102230246251565e-12,0.0,-0.0002544670132920146,-2.549428401721343e-08,4.5561930164694786e-05,4.5833603508071974e-05,,,,,,,,,,,,,,,,,,,,,,,,,,,,,,,,,,,,,,,,,,,,,,,,,,,,,,,,,,,,,,,,,,,,,,,,,,
61,7.502239227294922,0.6064969301223755,1.5596120357513428,0.3904982572793961,0.0,-1.5707507073859484,-7.535619239718017e-09,0.500008225440979,0.500008225440979,0.6065371632575989,1.5596801042556763,0.390495984852314,0.0,-1.5707540452460558,3.065971920790389e-09,0.5000075697898865,0.5000076293945312,,,,,,,,,,,,,,,,,,,,,,,,,,,,,,,,,,,,,,,,,,,,,,,,,,,,,,,,,,,,,,,,,,,,,,,,,,,,,,,,,,,,,,,,,,,,,,,,,,,,,,,,,,,,,,,,,,,,,,,,,,,,,,,,,,,,,,2.6201263381153694e-11,1.233457780358549e-10,-1.7069679003611782e-12,0.0,-0.00022932676074560732,4.08232203596981e-08,-4.141123645240441e-05,-4.1283336031483486e-05,-2.9976021664879227e-12,2.4780177909633494e-10,-8.881784197001252e-13,0.0,-0.00021251625730656087,-2.0397111555325864e-08,3.8057038182159886e-05,3.82805046683643e-05,,,,,,,,,,,,,,,,,,,,,,,,,,,,,,,,,,,,,,,,,,,,,,,,,,,,,,,,,,,,,,,,,,,,,,,,,,
62,7.5236334800720215,0.6064969301223755,1.5596120357513428,0.3904982572793961,0.0,-1.57075821757119,-6.206286151666518e-09,0.5000068545341492,0.5000068545341492,0.6065371632575989,1.5596801042556763,0.390495984852314,0.0,-1.5707540452460558,3.065971920790389e-09,0.5000075697898865,0.5000076293945312,,,,,,,,,,,,,,,,,,,,,,,,,,,,,,,,,,,,,,,,,,,,,,,,,,,,,,,,,,,,,,,,,,,,,,,,,,,,,,,,,,,,,,,,,,,,,,,,,,,,,,,,,,,,,,,,,,,,,,,,,,,,,,,,,,,,,,2.1094237467877974e-11,9.9253938401489e-11,-1.3253287356462806e-12,0.0,-0.00019151980814058334,3.36556347235728e-08,-3.458259379840456e-05,-3.4475207939976826e-05,-2.9976021664879227e-12,2.4780177909633494e-10,-8.881784197001252e-13,0.0,-0.00021251625730656087,-2.0397111555325864e-08,3.8057038182159886e-05,3.82805046683643e-05,,,,,,,,,,,,,,,,,,,,,,,,,,,,,,,,,,,,,,,,,,,,,,,,,,,,,,,,,,,,,,,,,,,,,,,,,,
63,7.544681787490845,0.6064969301223755,1.5596120357513428,0.3904982572793961,0.0,-1.57075821757119,-6.206286151666518e-09,0.5000068545341492,0.5000068545341492,0.6065371632575989,1.5596801042556763,0.390495984852314,0.0,-1.5707613766173631,2.3802351201140937e-09,0.5000062584877014,0.5000063180923462,,,,,,,,,,,,,,,,,,,,,,,,,,,,,,,,,,,,,,,,,,,,,,,,,,,,,,,,,,,,,,,,,,,,,,,,,,,,,,,,,,,,,,,,,,,,,,,,,,,,,,,,,,,,,,,,,,,,,,,,,,,,,,,,,,,,,,2.1094237467877974e-11,9.9253938401489e-11,-1.3253287356462806e-12,0.0,-0.00019151980814058334,3.36556347235728e-08,-3.458259379840456e-05,-3.4475207939976826e-05,-2.1649348980190553e-12,1.9728663147589032e-10,-6.938893903907228e-13,0.0,-0.00017571392527315766,-1.6084682030736985e-08,3.147206371068023e-05,3.16538498736918e-05,,,,,,,,,,,,,,,,,,,,,,,,,,,,,,,,,,,,,,,,,,,,,,,,,,,,,,,,,,,,,,,,,,,,,,,,,,
64,7.5662682056427,0.6064969301223755,1.5596120357513428,0.3904982572793961,0.0,-1.5707644760588915,-5.110446288369985e-09,0.5000057220458984,0.5000057220458984,0.6065371632575989,1.5596801042556763,0.390495984852314,0.0,-1.5707670986632616,1.865411602963718e-09,0.5000052452087402,0.5000052452087402,,,,,,,,,,,,,,,,,,,,,,,,,,,,,,,,,,,,,,,,,,,,,,,,,,,,,,,,,,,,,,,,,,,,,,,,,,,,,,,,,,,,,,,,,,,,,,,,,,,,,,,,,,,,,,,,,,,,,,,,,,,,,,,,,,,,,,1.709743457922741e-11,8.004708007547379e-11,-1.1102230246251565e-12,0.0,-0.00015994573186617345,2.7741766217559416e-08,-2.8879981982754543e-05,-2.8789825591957197e-05,-1.942890293094024e-12,1.5865087021893487e-10,-5.273559366969494e-13,0.0,-0.00014674618432763964,-1.2816046002228632e-08,2.6288029403076507e-05,2.6437488486408256e-05,,,,,,,,,,,,,,,,,,,,,,,,,,,,,,,,,,,,,,,,,,,,,,,,,,,,,,,,,,,,,,,,,,,,,,,,,,
65,7.588160753250122,0.6064969301223755,1.5596120357513428,0.3904982572793961,0.0,-1.5707694828490526,-4.252969532103634e-09,0.5000048279762268,0.5000048279762268,0.6065371632575989,1.5596801042556763,0.390495984852314,0.0,-1.5707673966864855,1.8401024037828506e-09,0.5000051856040955,0.5000051856040955,,,,,,,,,,,,,,,,,,,,,,,,,,,,,,,,,,,,,,,,,,,,,,,,,,,,,,,,,,,,,,,,,,,,,,,,,,,,,,,,,,,,,,,,,,,,,,,,,,,,,,,,,,,,,,,,,,,,,,,,,,,,,,,,,,,,,,1.3600232051658168e-11,6.52811138479592e-11,-8.673617379884035e-13,0.0,-0.000134920614073053,2.3110391822456222e-08,-2.4360380848520435e-05,-2.4283950551762246e-05,-1.942890293094024e-12,1.5709655798445965e-10,-5.204170427930421e-13,0.0,-0.0001452848082408309,-1.2654582270954506e-08,2.6026478735730052e-05,2.6174318918492645e-05,,,,,,,,,,,,,,,,,,,,,,,,,,,,,,,,,,,,,,,,,,,,,,,,,,,,,,,,,,,,,,,,,,,,,,,,,,
66,7.609669923782349,0.6064969301223755,1.5596120357513428,0.3904982572793961,0.0,-1.5707694828490526,-4.252969532103634e-09,0.5000048279762268,0.5000048279762268,0.6065371632575989,1.5596801042556763,0.390495984852314,0.0,-1.5707724034766466,1.4156971150924846e-09,0.5000042915344238,0.5000042915344238,,,,,,,,,,,,,,,,,,,,,,,,,,,,,,,,,,,,,,,,,,,,,,,,,,,,,,,,,,,,,,,,,,,,,,,,,,,,,,,,,,,,,,,,,,,,,,,,,,,,,,,,,,,,,,,,,,,,,,,,,,,,,,,,,,,,,,1.3600232051658168e-11,6.52811138479592e-11,-8.673617379884035e-13,0.0,-0.000134920614073053,2.3110391822456222e-08,-2.4360380848520435e-05,-2.4283950551762246e-05,-1.5543122344752192e-12,1.2456702336294256e-10,-4.0939474033052647e-13,0.0,-0.00012012523075100034,-9.93025039974782e-09,2.152313754777424e-05,2.1643338186549954e-05,,,,,,,,,,,,,,,,,,,,,,,,,,,,,,,,,,,,,,,,,,,,,,,,,,,,,,,,,,,,,,,,,,,,,,,,,,
67,7.631857395172119,0.6064969301223755,1.5596120357513428,0.3904982572793961,0.0,-1.570773893592766,-3.5006260112879772e-09,0.5000040531158447,0.5000040531158447,0.6065371632575989,1.5596801042556763,0.390495984852314,0.0,-1.5707724034766466,1.4156971150924846e-09,0.5000042915344238,0.5000042915344238,,,,,,,,,,,,,,,,,,,,,,,,,,,,,,,,,,,,,,,,,,,,,,,,,,,,,,,,,,,,,,,,,,,,,,,,,,,,,,,,,,,,,,,,,,,,,,,,,,,,,,,,,,,,,,,,,,,,,,,,,,,,,,,,,,,,,,1.1046719095020308e-11,5.2513549064769904e-11,-7.355227538141662e-13,0.0,-0.0001126775168813765,1.9042893484311207e-08,-2.03433937713271e-05,-2.0279230739106424e-05,-1.5543122344752192e-12,1.2456702336294256e-10,-4.0939474033052647e-13,0.0,-0.00012012523075100034,-9.93025039974782e-09,2.152313754777424e-05,2.1643338186549954e-05,,,,,,,,,,,,,,,,,,,,,,,,,,,,,,,,,,,,,,,,,,,,,,,,,,,,,,,,,,,,,,,,,,,,,,,,,,
68,7.653079271316528,0.6064969301223755,1.5596120357513428,0.3904982572793961,0.0,-1.5707774102668077,-2.9121296485357107e-09,0.5000033974647522,0.5000033974647522,0.6065371632575989,1.5596801042556763,0.390495984852314,0.0,-1.5707761585692674,1.11441111894095e-09,0.5000036358833313,0.5000036358833313,,,,,,,,,,,,,,,,,,,,,,,,,,,,,,,,,,,,,,,,,,,,,,,,,,,,,,,,,,,,,,,,,,,,,,,,,,,,,,,,,,,,,,,,,,,,,,,,,,,,,,,,,,,,,,,,,,,,,,,,,,,,,,,,,,,,,,9.103828801926284e-12,4.274358644806853e-11,-6.38378239159465e-13,0.0,-9.504798799753189e-05,1.5858093505016768e-08,-1.715973485261202e-05,-1.710534343146719e-05,-1.1657341758564144e-12,1.0136336214827679e-10,-3.608224830031759e-13,0.0,-0.00010133080650120974,-7.974987781267373e-09,1.815854193409905e-05,1.825840081437491e-05,,,,,,,,,,,,,,,,,,,,,,,,,,,,,,,,,,,,,,,,,,,,,,,,,,,,,,,,,,,,,,,,,,,,,,,,,,
69,7.674380779266357,0.6064969301223755,1.5596120357513428,0.3904982572793961,0.0,-1.570777589080742,-2.8807525254137545e-09,0.5000033974647522,0.5000033378601074,0.6065371632575989,1.5596801042556763,0.390495984852314,0.0,-1.5707761585692674,1.11441111894095e-09,0.5000036358833313,0.5000036358833313,,,,,,,,,,,,,,,,,,,,,,,,,,,,,,,,,,,,,,,,,,,,,,,,,,,,,,,,,,,,,,,,,,,,,,,,,,,,,,,,,,,,,,,,,,,,,,,,,,,,,,,,,,,,,,,,,,,,,,,,,,,,,,,,,,,,,,8.93729534823251e-12,4.18554080283684e-11,-6.38378239159465e-13,0.0,-9.410142956767231e-05,1.568851892841394e-08,-1.698880259937141e-05,-1.6934936866164207e-05,-1.1657341758564144e-12,1.0136336214827679e-10,-3.608224830031759e-13,0.0,-0.00010133080650120974,-7.974987781267373e-09,1.815854193409905e-05,1.825840081437491e-05,,,,,,,,,,,,,,,,,,,,,,,,,,,,,,,,,,,,,,,,,,,,,,,,,,,,,,,,,,,,,,,,,,,,,,,,,,
70,7.696580171585083,0.6064969301223755,1.5596120357513428,0.3904982572793961,0.0,-1.57078080773156,-2.3445538843702707e-09,0.5000028014183044,0.5000028014183044,0.6065371632575989,1.5596801042556763,0.390495984852314,0.0,-1.5707796752433092,8.477099577852698e-10,0.5000029802322388,0.5000029802322388,,,,,,,,,,,,,,,,,,,,,,,,,,,,,,,,,,,,,,,,,,,,,,,,,,,,,,,,,,,,,,,,,,,,,,,,,,,,,,,,,,,,,,,,,,,,,,,,,,,,,,,,,,,,,,,,,,,,,,,,,,,,,,,,,,,,,,6.994405055138486e-12,3.319566843629218e-11,-5.204170427930421e-13,0.0,-7.780516898492351e-05,1.2783487157719264e-08,-1.4046052456251346e-05,-1.4001271665620152e-05,-8.326672684688674e-13,8.01581023779363e-11,-2.220446049250313e-13,0.0,-8.378292841371149e-05,-6.222447890280591e-09,1.5016582437965553e-05,1.5097728464752436e-05,,,,,,,,,,,,,,,,,,,,,,,,,,,,,,,,,,,,,,,,,,,,,,,,,,,,,,,,,,,,,,,,,,,,,,,,,,
71,7.719273090362549,0.6064969301223755,1.5596120357513428,0.3904982572793961,0.0,-1.57078080773156,-2.3445538843702707e-09,0.5000028014183044,0.5000028014183044,0.6065371632575989,1.5596801042556763,0.390495984852314,0.0,-1.5707825362662584,6.399756280472957e-10,0.5000024437904358,0.5000025033950806,,,,,,,,,,,,,,,,,,,,,,,,,,,,,,,,,,,,,,,,,,,,,,,,,,,,,,,,,,,,,,,,,,,,,,,,,,,,,,,,,,,,,,,,,,,,,,,,,,,,,,,,,,,,,,,,,,,,,,,,,,,,,,,,,,,,,,6.994405055138486e-12,3.319566843629218e-11,-5.204170427930421e-13,0.0,-7.780516898492351e-05,1.2783487157719264e-08,-1.4046052456251346e-05,-1.4001271665620152e-05,-6.661338147750939e-13,6.317169010117141e-11,-2.3592239273284576e-13,0.0,-6.927389040356502e-05,-4.837956701919666e-09,1.2418273399816826e-05,1.2484192666306626e-05,,,,,,,,,,,,,,,,,,,,,,,,,,,,,,,,,,,,,,,,,,,,,,,,,,,,,,,,,,,,,,,,,,,,,,,,,,
72,7.741247653961182,0.6064969301223755,1.5596120357513428,0.3904982572793961,0.0,-1.5707833707312853,-1.928504689274746e-09,0.5000023245811462,0.5000023245811462,0.6065371632575989,1.5596801042556763,0.390495984852314,0.0,-1.5707825362662584,6.399756280472957e-10,0.5000024437904358,0.5000025033950806,,,,,,,,,,,,,,,,,,,,,,,,,,,,,,,,,,,,,,,,,,,,,,,,,,,,,,,,,,,,,,,,,,,,,,,,,,,,,,,,,,,,,,,,,,,,,,,,,,,,,,,,,,,,,,,,,,,,,,,,,,,,,,,,,,,,,,5.551115123125783e-12,2.653433028854124e-11,-3.191891195797325e-13,0.0,-6.497815775219351e-05,1.0527843485874655e-08,-1.1729881407518405e-05,-1.1692290172504727e-05,-6.661338147750939e-13,6.317169010117141e-11,-2.3592239273284576e-13,0.0,-6.927389040356502e-05,-4.837956701919666e-09,1.2418273399816826e-05,1.2484192666306626e-05,,,,,,,,,,,,,,,,,,,,,,,,,,,,,,,,,,,,,,,,,,,,,,,,,,,,,,,,,,,,,,,,,,,,,,,,,,
73,7.763376951217651,0.6064969301223755,1.5596120357513428,0.3904982572793961,0.0,-1.5707853972892076,-1.603249644155369e-09,0.5000019669532776,0.5000019669532776,0.6065371632575989,1.5596801042556763,0.390495984852314,0.0,-1.5707848012427599,4.862723557153004e-10,0.5000020861625671,0.5000020861625671,,,,,,,,,,,,,,,,,,,,,,,,,,,,,,,,,,,,,,,,,,,,,,,,,,,,,,,,,,,,,,,,,,,,,,,,,,,,,,,,,,,,,,,,,,,,,,,,,,,,,,,,,,,,,,,,,,,,,,,,,,,,,,,,,,,,,,4.6074255521944e-12,2.142730437526552e-11,-2.5673907444456745e-13,0.0,-5.481167318066582e-05,8.762140346618708e-09,-9.894200957205612e-06,-9.862338629318401e-06,-4.440892098500626e-13,5.029310301551959e-11,-1.3877787807814457e-13,0.0,-5.785358007415198e-05,-3.797916647840793e-09,1.0372750693932176e-05,1.0426874723634683e-05,,,,,,,,,,,,,,,,,,,,,,,,,,,,,,,,,,,,,,,,,,,,,,,,,,,,,,,,,,,,,,,,,,,,,,,,,,
74,7.785701513290405,0.6064969301223755,1.5596120357513428,0.3904982572793961,0.0,-1.5707855164984972,-1.5859136226481496e-09,0.5000019669532776,0.5000019669532776,0.6065371632575989,1.5596801042556763,0.390495984852314,0.0,-1.5707848012427599,4.862723557153004e-10,0.5000020861625671,0.5000020861625671,,,,,,,,,,,,,,,,,,,,,,,,,,,,,,,,,,,,,,,,,,,,,,,,,,,,,,,,,,,,,,,,,,,,,,,,,,,,,,,,,,,,,,,,,,,,,,,,,,,,,,,,,,,,,,,,,,,,,,,,,,,,,,,,,,,,,,4.496403249731884e-12,2.142730437526552e-11,-3.3306690738754696e-13,0.0,-5.426581628853455e-05,8.668032513980961e-09,-9.795642654353287e-06,-9.764087735675275e-06,-4.440892098500626e-13,5.029310301551959e-11,-1.3877787807814457e-13,0.0,-5.785358007415198e-05,-3.797916647840793e-09,1.0372750693932176e-05,1.0426874723634683e-05,,,,,,,,,,,,,,,,,,,,,,,,,,,,,,,,,,,,,,,,,,,,,,,,,,,,,,,,,,,,,,,,,,,,,,,,,,
75,7.807417631149292,0.6064969301223755,1.5596120357513428,0.3904982572793961,0.0,-1.5707873046378404,-1.3038665702680419e-09,0.5000016093254089,0.5000016093254089,0.6065371632575989,1.5596801042556763,0.390495984852314,0.0,-1.5707867681960375,3.6000713521389116e-10,0.5000017285346985,0.5000017285346985,,,,,,,,,,,,,,,,,,,,,,,,,,,,,,,,,,,,,,,,,,,,,,,,,,,,,,,,,,,,,,,,,,,,,,,,,,,,,,,,,,,,,,,,,,,,,,,,,,,,,,,,,,,,,,,,,,,,,,,,,,,,,,,,,,,,,,3.6637359812630166e-12,1.6542323066914832e-11,-1.8735013540549517e-13,0.0,-4.531951708486304e-05,7.135589452644808e-09,-8.18035641714232e-06,-8.15387011243729e-06,-6.661338147750939e-13,3.9745984281580604e-11,-1.1796119636642288e-13,0.0,-4.783483382198028e-05,-2.9283613312003354e-09,8.57795930642169e-06,8.621900633443147e-06,,,,,,,,,,,,,,,,,,,,,,,,,,,,,,,,,,,,,,,,,,,,,,,,,,,,,,,,,,,,,,,,,,,,,,,,,,
76,7.829336404800415,0.6064969301223755,1.5596120357513428,0.3904982572793961,0.0,-1.5707873046378404,-1.3038665702680419e-09,0.5000016093254089,0.5000016093254089,0.6065371632575989,1.5596801042556763,0.390495984852314,0.0,-1.5707883775214464,2.6739011005361135e-10,0.5000014305114746,0.5000014305114746,,,,,,,,,,,,,,,,,,,,,,,,,,,,,,,,,,,,,,,,,,,,,,,,,,,,,,,,,,,,,,,,,,,,,,,,,,,,,,,,,,,,,,,,,,,,,,,,,,,,,,,,,,,,,,,,,,,,,,,,,,,,,,,,,,,,,,3.6637359812630166e-12,1.6542323066914832e-11,-1.8735013540549517e-13,0.0,-4.531951708486304e-05,7.135589452644808e-09,-8.18035641714232e-06,-8.15387011243729e-06,-4.440892098500626e-13,3.1530333899354446e-11,-1.1102230246251565e-13,0.0,-3.994890721514821e-05,-2.2780883845996414e-09,7.165008355514146e-06,7.2010639087238815e-06,,,,,,,,,,,,,,,,,,,,,,,,,,,,,,,,,,,,,,,,,,,,,,,,,,,,,,,,,,,,,,,,,,,,,,,,,,
77,7.851069211959839,0.6064969301223755,1.5596120357513428,0.3904982572793961,0.0,-1.5707887947539598,-1.0717141618599157e-09,0.5000013709068298,0.5000013709068298,0.6065371632575989,1.5596801042556763,0.390495984852314,0.0,-1.5707883775214464,2.6739011005361135e-10,0.5000014305114746,0.5000014305114746,,,,,,,,,,,,,,,,,,,,,,,,,,,,,,,,,,,,,,,,,,,,,,,,,,,,,,,,,,,,,,,,,,,,,,,,,,,,,,,,,,,,,,,,,,,,,,,,,,,,,,,,,,,,,,,,,,,,,,,,,,,,,,,,,,,,,,2.7200464103316335e-12,1.3433698597964394e-11,-1.5959455978986625e-13,0.0,-3.7848112697247416e-05,5.872413666452303e-09,-6.8314288910187315e-06,-6.809196747781243e-06,-4.440892098500626e-13,3.1530333899354446e-11,-1.1102230246251565e-13,0.0,-3.994890721514821e-05,-2.2780883845996414e-09,7.165008355514146e-06,7.2010639087238815e-06,,,,,,,,,,,,,,,,,,,,,,,,,,,,,,,,,,,,,,,,,,,,,,,,,,,,,,,,,,,,,,,,,,,,,,,,,,
78,7.872589111328125,0.6064969301223755,1.5596120357513428,0.3904982572793961,0.0,-1.5707900464515,-8.806688711615607e-10,0.5000011324882507,0.5000011324882507,0.6065371632575989,1.5596801042556763,0.390495984852314,0.0,-1.5707896888236315,1.955318129631678e-10,0.5000011920928955,0.5000011920928955,,,,,,,,,,,,,,,,,,,,,,,,,,,,,,,,,,,,,,,,,,,,,,,,,,,,,,,,,,,,,,,,,,,,,,,,,,,,,,,,,,,,,,,,,,,,,,,,,,,,,,,,,,,,,,,,,,,,,,,,,,,,,,,,,,,,,,2.1094237467877974e-12,1.0547118733938987e-11,-1.5959455978986625e-13,0.0,-3.160844789817929e-05,4.832193756243441e-09,-5.7049378483498e-06,-5.6862763813114725e-06,-2.7755575615628914e-13,2.4980018054066022e-11,-6.245004513516506e-14,0.0,-3.336303780088201e-05,-1.7625230164242112e-09,5.984795734548243e-06,6.0143734117446e-06,,,,,,,,,,,,,,,,,,,,,,,,,,,,,,,,,,,,,,,,,,,,,,,,,,,,,,,,,,,,,,,,,,,,,,,,,,
79,7.894740104675293,0.6064969301223755,1.5596120357513428,0.3904982572793961,0.0,-1.5707901060561449,-8.711081855850011e-10,0.5000011324882507,0.5000011324882507,0.6065371632575989,1.5596801042556763,0.390495984852314,0.0,-1.5707896888236315,1.955318129631678e-10,0.5000011920928955,0.5000011920928955,,,,,,,,,,,,,,,,,,,,,,,,,,,,,,,,,,,,,,,,,,,,,,,,,,,,,,,,,,,,,,,,,,,,,,,,,,,,,,,,,,,,,,,,,,,,,,,,,,,,,,,,,,,,,,,,,,,,,,,,,,,,,,,,,,,,,,2.3314683517128287e-12,1.0325074129013956e-11,-1.1796119636642288e-13,0.0,-3.1293668143916875e-05,4.7803316860495215e-09,-5.648108981404221e-06,-5.6296289585588966e-06,-2.7755575615628914e-13,2.4980018054066022e-11,-6.245004513516506e-14,0.0,-3.336303780088201e-05,-1.7625230164242112e-09,5.984795734548243e-06,6.0143734117446e-06,,,,,,,,,,,,,,,,,,,,,,,,,,,,,,,,,,,,,,,,,,,,,,,,,,,,,,,,,,,,,,,,,,,,,,,,,,
80,7.915743112564087,0.6064969301223755,1.5596120357513428,0.3904982572793961,0.0,-1.570791119335106,-7.156228387650287e-10,0.5000009536743164,0.5000009536743164,0.6065371632575989,1.5596801042556763,0.390495984852314,0.0,-1.5707908213118822,1.374327041059331e-10,0.5000010132789612,0.5000010132789612,,,,,,,,,,,,,,,,,,,,,,,,,,,,,,,,,,,,,,,,,,,,,,,,,,,,,,,,,,,,,,,,,,,,,,,,,,,,,,,,,,,,,,,,,,,,,,,,,,,,,,,,,,,,,,,,,,,,,,,,,,,,,,,,,,,,,,1.8318679906315083e-12,8.215650382226158e-12,-5.551115123125783e-14,0.0,-2.6134574000025168e-05,3.932361991587641e-09,-4.7167450247798115e-06,-4.701234047388425e-06,-2.220446049250313e-13,1.942890293094024e-11,-4.85722573273506e-14,0.0,-2.7585419957176782e-05,-1.3351260097493878e-09,4.9492496145830955e-06,4.973238446837058e-06,,,,,,,,,,,,,,,,,,,,,,,,,,,,,,,,,,,,,,,,,,,,,,,,,,,,,,,,,,,,,,,,,,,,,,,,,,
81,7.9364094734191895,0.6064969301223755,1.5596120357513428,0.3904982572793961,0.0,-1.570791119335106,-7.156228387650287e-10,0.5000009536743164,0.5000009536743164,0.6065371632575989,1.5596801042556763,0.390495984852314,0.0,-1.5707917153815538,9.560296304611526e-11,0.5000008344650269,0.5000008344650269,,,,,,,,,,,,,,,,,,,,,,,,,,,,,,,,,,,,,,,,,,,,,,,,,,,,,,,,,,,,,,,,,,,,,,,,,,,,,,,,,,,,,,,,,,,,,,,,,,,,,,,,,,,,,,,,,,,,,,,,,,,,,,,,,,,,,,1.8318679906315083e-12,8.215650382226158e-12,-5.551115123125783e-14,0.0,-2.6134574000025168e-05,3.932361991587641e-09,-4.7167450247798115e-06,-4.701234047388425e-06,-2.220446049250313e-13,1.532107773982716e-11,-4.85722573273506e-14,0.0,-2.303776091139298e-05,-1.0187255483629087e-09,4.134014488954563e-06,4.153678673901595e-06,,,,,,,,,,,,,,,,,,,,,,,,,,,,,,,,,,,,,,,,,,,,,,,,,,,,,,,,,,,,,,,,,,,,,,,,,,
82,7.957272052764893,0.6064969301223755,1.5596120357513428,0.3904982572793961,0.0,-1.5707920134047777,-5.813308168178821e-10,0.5000007748603821,0.5000007748603821,0.6065371632575989,1.5596801042556763,0.390495984852314,0.0,-1.5707917749861986,9.35964292181346e-11,0.5000008344650269,0.5000008344650269,,,,,,,,,,,,,,,,,,,,,,,,,,,,,,,,,,,,,,,,,,,,,,,,,,,,,,,,,,,,,,,,,,,,,,,,,,,,,,,,,,,,,,,,,,,,,,,,,,,,,,,,,,,,,,,,,,,,,,,,,,,,,,,,,,,,,,1.27675647831893e-12,6.328271240363392e-12,-2.7755575615628914e-14,0.0,-2.1608650058624335e-05,3.199082332372427e-09,-3.8997241063043475e-06,-3.886831564159365e-06,-2.220446049250313e-13,1.5210055437364645e-11,-5.551115123125783e-14,0.0,-2.280833723489195e-05,-1.0032674691018428e-09,4.092883500561584e-06,4.112331225769594e-06,,,,,,,,,,,,,,,,,,,,,,,,,,,,,,,,,,,,,,,,,,,,,,,,,,,,,,,,,,,,,,,,,,,,,,,,,,
83,7.977968454360962,0.6064969301223755,1.5596120357513428,0.3904982572793961,0.0,-1.5707920134047777,-5.813308168178821e-10,0.5000007748603821,0.5000007748603821,0.6065371632575989,1.5596801042556763,0.390495984852314,0.0,-1.5707925498465807,6.082512965521758e-11,0.5000006556510925,0.5000006556510925,,,,,,,,,,,,,,,,,,,,,,,,,,,,,,,,,,,,,,,,,,,,,,,,,,,,,,,,,,,,,,,,,,,,,,,,,,,,,,,,,,,,,,,,,,,,,,,,,,,,,,,,,,,,,,,,,,,,,,,,,,,,,,,,,,,,,,1.27675647831893e-12,6.328271240363392e-12,-2.7755575615628914e-14,0.0,-2.1608650058624335e-05,3.199082332372427e-09,-3.8997241063043475e-06,-3.886831564159365e-06,-1.6653345369377348e-13,1.1657341758564144e-11,0.0,0.0,-1.8858521798392758e-05,-7.462638285105072e-10,3.3846931728476193e-06,3.400455170776695e-06,,,,,,,,,,,,,,,,,,,,,,,,,,,,,,,,,,,,,,,,,,,,,,,,,,,,,,,,,,,,,,,,,,,,,,,,,,
84,7.999467611312866,0.6064969301223755,1.5596120357513428,0.3904982572793961,0.0,-1.570792728660515,-4.720895896426214e-10,0.5000006556510925,0.5000006556510925,0.6065371632575989,1.5596801042556763,0.390495984852314,0.0,-1.5707925498465807,6.082512965521758e-11,0.5000006556510925,0.5000006556510925,,,,,,,,,,,,,,,,,,,,,,,,,,,,,,,,,,,,,,,,,,,,,,,,,,,,,,,,,,,,,,,,,,,,,,,,,,,,,,,,,,,,,,,,,,,,,,,,,,,,,,,,,,,,,,,,,,,,,,,,,,,,,,,,,,,,,,9.992007221626409e-13,4.884981308350689e-12,-2.7755575615628914e-14,0.0,-1.7866515918285586e-05,2.6019526533360704e-09,-3.224225565645611e-06,-3.2135094443219714e-06,-1.6653345369377348e-13,1.1657341758564144e-11,0.0,0.0,-1.8858521798392758e-05,-7.462638285105072e-10,3.3846931728476193e-06,3.400455170776695e-06,,,,,,,,,,,,,,,,,,,,,,,,,,,,,,,,,,,,,,,,,,,,,,,,,,,,,,,,,,,,,,,,,,,,,,,,,,
85,8.022450685501099,0.6064969301223755,1.5596120357513428,0.3904982572793961,0.0,-1.5707933247069628,-3.8748207420447045e-10,0.500000536441803,0.500000536441803,0.6065371632575989,1.5596801042556763,0.390495984852314,0.0,-1.5707932054976732,3.6599244468416003e-11,0.500000536441803,0.500000536441803,,,,,,,,,,,,,,,,,,,,,,,,,,,,,,,,,,,,,,,,,,,,,,,,,,,,,,,,,,,,,,,,,,,,,,,,,,,,,,,,,,,,,,,,,,,,,,,,,,,,,,,,,,,,,,,,,,,,,,,,,,,,,,,,,,,,,,7.771561172376096e-13,3.885780586188048e-12,-5.551115123125783e-14,0.0,-1.4921030015102588e-05,2.1389381377190375e-09,-2.692555881367298e-06,-2.683562115635141e-06,-1.1102230246251565e-13,9.103828801926284e-12,-4.163336342344337e-14,0.0,-1.5592713680234738e-05,-5.478241194012412e-10,2.7990411126666004e-06,2.8118095087847905e-06,,,,,,,,,,,,,,,,,,,,,,,,,,,,,,,,,,,,,,,,,,,,,,,,,,,,,,,,,,,,,,,,,,,,,,,,,,
86,8.044422626495361,0.6064969301223755,1.5596120357513428,0.3904982572793961,0.0,-1.5707933843116075,-3.832501538347799e-10,0.500000536441803,0.500000536441803,0.6065371632575989,1.5596801042556763,0.390495984852314,0.0,-1.5707932054976732,3.6599244468416003e-11,0.500000536441803,0.500000536441803,,,,,,,,,,,,,,,,,,,,,,,,,,,,,,,,,,,,,,,,,,,,,,,,,,,,,,,,,,,,,,,,,,,,,,,,,,,,,,,,,,,,,,,,,,,,,,,,,,,,,,,,,,,,,,,,,,,,,,,,,,,,,,,,,,,,,,6.661338147750939e-13,4.107825191113079e-12,-6.938893903907228e-15,0.0,-1.4772434951737523e-05,2.1159638485812593e-09,-2.6657346552383387e-06,-2.6568279736238765e-06,-1.1102230246251565e-13,9.103828801926284e-12,-4.163336342344337e-14,0.0,-1.5592713680234738e-05,-5.478241194012412e-10,2.7990411126666004e-06,2.8118095087847905e-06,,,,,,,,,,,,,,,,,,,,,,,,,,,,,,,,,,,,,,,,,,,,,,,,,,,,,,,,,,,,,,,,,,,,,,,,,,
87,8.065601110458374,0.6064969301223755,1.5596120357513428,0.3904982572793961,0.0,-1.5707938611487657,-3.1102281861095094e-10,0.5000004172325134,0.5000004172325134,0.6065371632575989,1.5596801042556763,0.390495984852314,0.0,-1.5707937419394762,1.8941617371814878e-11,0.5000004768371582,0.5000004768371582,,,,,,,,,,,,,,,,,,,,,,,,,,,,,,,,,,,,,,,,,,,,,,,,,,,,,,,,,,,,,,,,,,,,,,,,,,,,,,,,,,,,,,,,,,,,,,,,,,,,,,,,,,,,,,,,,,,,,,,,,,,,,,,,,,,,,,6.661338147750939e-13,2.6645352591003757e-12,-3.469446951953614e-14,0.0,-1.2214179150760174e-05,1.719828945923041e-09,-2.203984195148223e-06,-2.1965813630231423e-06,0.0,6.8833827526759706e-12,1.3877787807814457e-14,0.0,-1.2892456652480178e-05,-3.9604503010437497e-10,2.3147235879150685e-06,2.3250638605532004e-06,,,,,,,,,,,,,,,,,,,,,,,,,,,,,,,,,,,,,,,,,,,,,,,,,,,,,,,,,,,,,,,,,,,,,,,,,,
88,8.08747386932373,0.6064969301223755,1.5596120357513428,0.3904982572793961,0.0,-1.5707938611487657,-3.1102281861095094e-10,0.5000004172325134,0.5000004172325134,0.6065371632575989,1.5596801042556763,0.390495984852314,0.0,-1.5707941591719896,6.864732306904875e-12,0.5000003576278687,0.5000003576278687,,,,,,,,,,,,,,,,,,,,,,,,,,,,,,,,,,,,,,,,,,,,,,,,,,,,,,,,,,,,,,,,,,,,,,,,,,,,,,,,,,,,,,,,,,,,,,,,,,,,,,,,,,,,,,,,,,,,,,,,,,,,,,,,,,,,,,6.661338147750939e-13,2.6645352591003757e-12,-3.469446951953614e-14,0.0,-1.2214179150760174e-05,1.719828945923041e-09,-2.203984195148223e-06,-2.1965813630231423e-06,-1.1102230246251565e-13,5.440092820663267e-12,-3.469446951953614e-14,0.0,-1.0767041203507688e-05,-2.857172554104892e-10,1.933444991664146e-06,1.941907157743117e-06,,,,,,,,,,,,,,,,,,,,,,,,,,,,,,,,,,,,,,,,,,,,,,,,,,,,,,,,,,,,,,,,,,,,,,,,,,
89,8.10898756980896,0.6064969301223755,1.5596120357513428,0.3904982572793961,0.0,-1.5707942783812792,-2.579400582014557e-10,0.5000003576278687,0.5000003576278687,0.6065371632575989,1.5596801042556763,0.390495984852314,0.0,-1.5707941591719896,6.303560971809841e-12,0.5000003576278687,0.5000003576278687,,,,,,,,,,,,,,,,,,,,,,,,,,,,,,,,,,,,,,,,,,,,,,,,,,,,,,,,,,,,,,,,,,,,,,,,,,,,,,,,,,,,,,,,,,,,,,,,,,,,,,,,,,,,,,,,,,,,,,,,,,,,,,,,,,,,,,5.551115123125783e-13,2.1094237467877974e-12,-6.245004513516506e-14,0.0,-1.0303148883394897e-05,1.428703044759061e-09,-1.85906981187145e-06,-1.8527960037317825e-06,1.1102230246251565e-13,5.10702591327572e-12,2.7755575615628914e-14,0.0,-1.065981723513687e-05,-2.8058566581279365e-10,1.9142080418532714e-06,1.922576757351635e-06,,,,,,,,,,,,,,,,,,,,,,,,,,,,,,,,,,,,,,,,,,,,,,,,,,,,,,,,,,,,,,,,,,,,,,,,,,
90,8.130859613418579,0.6064969301223755,1.5596120357513428,0.3904982572793961,0.0,-1.5707942783812792,-2.579400582014557e-10,0.5000003576278687,0.5000003576278687,0.6065371632575989,1.5596801042556763,0.390495984852314,0.0,-1.5707945167998583,-2.1377068951805578e-12,0.5000002980232239,0.5000002980232239,,,,,,,,,,,,,,,,,,,,,,,,,,,,,,,,,,,,,,,,,,,,,,,,,,,,,,,,,,,,,,,,,,,,,,,,,,,,,,,,,,,,,,,,,,,,,,,,,,,,,,,,,,,,,,,,,,,,,,,,,,,,,,,,,,,,,,5.551115123125783e-13,2.1094237467877974e-12,-6.245004513516506e-14,0.0,-1.0303148883394897e-05,1.428703044759061e-09,-1.85906981187145e-06,-1.8527960037317825e-06,0.0,3.9968028886505635e-12,-2.0816681711721685e-14,0.0,-8.902467925508972e-06,-1.9699029907283006e-10,1.598901462784852e-06,1.6057476841524476e-06,,,,,,,,,,,,,,,,,,,,,,,,,,,,,,,,,,,,,,,,,,,,,,,,,,,,,,,,,,,,,,,,,,,,,,,,,,
91,8.152946949005127,0.6064969301223755,1.5596120357513428,0.3904982572793961,0.0,-1.5707946360091478,-2.0918621002063986e-10,0.5000002980232239,0.5000002980232239,0.6065371632575989,1.5596801042556763,0.390495984852314,0.0,-1.5707945167998583,-2.1377068951805578e-12,0.5000002980232239,0.5000002980232239,,,,,,,,,,,,,,,,,,,,,,,,,,,,,,,,,,,,,,,,,,,,,,,,,,,,,,,,,,,,,,,,,,,,,,,,,,,,,,,,,,,,,,,,,,,,,,,,,,,,,,,,,,,,,,,,,,,,,,,,,,,,,,,,,,,,,,4.440892098500626e-13,1.6653345369377348e-12,-6.938893903907228e-15,0.0,-8.518873983121011e-06,1.1607216299225342e-09,-1.5370463870567619e-06,-1.531833390799875e-06,0.0,3.9968028886505635e-12,-2.0816681711721685e-14,0.0,-8.902467925508972e-06,-1.9699029907283006e-10,1.598901462784852e-06,1.6057476841524476e-06,,,,,,,,,,,,,,,,,,,,,,,,,,,,,,,,,,,,,,,,,,,,,,,,,,,,,,,,,,,,,,,,,,,,,,,,,,
92,8.17432165145874,0.6064969301223755,1.5596120357513428,0.3904982572793961,0.0,-1.570794874427727,-1.7146738195972233e-10,0.5000002384185791,0.5000002384185791,0.6065371632575989,1.5596801042556763,0.390495984852314,0.0,-1.5707948148230821,-8.226248675302639e-12,0.5000002384185791,0.5000002384185791,,,,,,,,,,,,,,,,,,,,,,,,,,,,,,,,,,,,,,,,,,,,,,,,,,,,,,,,,,,,,,,,,,,,,,,,,,,,,,,,,,,,,,,,,,,,,,,,,,,,,,,,,,,,,,,,,,,,,,,,,,,,,,,,,,,,,,3.3306690738754696e-13,1.3322676295501878e-12,-5.551115123125783e-14,0.0,-7.114447271305835e-06,9.531343492241717e-10,-1.2835904499297612e-06,-1.2792150982932071e-06,0.0,2.886579864025407e-12,-2.0816681711721685e-14,0.0,-7.360790732491296e-06,-1.304304164673198e-10,1.3222440884419484e-06,1.327781092186342e-06,,,,,,,,,,,,,,,,,,,,,,,,,,,,,,,,,,,,,,,,,,,,,,,,,,,,,,,,,,,,,,,,,,,,,,,,,,
93,8.195470094680786,0.6064969301223755,1.5596120357513428,0.3904982572793961,0.0,-1.570794874427727,-1.7146738195972233e-10,0.5000002384185791,0.5000002384185791,0.6065371632575989,1.5596801042556763,0.390495984852314,0.0,-1.5707948148230821,-8.226248675302639e-12,0.5000002384185791,0.5000002384185791,,,,,,,,,,,,,,,,,,,,,,,,,,,,,,,,,,,,,,,,,,,,,,,,,,,,,,,,,,,,,,,,,,,,,,,,,,,,,,,,,,,,,,,,,,,,,,,,,,,,,,,,,,,,,,,,,,,,,,,,,,,,,,,,,,,,,,3.3306690738754696e-13,1.3322676295501878e-12,-5.551115123125783e-14,0.0,-7.114447271305835e-06,9.531343492241717e-10,-1.2835904499297612e-06,-1.2792150982932071e-06,0.0,2.886579864025407e-12,-2.0816681711721685e-14,0.0,-7.360790732491296e-06,-1.304304164673198e-10,1.3222440884419484e-06,1.327781092186342e-06,,,,,,,,,,,,,,,,,,,,,,,,,,,,,,,,,,,,,,,,,,,,,,,,,,,,,,,,,,,,,,,,,,,,,,,,,,
94,8.218451976776123,0.6064969301223755,1.5596120357513428,0.3904982572793961,0.0,-1.570795112846306,-1.4050081931227254e-10,0.5000002384185791,0.5000002384185791,0.6065371632575989,1.5596801042556763,0.390495984852314,0.0,-1.570795112846306,-1.2140568064755719e-11,0.5000002384185791,0.5000002384185791,,,,,,,,,,,,,,,,,,,,,,,,,,,,,,,,,,,,,,,,,,,,,,,,,,,,,,,,,,,,,,,,,,,,,,,,,,,,,,,,,,,,,,,,,,,,,,,,,,,,,,,,,,,,,,,,,,,,,,,,,,,,,,,,,,,,,,1.1102230246251565e-13,9.992007221626409e-13,1.3877787807814457e-14,0.0,-5.9415551731945015e-06,7.82403253296593e-10,-1.071928068085981e-06,-1.0682568927222746e-06,0.0,2.220446049250313e-12,-4.163336342344337e-14,0.0,-6.0860911617055535e-06,-8.081604135901088e-11,1.0934564897979726e-06,1.0979312037306954e-06,,,,,,,,,,,,,,,,,,,,,,,,,,,,,,,,,,,,,,,,,,,,,,,,,,,,,,,,,,,,,,,,,,,,,,,,,,
95,8.240395069122314,0.6064969301223755,1.5596120357513428,0.3904982572793961,0.0,-1.5707952916602403,-1.1636900471012623e-10,0.5000001788139343,0.5000001788139343,0.6065371632575989,1.5596801042556763,0.390495984852314,0.0,-1.5707952916602403,-1.4451965665851496e-11,0.5000001788139343,0.5000001788139343,,,,,,,,,,,,,,,,,,,,,,,,,,,,,,,,,,,,,,,,,,,,,,,,,,,,,,,,,,,,,,,,,,,,,,,,,,,,,,,,,,,,,,,,,,,,,,,,,,,,,,,,,,,,,,,,,,,,,,,,,,,,,,,,,,,,,,5.551115123125783e-14,7.771561172376096e-13,2.0816681711721685e-14,0.0,-5.011939720134251e-06,6.490851189866476e-10,-9.041758630701224e-07,-9.010646522256138e-07,0.0,1.5543122344752192e-12,-2.0816681711721685e-14,0.0,-5.032137778471224e-06,-4.465150818533381e-11,9.042556143867841e-07,9.078711400434258e-07,,,,,,,,,,,,,,,,,,,,,,,,,,,,,,,,,,,,,,,,,,,,,,,,,,,,,,,,,,,,,,,,,,,,,,,,,,
96,8.261763095855713,0.6064969301223755,1.5596120357513428,0.3904982572793961,0.0,-1.5707952916602403,-1.1508470565413376e-10,0.5000001788139343,0.5000001788139343,0.6065371632575989,1.5596801042556763,0.390495984852314,0.0,-1.5707952916602403,-1.4451965665851496e-11,0.5000001788139343,0.5000001788139343,,,,,,,,,,,,,,,,,,,,,,,,,,,,,,,,,,,,,,,,,,,,,,,,,,,,,,,,,,,,,,,,,,,,,,,,,,,,,,,,,,,,,,,,,,,,,,,,,,,,,,,,,,,,,,,,,,,,,,,,,,,,,,,,,,,,,,5.551115123125783e-14,6.661338147750939e-13,-6.245004513516506e-14,0.0,-4.962025741406251e-06,6.421481124618822e-10,-8.951689665082085e-07,-8.920877121454396e-07,0.0,1.5543122344752192e-12,-2.0816681711721685e-14,0.0,-5.032137778471224e-06,-4.465150818533381e-11,9.042556143867841e-07,9.078711400434258e-07,,,,,,,,,,,,,,,,,,,,,,,,,,,,,,,,,,,,,,,,,,,,,,,,,,,,,,,,,,,,,,,,,,,,,,,,,,
97,8.283222913742065,0.6064969301223755,1.5596120357513428,0.3904982572793961,0.0,-1.5707954704741747,-9.528356575971841e-11,0.5000001788139343,0.5000001788139343,0.6065371632575989,1.5596801042556763,0.390495984852314,0.0,-1.5707954704741747,-1.559758051883353e-11,0.5000001192092896,0.5000001788139343,,,,,,,,,,,,,,,,,,,,,,,,,,,,,,,,,,,,,,,,,,,,,,,,,,,,,,,,,,,,,,,,,,,,,,,,,,,,,,,,,,,,,,,,,,,,,,,,,,,,,,,,,,,,,,,,,,,,,,,,,,,,,,,,,,,,,,0.0,8.881784197001252e-13,-3.469446951953614e-14,0.0,-4.185666966805002e-06,5.323171903270918e-10,-7.550785880994226e-07,-7.524679404014023e-07,0.0,1.1102230246251565e-12,-3.469446951953614e-14,0.0,-4.160701337241335e-06,-1.8614196989341636e-11,7.477924555132631e-07,7.507117629756976e-07,,,,,,,,,,,,,,,,,,,,,,,,,,,,,,,,,,,,,,,,,,,,,,,,,,,,,,,,,,,,,,,,,,,,,,,,,,
98,8.305805683135986,0.6064969301223755,1.5596120357513428,0.3904982572793961,0.0,-1.5707954704741747,-9.528356575971841e-11,0.5000001788139343,0.5000001788139343,0.6065371632575989,1.5596801042556763,0.390495984852314,0.0,-1.5707954704741747,-1.559758051883353e-11,0.5000001192092896,0.5000001788139343,,,,,,,,,,,,,,,,,,,,,,,,,,,,,,,,,,,,,,,,,,,,,,,,,,,,,,,,,,,,,,,,,,,,,,,,,,,,,,,,,,,,,,,,,,,,,,,,,,,,,,,,,,,,,,,,,,,,,,,,,,,,,,,,,,,,,,0.0,8.881784197001252e-13,-3.469446951953614e-14,0.0,-4.185666966805002e-06,5.323171903270918e-10,-7.550785880994226e-07,-7.524679404014023e-07,0.0,1.1102230246251565e-12,-3.469446951953614e-14,0.0,-4.160701337241335e-06,-1.8614196989341636e-11,7.477924555132631e-07,7.507117629756976e-07,,,,,,,,,,,,,,,,,,,,,,,,,,,,,,,,,,,,,,,,,,,,,,,,,,,,,,,,,,,,,,,,,,,,,,,,,,
99,8.327659130096436,0.6064969301223755,1.5596120357513428,0.3904982572793961,0.0,-1.5707955896834642,-7.798783840939905e-11,0.5000001192092896,0.5000001192092896,0.6065371632575989,1.5596801042556763,0.390495984852314,0.0,-1.570795649288109,-1.591311110660243e-11,0.5000001192092896,0.5000001192092896,,,,,,,,,,,,,,,,,,,,,,,,,,,,,,,,,,,,,,,,,,,,,,,,,,,,,,,,,,,,,,,,,,,,,,,,,,,,,,,,,,,,,,,,,,,,,,,,,,,,,,,,,,,,,,,,,,,,,,,,,,,,,,,,,,,,,,1.1102230246251565e-13,2.220446049250313e-13,6.938893903907228e-15,0.0,-3.495615828796872e-06,4.3678458072626825e-10,-6.305673423412372e-07,-6.28376881195436e-07,0.0,8.881784197001252e-13,-6.938893903907228e-15,0.0,-3.4401750781398732e-06,-1.0504055578900579e-13,6.18402168583998e-07,6.207573619576578e-07,,,,,,,,,,,,,,,,,,,,,,,,,,,,,,,,,,,,,,,,,,,,,,,,,,,,,,,,,,,,,,,,,,,,,,,,,,
100,8.349071264266968,0.6064969301223755,1.5596120357513428,0.3904982572793961,0.0,-1.5707957088927538,-6.380518335902252e-11,0.5000001192092896,0.5000001192092896,0.6065371632575989,1.5596801042556763,0.390495984852314,0.0,-1.570795649288109,-1.591311110660243e-11,0.5000001192092896,0.5000001192092896,,,,,,,,,,,,,,,,,,,,,,,,,,,,,,,,,,,,,,,,,,,,,,,,,,,,,,,,,,,,,,,,,,,,,,,,,,,,,,,,,,,,,,,,,,,,,,,,,,,,,,,,,,,,,,,,,,,,,,,,,,,,,,,,,,,,,,0.0,3.3306690738754696e-13,-3.469446951953614e-14,0.0,-2.919326334449579e-06,3.582904251064889e-10,-5.265877121019003e-07,-5.24749680153036e-07,0.0,8.881784197001252e-13,-6.938893903907228e-15,0.0,-3.4401750781398732e-06,-1.0504055578900579e-13,6.18402168583998e-07,6.207573619576578e-07,,,,,,,,,,,,,,,,,,,,,,,,,,,,,,,,,,,,,,,,,,,,,,,,,,,,,,,,,,,,,,,,,,,,,,,,,,
101,8.37035870552063,0.6064969301223755,1.5596120357513428,0.3904982572793961,0.0,-1.5707957088927538,-6.309706923612879e-11,0.5000001192092896,0.5000001192092896,0.6065371632575989,1.5596801042556763,0.390495984852314,0.0,-1.5707957684973985,-1.5651566848129406e-11,0.5000001192092896,0.5000001192092896,,,,,,,,,,,,,,,,,,,,,,,,,,,,,,,,,,,,,,,,,,,,,,,,,,,,,,,,,,,,,,,,,,,,,,,,,,,,,,,,,,,,,,,,,,,,,,,,,,,,,,,,,,,,,,,,,,,,,,,,,,,,,,,,,,,,,,0.0,2.220446049250313e-13,0.0,0.0,-2.890253654186381e-06,3.5405975373770104e-10,-5.213424287831003e-07,-5.195219614506641e-07,0.0,4.440892098500626e-13,-4.85722573273506e-14,0.0,-2.8444260351534467e-06,1.2346441577437695e-11,5.113995484862244e-07,5.132998239787412e-07,,,,,,,,,,,,,,,,,,,,,,,,,,,,,,,,,,,,,,,,,,,,,,,,,,,,,,,,,,,,,,,,,,,,,,,,,,
102,8.392385482788086,0.6064969301223755,1.5596120357513428,0.3904982572793961,0.0,-1.5707958281020433,-5.2179077031366816e-11,0.5000000596046448,0.5000000596046448,0.6065371632575989,1.5596801042556763,0.390495984852314,0.0,-1.5707958281020433,-1.5002244238560003e-11,0.5000000596046448,0.5000000596046448,,,,,,,,,,,,,,,,,,,,,,,,,,,,,,,,,,,,,,,,,,,,,,,,,,,,,,,,,,,,,,,,,,,,,,,,,,,,,,,,,,,,,,,,,,,,,,,,,,,,,,,,,,,,,,,,,,,,,,,,,,,,,,,,,,,,,,0.0,1.1102230246251565e-13,4.163336342344337e-14,0.0,-2.438044020891539e-06,2.936538234799002e-10,-4.397543307277374e-07,-4.3821168560498336e-07,0.0,3.3306690738754696e-13,6.938893903907228e-15,0.0,-2.3518450689152814e-06,2.057947909306357e-11,4.229127625876572e-07,4.2444315795364673e-07,,,,,,,,,,,,,,,,,,,,,,,,,,,,,,,,,,,,,,,,,,,,,,,,,,,,,,,,,,,,,,,,,,,,,,,,,,
103,8.414195537567139,0.6064969301223755,1.5596120357513428,0.3904982572793961,0.0,-1.5707958281020433,-5.2179077031366816e-11,0.5000000596046448,0.5000000596046448,0.6065371632575989,1.5596801042556763,0.390495984852314,0.0,-1.5707958281020433,-1.5002244238560003e-11,0.5000000596046448,0.5000000596046448,,,,,,,,,,,,,,,,,,,,,,,,,,,,,,,,,,,,,,,,,,,,,,,,,,,,,,,,,,,,,,,,,,,,,,,,,,,,,,,,,,,,,,,,,,,,,,,,,,,,,,,,,,,,,,,,,,,,,,,,,,,,,,,,,,,,,,0.0,1.1102230246251565e-13,4.163336342344337e-14,0.0,-2.438044020891539e-06,2.936538234799002e-10,-4.397543307277374e-07,-4.3821168560498336e-07,0.0,3.3306690738754696e-13,6.938893903907228e-15,0.0,-2.3518450689152814e-06,2.057947909306357e-11,4.229127625876572e-07,4.2444315795364673e-07,,,,,,,,,,,,,,,,,,,,,,,,,,,,,,,,,,,,,,,,,,,,,,,,,,,,,,,,,,,,,,,,,,,,,,,,,,
104,8.43617558479309,0.6064969301223755,1.5596120357513428,0.3904982572793961,0.0,-1.570795887706688,-4.31332643213711e-11,0.5000000596046448,0.5000000596046448,0.6065371632575989,1.5596801042556763,0.390495984852314,0.0,-1.5707959473113329,-1.4108682104552184e-11,0.5000000596046448,0.5000000596046448,,,,,,,,,,,,,,,,,,,,,,,,,,,,,,,,,,,,,,,,,,,,,,,,,,,,,,,,,,,,,,,,,,,,,,,,,,,,,,,,,,,,,,,,,,,,,,,,,,,,,,,,,,,,,,,,,,,,,,,,,,,,,,,,,,,,,,0.0,2.220446049250313e-13,0.0,0.0,-2.0565878458000952e-06,2.433098722498528e-10,-3.7093477089911175e-07,-3.6962771332582633e-07,0.0,2.220446049250313e-13,1.3877787807814457e-14,0.0,-1.944566520251101e-06,2.5744146397999046e-11,3.497359557513846e-07,3.5096880424134724e-07,,,,,,,,,,,,,,,,,,,,,,,,,,,,,,,,,,,,,,,,,,,,,,,,,,,,,,,,,,,,,,,,,,,,,,,,,,
105,8.457235336303711,0.6064969301223755,1.5596120357513428,0.3904982572793961,0.0,-1.5707959473113329,-3.524194130966052e-11,0.5000000596046448,0.5000000596046448,0.6065371632575989,1.5596801042556763,0.390495984852314,0.0,-1.5707959473113329,-1.4108682104552184e-11,0.5000000596046448,0.5000000596046448,,,,,,,,,,,,,,,,,,,,,,,,,,,,,,,,,,,,,,,,,,,,,,,,,,,,,,,,,,,,,,,,,,,,,,,,,,,,,,,,,,,,,,,,,,,,,,,,,,,,,,,,,,,,,,,,,,,,,,,,,,,,,,,,,,,,,,0.0,1.1102230246251565e-13,2.7755575615628914e-14,0.0,-1.7175368611788144e-06,1.9922896665747203e-10,-3.097680405517167e-07,-3.086713604716351e-07,0.0,2.220446049250313e-13,1.3877787807814457e-14,0.0,-1.944566520251101e-06,2.5744146397999046e-11,3.497359557513846e-07,3.5096880424134724e-07,,,,,,,,,,,,,,,,,,,,,,,,,,,,,,,,,,,,,,,,,,,,,,,,,,,,,,,,,,,,,,,,,,,,,,,,,,
106,8.478537797927856,0.6064969301223755,1.5596120357513428,0.3904982572793961,0.0,-1.5707959473113329,-3.524194130966052e-11,0.5000000596046448,0.5000000596046448,0.6065371632575989,1.5596801042556763,0.390495984852314,0.0,-1.5707960069159776,-1.3074465121665213e-11,0.5000000596046448,0.5000000596046448,,,,,,,,,,,,,,,,,,,,,,,,,,,,,,,,,,,,,,,,,,,,,,,,,,,,,,,,,,,,,,,,,,,,,,,,,,,,,,,,,,,,,,,,,,,,,,,,,,,,,,,,,,,,,,,,,,,,,,,,,,,,,,,,,,,,,,0.0,1.1102230246251565e-13,2.7755575615628914e-14,0.0,-1.7175368611788144e-06,1.9922896665747203e-10,-3.097680405517167e-07,-3.086713604716351e-07,0.0,0.0,-3.469446951953614e-14,0.0,-1.6078178077805205e-06,2.8197475604452293e-11,2.8922124784003245e-07,2.902134212945384e-07,,,,,,,,,,,,,,,,,,,,,,,,,,,,,,,,,,,,,,,,,,,,,,,,,,,,,,,,,,,,,,,,,,,,,,,,,,
107,8.49934196472168,0.6064969301223755,1.5596120357513428,0.3904982572793961,0.0,-1.5707960069159776,-2.878076596490864e-11,0.5000000596046448,0.5000000596046448,0.6065371632575989,1.5596801042556763,0.390495984852314,0.0,-1.5707960069159776,-1.3074465121665213e-11,0.5000000596046448,0.5000000596046448,,,,,,,,,,,,,,,,,,,,,,,,,,,,,,,,,,,,,,,,,,,,,,,,,,,,,,,,,,,,,,,,,,,,,,,,,,,,,,,,,,,,,,,,,,,,,,,,,,,,,,,,,,,,,,,,,,,,,,,,,,,,,,,,,,,,,,0.0,1.1102230246251565e-13,0.0,0.0,-1.4343826251206337e-06,1.629848755957397e-10,-2.58687578025274e-07,-2.5776779466468724e-07,0.0,0.0,-3.469446951953614e-14,0.0,-1.6078178077805205e-06,2.8197475604452293e-11,2.8922124784003245e-07,2.902134212945384e-07,,,,,,,,,,,,,,,,,,,,,,,,,,,,,,,,,,,,,,,,,,,,,,,,,,,,,,,,,,,,,,,,,,,,,,,,,,
108,8.521690130233765,0.6064969301223755,1.5596120357513428,0.3904982572793961,0.0,-1.5707960069159776,-2.878076596490864e-11,0.5000000596046448,0.5000000596046448,0.6065371632575989,1.5596801042556763,0.390495984852314,0.0,-1.5707960665206224,-1.1974561966998643e-11,0.5000000596046448,0.5000000596046448,,,,,,,,,,,,,,,,,,,,,,,,,,,,,,,,,,,,,,,,,,,,,,,,,,,,,,,,,,,,,,,,,,,,,,,,,,,,,,,,,,,,,,,,,,,,,,,,,,,,,,,,,,,,,,,,,,,,,,,,,,,,,,,,,,,,,,0.0,1.1102230246251565e-13,0.0,0.0,-1.4343826251206337e-06,1.629848755957397e-10,-2.58687578025274e-07,-2.5776779466468724e-07,0.0,0.0,0.0,0.0,-1.329385213466594e-06,2.942832089125602e-11,2.3917758085190144e-07,2.39975321392194e-07,,,,,,,,,,,,,,,,,,,,,,,,,,,,,,,,,,,,,,,,,,,,,,,,,,,,,,,,,,,,,,,,,,,,,,,,,,
109,8.54433822631836,0.6064969301223755,1.5596120357513428,0.3904982572793961,0.0,-1.5707960665206224,-2.3492641859634844e-11,0.5000000596046448,0.5000000596046448,0.6065371632575989,1.5596801042556763,0.390495984852314,0.0,-1.5707960665206224,-1.0863277291606188e-11,0.5000000596046448,0.5000000596046448,,,,,,,,,,,,,,,,,,,,,,,,,,,,,,,,,,,,,,,,,,,,,,,,,,,,,,,,,,,,,,,,,,,,,,,,,,,,,,,,,,,,,,,,,,,,,,,,,,,,,,,,,,,,,,,,,,,,,,,,,,,,,,,,,,,,,,0.0,0.0,0.0,0.0,-1.1979099099335144e-06,1.3345154148414196e-10,-2.1603047173357481e-07,-2.152585949488639e-07,0.0,0.0,-4.163336342344337e-14,0.0,-1.0991694807671593e-06,2.9030968601295726e-11,1.977921186835374e-07,1.984337671956382e-07,,,,,,,,,,,,,,,,,,,,,,,,,,,,,,,,,,,,,,,,,,,,,,,,,,,,,,,,,,,,,,,,,,,,,,,,,,
110,8.565245389938354,0.6064969301223755,1.5596120357513428,0.3904982572793961,0.0,-1.5707961261252672,-1.9165426190514978e-11,0.5000000596046448,0.5000000596046448,0.6065371632575989,1.5596801042556763,0.390495984852314,0.0,-1.5707960665206224,-1.0863277291606188e-11,0.5000000596046448,0.5000000596046448,,,,,,,,,,,,,,,,,,,,,,,,,,,,,,,,,,,,,,,,,,,,,,,,,,,,,,,,,,,,,,,,,,,,,,,,,,,,,,,,,,,,,,,,,,,,,,,,,,,,,,,,,,,,,,,,,,,,,,,,,,,,,,,,,,,,,,0.0,0.0,6.938893903907228e-15,0.0,-1.0004216619563522e-06,1.0914000259099055e-10,-1.8040758220649877e-07,-1.7975948196635727e-07,0.0,0.0,-4.163336342344337e-14,0.0,-1.0991694807671593e-06,2.9030968601295726e-11,1.977921186835374e-07,1.984337671956382e-07,,,,,,,,,,,,,,,,,,,,,,,,,,,,,,,,,,,,,,,,,,,,,,,,,,,,,,,,,,,,,,,,,,,,,,,,,,
111,8.586166620254517,0.6064969301223755,1.5596120357513428,0.3904982572793961,0.0,-1.5707961261252672,-1.9165426190514978e-11,0.5000000596046448,0.5000000596046448,0.6065371632575989,1.5596801042556763,0.390495984852314,0.0,-1.5707961261252672,-9.777710759106828e-12,0.5000000596046448,0.5000000596046448,,,,,,,,,,,,,,,,,,,,,,,,,,,,,,,,,,,,,,,,,,,,,,,,,,,,,,,,,,,,,,,,,,,,,,,,,,,,,,,,,,,,,,,,,,,,,,,,,,,,,,,,,,,,,,,,,,,,,,,,,,,,,,,,,,,,,,0.0,0.0,6.938893903907228e-15,0.0,-1.0004216619563522e-06,1.0914000259099055e-10,-1.8040758220649877e-07,-1.7975948196635727e-07,0.0,0.0,3.469446951953614e-14,0.0,-9.088219599107106e-07,2.823022544895526e-11,1.6356833043573715e-07,1.640833602323255e-07,,,,,,,,,,,,,,,,,,,,,,,,,,,,,,,,,,,,,,,,,,,,,,,,,,,,,,,,,,,,,,,,,,,,,,,,,,
112,8.607267618179321,0.6064969301223755,1.5596120357513428,0.3904982572793961,0.0,-1.5707961261252672,-1.5626687444036946e-11,0.5000000596046448,0.5000000596046448,0.6065371632575989,1.5596801042556763,0.390495984852314,0.0,-1.5707961261252672,-9.777710759106828e-12,0.5000000596046448,0.5000000596046448,,,,,,,,,,,,,,,,,,,,,,,,,,,,,,,,,,,,,,,,,,,,,,,,,,,,,,,,,,,,,,,,,,,,,,,,,,,,,,,,,,,,,,,,,,,,,,,,,,,,,,,,,,,,,,,,,,,,,,,,,,,,,,,,,,,,,,0.0,0.0,6.938893903907228e-15,0.0,-8.354910505659063e-07,8.906032161748456e-11,-1.5065864999996847e-07,-1.5011531218078744e-07,0.0,0.0,3.469446951953614e-14,0.0,-9.088219599107106e-07,2.823022544895526e-11,1.6356833043573715e-07,1.640833602323255e-07,,,,,,,,,,,,,,,,,,,,,,,,,,,,,,,,,,,,,,,,,,,,,,,,,,,,,,,,,,,,,,,,,,,,,,,,,,
113,8.629872798919678,0.6064969301223755,1.5596120357513428,0.3904982572793961,0.0,-1.570796185729912,-1.302701089361813e-11,0.5,0.5,0.6065371632575989,1.5596801042556763,0.390495984852314,0.0,-1.5707961261252672,-8.742374012216114e-12,0.5,0.5,,,,,,,,,,,,,,,,,,,,,,,,,,,,,,,,,,,,,,,,,,,,,,,,,,,,,,,,,,,,,,,,,,,,,,,,,,,,,,,,,,,,,,,,,,,,,,,,,,,,,,,,,,,,,,,,,,,,,,,,,,,,,,,,,,,,,,0.0,0.0,0.0,0.0,-7.118593430277542e-07,7.45296949156149e-11,-1.2835998575155827e-07,-1.2789497816356743e-07,0.0,-1.1102230246251565e-13,-2.7755575615628914e-14,0.0,-7.514381650253199e-07,2.6549510853679514e-11,1.35266134293488e-07,1.356794143703155e-07,,,,,,,,,,,,,,,,,,,,,,,,,,,,,,,,,,,,,,,,,,,,,,,,,,,,,,,,,,,,,,,,,,,,,,,,,,
114,8.652298927307129,0.6064969301223755,1.5596120357513428,0.3904982572793961,0.0,-1.570796185729912,-1.273372119553473e-11,0.5,0.5,0.6065371632575989,1.5596801042556763,0.390495984852314,0.0,-1.5707961261252672,-8.742374012216114e-12,0.5,0.5,,,,,,,,,,,,,,,,,,,,,,,,,,,,,,,,,,,,,,,,,,,,,,,,,,,,,,,,,,,,,,,,,,,,,,,,,,,,,,,,,,,,,,,,,,,,,,,,,,,,,,,,,,,,,,,,,,,,,,,,,,,,,,,,,,,,,,0.0,0.0,0.0,0.0,-6.977510338401771e-07,7.28292634533112e-11,-1.258149211480486e-07,-1.253593922001528e-07,0.0,-1.1102230246251565e-13,-2.7755575615628914e-14,0.0,-7.514381650253199e-07,2.6549510853679514e-11,1.35266134293488e-07,1.356794143703155e-07,,,,,,,,,,,,,,,,,,,,,,,,,,,,,,,,,,,,,,,,,,,,,,,,,,,,,,,,,,,,,,,,,,,,,,,,,,
115,8.673607110977173,0.6064969301223755,1.5596120357513428,0.3904982572793961,0.0,-1.570796185729912,-1.0251647621084548e-11,0.5,0.5,0.6065371632575989,1.5596801042556763,0.390495984852314,0.0,-1.570796185729912,-7.77195148515819e-12,0.5,0.5,,,,,,,,,,,,,,,,,,,,,,,,,,,,,,,,,,,,,,,,,,,,,,,,,,,,,,,,,,,,,,,,,,,,,,,,,,,,,,,,,,,,,,,,,,,,,,,,,,,,,,,,,,,,,,,,,,,,,,,,,,,,,,,,,,,,,,0.0,0.0,1.3877787807814457e-14,0.0,-5.769167614744219e-07,5.899915972440439e-11,-1.0402195727010621e-07,-1.0364331615164701e-07,0.0,-1.1102230246251565e-13,3.469446951953614e-14,0.0,-6.213089704942831e-07,2.4392234759806897e-11,1.1186135395746533e-07,1.1219197659784186e-07,,,,,,,,,,,,,,,,,,,,,,,,,,,,,,,,,,,,,,,,,,,,,,,,,,,,,,,,,,,,,,,,,,,,,,,,,,
116,8.695323944091797,0.6064969301223755,1.5596120357513428,0.3904982572793961,0.0,-1.570796185729912,-1.0251647621084548e-11,0.5,0.5,0.6065371632575989,1.5596801042556763,0.390495984852314,0.0,-1.570796185729912,-6.920103812896317e-12,0.5,0.5,,,,,,,,,,,,,,,,,,,,,,,,,,,,,,,,,,,,,,,,,,,,,,,,,,,,,,,,,,,,,,,,,,,,,,,,,,,,,,,,,,,,,,,,,,,,,,,,,,,,,,,,,,,,,,,,,,,,,,,,,,,,,,,,,,,,,,0.0,0.0,1.3877787807814457e-14,0.0,-5.769167614744219e-07,5.899915972440439e-11,-1.0402195727010621e-07,-1.0364331615164701e-07,0.0,-2.220446049250313e-13,-6.938893903907228e-15,0.0,-5.188809382161708e-07,2.2907783309156216e-11,9.343520446236653e-08,9.370354803195369e-08,,,,,,,,,,,,,,,,,,,,,,,,,,,,,,,,,,,,,,,,,,,,,,,,,,,,,,,,,,,,,,,,,,,,,,,,,,
117,8.716564655303955,0.6064969301223755,1.5596120357513428,0.3904982572793961,0.0,-1.570796185729912,-8.247801747129913e-12,0.5,0.5,0.6065371632575989,1.5596801042556763,0.390495984852314,0.0,-1.570796185729912,-6.920103812896317e-12,0.5,0.5,,,,,,,,,,,,,,,,,,,,,,,,,,,,,,,,,,,,,,,,,,,,,,,,,,,,,,,,,,,,,,,,,,,,,,,,,,,,,,,,,,,,,,,,,,,,,,,,,,,,,,,,,,,,,,,,,,,,,,,,,,,,,,,,,,,,,,0.0,0.0,1.3877787807814457e-14,0.0,-4.770074042426131e-07,4.744975592996248e-11,-8.600331824482055e-08,-8.568895282223821e-08,0.0,-2.220446049250313e-13,-6.938893903907228e-15,0.0,-5.188809382161708e-07,2.2907783309156216e-11,9.343520446236653e-08,9.370354803195369e-08,,,,,,,,,,,,,,,,,,,,,,,,,,,,,,,,,,,,,,,,,,,,,,,,,,,,,,,,,,,,,,,,,,,,,,,,,,
118,8.738216638565063,0.6064969301223755,1.5596120357513428,0.3904982572793961,0.0,-1.570796185729912,-8.247801747129913e-12,0.5,0.5,0.6065371632575989,1.5596801042556763,0.390495984852314,0.0,-1.5707962453345568,-6.0970573208252166e-12,0.5,0.5,,,,,,,,,,,,,,,,,,,,,,,,,,,,,,,,,,,,,,,,,,,,,,,,,,,,,,,,,,,,,,,,,,,,,,,,,,,,,,,,,,,,,,,,,,,,,,,,,,,,,,,,,,,,,,,,,,,,,,,,,,,,,,,,,,,,,,0.0,0.0,1.3877787807814457e-14,0.0,-4.770074042426131e-07,4.744975592996248e-11,-8.600331824482055e-08,-8.568895282223821e-08,0.0,-1.1102230246251565e-13,2.0816681711721685e-14,0.0,-4.290238280191261e-07,2.059345749483299e-11,7.72679698002321e-08,7.74827952909618e-08,,,,,,,,,,,,,,,,,,,,,,,,,,,,,,,,,,,,,,,,,,,,,,,,,,,,,,,,,,,,,,,,,,,,,,,,,,
119,8.760532855987549,0.6064969301223755,1.5596120357513428,0.3904982572793961,0.0,-1.5707962453345568,-6.707947565465222e-12,0.5,0.5,0.6065371632575989,1.5596801042556763,0.390495984852314,0.0,-1.5707962453345568,-6.0970573208252166e-12,0.5,0.5,,,,,,,,,,,,,,,,,,,,,,,,,,,,,,,,,,,,,,,,,,,,,,,,,,,,,,,,,,,,,,,,,,,,,,,,,,,,,,,,,,,,,,,,,,,,,,,,,,,,,,,,,,,,,,,,,,,,,,,,,,,,,,,,,,,,,,0.0,-1.1102230246251565e-13,0.0,0.0,-3.9836783116697916e-07,3.8772127869401984e-11,-7.182160288721207e-08,-7.155770731515076e-08,0.0,-1.1102230246251565e-13,2.0816681711721685e-14,0.0,-4.290238280191261e-07,2.059345749483299e-11,7.72679698002321e-08,7.74827952909618e-08,,,,,,,,,,,,,,,,,,,,,,,,,,,,,,,,,,,,,,,,,,,,,,,,,,,,,,,,,,,,,,,,,,,,,,,,,,
