MHC-RobotSimulators-Research/Data_Analysis_MotionReplication/mai_plotter/raven_data/leftarm_p5_phys2.csv
,time,jpos0,jpos1,jpos2,jpos3,jpos4,jpos5,jpos6,jpos7,jpos8,jpos9,jpos10,jpos11,jpos12,jpos13,jpos14,jpos15,runlevel,sublevel,last_seq,type0,type1,pos0,pos1,pos2,pos3,pos4,pos5,ori0,ori1,ori2,ori3,ori4,ori5,ori6,ori7,ori8,ori9,ori10,ori11,ori12,ori13,ori14,ori15,ori16,ori17,ori_d0,ori_d1,ori_d2,ori_d3,ori_d4,ori_d5,ori_d6,ori_d7,ori_d8,ori_d9,ori_d10,ori_d11,ori_d12,ori_d13,ori_d14,ori_d15,ori_d16,ori_d17,pos_d0,pos_d1,pos_d2,pos_d3,pos_d4,pos_d5,encVals0,encVals1,encVals2,encVals3,encVals4,encVals5,encVals6,encVals7,encVals8,encVals9,encVals10,encVals11,encVals12,encVals13,encVals14,encVals15,dac_vals0,dac_vals1,dac_vals2,dac_vals3,dac_vals4,dac_vals5,dac_vals6,dac_vals7,dac_vals8,dac_vals9,dac_vals10,dac_vals11,dac_vals12,dac_vals13,dac_vals14,dac_vals15,Tau0,Tau1,Tau2,Tau3,Tau4,Tau5,Tau6,Tau7,Tau8,Tau9,Tau10,Tau11,Tau12,Tau13,Tau14,Tau15,mpos0,mpos1,mpos2,mpos3,mpos4,mpos5,mpos6,mpos7,mpos8,mpos9,mpos10,mpos11,mpos12,mpos13,mpos14,mpos15,mvel0,mvel1,mvel2,mvel3,mvel4,mvel5,mvel6,mvel7,mvel8,mvel9,mvel10,mvel11,mvel12,mvel13,mvel14,mvel15,jvel0,jvel1,jvel2,jvel3,jvel4,jvel5,jvel6,jvel7,jvel8,jvel9,jvel10,jvel11,jvel12,jvel13,jvel14,jvel15,mpos_d0,mpos_d1,mpos_d2,mpos_d3,mpos_d4,mpos_d5,mpos_d6,mpos_d7,mpos_d8,mpos_d9,mpos_d10,mpos_d11,mpos_d12,mpos_d13,mpos_d14,mpos_d15,jpos_d0,jpos_d1,jpos_d2,jpos_d3,jpos_d4,jpos_d5,jpos_d6,jpos_d7,jpos_d8,jpos_d9,jpos_d10,jpos_d11,jpos_d12,jpos_d13,jpos_d14,jpos_d15,grasp_d0,grasp_d1,encoffsets0,encoffsets1,encoffsets2,encoffsets3,encoffsets4,encoffsets5,encoffsets6,encoffsets7,encoffsets8,encoffsets9,encoffsets10,encoffsets11,encoffsets12,encoffsets13,encoffsets14,encoffsets15,jac_vel0,jac_vel1,jac_vel2,jac_vel3,jac_vel4,jac_vel5,jac_vel6,jac_vel7,jac_vel8,jac_vel9,jac_vel10,jac_vel11,jac_f0,jac_f1,jac_f2,jac_f3,jac_f4,jac_f5,jac_f6,jac_f7,jac_f8,jac_f9,jac_f10,jac_f11
0,0.0,30.132984,90.365135,22.890821,0.0,3.376988,-0.235898,29.009459,28.301767,29.783419,90.316734,22.927628,0.0,3.616315,0.128016,28.453672,28.657459,3.0,1.0,111.0,0.0,1.0,-78234.0,-25704.0,13693.0,-77820.0,24947.0,13552.0,-0.934808,-0.237502,0.264059,-0.312359,0.195976,-0.92953,0.169016,-0.951413,-0.257386,-0.939608,0.199003,0.278449,0.299521,0.084471,0.950343,0.1656,0.976352,-0.138975,-0.934921,-0.237497,0.263664,-0.312018,0.196279,-0.92958,0.169021,-0.951351,-0.257609,-0.939503,0.19859,0.279099,0.300294,0.085512,0.950006,0.164795,0.976345,-0.139975,-78235.0,-25699.0,13694.0,-77817.0,24958.0,13550.0,-4453114.0,-2143223.0,-1240.0,0.0,-4194790.0,-2097902.0,-330.0,-2081.0,-4457813.0,-2228666.0,-6290985.0,0.0,-4193835.0,-2244001.0,-4455434.0,-1137.0,50.0,162.0,-45.0,0.0,-641.0,-768.0,463.0,-432.0,-41.0,-162.0,44.0,0.0,432.0,588.0,408.0,-785.0,-0.013613,-0.044087,0.012362,0.0,-0.023491,-0.028132,-0.016973,-0.015826,-0.011359,-0.044051,0.012141,0.0,0.015841,0.021529,-0.014961,-0.028753,4104.0,11513.970703,51494.671875,0.0,-17685.451172,-17705.791016,17963.460938,-17448.121094,4056.390137,11501.910156,51567.390625,0.0,17748.181641,17729.820312,-17472.240234,17985.78125,0.0,0.0,0.0,0.0,0.0,0.0,0.0,0.0,0.0,0.0,0.0,0.0,0.0,0.0,0.0,0.0,0.0,0.0,0.0,0.0,0.0,0.0,0.0,0.0,0.0,0.0,0.0,0.0,0.0,0.0,0.0,0.0,4103.927246,11513.938477,51494.796875,0.0,-17685.359375,-17705.617188,17963.693359,-17447.978516,4056.401855,11501.833984,51567.417969,0.0,17747.914062,17729.369141,-17471.794922,17985.964844,30.132452,90.364952,22.890884,0.0,3.393863,-0.216368,29.025614,28.327463,29.783504,90.316093,22.927645,0.0,3.566852,0.077899,28.528362,28.652824,1.001,0.998,4407514.0,2015290.0,-570923.0,0.0,-3998285.0,-1901171.0,-199264.0,191787.0,-4502884.0,-2356465.0,-6863956.0,0.0,-4391037.0,-2440999.0,4649570.0,-200979.0,0.0,0.0,0.0,0.0,0.0,0.0,0.0,0.0,0.0,0.0,0.0,0.0,0.0,0.0,0.0,0.0,0.0,0.0,0.0,0.0,0.0,0.0,0.0,0.0
1,0.09089398384094238,30.132984,90.365135,22.890821,0.0,3.376988,-0.235898,29.009459,28.301767,29.783419,90.316734,22.927628,0.0,3.616315,0.128016,28.453672,28.657459,3.0,1.0,111.0,0.0,1.0,-78234.0,-25704.0,13693.0,-77820.0,24947.0,13552.0,-0.934808,-0.237502,0.264059,-0.312359,0.195976,-0.92953,0.169016,-0.951413,-0.257386,-0.939608,0.199003,0.278449,0.299521,0.084471,0.950343,0.1656,0.976352,-0.138975,-0.934808,-0.237502,0.264059,-0.312359,0.195976,-0.92953,0.169016,-0.951413,-0.257386,-0.939608,0.199003,0.278449,0.299521,0.084471,0.950343,0.1656,0.976352,-0.138975,-78234.0,-25704.0,13693.0,-77820.0,24947.0,13552.0,-4453114.0,-2143223.0,-1240.0,0.0,-4194790.0,-2097902.0,-330.0,-2081.0,-4457813.0,-2228666.0,-6290985.0,0.0,-4193835.0,-2244001.0,-4455434.0,-1137.0,50.0,162.0,-45.0,0.0,-641.0,-768.0,463.0,-432.0,-41.0,-162.0,44.0,0.0,432.0,587.0,407.0,-785.0,-0.013613,-0.044087,0.012362,0.0,-0.023484,-0.028118,-0.016955,-0.015814,-0.011359,-0.044051,0.012141,0.0,0.015819,0.021493,-0.014926,-0.028738,4104.0,11513.970703,51494.671875,0.0,-17685.451172,-17705.791016,17963.460938,-17448.121094,4056.390137,11501.910156,51567.390625,0.0,17748.181641,17729.820312,-17472.240234,17985.78125,0.0,0.0,0.0,0.0,0.0,0.0,0.0,0.0,0.0,0.0,0.0,0.0,0.0,0.0,0.0,0.0,0.0,0.0,0.0,0.0,0.0,0.0,0.0,0.0,0.0,0.0,0.0,0.0,0.0,0.0,0.0,0.0,4103.927246,11513.938477,51494.796875,0.0,-17685.359375,-17705.617188,17963.693359,-17447.978516,4056.401855,11501.833984,51567.417969,0.0,17747.914062,17729.369141,-17471.794922,17985.964844,30.132452,90.364952,22.890884,0.0,3.393863,-0.216368,29.025614,28.327463,29.783504,90.316093,22.927645,0.0,3.566852,0.077899,28.528362,28.652824,1.0,0.996,4407514.0,2015290.0,-570923.0,0.0,-3998285.0,-1901171.0,-199264.0,191787.0,-4502884.0,-2356465.0,-6863956.0,0.0,-4391037.0,-2440999.0,4649570.0,-200979.0,0.0,0.0,0.0,0.0,0.0,0.0,0.0,0.0,0.0,0.0,0.0,0.0,0.0,0.0,0.0,0.0,0.0,0.0,0.0,0.0,0.0,0.0,0.0,0.0
2,0.1578969955444336,30.132984,90.365135,22.890821,0.0,3.376988,-0.235898,29.009459,28.301767,29.783419,90.316734,22.927628,0.0,3.616315,0.128016,28.453672,28.657459,3.0,1.0,111.0,0.0,1.0,-78234.0,-25704.0,13693.0,-77820.0,24947.0,13552.0,-0.934808,-0.237502,0.264059,-0.312359,0.195976,-0.92953,0.169016,-0.951413,-0.257386,-0.939608,0.199003,0.278449,0.299521,0.084471,0.950343,0.1656,0.976352,-0.138975,-0.934808,-0.237502,0.264059,-0.312359,0.195976,-0.92953,0.169016,-0.951413,-0.257386,-0.939608,0.199003,0.278449,0.299521,0.084471,0.950343,0.1656,0.976352,-0.138975,-78234.0,-25704.0,13693.0,-77820.0,24947.0,13552.0,-4453114.0,-2143223.0,-1240.0,0.0,-4194790.0,-2097902.0,-330.0,-2081.0,-4457813.0,-2228666.0,-6290985.0,0.0,-4193835.0,-2244001.0,-4455434.0,-1137.0,50.0,162.0,-45.0,0.0,-641.0,-768.0,462.0,-431.0,-41.0,-162.0,44.0,0.0,431.0,586.0,407.0,-785.0,-0.013613,-0.044087,0.012362,0.0,-0.023479,-0.028108,-0.016941,-0.015806,-0.011359,-0.044051,0.012141,0.0,0.015804,0.021467,-0.0149,-0.028728,4104.0,11513.970703,51494.671875,0.0,-17685.451172,-17705.791016,17963.460938,-17448.121094,4056.390137,11501.910156,51567.390625,0.0,17748.181641,17729.820312,-17472.240234,17985.78125,0.0,0.0,0.0,0.0,0.0,0.0,0.0,0.0,0.0,0.0,0.0,0.0,0.0,0.0,0.0,0.0,0.0,0.0,0.0,0.0,0.0,0.0,0.0,0.0,0.0,0.0,0.0,0.0,0.0,0.0,0.0,0.0,4103.927246,11513.938477,51494.796875,0.0,-17685.359375,-17705.617188,17963.693359,-17447.978516,4056.401855,11501.833984,51567.417969,0.0,17747.914062,17729.369141,-17471.794922,17985.964844,30.132452,90.364952,22.890884,0.0,3.393863,-0.216368,29.025614,28.327463,29.783504,90.316093,22.927645,0.0,3.566852,0.077899,28.528362,28.652824,1.0,0.996,4407514.0,2015290.0,-570923.0,0.0,-3998285.0,-1901171.0,-199264.0,191787.0,-4502884.0,-2356465.0,-6863956.0,0.0,-4391037.0,-2440999.0,4649570.0,-200979.0,0.0,0.0,0.0,0.0,0.0,0.0,0.0,0.0,0.0,0.0,0.0,0.0,0.0,0.0,0.0,0.0,0.0,0.0,0.0,0.0,0.0,0.0,0.0,0.0
3,0.2268970012664795,30.132984,90.365135,22.890821,0.0,3.376988,-0.235898,29.009459,28.301767,29.783419,90.316734,22.927628,0.0,3.616315,0.128016,28.453672,28.657459,3.0,1.0,111.0,0.0,1.0,-78234.0,-25704.0,13693.0,-77820.0,24947.0,13552.0,-0.934808,-0.237502,0.264059,-0.312359,0.195976,-0.92953,0.169016,-0.951413,-0.257386,-0.939608,0.199003,0.278449,0.299521,0.084471,0.950343,0.1656,0.976352,-0.138975,-0.934808,-0.237502,0.264059,-0.312359,0.195976,-0.92953,0.169016,-0.951413,-0.257386,-0.939608,0.199003,0.278449,0.299521,0.084471,0.950343,0.1656,0.976352,-0.138975,-78234.0,-25704.0,13693.0,-77820.0,24947.0,13552.0,-4453114.0,-2143223.0,-1240.0,0.0,-4194790.0,-2097902.0,-330.0,-2081.0,-4457813.0,-2228666.0,-6290985.0,0.0,-4193835.0,-2244001.0,-4455434.0,-1137.0,50.0,162.0,-45.0,0.0,-641.0,-767.0,462.0,-431.0,-41.0,-162.0,44.0,0.0,431.0,585.0,406.0,-784.0,-0.013613,-0.044087,0.012362,0.0,-0.023473,-0.028097,-0.016927,-0.015797,-0.011359,-0.044051,0.012141,0.0,0.015788,0.021439,-0.014873,-0.028717,4104.0,11513.970703,51494.671875,0.0,-17685.451172,-17705.791016,17963.460938,-17448.121094,4056.390137,11501.910156,51567.390625,0.0,17748.181641,17729.820312,-17472.240234,17985.78125,0.0,0.0,0.0,0.0,0.0,0.0,0.0,0.0,0.0,0.0,0.0,0.0,0.0,0.0,0.0,0.0,0.0,0.0,0.0,0.0,0.0,0.0,0.0,0.0,0.0,0.0,0.0,0.0,0.0,0.0,0.0,0.0,4103.927246,11513.938477,51494.796875,0.0,-17685.359375,-17705.617188,17963.693359,-17447.978516,4056.401855,11501.833984,51567.417969,0.0,17747.914062,17729.369141,-17471.794922,17985.964844,30.132452,90.364952,22.890884,0.0,3.393863,-0.216368,29.025614,28.327463,29.783504,90.316093,22.927645,0.0,3.566852,0.077899,28.528362,28.652824,1.0,0.996,4407514.0,2015290.0,-570923.0,0.0,-3998285.0,-1901171.0,-199264.0,191787.0,-4502884.0,-2356465.0,-6863956.0,0.0,-4391037.0,-2440999.0,4649570.0,-200979.0,0.0,0.0,0.0,0.0,0.0,0.0,0.0,0.0,0.0,0.0,0.0,0.0,0.0,0.0,0.0,0.0,0.0,0.0,0.0,0.0,0.0,0.0,0.0,0.0
4,0.2919020652770996,30.132984,90.365135,22.890821,0.0,3.376988,-0.235898,29.009459,28.301767,29.783419,90.316734,22.927628,0.0,3.616315,0.128016,28.453672,28.657459,3.0,1.0,111.0,0.0,1.0,-78234.0,-25704.0,13693.0,-77820.0,24947.0,13552.0,-0.934808,-0.237502,0.264059,-0.312359,0.195976,-0.92953,0.169016,-0.951413,-0.257386,-0.939608,0.199003,0.278449,0.299521,0.084471,0.950343,0.1656,0.976352,-0.138975,-0.934808,-0.237502,0.264059,-0.312359,0.195976,-0.92953,0.169016,-0.951413,-0.257386,-0.939608,0.199003,0.278449,0.299521,0.084471,0.950343,0.1656,0.976352,-0.138975,-78234.0,-25704.0,13693.0,-77820.0,24947.0,13552.0,-4453114.0,-2143223.0,-1240.0,0.0,-4194790.0,-2097902.0,-330.0,-2081.0,-4457813.0,-2228666.0,-6290985.0,0.0,-4193835.0,-2244001.0,-4455434.0,-1137.0,50.0,162.0,-45.0,0.0,-641.0,-767.0,462.0,-431.0,-41.0,-162.0,44.0,0.0,431.0,585.0,405.0,-784.0,-0.013613,-0.044087,0.012362,0.0,-0.023468,-0.028087,-0.016914,-0.015789,-0.011359,-0.044051,0.012141,0.0,0.015772,0.021414,-0.014848,-0.028706,4104.0,11513.970703,51494.671875,0.0,-17685.451172,-17705.791016,17963.460938,-17448.121094,4056.390137,11501.910156,51567.390625,0.0,17748.181641,17729.820312,-17472.240234,17985.78125,0.0,0.0,0.0,0.0,0.0,0.0,0.0,0.0,0.0,0.0,0.0,0.0,0.0,0.0,0.0,0.0,0.0,0.0,0.0,0.0,0.0,0.0,0.0,0.0,0.0,0.0,0.0,0.0,0.0,0.0,0.0,0.0,4103.927246,11513.938477,51494.796875,0.0,-17685.359375,-17705.617188,17963.693359,-17447.978516,4056.401855,11501.833984,51567.417969,0.0,17747.914062,17729.369141,-17471.794922,17985.964844,30.132452,90.364952,22.890884,0.0,3.393863,-0.216368,29.025614,28.327463,29.783504,90.316093,22.927645,0.0,3.566852,0.077899,28.528362,28.652824,1.0,0.996,4407514.0,2015290.0,-570923.0,0.0,-3998285.0,-1901171.0,-199264.0,191787.0,-4502884.0,-2356465.0,-6863956.0,0.0,-4391037.0,-2440999.0,4649570.0,-200979.0,0.0,0.0,0.0,0.0,0.0,0.0,0.0,0.0,0.0,0.0,0.0,0.0,0.0,0.0,0.0,0.0,0.0,0.0,0.0,0.0,0.0,0.0,0.0,0.0
5,0.36391711235046387,30.132984,90.365135,22.890821,0.0,3.376988,-0.235898,29.009459,28.301767,29.783419,90.316734,22.927628,0.0,3.616315,0.128016,28.453672,28.657459,3.0,1.0,111.0,0.0,1.0,-78234.0,-25704.0,13693.0,-77820.0,24947.0,13552.0,-0.934808,-0.237502,0.264059,-0.312359,0.195976,-0.92953,0.169016,-0.951413,-0.257386,-0.939608,0.199003,0.278449,0.299521,0.084471,0.950343,0.1656,0.976352,-0.138975,-0.934808,-0.237502,0.264059,-0.312359,0.195976,-0.92953,0.169016,-0.951413,-0.257386,-0.939608,0.199003,0.278449,0.299521,0.084471,0.950343,0.1656,0.976352,-0.138975,-78234.0,-25704.0,13693.0,-77820.0,24947.0,13552.0,-4453114.0,-2143223.0,-1240.0,0.0,-4194790.0,-2097902.0,-330.0,-2081.0,-4457813.0,-2228666.0,-6290985.0,0.0,-4193835.0,-2244001.0,-4455434.0,-1137.0,50.0,162.0,-45.0,0.0,-641.0,-767.0,461.0,-431.0,-41.0,-162.0,44.0,0.0,430.0,584.0,404.0,-784.0,-0.013613,-0.044087,0.012362,0.0,-0.023463,-0.028076,-0.0169,-0.01578,-0.011359,-0.044051,0.012141,0.0,0.015756,0.021385,-0.01482,-0.028695,4104.0,11513.970703,51494.671875,0.0,-17685.451172,-17705.791016,17963.460938,-17448.121094,4056.390137,11501.910156,51567.390625,0.0,17748.181641,17729.820312,-17472.240234,17985.78125,0.0,0.0,0.0,0.0,0.0,0.0,0.0,0.0,0.0,0.0,0.0,0.0,0.0,0.0,0.0,0.0,0.0,0.0,0.0,0.0,0.0,0.0,0.0,0.0,0.0,0.0,0.0,0.0,0.0,0.0,0.0,0.0,4103.927246,11513.938477,51494.796875,0.0,-17685.359375,-17705.617188,17963.693359,-17447.978516,4056.401855,11501.833984,51567.417969,0.0,17747.914062,17729.369141,-17471.794922,17985.964844,30.132452,90.364952,22.890884,0.0,3.393863,-0.216368,29.025614,28.327463,29.783504,90.316093,22.927645,0.0,3.566852,0.077899,28.528362,28.652824,1.0,0.996,4407514.0,2015290.0,-570923.0,0.0,-3998285.0,-1901171.0,-199264.0,191787.0,-4502884.0,-2356465.0,-6863956.0,0.0,-4391037.0,-2440999.0,4649570.0,-200979.0,0.0,0.0,0.0,0.0,0.0,0.0,0.0,0.0,0.0,0.0,0.0,0.0,0.0,0.0,0.0,0.0,0.0,0.0,0.0,0.0,0.0,0.0,0.0,0.0
6,0.43492794036865234,30.132984,90.365135,22.890821,0.0,3.376988,-0.235898,29.009459,28.301767,29.783419,90.316734,22.927628,0.0,3.616315,0.128016,28.453672,28.657459,3.0,1.0,111.0,0.0,1.0,-78234.0,-25704.0,13693.0,-77820.0,24947.0,13552.0,-0.934808,-0.237502,0.264059,-0.312359,0.195976,-0.92953,0.169016,-0.951413,-0.257386,-0.939608,0.199003,0.278449,0.299521,0.084471,0.950343,0.1656,0.976352,-0.138975,-0.934808,-0.237502,0.264059,-0.312359,0.195976,-0.92953,0.169016,-0.951413,-0.257386,-0.939608,0.199003,0.278449,0.299521,0.084471,0.950343,0.1656,0.976352,-0.138975,-78234.0,-25704.0,13693.0,-77820.0,24947.0,13552.0,-4453114.0,-2143223.0,-1240.0,0.0,-4194790.0,-2097902.0,-330.0,-2081.0,-4457813.0,-2228666.0,-6290985.0,0.0,-4193835.0,-2244001.0,-4455434.0,-1137.0,50.0,162.0,-45.0,0.0,-641.0,-766.0,461.0,-431.0,-41.0,-162.0,44.0,0.0,430.0,583.0,404.0,-783.0,-0.013613,-0.044087,0.012362,0.0,-0.023457,-0.028066,-0.016885,-0.015771,-0.011359,-0.044051,0.012141,0.0,0.015739,0.021358,-0.014792,-0.028683,4104.0,11513.970703,51494.671875,0.0,-17685.451172,-17705.791016,17963.460938,-17448.121094,4056.390137,11501.910156,51567.390625,0.0,17748.181641,17729.820312,-17472.240234,17985.78125,0.0,0.0,0.0,0.0,0.0,0.0,0.0,0.0,0.0,0.0,0.0,0.0,0.0,0.0,0.0,0.0,0.0,0.0,0.0,0.0,0.0,0.0,0.0,0.0,0.0,0.0,0.0,0.0,0.0,0.0,0.0,0.0,4103.927246,11513.938477,51494.796875,0.0,-17685.359375,-17705.617188,17963.693359,-17447.978516,4056.401855,11501.833984,51567.417969,0.0,17747.914062,17729.369141,-17471.794922,17985.964844,30.132452,90.364952,22.890884,0.0,3.393863,-0.216368,29.025614,28.327463,29.783504,90.316093,22.927645,0.0,3.566852,0.077899,28.528362,28.652824,1.0,0.996,4407514.0,2015290.0,-570923.0,0.0,-3998285.0,-1901171.0,-199264.0,191787.0,-4502884.0,-2356465.0,-6863956.0,0.0,-4391037.0,-2440999.0,4649570.0,-200979.0,0.0,0.0,0.0,0.0,0.0,0.0,0.0,0.0,0.0,0.0,0.0,0.0,0.0,0.0,0.0,0.0,0.0,0.0,0.0,0.0,0.0,0.0,0.0,0.0
7,0.5029020309448242,30.132984,90.365135,22.890821,0.0,3.376988,-0.235898,29.009459,28.301767,29.783419,90.316734,22.927628,0.0,3.616315,0.128016,28.453672,28.657459,3.0,1.0,111.0,0.0,1.0,-78234.0,-25704.0,13693.0,-77820.0,24947.0,13552.0,-0.934808,-0.237502,0.264059,-0.312359,0.195976,-0.92953,0.169016,-0.951413,-0.257386,-0.939608,0.199003,0.278449,0.299521,0.084471,0.950343,0.1656,0.976352,-0.138975,-0.934808,-0.237502,0.264059,-0.312359,0.195976,-0.92953,0.169016,-0.951413,-0.257386,-0.939608,0.199003,0.278449,0.299521,0.084471,0.950343,0.1656,0.976352,-0.138975,-78234.0,-25704.0,13693.0,-77820.0,24947.0,13552.0,-4453114.0,-2143223.0,-1240.0,0.0,-4194790.0,-2097902.0,-330.0,-2081.0,-4457813.0,-2228666.0,-6290985.0,0.0,-4193835.0,-2244001.0,-4455434.0,-1137.0,50.0,162.0,-45.0,0.0,-640.0,-766.0,461.0,-430.0,-41.0,-162.0,44.0,0.0,429.0,582.0,403.0,-783.0,-0.013613,-0.044087,0.012362,0.0,-0.023452,-0.028055,-0.016871,-0.015763,-0.011359,-0.044051,0.012141,0.0,0.015723,0.021331,-0.014766,-0.028672,4104.0,11513.970703,51494.671875,0.0,-17685.451172,-17705.791016,17963.460938,-17448.121094,4056.390137,11501.910156,51567.390625,0.0,17748.181641,17729.820312,-17472.240234,17985.78125,0.0,0.0,0.0,0.0,0.0,0.0,0.0,0.0,0.0,0.0,0.0,0.0,0.0,0.0,0.0,0.0,0.0,0.0,0.0,0.0,0.0,0.0,0.0,0.0,0.0,0.0,0.0,0.0,0.0,0.0,0.0,0.0,4103.927246,11513.938477,51494.796875,0.0,-17685.359375,-17705.617188,17963.693359,-17447.978516,4056.401855,11501.833984,51567.417969,0.0,17747.914062,17729.369141,-17471.794922,17985.964844,30.132452,90.364952,22.890884,0.0,3.393863,-0.216368,29.025614,28.327463,29.783504,90.316093,22.927645,0.0,3.566852,0.077899,28.528362,28.652824,1.0,0.996,4407514.0,2015290.0,-570923.0,0.0,-3998285.0,-1901171.0,-199264.0,191787.0,-4502884.0,-2356465.0,-6863956.0,0.0,-4391037.0,-2440999.0,4649570.0,-200979.0,0.0,0.0,0.0,0.0,0.0,0.0,0.0,0.0,0.0,0.0,0.0,0.0,0.0,0.0,0.0,0.0,0.0,0.0,0.0,0.0,0.0,0.0,0.0,0.0
8,0.5698790550231934,30.132984,90.365135,22.890821,0.0,3.376988,-0.235898,29.009459,28.301767,29.783419,90.316734,22.927628,0.0,3.616315,0.128016,28.453672,28.657459,3.0,1.0,111.0,0.0,1.0,-78234.0,-25704.0,13693.0,-77820.0,24947.0,13552.0,-0.934808,-0.237502,0.264059,-0.312359,0.195976,-0.92953,0.169016,-0.951413,-0.257386,-0.939608,0.199003,0.278449,0.299521,0.084471,0.950343,0.1656,0.976352,-0.138975,-0.934808,-0.237502,0.264059,-0.312359,0.195976,-0.92953,0.169016,-0.951413,-0.257386,-0.939608,0.199003,0.278449,0.299521,0.084471,0.950343,0.1656,0.976352,-0.138975,-78234.0,-25704.0,13693.0,-77820.0,24947.0,13552.0,-4453114.0,-2143223.0,-1240.0,0.0,-4194790.0,-2097902.0,-330.0,-2081.0,-4457813.0,-2228666.0,-6290985.0,0.0,-4193835.0,-2244001.0,-4455434.0,-1137.0,50.0,162.0,-45.0,0.0,-640.0,-766.0,460.0,-430.0,-41.0,-162.0,44.0,0.0,429.0,582.0,402.0,-783.0,-0.013613,-0.044087,0.012362,0.0,-0.023446,-0.028045,-0.016858,-0.015754,-0.011359,-0.044051,0.012141,0.0,0.015707,0.021304,-0.01474,-0.028661,4104.0,11513.970703,51494.671875,0.0,-17685.451172,-17705.791016,17963.460938,-17448.121094,4056.390137,11501.910156,51567.390625,0.0,17748.181641,17729.820312,-17472.240234,17985.78125,0.0,0.0,0.0,0.0,0.0,0.0,0.0,0.0,0.0,0.0,0.0,0.0,0.0,0.0,0.0,0.0,0.0,0.0,0.0,0.0,0.0,0.0,0.0,0.0,0.0,0.0,0.0,0.0,0.0,0.0,0.0,0.0,4103.927246,11513.938477,51494.796875,0.0,-17685.359375,-17705.617188,17963.693359,-17447.978516,4056.401855,11501.833984,51567.417969,0.0,17747.914062,17729.369141,-17471.794922,17985.964844,30.132452,90.364952,22.890884,0.0,3.393863,-0.216368,29.025614,28.327463,29.783504,90.316093,22.927645,0.0,3.566852,0.077899,28.528362,28.652824,1.0,0.996,4407514.0,2015290.0,-570923.0,0.0,-3998285.0,-1901171.0,-199264.0,191787.0,-4502884.0,-2356465.0,-6863956.0,0.0,-4391037.0,-2440999.0,4649570.0,-200979.0,0.0,0.0,0.0,0.0,0.0,0.0,0.0,0.0,0.0,0.0,0.0,0.0,0.0,0.0,0.0,0.0,0.0,0.0,0.0,0.0,0.0,0.0,0.0,0.0
9,0.6339430809020996,30.132984,90.365135,22.890821,0.0,3.376988,-0.235898,29.009459,28.301767,29.783419,90.316734,22.927628,0.0,3.616315,0.128016,28.453672,28.657459,3.0,1.0,111.0,0.0,1.0,-78234.0,-25704.0,13693.0,-77820.0,24947.0,13552.0,-0.934808,-0.237502,0.264059,-0.312359,0.195976,-0.92953,0.169016,-0.951413,-0.257386,-0.939608,0.199003,0.278449,0.299521,0.084471,0.950343,0.1656,0.976352,-0.138975,-0.934808,-0.237502,0.264059,-0.312359,0.195976,-0.92953,0.169016,-0.951413,-0.257386,-0.939608,0.199003,0.278449,0.299521,0.084471,0.950343,0.1656,0.976352,-0.138975,-78234.0,-25704.0,13693.0,-77820.0,24947.0,13552.0,-4453114.0,-2143223.0,-1240.0,0.0,-4194790.0,-2097902.0,-330.0,-2081.0,-4457813.0,-2228666.0,-6290985.0,0.0,-4193835.0,-2244001.0,-4455434.0,-1137.0,50.0,162.0,-45.0,0.0,-640.0,-766.0,460.0,-430.0,-41.0,-162.0,44.0,0.0,428.0,581.0,402.0,-782.0,-0.013613,-0.044087,0.012362,0.0,-0.023441,-0.028035,-0.016845,-0.015746,-0.011359,-0.044051,0.012141,0.0,0.015692,0.021279,-0.014715,-0.028651,4104.0,11513.970703,51494.671875,0.0,-17685.451172,-17705.791016,17963.460938,-17448.121094,4056.390137,11501.910156,51567.390625,0.0,17748.181641,17729.820312,-17472.240234,17985.78125,0.0,0.0,0.0,0.0,0.0,0.0,0.0,0.0,0.0,0.0,0.0,0.0,0.0,0.0,0.0,0.0,0.0,0.0,0.0,0.0,0.0,0.0,0.0,0.0,0.0,0.0,0.0,0.0,0.0,0.0,0.0,0.0,4103.927246,11513.938477,51494.796875,0.0,-17685.359375,-17705.617188,17963.693359,-17447.978516,4056.401855,11501.833984,51567.417969,0.0,17747.914062,17729.369141,-17471.794922,17985.964844,30.132452,90.364952,22.890884,0.0,3.393863,-0.216368,29.025614,28.327463,29.783504,90.316093,22.927645,0.0,3.566852,0.077899,28.528362,28.652824,1.0,0.996,4407514.0,2015290.0,-570923.0,0.0,-3998285.0,-1901171.0,-199264.0,191787.0,-4502884.0,-2356465.0,-6863956.0,0.0,-4391037.0,-2440999.0,4649570.0,-200979.0,0.0,0.0,0.0,0.0,0.0,0.0,0.0,0.0,0.0,0.0,0.0,0.0,0.0,0.0,0.0,0.0,0.0,0.0,0.0,0.0,0.0,0.0,0.0,0.0
10,0.6999490261077881,30.132984,90.365135,22.890821,0.0,3.376988,-0.235898,29.009459,28.301767,29.783419,90.316734,22.927628,0.0,3.616315,0.128016,28.453672,28.657459,3.0,1.0,111.0,0.0,1.0,-78234.0,-25704.0,13693.0,-77820.0,24947.0,13552.0,-0.934808,-0.237502,0.264059,-0.312359,0.195976,-0.92953,0.169016,-0.951413,-0.257386,-0.939608,0.199003,0.278449,0.299521,0.084471,0.950343,0.1656,0.976352,-0.138975,-0.934808,-0.237502,0.264059,-0.312359,0.195976,-0.92953,0.169016,-0.951413,-0.257386,-0.939608,0.199003,0.278449,0.299521,0.084471,0.950343,0.1656,0.976352,-0.138975,-78234.0,-25704.0,13693.0,-77820.0,24947.0,13552.0,-4453114.0,-2143223.0,-1240.0,0.0,-4194790.0,-2097902.0,-330.0,-2081.0,-4457813.0,-2228666.0,-6290985.0,0.0,-4193835.0,-2244001.0,-4455434.0,-1137.0,50.0,162.0,-45.0,0.0,-640.0,-765.0,459.0,-430.0,-41.0,-162.0,44.0,0.0,428.0,580.0,401.0,-782.0,-0.013613,-0.044087,0.012362,0.0,-0.023436,-0.028025,-0.016832,-0.015738,-0.011359,-0.044051,0.012141,0.0,0.015677,0.021253,-0.014689,-0.02864,4104.0,11513.970703,51494.671875,0.0,-17685.451172,-17705.791016,17963.460938,-17448.121094,4056.390137,11501.910156,51567.390625,0.0,17748.181641,17729.820312,-17472.240234,17985.78125,0.0,0.0,0.0,0.0,0.0,0.0,0.0,0.0,0.0,0.0,0.0,0.0,0.0,0.0,0.0,0.0,0.0,0.0,0.0,0.0,0.0,0.0,0.0,0.0,0.0,0.0,0.0,0.0,0.0,0.0,0.0,0.0,4103.927246,11513.938477,51494.796875,0.0,-17685.359375,-17705.617188,17963.693359,-17447.978516,4056.401855,11501.833984,51567.417969,0.0,17747.914062,17729.369141,-17471.794922,17985.964844,30.132452,90.364952,22.890884,0.0,3.393863,-0.216368,29.025614,28.327463,29.783504,90.316093,22.927645,0.0,3.566852,0.077899,28.528362,28.652824,1.0,0.996,4407514.0,2015290.0,-570923.0,0.0,-3998285.0,-1901171.0,-199264.0,191787.0,-4502884.0,-2356465.0,-6863956.0,0.0,-4391037.0,-2440999.0,4649570.0,-200979.0,0.0,0.0,0.0,0.0,0.0,0.0,0.0,0.0,0.0,0.0,0.0,0.0,0.0,0.0,0.0,0.0,0.0,0.0,0.0,0.0,0.0,0.0,0.0,0.0
11,0.768949031829834,30.132984,90.365135,22.890821,0.0,3.376988,-0.235898,29.009459,28.301767,29.783419,90.316734,22.927628,0.0,3.616315,0.128016,28.453672,28.657459,3.0,1.0,111.0,0.0,1.0,-78234.0,-25704.0,13693.0,-77820.0,24947.0,13552.0,-0.934808,-0.237502,0.264059,-0.312359,0.195976,-0.92953,0.169016,-0.951413,-0.257386,-0.939608,0.199003,0.278449,0.299521,0.084471,0.950343,0.1656,0.976352,-0.138975,-0.934808,-0.237502,0.264059,-0.312359,0.195976,-0.92953,0.169016,-0.951413,-0.257386,-0.939608,0.199003,0.278449,0.299521,0.084471,0.950343,0.1656,0.976352,-0.138975,-78234.0,-25704.0,13693.0,-77820.0,24947.0,13552.0,-4453114.0,-2143223.0,-1240.0,0.0,-4194790.0,-2097902.0,-330.0,-2081.0,-4457813.0,-2228666.0,-6290985.0,0.0,-4193835.0,-2244001.0,-4455434.0,-1137.0,50.0,162.0,-45.0,0.0,-640.0,-765.0,459.0,-429.0,-41.0,-162.0,44.0,0.0,427.0,580.0,400.0,-782.0,-0.013613,-0.044087,0.012362,0.0,-0.023431,-0.028015,-0.016818,-0.015729,-0.011359,-0.044051,0.012141,0.0,0.015661,0.021226,-0.014662,-0.028629,4104.0,11513.970703,51494.671875,0.0,-17685.451172,-17705.791016,17963.460938,-17448.121094,4056.390137,11501.910156,51567.390625,0.0,17748.181641,17729.820312,-17472.240234,17985.78125,0.0,0.0,0.0,0.0,0.0,0.0,0.0,0.0,0.0,0.0,0.0,0.0,0.0,0.0,0.0,0.0,0.0,0.0,0.0,0.0,0.0,0.0,0.0,0.0,0.0,0.0,0.0,0.0,0.0,0.0,0.0,0.0,4103.927246,11513.938477,51494.796875,0.0,-17685.359375,-17705.617188,17963.693359,-17447.978516,4056.401855,11501.833984,51567.417969,0.0,17747.914062,17729.369141,-17471.794922,17985.964844,30.132452,90.364952,22.890884,0.0,3.393863,-0.216368,29.025614,28.327463,29.783504,90.316093,22.927645,0.0,3.566852,0.077899,28.528362,28.652824,1.0,0.996,4407514.0,2015290.0,-570923.0,0.0,-3998285.0,-1901171.0,-199264.0,191787.0,-4502884.0,-2356465.0,-6863956.0,0.0,-4391037.0,-2440999.0,4649570.0,-200979.0,0.0,0.0,0.0,0.0,0.0,0.0,0.0,0.0,0.0,0.0,0.0,0.0,0.0,0.0,0.0,0.0,0.0,0.0,0.0,0.0,0.0,0.0,0.0,0.0
12,0.8349621295928955,30.132984,90.365135,22.890821,0.0,3.376988,-0.235898,29.009459,28.301767,29.783419,90.316734,22.927628,0.0,3.616315,0.128016,28.453672,28.657459,3.0,1.0,111.0,0.0,1.0,-78234.0,-25704.0,13693.0,-77820.0,24947.0,13552.0,-0.934808,-0.237502,0.264059,-0.312359,0.195976,-0.92953,0.169016,-0.951413,-0.257386,-0.939608,0.199003,0.278449,0.299521,0.084471,0.950343,0.1656,0.976352,-0.138975,-0.934808,-0.237502,0.264059,-0.312359,0.195976,-0.92953,0.169016,-0.951413,-0.257386,-0.939608,0.199003,0.278449,0.299521,0.084471,0.950343,0.1656,0.976352,-0.138975,-78234.0,-25704.0,13693.0,-77820.0,24947.0,13552.0,-4453114.0,-2143223.0,-1240.0,0.0,-4194790.0,-2097902.0,-330.0,-2081.0,-4457813.0,-2228666.0,-6290985.0,0.0,-4193835.0,-2244001.0,-4455434.0,-1137.0,50.0,162.0,-45.0,0.0,-640.0,-765.0,459.0,-429.0,-41.0,-162.0,44.0,0.0,427.0,579.0,399.0,-782.0,-0.013613,-0.044087,0.012362,0.0,-0.023425,-0.028005,-0.016804,-0.015721,-0.011359,-0.044051,0.012141,0.0,0.015645,0.0212,-0.014637,-0.028619,4104.0,11513.970703,51494.671875,0.0,-17685.451172,-17705.791016,17963.460938,-17448.121094,4056.390137,11501.910156,51567.390625,0.0,17748.181641,17729.820312,-17472.240234,17985.78125,0.0,0.0,0.0,0.0,0.0,0.0,0.0,0.0,0.0,0.0,0.0,0.0,0.0,0.0,0.0,0.0,0.0,0.0,0.0,0.0,0.0,0.0,0.0,0.0,0.0,0.0,0.0,0.0,0.0,0.0,0.0,0.0,4103.927246,11513.938477,51494.796875,0.0,-17685.359375,-17705.617188,17963.693359,-17447.978516,4056.401855,11501.833984,51567.417969,0.0,17747.914062,17729.369141,-17471.794922,17985.964844,30.132452,90.364952,22.890884,0.0,3.393863,-0.216368,29.025614,28.327463,29.783504,90.316093,22.927645,0.0,3.566852,0.077899,28.528362,28.652824,1.0,0.996,4407514.0,2015290.0,-570923.0,0.0,-3998285.0,-1901171.0,-199264.0,191787.0,-4502884.0,-2356465.0,-6863956.0,0.0,-4391037.0,-2440999.0,4649570.0,-200979.0,0.0,0.0,0.0,0.0,0.0,0.0,0.0,0.0,0.0,0.0,0.0,0.0,0.0,0.0,0.0,0.0,0.0,0.0,0.0,0.0,0.0,0.0,0.0,0.0
13,0.9009571075439453,30.132984,90.365135,22.890821,0.0,3.376988,-0.235898,29.009459,28.301767,29.783419,90.316734,22.927628,0.0,3.616315,0.128016,28.453672,28.657459,3.0,1.0,111.0,0.0,1.0,-78234.0,-25704.0,13693.0,-77820.0,24947.0,13552.0,-0.934808,-0.237502,0.264059,-0.312359,0.195976,-0.92953,0.169016,-0.951413,-0.257386,-0.939608,0.199003,0.278449,0.299521,0.084471,0.950343,0.1656,0.976352,-0.138975,-0.934808,-0.237502,0.264059,-0.312359,0.195976,-0.92953,0.169016,-0.951413,-0.257386,-0.939608,0.199003,0.278449,0.299521,0.084471,0.950343,0.1656,0.976352,-0.138975,-78234.0,-25704.0,13693.0,-77820.0,24947.0,13552.0,-4453114.0,-2143223.0,-1240.0,0.0,-4194790.0,-2097902.0,-330.0,-2081.0,-4457813.0,-2228666.0,-6290985.0,0.0,-4193835.0,-2244001.0,-4455434.0,-1137.0,50.0,162.0,-45.0,0.0,-640.0,-765.0,458.0,-429.0,-41.0,-162.0,44.0,0.0,427.0,578.0,399.0,-781.0,-0.013613,-0.044087,0.012362,0.0,-0.02342,-0.027995,-0.016791,-0.015713,-0.011359,-0.044051,0.012141,0.0,0.01563,0.021174,-0.014611,-0.028608,4104.0,11513.970703,51494.671875,0.0,-17685.451172,-17705.791016,17963.460938,-17448.121094,4056.390137,11501.910156,51567.390625,0.0,17748.181641,17729.820312,-17472.240234,17985.78125,0.0,0.0,0.0,0.0,0.0,0.0,0.0,0.0,0.0,0.0,0.0,0.0,0.0,0.0,0.0,0.0,0.0,0.0,0.0,0.0,0.0,0.0,0.0,0.0,0.0,0.0,0.0,0.0,0.0,0.0,0.0,0.0,4103.927246,11513.938477,51494.796875,0.0,-17685.359375,-17705.617188,17963.693359,-17447.978516,4056.401855,11501.833984,51567.417969,0.0,17747.914062,17729.369141,-17471.794922,17985.964844,30.132452,90.364952,22.890884,0.0,3.393863,-0.216368,29.025614,28.327463,29.783504,90.316093,22.927645,0.0,3.566852,0.077899,28.528362,28.652824,1.0,0.996,4407514.0,2015290.0,-570923.0,0.0,-3998285.0,-1901171.0,-199264.0,191787.0,-4502884.0,-2356465.0,-6863956.0,0.0,-4391037.0,-2440999.0,4649570.0,-200979.0,0.0,0.0,0.0,0.0,0.0,0.0,0.0,0.0,0.0,0.0,0.0,0.0,0.0,0.0,0.0,0.0,0.0,0.0,0.0,0.0,0.0,0.0,0.0,0.0
14,0.9659550189971924,30.132984,90.365135,22.890821,0.0,3.376988,-0.235898,29.009459,28.301767,29.783419,90.316734,22.927628,0.0,3.616315,0.128016,28.453672,28.657459,3.0,1.0,111.0,0.0,1.0,-78234.0,-25704.0,13693.0,-77820.0,24947.0,13552.0,-0.934808,-0.237502,0.264059,-0.312359,0.195976,-0.92953,0.169016,-0.951413,-0.257386,-0.939608,0.199003,0.278449,0.299521,0.084471,0.950343,0.1656,0.976352,-0.138975,-0.934808,-0.237502,0.264059,-0.312359,0.195976,-0.92953,0.169016,-0.951413,-0.257386,-0.939608,0.199003,0.278449,0.299521,0.084471,0.950343,0.1656,0.976352,-0.138975,-78234.0,-25704.0,13693.0,-77820.0,24947.0,13552.0,-4453114.0,-2143223.0,-1240.0,0.0,-4194790.0,-2097902.0,-330.0,-2081.0,-4457813.0,-2228666.0,-6290985.0,0.0,-4193835.0,-2244001.0,-4455434.0,-1137.0,50.0,162.0,-45.0,0.0,-639.0,-764.0,458.0,-429.0,-41.0,-162.0,44.0,0.0,426.0,577.0,398.0,-781.0,-0.013613,-0.044087,0.012362,0.0,-0.023415,-0.027985,-0.016778,-0.015705,-0.011359,-0.044051,0.012141,0.0,0.015615,0.021149,-0.014586,-0.028598,4104.0,11513.970703,51494.671875,0.0,-17685.451172,-17705.791016,17963.460938,-17448.121094,4056.390137,11501.910156,51567.390625,0.0,17748.181641,17729.820312,-17472.240234,17985.78125,0.0,0.0,0.0,0.0,0.0,0.0,0.0,0.0,0.0,0.0,0.0,0.0,0.0,0.0,0.0,0.0,0.0,0.0,0.0,0.0,0.0,0.0,0.0,0.0,0.0,0.0,0.0,0.0,0.0,0.0,0.0,0.0,4103.927246,11513.938477,51494.796875,0.0,-17685.359375,-17705.617188,17963.693359,-17447.978516,4056.401855,11501.833984,51567.417969,0.0,17747.914062,17729.369141,-17471.794922,17985.964844,30.132452,90.364952,22.890884,0.0,3.393863,-0.216368,29.025614,28.327463,29.783504,90.316093,22.927645,0.0,3.566852,0.077899,28.528362,28.652824,1.0,0.996,4407514.0,2015290.0,-570923.0,0.0,-3998285.0,-1901171.0,-199264.0,191787.0,-4502884.0,-2356465.0,-6863956.0,0.0,-4391037.0,-2440999.0,4649570.0,-200979.0,0.0,0.0,0.0,0.0,0.0,0.0,0.0,0.0,0.0,0.0,0.0,0.0,0.0,0.0,0.0,0.0,0.0,0.0,0.0,0.0,0.0,0.0,0.0,0.0
15,1.0329549312591553,30.132984,90.365135,22.890821,0.0,3.376988,-0.235898,29.009459,28.301767,29.783419,90.316734,22.927628,0.0,3.616315,0.128016,28.453672,28.657459,3.0,1.0,111.0,0.0,1.0,-78234.0,-25704.0,13693.0,-77820.0,24947.0,13552.0,-0.934808,-0.237502,0.264059,-0.312359,0.195976,-0.92953,0.169016,-0.951413,-0.257386,-0.939608,0.199003,0.278449,0.299521,0.084471,0.950343,0.1656,0.976352,-0.138975,-0.934808,-0.237502,0.264059,-0.312359,0.195976,-0.92953,0.169016,-0.951413,-0.257386,-0.939608,0.199003,0.278449,0.299521,0.084471,0.950343,0.1656,0.976352,-0.138975,-78234.0,-25704.0,13693.0,-77820.0,24947.0,13552.0,-4453114.0,-2143223.0,-1240.0,0.0,-4194790.0,-2097902.0,-330.0,-2081.0,-4457813.0,-2228666.0,-6290985.0,0.0,-4193835.0,-2244001.0,-4455434.0,-1137.0,50.0,162.0,-45.0,0.0,-639.0,-764.0,458.0,-428.0,-41.0,-162.0,44.0,0.0,426.0,577.0,397.0,-781.0,-0.013613,-0.044087,0.012362,0.0,-0.02341,-0.027975,-0.016764,-0.015696,-0.011359,-0.044051,0.012141,0.0,0.015599,0.021122,-0.01456,-0.028587,4104.0,11513.970703,51494.671875,0.0,-17685.451172,-17705.791016,17963.460938,-17448.121094,4056.390137,11501.910156,51567.390625,0.0,17748.181641,17729.820312,-17472.240234,17985.78125,0.0,0.0,0.0,0.0,0.0,0.0,0.0,0.0,0.0,0.0,0.0,0.0,0.0,0.0,0.0,0.0,0.0,0.0,0.0,0.0,0.0,0.0,0.0,0.0,0.0,0.0,0.0,0.0,0.0,0.0,0.0,0.0,4103.927246,11513.938477,51494.796875,0.0,-17685.359375,-17705.617188,17963.693359,-17447.978516,4056.401855,11501.833984,51567.417969,0.0,17747.914062,17729.369141,-17471.794922,17985.964844,30.132452,90.364952,22.890884,0.0,3.393863,-0.216368,29.025614,28.327463,29.783504,90.316093,22.927645,0.0,3.566852,0.077899,28.528362,28.652824,1.0,0.996,4407514.0,2015290.0,-570923.0,0.0,-3998285.0,-1901171.0,-199264.0,191787.0,-4502884.0,-2356465.0,-6863956.0,0.0,-4391037.0,-2440999.0,4649570.0,-200979.0,0.0,0.0,0.0,0.0,0.0,0.0,0.0,0.0,0.0,0.0,0.0,0.0,0.0,0.0,0.0,0.0,0.0,0.0,0.0,0.0,0.0,0.0,0.0,0.0
16,1.0979499816894531,30.132984,90.365135,22.890821,0.0,3.376988,-0.235898,29.009459,28.301767,29.783419,90.316734,22.927628,0.0,3.616315,0.128016,28.453672,28.657459,3.0,1.0,111.0,0.0,1.0,-78234.0,-25704.0,13693.0,-77820.0,24947.0,13552.0,-0.934808,-0.237502,0.264059,-0.312359,0.195976,-0.92953,0.169016,-0.951413,-0.257386,-0.939608,0.199003,0.278449,0.299521,0.084471,0.950343,0.1656,0.976352,-0.138975,-0.934808,-0.237502,0.264059,-0.312359,0.195976,-0.92953,0.169016,-0.951413,-0.257386,-0.939608,0.199003,0.278449,0.299521,0.084471,0.950343,0.1656,0.976352,-0.138975,-78234.0,-25704.0,13693.0,-77820.0,24947.0,13552.0,-4453114.0,-2143223.0,-1240.0,0.0,-4194790.0,-2097902.0,-330.0,-2081.0,-4457813.0,-2228666.0,-6290985.0,0.0,-4193835.0,-2244001.0,-4455434.0,-1137.0,50.0,162.0,-45.0,0.0,-639.0,-764.0,457.0,-428.0,-41.0,-162.0,44.0,0.0,425.0,576.0,397.0,-780.0,-0.013613,-0.044087,0.012362,0.0,-0.023405,-0.027965,-0.016751,-0.015688,-0.011359,-0.044051,0.012141,0.0,0.015584,0.021097,-0.014534,-0.028576,4104.0,11513.970703,51494.671875,0.0,-17685.451172,-17705.791016,17963.460938,-17448.121094,4056.390137,11501.910156,51567.390625,0.0,17748.181641,17729.820312,-17472.240234,17985.78125,0.0,0.0,0.0,0.0,0.0,0.0,0.0,0.0,0.0,0.0,0.0,0.0,0.0,0.0,0.0,0.0,0.0,0.0,0.0,0.0,0.0,0.0,0.0,0.0,0.0,0.0,0.0,0.0,0.0,0.0,0.0,0.0,4103.927246,11513.938477,51494.796875,0.0,-17685.359375,-17705.617188,17963.693359,-17447.978516,4056.401855,11501.833984,51567.417969,0.0,17747.914062,17729.369141,-17471.794922,17985.964844,30.132452,90.364952,22.890884,0.0,3.393863,-0.216368,29.025614,28.327463,29.783504,90.316093,22.927645,0.0,3.566852,0.077899,28.528362,28.652824,1.0,0.996,4407514.0,2015290.0,-570923.0,0.0,-3998285.0,-1901171.0,-199264.0,191787.0,-4502884.0,-2356465.0,-6863956.0,0.0,-4391037.0,-2440999.0,4649570.0,-200979.0,0.0,0.0,0.0,0.0,0.0,0.0,0.0,0.0,0.0,0.0,0.0,0.0,0.0,0.0,0.0,0.0,0.0,0.0,0.0,0.0,0.0,0.0,0.0,0.0
17,1.168956995010376,30.132984,90.365135,22.890821,0.0,3.376988,-0.235898,29.009459,28.301767,29.783419,90.316734,22.927628,0.0,3.616315,0.128016,28.453672,28.657459,3.0,1.0,111.0,0.0,1.0,-78234.0,-25704.0,13693.0,-77820.0,24947.0,13552.0,-0.934808,-0.237502,0.264059,-0.312359,0.195976,-0.92953,0.169016,-0.951413,-0.257386,-0.939608,0.199003,0.278449,0.299521,0.084471,0.950343,0.1656,0.976352,-0.138975,-0.934808,-0.237502,0.264059,-0.312359,0.195976,-0.92953,0.169016,-0.951413,-0.257386,-0.939608,0.199003,0.278449,0.299521,0.084471,0.950343,0.1656,0.976352,-0.138975,-78234.0,-25704.0,13693.0,-77820.0,24947.0,13552.0,-4453114.0,-2143223.0,-1240.0,0.0,-4194790.0,-2097902.0,-330.0,-2081.0,-4457813.0,-2228666.0,-6290985.0,0.0,-4193835.0,-2244001.0,-4455434.0,-1137.0,50.0,162.0,-45.0,0.0,-639.0,-763.0,457.0,-428.0,-41.0,-162.0,44.0,0.0,425.0,575.0,396.0,-780.0,-0.013613,-0.044087,0.012362,0.0,-0.023399,-0.027954,-0.016737,-0.015679,-0.011359,-0.044051,0.012141,0.0,0.015567,0.021069,-0.014507,-0.028565,4104.0,11513.970703,51494.671875,0.0,-17685.451172,-17705.791016,17963.460938,-17448.121094,4056.390137,11501.910156,51567.390625,0.0,17748.181641,17729.820312,-17472.240234,17985.78125,0.0,0.0,0.0,0.0,0.0,0.0,0.0,0.0,0.0,0.0,0.0,0.0,0.0,0.0,0.0,0.0,0.0,0.0,0.0,0.0,0.0,0.0,0.0,0.0,0.0,0.0,0.0,0.0,0.0,0.0,0.0,0.0,4103.927246,11513.938477,51494.796875,0.0,-17685.359375,-17705.617188,17963.693359,-17447.978516,4056.401855,11501.833984,51567.417969,0.0,17747.914062,17729.369141,-17471.794922,17985.964844,30.132452,90.364952,22.890884,0.0,3.393863,-0.216368,29.025614,28.327463,29.783504,90.316093,22.927645,0.0,3.566852,0.077899,28.528362,28.652824,1.0,0.996,4407514.0,2015290.0,-570923.0,0.0,-3998285.0,-1901171.0,-199264.0,191787.0,-4502884.0,-2356465.0,-6863956.0,0.0,-4391037.0,-2440999.0,4649570.0,-200979.0,0.0,0.0,0.0,0.0,0.0,0.0,0.0,0.0,0.0,0.0,0.0,0.0,0.0,0.0,0.0,0.0,0.0,0.0,0.0,0.0,0.0,0.0,0.0,0.0
18,1.2409570217132568,30.132984,90.365135,22.890821,0.0,3.376988,-0.235898,29.009459,28.301767,29.783419,90.316734,22.927628,0.0,3.616315,0.128016,28.453672,28.657459,3.0,1.0,111.0,0.0,1.0,-78234.0,-25704.0,13693.0,-77820.0,24947.0,13552.0,-0.934808,-0.237502,0.264059,-0.312359,0.195976,-0.92953,0.169016,-0.951413,-0.257386,-0.939608,0.199003,0.278449,0.299521,0.084471,0.950343,0.1656,0.976352,-0.138975,-0.934808,-0.237502,0.264059,-0.312359,0.195976,-0.92953,0.169016,-0.951413,-0.257386,-0.939608,0.199003,0.278449,0.299521,0.084471,0.950343,0.1656,0.976352,-0.138975,-78234.0,-25704.0,13693.0,-77820.0,24947.0,13552.0,-4453114.0,-2143223.0,-1240.0,0.0,-4194790.0,-2097902.0,-330.0,-2081.0,-4457813.0,-2228666.0,-6290985.0,0.0,-4193835.0,-2244001.0,-4455434.0,-1137.0,50.0,162.0,-45.0,0.0,-639.0,-763.0,456.0,-428.0,-41.0,-162.0,44.0,0.0,424.0,575.0,395.0,-780.0,-0.013613,-0.044087,0.012362,0.0,-0.023393,-0.027943,-0.016722,-0.01567,-0.011359,-0.044051,0.012141,0.0,0.01555,0.02104,-0.014479,-0.028553,4104.0,11513.970703,51494.671875,0.0,-17685.451172,-17705.791016,17963.460938,-17448.121094,4056.390137,11501.910156,51567.390625,0.0,17748.181641,17729.820312,-17472.240234,17985.78125,0.0,0.0,0.0,0.0,0.0,0.0,0.0,0.0,0.0,0.0,0.0,0.0,0.0,0.0,0.0,0.0,0.0,0.0,0.0,0.0,0.0,0.0,0.0,0.0,0.0,0.0,0.0,0.0,0.0,0.0,0.0,0.0,4103.927246,11513.938477,51494.796875,0.0,-17685.359375,-17705.617188,17963.693359,-17447.978516,4056.401855,11501.833984,51567.417969,0.0,17747.914062,17729.369141,-17471.794922,17985.964844,30.132452,90.364952,22.890884,0.0,3.393863,-0.216368,29.025614,28.327463,29.783504,90.316093,22.927645,0.0,3.566852,0.077899,28.528362,28.652824,1.0,0.996,4407514.0,2015290.0,-570923.0,0.0,-3998285.0,-1901171.0,-199264.0,191787.0,-4502884.0,-2356465.0,-6863956.0,0.0,-4391037.0,-2440999.0,4649570.0,-200979.0,0.0,0.0,0.0,0.0,0.0,0.0,0.0,0.0,0.0,0.0,0.0,0.0,0.0,0.0,0.0,0.0,0.0,0.0,0.0,0.0,0.0,0.0,0.0,0.0
19,1.3109679222106934,30.132984,90.365135,22.890821,0.0,3.376988,-0.235898,29.009459,28.301767,29.783419,90.316734,22.927628,0.0,3.616315,0.128016,28.453672,28.657459,3.0,1.0,111.0,0.0,1.0,-78234.0,-25704.0,13693.0,-77820.0,24947.0,13552.0,-0.934808,-0.237502,0.264059,-0.312359,0.195976,-0.92953,0.169016,-0.951413,-0.257386,-0.939608,0.199003,0.278449,0.299521,0.084471,0.950343,0.1656,0.976352,-0.138975,-0.934808,-0.237502,0.264059,-0.312359,0.195976,-0.92953,0.169016,-0.951413,-0.257386,-0.939608,0.199003,0.278449,0.299521,0.084471,0.950343,0.1656,0.976352,-0.138975,-78234.0,-25704.0,13693.0,-77820.0,24947.0,13552.0,-4453114.0,-2143223.0,-1240.0,0.0,-4194790.0,-2097902.0,-330.0,-2081.0,-4457813.0,-2228666.0,-6290985.0,0.0,-4193835.0,-2244001.0,-4455434.0,-1137.0,50.0,162.0,-45.0,0.0,-639.0,-763.0,456.0,-428.0,-41.0,-162.0,44.0,0.0,424.0,574.0,394.0,-780.0,-0.013613,-0.044087,0.012362,0.0,-0.023388,-0.027932,-0.016708,-0.015661,-0.011359,-0.044051,0.012141,0.0,0.015534,0.021013,-0.014451,-0.028542,4104.0,11513.970703,51494.671875,0.0,-17685.451172,-17705.791016,17963.460938,-17448.121094,4056.390137,11501.910156,51567.390625,0.0,17748.181641,17729.820312,-17472.240234,17985.78125,0.0,0.0,0.0,0.0,0.0,0.0,0.0,0.0,0.0,0.0,0.0,0.0,0.0,0.0,0.0,0.0,0.0,0.0,0.0,0.0,0.0,0.0,0.0,0.0,0.0,0.0,0.0,0.0,0.0,0.0,0.0,0.0,4103.927246,11513.938477,51494.796875,0.0,-17685.359375,-17705.617188,17963.693359,-17447.978516,4056.401855,11501.833984,51567.417969,0.0,17747.914062,17729.369141,-17471.794922,17985.964844,30.132452,90.364952,22.890884,0.0,3.393863,-0.216368,29.025614,28.327463,29.783504,90.316093,22.927645,0.0,3.566852,0.077899,28.528362,28.652824,1.0,0.996,4407514.0,2015290.0,-570923.0,0.0,-3998285.0,-1901171.0,-199264.0,191787.0,-4502884.0,-2356465.0,-6863956.0,0.0,-4391037.0,-2440999.0,4649570.0,-200979.0,0.0,0.0,0.0,0.0,0.0,0.0,0.0,0.0,0.0,0.0,0.0,0.0,0.0,0.0,0.0,0.0,0.0,0.0,0.0,0.0,0.0,0.0,0.0,0.0
20,1.3799309730529785,30.132984,90.365135,22.890821,0.0,3.376988,-0.235898,29.009459,28.301767,29.783419,90.316734,22.927628,0.0,3.616315,0.128016,28.453672,28.657459,3.0,1.0,111.0,0.0,1.0,-78234.0,-25704.0,13693.0,-77820.0,24947.0,13552.0,-0.934808,-0.237502,0.264059,-0.312359,0.195976,-0.92953,0.169016,-0.951413,-0.257386,-0.939608,0.199003,0.278449,0.299521,0.084471,0.950343,0.1656,0.976352,-0.138975,-0.934808,-0.237502,0.264059,-0.312359,0.195976,-0.92953,0.169016,-0.951413,-0.257386,-0.939608,0.199003,0.278449,0.299521,0.084471,0.950343,0.1656,0.976352,-0.138975,-78234.0,-25704.0,13693.0,-77820.0,24947.0,13552.0,-4453114.0,-2143223.0,-1240.0,0.0,-4194790.0,-2097902.0,-330.0,-2081.0,-4457813.0,-2228666.0,-6290985.0,0.0,-4193835.0,-2244001.0,-4455434.0,-1137.0,50.0,162.0,-45.0,0.0,-639.0,-763.0,456.0,-427.0,-41.0,-162.0,44.0,0.0,424.0,573.0,394.0,-779.0,-0.013613,-0.044087,0.012362,0.0,-0.023382,-0.027922,-0.016694,-0.015653,-0.011359,-0.044051,0.012141,0.0,0.015518,0.020986,-0.014425,-0.028531,4104.0,11513.970703,51494.671875,0.0,-17685.451172,-17705.791016,17963.460938,-17448.121094,4056.390137,11501.910156,51567.390625,0.0,17748.181641,17729.820312,-17472.240234,17985.78125,0.0,0.0,0.0,0.0,0.0,0.0,0.0,0.0,0.0,0.0,0.0,0.0,0.0,0.0,0.0,0.0,0.0,0.0,0.0,0.0,0.0,0.0,0.0,0.0,0.0,0.0,0.0,0.0,0.0,0.0,0.0,0.0,4103.927246,11513.938477,51494.796875,0.0,-17685.359375,-17705.617188,17963.693359,-17447.978516,4056.401855,11501.833984,51567.417969,0.0,17747.914062,17729.369141,-17471.794922,17985.964844,30.132452,90.364952,22.890884,0.0,3.393863,-0.216368,29.025614,28.327463,29.783504,90.316093,22.927645,0.0,3.566852,0.077899,28.528362,28.652824,1.0,0.996,4407514.0,2015290.0,-570923.0,0.0,-3998285.0,-1901171.0,-199264.0,191787.0,-4502884.0,-2356465.0,-6863956.0,0.0,-4391037.0,-2440999.0,4649570.0,-200979.0,0.0,0.0,0.0,0.0,0.0,0.0,0.0,0.0,0.0,0.0,0.0,0.0,0.0,0.0,0.0,0.0,0.0,0.0,0.0,0.0,0.0,0.0,0.0,0.0
21,1.4529540538787842,30.132984,90.365135,22.890821,0.0,3.376988,-0.235898,29.009459,28.301767,29.783419,90.316734,22.927628,0.0,3.616315,0.128016,28.453672,28.657459,3.0,1.0,111.0,0.0,1.0,-78234.0,-25704.0,13693.0,-77820.0,24947.0,13552.0,-0.934808,-0.237502,0.264059,-0.312359,0.195976,-0.92953,0.169016,-0.951413,-0.257386,-0.939608,0.199003,0.278449,0.299521,0.084471,0.950343,0.1656,0.976352,-0.138975,-0.934808,-0.237502,0.264059,-0.312359,0.195976,-0.92953,0.169016,-0.951413,-0.257386,-0.939608,0.199003,0.278449,0.299521,0.084471,0.950343,0.1656,0.976352,-0.138975,-78234.0,-25704.0,13693.0,-77820.0,24947.0,13552.0,-4453114.0,-2143223.0,-1240.0,0.0,-4194790.0,-2097902.0,-330.0,-2081.0,-4457813.0,-2228666.0,-6290985.0,0.0,-4193835.0,-2244001.0,-4455434.0,-1137.0,50.0,162.0,-45.0,0.0,-638.0,-762.0,455.0,-427.0,-41.0,-162.0,44.0,0.0,423.0,572.0,393.0,-779.0,-0.013613,-0.044087,0.012362,0.0,-0.023377,-0.027911,-0.016679,-0.015644,-0.011359,-0.044051,0.012141,0.0,0.015501,0.020957,-0.014396,-0.028519,4104.0,11513.970703,51494.671875,0.0,-17685.451172,-17705.791016,17963.460938,-17448.121094,4056.390137,11501.910156,51567.390625,0.0,17748.181641,17729.820312,-17472.240234,17985.78125,0.0,0.0,0.0,0.0,0.0,0.0,0.0,0.0,0.0,0.0,0.0,0.0,0.0,0.0,0.0,0.0,0.0,0.0,0.0,0.0,0.0,0.0,0.0,0.0,0.0,0.0,0.0,0.0,0.0,0.0,0.0,0.0,4103.927246,11513.938477,51494.796875,0.0,-17685.359375,-17705.617188,17963.693359,-17447.978516,4056.401855,11501.833984,51567.417969,0.0,17747.914062,17729.369141,-17471.794922,17985.964844,30.132452,90.364952,22.890884,0.0,3.393863,-0.216368,29.025614,28.327463,29.783504,90.316093,22.927645,0.0,3.566852,0.077899,28.528362,28.652824,1.0,0.996,4407514.0,2015290.0,-570923.0,0.0,-3998285.0,-1901171.0,-199264.0,191787.0,-4502884.0,-2356465.0,-6863956.0,0.0,-4391037.0,-2440999.0,4649570.0,-200979.0,0.0,0.0,0.0,0.0,0.0,0.0,0.0,0.0,0.0,0.0,0.0,0.0,0.0,0.0,0.0,0.0,0.0,0.0,0.0,0.0,0.0,0.0,0.0,0.0
22,1.5199511051177979,30.132984,90.365135,22.890821,0.0,3.376988,-0.235898,29.009459,28.301767,29.783419,90.316734,22.927628,0.0,3.616315,0.128016,28.453672,28.657459,3.0,1.0,111.0,0.0,1.0,-78234.0,-25704.0,13693.0,-77820.0,24947.0,13552.0,-0.934808,-0.237502,0.264059,-0.312359,0.195976,-0.92953,0.169016,-0.951413,-0.257386,-0.939608,0.199003,0.278449,0.299521,0.084471,0.950343,0.1656,0.976352,-0.138975,-0.934808,-0.237502,0.264059,-0.312359,0.195976,-0.92953,0.169016,-0.951413,-0.257386,-0.939608,0.199003,0.278449,0.299521,0.084471,0.950343,0.1656,0.976352,-0.138975,-78234.0,-25704.0,13693.0,-77820.0,24947.0,13552.0,-4453114.0,-2143223.0,-1240.0,0.0,-4194790.0,-2097902.0,-330.0,-2081.0,-4457813.0,-2228666.0,-6290985.0,0.0,-4193835.0,-2244001.0,-4455434.0,-1137.0,50.0,162.0,-45.0,0.0,-638.0,-762.0,455.0,-427.0,-41.0,-162.0,44.0,0.0,423.0,572.0,392.0,-779.0,-0.013613,-0.044087,0.012362,0.0,-0.023371,-0.027901,-0.016665,-0.015635,-0.011359,-0.044051,0.012141,0.0,0.015485,0.020931,-0.01437,-0.028509,4104.0,11513.970703,51494.671875,0.0,-17685.451172,-17705.791016,17963.460938,-17448.121094,4056.390137,11501.910156,51567.390625,0.0,17748.181641,17729.820312,-17472.240234,17985.78125,0.0,0.0,0.0,0.0,0.0,0.0,0.0,0.0,0.0,0.0,0.0,0.0,0.0,0.0,0.0,0.0,0.0,0.0,0.0,0.0,0.0,0.0,0.0,0.0,0.0,0.0,0.0,0.0,0.0,0.0,0.0,0.0,4103.927246,11513.938477,51494.796875,0.0,-17685.359375,-17705.617188,17963.693359,-17447.978516,4056.401855,11501.833984,51567.417969,0.0,17747.914062,17729.369141,-17471.794922,17985.964844,30.132452,90.364952,22.890884,0.0,3.393863,-0.216368,29.025614,28.327463,29.783504,90.316093,22.927645,0.0,3.566852,0.077899,28.528362,28.652824,1.0,0.996,4407514.0,2015290.0,-570923.0,0.0,-3998285.0,-1901171.0,-199264.0,191787.0,-4502884.0,-2356465.0,-6863956.0,0.0,-4391037.0,-2440999.0,4649570.0,-200979.0,0.0,0.0,0.0,0.0,0.0,0.0,0.0,0.0,0.0,0.0,0.0,0.0,0.0,0.0,0.0,0.0,0.0,0.0,0.0,0.0,0.0,0.0,0.0,0.0
23,1.588953971862793,30.132984,90.365135,22.890821,0.0,3.376988,-0.235898,29.009459,28.301767,29.783419,90.316734,22.927628,0.0,3.616315,0.128016,28.453672,28.657459,3.0,1.0,111.0,0.0,1.0,-78234.0,-25704.0,13693.0,-77820.0,24947.0,13552.0,-0.934808,-0.237502,0.264059,-0.312359,0.195976,-0.92953,0.169016,-0.951413,-0.257386,-0.939608,0.199003,0.278449,0.299521,0.084471,0.950343,0.1656,0.976352,-0.138975,-0.934808,-0.237502,0.264059,-0.312359,0.195976,-0.92953,0.169016,-0.951413,-0.257386,-0.939608,0.199003,0.278449,0.299521,0.084471,0.950343,0.1656,0.976352,-0.138975,-78234.0,-25704.0,13693.0,-77820.0,24947.0,13552.0,-4453114.0,-2143223.0,-1240.0,0.0,-4194790.0,-2097902.0,-330.0,-2081.0,-4457813.0,-2228666.0,-6290985.0,0.0,-4193835.0,-2244001.0,-4455434.0,-1137.0,50.0,162.0,-45.0,0.0,-638.0,-762.0,455.0,-427.0,-41.0,-162.0,44.0,0.0,422.0,571.0,391.0,-778.0,-0.013613,-0.044087,0.012362,0.0,-0.023366,-0.02789,-0.016651,-0.015627,-0.011359,-0.044051,0.012141,0.0,0.015469,0.020904,-0.014343,-0.028497,4104.0,11513.970703,51494.671875,0.0,-17685.451172,-17705.791016,17963.460938,-17448.121094,4056.390137,11501.910156,51567.390625,0.0,17748.181641,17729.820312,-17472.240234,17985.78125,0.0,0.0,0.0,0.0,0.0,0.0,0.0,0.0,0.0,0.0,0.0,0.0,0.0,0.0,0.0,0.0,0.0,0.0,0.0,0.0,0.0,0.0,0.0,0.0,0.0,0.0,0.0,0.0,0.0,0.0,0.0,0.0,4103.927246,11513.938477,51494.796875,0.0,-17685.359375,-17705.617188,17963.693359,-17447.978516,4056.401855,11501.833984,51567.417969,0.0,17747.914062,17729.369141,-17471.794922,17985.964844,30.132452,90.364952,22.890884,0.0,3.393863,-0.216368,29.025614,28.327463,29.783504,90.316093,22.927645,0.0,3.566852,0.077899,28.528362,28.652824,1.0,0.996,4407514.0,2015290.0,-570923.0,0.0,-3998285.0,-1901171.0,-199264.0,191787.0,-4502884.0,-2356465.0,-6863956.0,0.0,-4391037.0,-2440999.0,4649570.0,-200979.0,0.0,0.0,0.0,0.0,0.0,0.0,0.0,0.0,0.0,0.0,0.0,0.0,0.0,0.0,0.0,0.0,0.0,0.0,0.0,0.0,0.0,0.0,0.0,0.0
24,1.6549689769744873,30.132984,90.365135,22.890821,0.0,3.376988,-0.235898,29.009459,28.301767,29.783419,90.316734,22.927628,0.0,3.616315,0.128016,28.453672,28.657459,3.0,1.0,111.0,0.0,1.0,-78234.0,-25704.0,13693.0,-77820.0,24947.0,13552.0,-0.934808,-0.237502,0.264059,-0.312359,0.195976,-0.92953,0.169016,-0.951413,-0.257386,-0.939608,0.199003,0.278449,0.299521,0.084471,0.950343,0.1656,0.976352,-0.138975,-0.934808,-0.237502,0.264059,-0.312359,0.195976,-0.92953,0.169016,-0.951413,-0.257386,-0.939608,0.199003,0.278449,0.299521,0.084471,0.950343,0.1656,0.976352,-0.138975,-78234.0,-25704.0,13693.0,-77820.0,24947.0,13552.0,-4453114.0,-2143223.0,-1240.0,0.0,-4194790.0,-2097902.0,-330.0,-2081.0,-4457813.0,-2228666.0,-6290985.0,0.0,-4193835.0,-2244001.0,-4455434.0,-1137.0,50.0,162.0,-45.0,0.0,-638.0,-761.0,454.0,-426.0,-41.0,-162.0,44.0,0.0,422.0,570.0,391.0,-778.0,-0.013613,-0.044087,0.012362,0.0,-0.023361,-0.02788,-0.016638,-0.015619,-0.011359,-0.044051,0.012141,0.0,0.015454,0.020878,-0.014318,-0.028487,4104.0,11513.970703,51494.671875,0.0,-17685.451172,-17705.791016,17963.460938,-17448.121094,4056.390137,11501.910156,51567.390625,0.0,17748.181641,17729.820312,-17472.240234,17985.78125,0.0,0.0,0.0,0.0,0.0,0.0,0.0,0.0,0.0,0.0,0.0,0.0,0.0,0.0,0.0,0.0,0.0,0.0,0.0,0.0,0.0,0.0,0.0,0.0,0.0,0.0,0.0,0.0,0.0,0.0,0.0,0.0,4103.927246,11513.938477,51494.796875,0.0,-17685.359375,-17705.617188,17963.693359,-17447.978516,4056.401855,11501.833984,51567.417969,0.0,17747.914062,17729.369141,-17471.794922,17985.964844,30.132452,90.364952,22.890884,0.0,3.393863,-0.216368,29.025614,28.327463,29.783504,90.316093,22.927645,0.0,3.566852,0.077899,28.528362,28.652824,1.0,0.996,4407514.0,2015290.0,-570923.0,0.0,-3998285.0,-1901171.0,-199264.0,191787.0,-4502884.0,-2356465.0,-6863956.0,0.0,-4391037.0,-2440999.0,4649570.0,-200979.0,0.0,0.0,0.0,0.0,0.0,0.0,0.0,0.0,0.0,0.0,0.0,0.0,0.0,0.0,0.0,0.0,0.0,0.0,0.0,0.0,0.0,0.0,0.0,0.0
25,1.7229621410369873,30.132984,90.365135,22.890821,0.0,3.376988,-0.235898,29.009459,28.301767,29.783419,90.316734,22.927628,0.0,3.616315,0.128016,28.453672,28.657459,3.0,1.0,111.0,0.0,1.0,-78234.0,-25704.0,13693.0,-77820.0,24947.0,13552.0,-0.934808,-0.237502,0.264059,-0.312359,0.195976,-0.92953,0.169016,-0.951413,-0.257386,-0.939608,0.199003,0.278449,0.299521,0.084471,0.950343,0.1656,0.976352,-0.138975,-0.934808,-0.237502,0.264059,-0.312359,0.195976,-0.92953,0.169016,-0.951413,-0.257386,-0.939608,0.199003,0.278449,0.299521,0.084471,0.950343,0.1656,0.976352,-0.138975,-78234.0,-25704.0,13693.0,-77820.0,24947.0,13552.0,-4453114.0,-2143223.0,-1240.0,0.0,-4194790.0,-2097902.0,-330.0,-2081.0,-4457813.0,-2228666.0,-6290985.0,0.0,-4193835.0,-2244001.0,-4455434.0,-1137.0,50.0,162.0,-45.0,0.0,-638.0,-761.0,454.0,-426.0,-41.0,-162.0,44.0,0.0,421.0,569.0,390.0,-778.0,-0.013613,-0.044087,0.012362,0.0,-0.023355,-0.02787,-0.016624,-0.01561,-0.011359,-0.044051,0.012141,0.0,0.015438,0.020851,-0.014292,-0.028476,4104.0,11513.970703,51494.671875,0.0,-17685.451172,-17705.791016,17963.460938,-17448.121094,4056.390137,11501.910156,51567.390625,0.0,17748.181641,17729.820312,-17472.240234,17985.78125,0.0,0.0,0.0,0.0,0.0,0.0,0.0,0.0,0.0,0.0,0.0,0.0,0.0,0.0,0.0,0.0,0.0,0.0,0.0,0.0,0.0,0.0,0.0,0.0,0.0,0.0,0.0,0.0,0.0,0.0,0.0,0.0,4103.927246,11513.938477,51494.796875,0.0,-17685.359375,-17705.617188,17963.693359,-17447.978516,4056.401855,11501.833984,51567.417969,0.0,17747.914062,17729.369141,-17471.794922,17985.964844,30.132452,90.364952,22.890884,0.0,3.393863,-0.216368,29.025614,28.327463,29.783504,90.316093,22.927645,0.0,3.566852,0.077899,28.528362,28.652824,1.0,0.996,4407514.0,2015290.0,-570923.0,0.0,-3998285.0,-1901171.0,-199264.0,191787.0,-4502884.0,-2356465.0,-6863956.0,0.0,-4391037.0,-2440999.0,4649570.0,-200979.0,0.0,0.0,0.0,0.0,0.0,0.0,0.0,0.0,0.0,0.0,0.0,0.0,0.0,0.0,0.0,0.0,0.0,0.0,0.0,0.0,0.0,0.0,0.0,0.0
26,1.8049590587615967,30.132984,90.365135,22.890821,0.0,3.376988,-0.235898,29.009459,28.301767,29.783419,90.316734,22.927628,0.0,3.616315,0.128016,28.453672,28.657459,3.0,1.0,111.0,0.0,1.0,-78234.0,-25704.0,13693.0,-77820.0,24947.0,13552.0,-0.934808,-0.237502,0.264059,-0.312359,0.195976,-0.92953,0.169016,-0.951413,-0.257386,-0.939608,0.199003,0.278449,0.299521,0.084471,0.950343,0.1656,0.976352,-0.138975,-0.934808,-0.237502,0.264059,-0.312359,0.195976,-0.92953,0.169016,-0.951413,-0.257386,-0.939608,0.199003,0.278449,0.299521,0.084471,0.950343,0.1656,0.976352,-0.138975,-78234.0,-25704.0,13693.0,-77820.0,24947.0,13552.0,-4453114.0,-2143223.0,-1240.0,0.0,-4194790.0,-2097902.0,-330.0,-2081.0,-4457813.0,-2228666.0,-6290985.0,0.0,-4193835.0,-2244001.0,-4455434.0,-1137.0,50.0,162.0,-45.0,0.0,-638.0,-761.0,453.0,-426.0,-41.0,-162.0,44.0,0.0,421.0,568.0,389.0,-777.0,-0.013613,-0.044087,0.012362,0.0,-0.023349,-0.027857,-0.016608,-0.0156,-0.011359,-0.044051,0.012141,0.0,0.015419,0.020819,-0.01426,-0.028463,4104.0,11513.970703,51494.671875,0.0,-17685.451172,-17705.791016,17963.460938,-17448.121094,4056.390137,11501.910156,51567.390625,0.0,17748.181641,17729.820312,-17472.240234,17985.78125,0.0,0.0,0.0,0.0,0.0,0.0,0.0,0.0,0.0,0.0,0.0,0.0,0.0,0.0,0.0,0.0,0.0,0.0,0.0,0.0,0.0,0.0,0.0,0.0,0.0,0.0,0.0,0.0,0.0,0.0,0.0,0.0,4103.927246,11513.938477,51494.796875,0.0,-17685.359375,-17705.617188,17963.693359,-17447.978516,4056.401855,11501.833984,51567.417969,0.0,17747.914062,17729.369141,-17471.794922,17985.964844,30.132452,90.364952,22.890884,0.0,3.393863,-0.216368,29.025614,28.327463,29.783504,90.316093,22.927645,0.0,3.566852,0.077899,28.528362,28.652824,1.0,0.996,4407514.0,2015290.0,-570923.0,0.0,-3998285.0,-1901171.0,-199264.0,191787.0,-4502884.0,-2356465.0,-6863956.0,0.0,-4391037.0,-2440999.0,4649570.0,-200979.0,0.0,0.0,0.0,0.0,0.0,0.0,0.0,0.0,0.0,0.0,0.0,0.0,0.0,0.0,0.0,0.0,0.0,0.0,0.0,0.0,0.0,0.0,0.0,0.0
27,1.8849561214447021,30.132984,90.365135,22.890821,0.0,3.376988,-0.235898,29.009459,28.301767,29.783419,90.316734,22.927628,0.0,3.616315,0.128016,28.453672,28.657459,3.0,1.0,111.0,0.0,1.0,-78234.0,-25704.0,13693.0,-77820.0,24947.0,13552.0,-0.934808,-0.237502,0.264059,-0.312359,0.195976,-0.92953,0.169016,-0.951413,-0.257386,-0.939608,0.199003,0.278449,0.299521,0.084471,0.950343,0.1656,0.976352,-0.138975,-0.934808,-0.237502,0.264059,-0.312359,0.195976,-0.92953,0.169016,-0.951413,-0.257386,-0.939608,0.199003,0.278449,0.299521,0.084471,0.950343,0.1656,0.976352,-0.138975,-78234.0,-25704.0,13693.0,-77820.0,24947.0,13552.0,-4453114.0,-2143223.0,-1240.0,0.0,-4194790.0,-2097902.0,-330.0,-2081.0,-4457813.0,-2228666.0,-6290985.0,0.0,-4193835.0,-2244001.0,-4455434.0,-1137.0,50.0,162.0,-45.0,0.0,-637.0,-760.0,453.0,-426.0,-41.0,-162.0,44.0,0.0,420.0,568.0,388.0,-777.0,-0.013613,-0.044087,0.012362,0.0,-0.023343,-0.027845,-0.016592,-0.01559,-0.011359,-0.044051,0.012141,0.0,0.0154,0.020788,-0.014229,-0.02845,4104.0,11513.970703,51494.671875,0.0,-17685.451172,-17705.791016,17963.460938,-17448.121094,4056.390137,11501.910156,51567.390625,0.0,17748.181641,17729.820312,-17472.240234,17985.78125,0.0,0.0,0.0,0.0,0.0,0.0,0.0,0.0,0.0,0.0,0.0,0.0,0.0,0.0,0.0,0.0,0.0,0.0,0.0,0.0,0.0,0.0,0.0,0.0,0.0,0.0,0.0,0.0,0.0,0.0,0.0,0.0,4103.927246,11513.938477,51494.796875,0.0,-17685.359375,-17705.617188,17963.693359,-17447.978516,4056.401855,11501.833984,51567.417969,0.0,17747.914062,17729.369141,-17471.794922,17985.964844,30.132452,90.364952,22.890884,0.0,3.393863,-0.216368,29.025614,28.327463,29.783504,90.316093,22.927645,0.0,3.566852,0.077899,28.528362,28.652824,1.0,0.996,4407514.0,2015290.0,-570923.0,0.0,-3998285.0,-1901171.0,-199264.0,191787.0,-4502884.0,-2356465.0,-6863956.0,0.0,-4391037.0,-2440999.0,4649570.0,-200979.0,0.0,0.0,0.0,0.0,0.0,0.0,0.0,0.0,0.0,0.0,0.0,0.0,0.0,0.0,0.0,0.0,0.0,0.0,0.0,0.0,0.0,0.0,0.0,0.0
28,1.9499540328979492,30.132984,90.365135,22.890821,0.0,3.376988,-0.235898,29.009459,28.301767,29.783419,90.316734,22.927628,0.0,3.616315,0.128016,28.453672,28.657459,3.0,1.0,111.0,0.0,1.0,-78234.0,-25704.0,13693.0,-77820.0,24947.0,13552.0,-0.934808,-0.237502,0.264059,-0.312359,0.195976,-0.92953,0.169016,-0.951413,-0.257386,-0.939608,0.199003,0.278449,0.299521,0.084471,0.950343,0.1656,0.976352,-0.138975,-0.934808,-0.237502,0.264059,-0.312359,0.195976,-0.92953,0.169016,-0.951413,-0.257386,-0.939608,0.199003,0.278449,0.299521,0.084471,0.950343,0.1656,0.976352,-0.138975,-78234.0,-25704.0,13693.0,-77820.0,24947.0,13552.0,-4453114.0,-2143223.0,-1240.0,0.0,-4194790.0,-2097902.0,-330.0,-2081.0,-4457813.0,-2228666.0,-6290985.0,0.0,-4193835.0,-2244001.0,-4455434.0,-1137.0,50.0,162.0,-45.0,0.0,-637.0,-760.0,453.0,-425.0,-41.0,-162.0,44.0,0.0,420.0,567.0,388.0,-777.0,-0.013613,-0.044087,0.012362,0.0,-0.023337,-0.027835,-0.016578,-0.015582,-0.011359,-0.044051,0.012141,0.0,0.015385,0.020762,-0.014203,-0.028439,4104.0,11513.970703,51494.671875,0.0,-17685.451172,-17705.791016,17963.460938,-17448.121094,4056.390137,11501.910156,51567.390625,0.0,17748.181641,17729.820312,-17472.240234,17985.78125,0.0,0.0,0.0,0.0,0.0,0.0,0.0,0.0,0.0,0.0,0.0,0.0,0.0,0.0,0.0,0.0,0.0,0.0,0.0,0.0,0.0,0.0,0.0,0.0,0.0,0.0,0.0,0.0,0.0,0.0,0.0,0.0,4103.927246,11513.938477,51494.796875,0.0,-17685.359375,-17705.617188,17963.693359,-17447.978516,4056.401855,11501.833984,51567.417969,0.0,17747.914062,17729.369141,-17471.794922,17985.964844,30.132452,90.364952,22.890884,0.0,3.393863,-0.216368,29.025614,28.327463,29.783504,90.316093,22.927645,0.0,3.566852,0.077899,28.528362,28.652824,1.0,0.996,4407514.0,2015290.0,-570923.0,0.0,-3998285.0,-1901171.0,-199264.0,191787.0,-4502884.0,-2356465.0,-6863956.0,0.0,-4391037.0,-2440999.0,4649570.0,-200979.0,0.0,0.0,0.0,0.0,0.0,0.0,0.0,0.0,0.0,0.0,0.0,0.0,0.0,0.0,0.0,0.0,0.0,0.0,0.0,0.0,0.0,0.0,0.0,0.0
29,2.019987106323242,30.132984,90.365135,22.890821,0.0,3.376988,-0.235898,29.009459,28.301767,29.783419,90.316734,22.927628,0.0,3.616315,0.128016,28.453672,28.657459,3.0,1.0,111.0,0.0,1.0,-78234.0,-25704.0,13693.0,-77820.0,24947.0,13552.0,-0.934808,-0.237502,0.264059,-0.312359,0.195976,-0.92953,0.169016,-0.951413,-0.257386,-0.939608,0.199003,0.278449,0.299521,0.084471,0.950343,0.1656,0.976352,-0.138975,-0.934808,-0.237502,0.264059,-0.312359,0.195976,-0.92953,0.169016,-0.951413,-0.257386,-0.939608,0.199003,0.278449,0.299521,0.084471,0.950343,0.1656,0.976352,-0.138975,-78234.0,-25704.0,13693.0,-77820.0,24947.0,13552.0,-4453114.0,-2143223.0,-1240.0,0.0,-4194790.0,-2097902.0,-330.0,-2081.0,-4457813.0,-2228666.0,-6290985.0,0.0,-4193835.0,-2244001.0,-4455434.0,-1137.0,50.0,162.0,-45.0,0.0,-637.0,-760.0,452.0,-425.0,-41.0,-162.0,44.0,0.0,419.0,566.0,387.0,-776.0,-0.013613,-0.044087,0.012362,0.0,-0.023332,-0.027825,-0.016564,-0.015573,-0.011359,-0.044051,0.012141,0.0,0.015368,0.020734,-0.014176,-0.028428,4104.0,11513.970703,51494.671875,0.0,-17685.451172,-17705.791016,17963.460938,-17448.121094,4056.390137,11501.910156,51567.390625,0.0,17748.181641,17729.820312,-17472.240234,17985.78125,0.0,0.0,0.0,0.0,0.0,0.0,0.0,0.0,0.0,0.0,0.0,0.0,0.0,0.0,0.0,0.0,0.0,0.0,0.0,0.0,0.0,0.0,0.0,0.0,0.0,0.0,0.0,0.0,0.0,0.0,0.0,0.0,4103.927246,11513.938477,51494.796875,0.0,-17685.359375,-17705.617188,17963.693359,-17447.978516,4056.401855,11501.833984,51567.417969,0.0,17747.914062,17729.369141,-17471.794922,17985.964844,30.132452,90.364952,22.890884,0.0,3.393863,-0.216368,29.025614,28.327463,29.783504,90.316093,22.927645,0.0,3.566852,0.077899,28.528362,28.652824,1.0,0.996,4407514.0,2015290.0,-570923.0,0.0,-3998285.0,-1901171.0,-199264.0,191787.0,-4502884.0,-2356465.0,-6863956.0,0.0,-4391037.0,-2440999.0,4649570.0,-200979.0,0.0,0.0,0.0,0.0,0.0,0.0,0.0,0.0,0.0,0.0,0.0,0.0,0.0,0.0,0.0,0.0,0.0,0.0,0.0,0.0,0.0,0.0,0.0,0.0
30,2.083919048309326,30.132984,90.365135,22.890821,0.0,3.376988,-0.235898,29.009459,28.301767,29.783419,90.316734,22.927628,0.0,3.616315,0.128016,28.453672,28.657459,3.0,1.0,111.0,0.0,1.0,-78234.0,-25704.0,13693.0,-77820.0,24947.0,13552.0,-0.934808,-0.237502,0.264059,-0.312359,0.195976,-0.92953,0.169016,-0.951413,-0.257386,-0.939608,0.199003,0.278449,0.299521,0.084471,0.950343,0.1656,0.976352,-0.138975,-0.934808,-0.237502,0.264059,-0.312359,0.195976,-0.92953,0.169016,-0.951413,-0.257386,-0.939608,0.199003,0.278449,0.299521,0.084471,0.950343,0.1656,0.976352,-0.138975,-78234.0,-25704.0,13693.0,-77820.0,24947.0,13552.0,-4453114.0,-2143223.0,-1240.0,0.0,-4194790.0,-2097902.0,-330.0,-2081.0,-4457813.0,-2228666.0,-6290985.0,0.0,-4193835.0,-2244001.0,-4455434.0,-1137.0,50.0,162.0,-45.0,0.0,-637.0,-760.0,452.0,-425.0,-41.0,-162.0,44.0,0.0,419.0,565.0,386.0,-776.0,-0.013613,-0.044087,0.012362,0.0,-0.023327,-0.027815,-0.016551,-0.015565,-0.011359,-0.044051,0.012141,0.0,0.015353,0.020709,-0.014151,-0.028418,4104.0,11513.970703,51494.671875,0.0,-17685.451172,-17705.791016,17963.460938,-17448.121094,4056.390137,11501.910156,51567.390625,0.0,17748.181641,17729.820312,-17472.240234,17985.78125,0.0,0.0,0.0,0.0,0.0,0.0,0.0,0.0,0.0,0.0,0.0,0.0,0.0,0.0,0.0,0.0,0.0,0.0,0.0,0.0,0.0,0.0,0.0,0.0,0.0,0.0,0.0,0.0,0.0,0.0,0.0,0.0,4103.927246,11513.938477,51494.796875,0.0,-17685.359375,-17705.617188,17963.693359,-17447.978516,4056.401855,11501.833984,51567.417969,0.0,17747.914062,17729.369141,-17471.794922,17985.964844,30.132452,90.364952,22.890884,0.0,3.393863,-0.216368,29.025614,28.327463,29.783504,90.316093,22.927645,0.0,3.566852,0.077899,28.528362,28.652824,1.0,0.996,4407514.0,2015290.0,-570923.0,0.0,-3998285.0,-1901171.0,-199264.0,191787.0,-4502884.0,-2356465.0,-6863956.0,0.0,-4391037.0,-2440999.0,4649570.0,-200979.0,0.0,0.0,0.0,0.0,0.0,0.0,0.0,0.0,0.0,0.0,0.0,0.0,0.0,0.0,0.0,0.0,0.0,0.0,0.0,0.0,0.0,0.0,0.0,0.0
31,2.1489510536193848,30.132984,90.365135,22.890821,0.0,3.376988,-0.235898,29.009459,28.301767,29.783419,90.316734,22.927628,0.0,3.616315,0.128016,28.453672,28.657459,3.0,1.0,111.0,0.0,1.0,-78234.0,-25704.0,13693.0,-77820.0,24947.0,13552.0,-0.934808,-0.237502,0.264059,-0.312359,0.195976,-0.92953,0.169016,-0.951413,-0.257386,-0.939608,0.199003,0.278449,0.299521,0.084471,0.950343,0.1656,0.976352,-0.138975,-0.934808,-0.237502,0.264059,-0.312359,0.195976,-0.92953,0.169016,-0.951413,-0.257386,-0.939608,0.199003,0.278449,0.299521,0.084471,0.950343,0.1656,0.976352,-0.138975,-78234.0,-25704.0,13693.0,-77820.0,24947.0,13552.0,-4453114.0,-2143223.0,-1240.0,0.0,-4194790.0,-2097902.0,-330.0,-2081.0,-4457813.0,-2228666.0,-6290985.0,0.0,-4193835.0,-2244001.0,-4455434.0,-1137.0,50.0,162.0,-45.0,0.0,-637.0,-759.0,451.0,-425.0,-41.0,-162.0,44.0,0.0,419.0,565.0,386.0,-776.0,-0.013613,-0.044087,0.012362,0.0,-0.023322,-0.027805,-0.016538,-0.015557,-0.011359,-0.044051,0.012141,0.0,0.015338,0.020684,-0.014126,-0.028407,4104.0,11513.970703,51494.671875,0.0,-17685.451172,-17705.791016,17963.460938,-17448.121094,4056.390137,11501.910156,51567.390625,0.0,17748.181641,17729.820312,-17472.240234,17985.78125,0.0,0.0,0.0,0.0,0.0,0.0,0.0,0.0,0.0,0.0,0.0,0.0,0.0,0.0,0.0,0.0,0.0,0.0,0.0,0.0,0.0,0.0,0.0,0.0,0.0,0.0,0.0,0.0,0.0,0.0,0.0,0.0,4103.927246,11513.938477,51494.796875,0.0,-17685.359375,-17705.617188,17963.693359,-17447.978516,4056.401855,11501.833984,51567.417969,0.0,17747.914062,17729.369141,-17471.794922,17985.964844,30.132452,90.364952,22.890884,0.0,3.393863,-0.216368,29.025614,28.327463,29.783504,90.316093,22.927645,0.0,3.566852,0.077899,28.528362,28.652824,1.0,0.996,4407514.0,2015290.0,-570923.0,0.0,-3998285.0,-1901171.0,-199264.0,191787.0,-4502884.0,-2356465.0,-6863956.0,0.0,-4391037.0,-2440999.0,4649570.0,-200979.0,0.0,0.0,0.0,0.0,0.0,0.0,0.0,0.0,0.0,0.0,0.0,0.0,0.0,0.0,0.0,0.0,0.0,0.0,0.0,0.0,0.0,0.0,0.0,0.0
32,2.2159531116485596,30.132984,90.365135,22.890821,0.0,3.376988,-0.235898,29.009459,28.301767,29.783419,90.316734,22.927628,0.0,3.616315,0.128016,28.453672,28.657459,3.0,1.0,111.0,0.0,1.0,-78234.0,-25704.0,13693.0,-77820.0,24947.0,13552.0,-0.934808,-0.237502,0.264059,-0.312359,0.195976,-0.92953,0.169016,-0.951413,-0.257386,-0.939608,0.199003,0.278449,0.299521,0.084471,0.950343,0.1656,0.976352,-0.138975,-0.934808,-0.237502,0.264059,-0.312359,0.195976,-0.92953,0.169016,-0.951413,-0.257386,-0.939608,0.199003,0.278449,0.299521,0.084471,0.950343,0.1656,0.976352,-0.138975,-78234.0,-25704.0,13693.0,-77820.0,24947.0,13552.0,-4453114.0,-2143223.0,-1240.0,0.0,-4194790.0,-2097902.0,-330.0,-2081.0,-4457813.0,-2228666.0,-6290985.0,0.0,-4193835.0,-2244001.0,-4455434.0,-1137.0,50.0,162.0,-45.0,0.0,-637.0,-759.0,451.0,-424.0,-41.0,-162.0,44.0,0.0,418.0,564.0,385.0,-776.0,-0.013613,-0.044087,0.012362,0.0,-0.023316,-0.027795,-0.016525,-0.015548,-0.011359,-0.044051,0.012141,0.0,0.015322,0.020657,-0.0141,-0.028397,4104.0,11513.970703,51494.671875,0.0,-17685.451172,-17705.791016,17963.460938,-17448.121094,4056.390137,11501.910156,51567.390625,0.0,17748.181641,17729.820312,-17472.240234,17985.78125,0.0,0.0,0.0,0.0,0.0,0.0,0.0,0.0,0.0,0.0,0.0,0.0,0.0,0.0,0.0,0.0,0.0,0.0,0.0,0.0,0.0,0.0,0.0,0.0,0.0,0.0,0.0,0.0,0.0,0.0,0.0,0.0,4103.927246,11513.938477,51494.796875,0.0,-17685.359375,-17705.617188,17963.693359,-17447.978516,4056.401855,11501.833984,51567.417969,0.0,17747.914062,17729.369141,-17471.794922,17985.964844,30.132452,90.364952,22.890884,0.0,3.393863,-0.216368,29.025614,28.327463,29.783504,90.316093,22.927645,0.0,3.566852,0.077899,28.528362,28.652824,1.0,0.996,4407514.0,2015290.0,-570923.0,0.0,-3998285.0,-1901171.0,-199264.0,191787.0,-4502884.0,-2356465.0,-6863956.0,0.0,-4391037.0,-2440999.0,4649570.0,-200979.0,0.0,0.0,0.0,0.0,0.0,0.0,0.0,0.0,0.0,0.0,0.0,0.0,0.0,0.0,0.0,0.0,0.0,0.0,0.0,0.0,0.0,0.0,0.0,0.0
33,2.2869391441345215,30.132984,90.365135,22.890821,0.0,3.376988,-0.235898,29.009459,28.301767,29.783419,90.316734,22.927628,0.0,3.616315,0.128016,28.453672,28.657459,3.0,1.0,111.0,0.0,1.0,-78234.0,-25704.0,13693.0,-77820.0,24947.0,13552.0,-0.934808,-0.237502,0.264059,-0.312359,0.195976,-0.92953,0.169016,-0.951413,-0.257386,-0.939608,0.199003,0.278449,0.299521,0.084471,0.950343,0.1656,0.976352,-0.138975,-0.934808,-0.237502,0.264059,-0.312359,0.195976,-0.92953,0.169016,-0.951413,-0.257386,-0.939608,0.199003,0.278449,0.299521,0.084471,0.950343,0.1656,0.976352,-0.138975,-78234.0,-25704.0,13693.0,-77820.0,24947.0,13552.0,-4453114.0,-2143223.0,-1240.0,0.0,-4194790.0,-2097902.0,-330.0,-2081.0,-4457813.0,-2228666.0,-6290985.0,0.0,-4193835.0,-2244001.0,-4455434.0,-1137.0,50.0,162.0,-45.0,0.0,-637.0,-759.0,451.0,-424.0,-41.0,-162.0,44.0,0.0,418.0,563.0,384.0,-775.0,-0.013613,-0.044087,0.012362,0.0,-0.023311,-0.027784,-0.01651,-0.015539,-0.011359,-0.044051,0.012141,0.0,0.015306,0.020629,-0.014072,-0.028385,4104.0,11513.970703,51494.671875,0.0,-17685.451172,-17705.791016,17963.460938,-17448.121094,4056.390137,11501.910156,51567.390625,0.0,17748.181641,17729.820312,-17472.240234,17985.78125,0.0,0.0,0.0,0.0,0.0,0.0,0.0,0.0,0.0,0.0,0.0,0.0,0.0,0.0,0.0,0.0,0.0,0.0,0.0,0.0,0.0,0.0,0.0,0.0,0.0,0.0,0.0,0.0,0.0,0.0,0.0,0.0,4103.927246,11513.938477,51494.796875,0.0,-17685.359375,-17705.617188,17963.693359,-17447.978516,4056.401855,11501.833984,51567.417969,0.0,17747.914062,17729.369141,-17471.794922,17985.964844,30.132452,90.364952,22.890884,0.0,3.393863,-0.216368,29.025614,28.327463,29.783504,90.316093,22.927645,0.0,3.566852,0.077899,28.528362,28.652824,1.0,0.996,4407514.0,2015290.0,-570923.0,0.0,-3998285.0,-1901171.0,-199264.0,191787.0,-4502884.0,-2356465.0,-6863956.0,0.0,-4391037.0,-2440999.0,4649570.0,-200979.0,0.0,0.0,0.0,0.0,0.0,0.0,0.0,0.0,0.0,0.0,0.0,0.0,0.0,0.0,0.0,0.0,0.0,0.0,0.0,0.0,0.0,0.0,0.0,0.0
34,2.3509089946746826,30.132984,90.365135,22.890821,0.0,3.376988,-0.235898,29.009459,28.301767,29.783419,90.316734,22.927628,0.0,3.616315,0.128016,28.453672,28.657459,3.0,1.0,111.0,0.0,1.0,-78234.0,-25704.0,13693.0,-77820.0,24947.0,13552.0,-0.934808,-0.237502,0.264059,-0.312359,0.195976,-0.92953,0.169016,-0.951413,-0.257386,-0.939608,0.199003,0.278449,0.299521,0.084471,0.950343,0.1656,0.976352,-0.138975,-0.934808,-0.237502,0.264059,-0.312359,0.195976,-0.92953,0.169016,-0.951413,-0.257386,-0.939608,0.199003,0.278449,0.299521,0.084471,0.950343,0.1656,0.976352,-0.138975,-78234.0,-25704.0,13693.0,-77820.0,24947.0,13552.0,-4453114.0,-2143223.0,-1240.0,0.0,-4194790.0,-2097902.0,-330.0,-2081.0,-4457813.0,-2228666.0,-6290985.0,0.0,-4193835.0,-2244001.0,-4455434.0,-1137.0,50.0,162.0,-45.0,0.0,-636.0,-759.0,450.0,-424.0,-41.0,-162.0,44.0,0.0,417.0,563.0,383.0,-775.0,-0.013613,-0.044087,0.012362,0.0,-0.023306,-0.027774,-0.016497,-0.015531,-0.011359,-0.044051,0.012141,0.0,0.015291,0.020604,-0.014047,-0.028375,4104.0,11513.970703,51494.671875,0.0,-17685.451172,-17705.791016,17963.460938,-17448.121094,4056.390137,11501.910156,51567.390625,0.0,17748.181641,17729.820312,-17472.240234,17985.78125,0.0,0.0,0.0,0.0,0.0,0.0,0.0,0.0,0.0,0.0,0.0,0.0,0.0,0.0,0.0,0.0,0.0,0.0,0.0,0.0,0.0,0.0,0.0,0.0,0.0,0.0,0.0,0.0,0.0,0.0,0.0,0.0,4103.927246,11513.938477,51494.796875,0.0,-17685.359375,-17705.617188,17963.693359,-17447.978516,4056.401855,11501.833984,51567.417969,0.0,17747.914062,17729.369141,-17471.794922,17985.964844,30.132452,90.364952,22.890884,0.0,3.393863,-0.216368,29.025614,28.327463,29.783504,90.316093,22.927645,0.0,3.566852,0.077899,28.528362,28.652824,1.0,0.996,4407514.0,2015290.0,-570923.0,0.0,-3998285.0,-1901171.0,-199264.0,191787.0,-4502884.0,-2356465.0,-6863956.0,0.0,-4391037.0,-2440999.0,4649570.0,-200979.0,0.0,0.0,0.0,0.0,0.0,0.0,0.0,0.0,0.0,0.0,0.0,0.0,0.0,0.0,0.0,0.0,0.0,0.0,0.0,0.0,0.0,0.0,0.0,0.0
35,2.4159560203552246,30.132984,90.365135,22.890821,0.0,3.376988,-0.235898,29.009459,28.301767,29.783419,90.316734,22.927628,0.0,3.616315,0.128016,28.453672,28.657459,3.0,1.0,111.0,0.0,1.0,-78234.0,-25704.0,13693.0,-77820.0,24947.0,13552.0,-0.934808,-0.237502,0.264059,-0.312359,0.195976,-0.92953,0.169016,-0.951413,-0.257386,-0.939608,0.199003,0.278449,0.299521,0.084471,0.950343,0.1656,0.976352,-0.138975,-0.934808,-0.237502,0.264059,-0.312359,0.195976,-0.92953,0.169016,-0.951413,-0.257386,-0.939608,0.199003,0.278449,0.299521,0.084471,0.950343,0.1656,0.976352,-0.138975,-78234.0,-25704.0,13693.0,-77820.0,24947.0,13552.0,-4453114.0,-2143223.0,-1240.0,0.0,-4194790.0,-2097902.0,-330.0,-2081.0,-4457813.0,-2228666.0,-6290985.0,0.0,-4193835.0,-2244001.0,-4455434.0,-1137.0,50.0,162.0,-45.0,0.0,-636.0,-758.0,450.0,-424.0,-41.0,-162.0,44.0,0.0,417.0,562.0,383.0,-775.0,-0.013613,-0.044087,0.012362,0.0,-0.023301,-0.027765,-0.016484,-0.015523,-0.011359,-0.044051,0.012141,0.0,0.015276,0.020579,-0.014022,-0.028364,4104.0,11513.970703,51494.671875,0.0,-17685.451172,-17705.791016,17963.460938,-17448.121094,4056.390137,11501.910156,51567.390625,0.0,17748.181641,17729.820312,-17472.240234,17985.78125,0.0,0.0,0.0,0.0,0.0,0.0,0.0,0.0,0.0,0.0,0.0,0.0,0.0,0.0,0.0,0.0,0.0,0.0,0.0,0.0,0.0,0.0,0.0,0.0,0.0,0.0,0.0,0.0,0.0,0.0,0.0,0.0,4103.927246,11513.938477,51494.796875,0.0,-17685.359375,-17705.617188,17963.693359,-17447.978516,4056.401855,11501.833984,51567.417969,0.0,17747.914062,17729.369141,-17471.794922,17985.964844,30.132452,90.364952,22.890884,0.0,3.393863,-0.216368,29.025614,28.327463,29.783504,90.316093,22.927645,0.0,3.566852,0.077899,28.528362,28.652824,1.0,0.996,4407514.0,2015290.0,-570923.0,0.0,-3998285.0,-1901171.0,-199264.0,191787.0,-4502884.0,-2356465.0,-6863956.0,0.0,-4391037.0,-2440999.0,4649570.0,-200979.0,0.0,0.0,0.0,0.0,0.0,0.0,0.0,0.0,0.0,0.0,0.0,0.0,0.0,0.0,0.0,0.0,0.0,0.0,0.0,0.0,0.0,0.0,0.0,0.0
36,2.4909629821777344,30.132984,90.365135,22.890821,0.0,3.376988,-0.235898,29.009459,28.301767,29.783419,90.316734,22.927628,0.0,3.616315,0.128016,28.453672,28.657459,3.0,1.0,111.0,0.0,1.0,-78234.0,-25704.0,13693.0,-77820.0,24947.0,13552.0,-0.934808,-0.237502,0.264059,-0.312359,0.195976,-0.92953,0.169016,-0.951413,-0.257386,-0.939608,0.199003,0.278449,0.299521,0.084471,0.950343,0.1656,0.976352,-0.138975,-0.934808,-0.237502,0.264059,-0.312359,0.195976,-0.92953,0.169016,-0.951413,-0.257386,-0.939608,0.199003,0.278449,0.299521,0.084471,0.950343,0.1656,0.976352,-0.138975,-78234.0,-25704.0,13693.0,-77820.0,24947.0,13552.0,-4453114.0,-2143223.0,-1240.0,0.0,-4194790.0,-2097902.0,-330.0,-2081.0,-4457813.0,-2228666.0,-6290985.0,0.0,-4193835.0,-2244001.0,-4455434.0,-1137.0,50.0,162.0,-45.0,0.0,-636.0,-758.0,450.0,-423.0,-41.0,-162.0,44.0,0.0,416.0,561.0,382.0,-774.0,-0.013613,-0.044087,0.012362,0.0,-0.023295,-0.027753,-0.016469,-0.015514,-0.011359,-0.044051,0.012141,0.0,0.015258,0.020549,-0.013993,-0.028352,4104.0,11513.970703,51494.671875,0.0,-17685.451172,-17705.791016,17963.460938,-17448.121094,4056.390137,11501.910156,51567.390625,0.0,17748.181641,17729.820312,-17472.240234,17985.78125,0.0,0.0,0.0,0.0,0.0,0.0,0.0,0.0,0.0,0.0,0.0,0.0,0.0,0.0,0.0,0.0,0.0,0.0,0.0,0.0,0.0,0.0,0.0,0.0,0.0,0.0,0.0,0.0,0.0,0.0,0.0,0.0,4103.927246,11513.938477,51494.796875,0.0,-17685.359375,-17705.617188,17963.693359,-17447.978516,4056.401855,11501.833984,51567.417969,0.0,17747.914062,17729.369141,-17471.794922,17985.964844,30.132452,90.364952,22.890884,0.0,3.393863,-0.216368,29.025614,28.327463,29.783504,90.316093,22.927645,0.0,3.566852,0.077899,28.528362,28.652824,1.0,0.996,4407514.0,2015290.0,-570923.0,0.0,-3998285.0,-1901171.0,-199264.0,191787.0,-4502884.0,-2356465.0,-6863956.0,0.0,-4391037.0,-2440999.0,4649570.0,-200979.0,0.0,0.0,0.0,0.0,0.0,0.0,0.0,0.0,0.0,0.0,0.0,0.0,0.0,0.0,0.0,0.0,0.0,0.0,0.0,0.0,0.0,0.0,0.0,0.0
37,2.5579850673675537,30.132984,90.365135,22.890821,0.0,3.376988,-0.235898,29.009459,28.301767,29.783419,90.316734,22.927628,0.0,3.616315,0.128016,28.453672,28.657459,3.0,1.0,111.0,0.0,1.0,-78234.0,-25704.0,13693.0,-77820.0,24947.0,13552.0,-0.934808,-0.237502,0.264059,-0.312359,0.195976,-0.92953,0.169016,-0.951413,-0.257386,-0.939608,0.199003,0.278449,0.299521,0.084471,0.950343,0.1656,0.976352,-0.138975,-0.934808,-0.237502,0.264059,-0.312359,0.195976,-0.92953,0.169016,-0.951413,-0.257386,-0.939608,0.199003,0.278449,0.299521,0.084471,0.950343,0.1656,0.976352,-0.138975,-78234.0,-25704.0,13693.0,-77820.0,24947.0,13552.0,-4453114.0,-2143223.0,-1240.0,0.0,-4194790.0,-2097902.0,-330.0,-2081.0,-4457813.0,-2228666.0,-6290985.0,0.0,-4193835.0,-2244001.0,-4455434.0,-1137.0,50.0,162.0,-45.0,0.0,-636.0,-758.0,449.0,-423.0,-41.0,-162.0,44.0,0.0,416.0,560.0,381.0,-774.0,-0.013613,-0.044087,0.012362,0.0,-0.023289,-0.027743,-0.016455,-0.015506,-0.011359,-0.044051,0.012141,0.0,0.015242,0.020523,-0.013967,-0.028342,4104.0,11513.970703,51494.671875,0.0,-17685.451172,-17705.791016,17963.460938,-17448.121094,4056.390137,11501.910156,51567.390625,0.0,17748.181641,17729.820312,-17472.240234,17985.78125,0.0,0.0,0.0,0.0,0.0,0.0,0.0,0.0,0.0,0.0,0.0,0.0,0.0,0.0,0.0,0.0,0.0,0.0,0.0,0.0,0.0,0.0,0.0,0.0,0.0,0.0,0.0,0.0,0.0,0.0,0.0,0.0,4103.927246,11513.938477,51494.796875,0.0,-17685.359375,-17705.617188,17963.693359,-17447.978516,4056.401855,11501.833984,51567.417969,0.0,17747.914062,17729.369141,-17471.794922,17985.964844,30.132452,90.364952,22.890884,0.0,3.393863,-0.216368,29.025614,28.327463,29.783504,90.316093,22.927645,0.0,3.566852,0.077899,28.528362,28.652824,1.0,0.996,4407514.0,2015290.0,-570923.0,0.0,-3998285.0,-1901171.0,-199264.0,191787.0,-4502884.0,-2356465.0,-6863956.0,0.0,-4391037.0,-2440999.0,4649570.0,-200979.0,0.0,0.0,0.0,0.0,0.0,0.0,0.0,0.0,0.0,0.0,0.0,0.0,0.0,0.0,0.0,0.0,0.0,0.0,0.0,0.0,0.0,0.0,0.0,0.0
38,2.628951072692871,30.132984,90.365135,22.890821,0.0,3.376988,-0.235898,29.009459,28.301767,29.783419,90.316734,22.927628,0.0,3.616315,0.128016,28.453672,28.657459,3.0,1.0,111.0,0.0,1.0,-78234.0,-25704.0,13693.0,-77820.0,24947.0,13552.0,-0.934808,-0.237502,0.264059,-0.312359,0.195976,-0.92953,0.169016,-0.951413,-0.257386,-0.939608,0.199003,0.278449,0.299521,0.084471,0.950343,0.1656,0.976352,-0.138975,-0.934808,-0.237502,0.264059,-0.312359,0.195976,-0.92953,0.169016,-0.951413,-0.257386,-0.939608,0.199003,0.278449,0.299521,0.084471,0.950343,0.1656,0.976352,-0.138975,-78234.0,-25704.0,13693.0,-77820.0,24947.0,13552.0,-4453114.0,-2143223.0,-1240.0,0.0,-4194790.0,-2097902.0,-330.0,-2081.0,-4457813.0,-2228666.0,-6290985.0,0.0,-4193835.0,-2244001.0,-4455434.0,-1137.0,50.0,162.0,-45.0,0.0,-636.0,-757.0,449.0,-423.0,-41.0,-162.0,44.0,0.0,416.0,560.0,380.0,-774.0,-0.013613,-0.044087,0.012362,0.0,-0.023284,-0.027732,-0.016441,-0.015497,-0.011359,-0.044051,0.012141,0.0,0.015226,0.020495,-0.013939,-0.02833,4104.0,11513.970703,51494.671875,0.0,-17685.451172,-17705.791016,17963.460938,-17448.121094,4056.390137,11501.910156,51567.390625,0.0,17748.181641,17729.820312,-17472.240234,17985.78125,0.0,0.0,0.0,0.0,0.0,0.0,0.0,0.0,0.0,0.0,0.0,0.0,0.0,0.0,0.0,0.0,0.0,0.0,0.0,0.0,0.0,0.0,0.0,0.0,0.0,0.0,0.0,0.0,0.0,0.0,0.0,0.0,4103.927246,11513.938477,51494.796875,0.0,-17685.359375,-17705.617188,17963.693359,-17447.978516,4056.401855,11501.833984,51567.417969,0.0,17747.914062,17729.369141,-17471.794922,17985.964844,30.132452,90.364952,22.890884,0.0,3.393863,-0.216368,29.025614,28.327463,29.783504,90.316093,22.927645,0.0,3.566852,0.077899,28.528362,28.652824,1.0,0.996,4407514.0,2015290.0,-570923.0,0.0,-3998285.0,-1901171.0,-199264.0,191787.0,-4502884.0,-2356465.0,-6863956.0,0.0,-4391037.0,-2440999.0,4649570.0,-200979.0,0.0,0.0,0.0,0.0,0.0,0.0,0.0,0.0,0.0,0.0,0.0,0.0,0.0,0.0,0.0,0.0,0.0,0.0,0.0,0.0,0.0,0.0,0.0,0.0
39,2.6939570903778076,30.132984,90.365135,22.890821,0.0,3.376988,-0.235898,29.009459,28.301767,29.783419,90.316734,22.927628,0.0,3.616315,0.128016,28.453672,28.657459,3.0,1.0,111.0,0.0,1.0,-78234.0,-25704.0,13693.0,-77820.0,24947.0,13552.0,-0.934808,-0.237502,0.264059,-0.312359,0.195976,-0.92953,0.169016,-0.951413,-0.257386,-0.939608,0.199003,0.278449,0.299521,0.084471,0.950343,0.1656,0.976352,-0.138975,-0.934808,-0.237502,0.264059,-0.312359,0.195976,-0.92953,0.169016,-0.951413,-0.257386,-0.939608,0.199003,0.278449,0.299521,0.084471,0.950343,0.1656,0.976352,-0.138975,-78234.0,-25704.0,13693.0,-77820.0,24947.0,13552.0,-4453114.0,-2143223.0,-1240.0,0.0,-4194790.0,-2097902.0,-330.0,-2081.0,-4457813.0,-2228666.0,-6290985.0,0.0,-4193835.0,-2244001.0,-4455434.0,-1137.0,50.0,162.0,-45.0,0.0,-636.0,-757.0,448.0,-423.0,-41.0,-162.0,44.0,0.0,415.0,559.0,380.0,-773.0,-0.013613,-0.044087,0.012362,0.0,-0.023279,-0.027722,-0.016428,-0.015489,-0.011359,-0.044051,0.012141,0.0,0.015211,0.020469,-0.013914,-0.02832,4104.0,11513.970703,51494.671875,0.0,-17685.451172,-17705.791016,17963.460938,-17448.121094,4056.390137,11501.910156,51567.390625,0.0,17748.181641,17729.820312,-17472.240234,17985.78125,0.0,0.0,0.0,0.0,0.0,0.0,0.0,0.0,0.0,0.0,0.0,0.0,0.0,0.0,0.0,0.0,0.0,0.0,0.0,0.0,0.0,0.0,0.0,0.0,0.0,0.0,0.0,0.0,0.0,0.0,0.0,0.0,4103.927246,11513.938477,51494.796875,0.0,-17685.359375,-17705.617188,17963.693359,-17447.978516,4056.401855,11501.833984,51567.417969,0.0,17747.914062,17729.369141,-17471.794922,17985.964844,30.132452,90.364952,22.890884,0.0,3.393863,-0.216368,29.025614,28.327463,29.783504,90.316093,22.927645,0.0,3.566852,0.077899,28.528362,28.652824,1.0,0.996,4407514.0,2015290.0,-570923.0,0.0,-3998285.0,-1901171.0,-199264.0,191787.0,-4502884.0,-2356465.0,-6863956.0,0.0,-4391037.0,-2440999.0,4649570.0,-200979.0,0.0,0.0,0.0,0.0,0.0,0.0,0.0,0.0,0.0,0.0,0.0,0.0,0.0,0.0,0.0,0.0,0.0,0.0,0.0,0.0,0.0,0.0,0.0,0.0
40,2.764958143234253,30.132984,90.365135,22.890821,0.0,3.376988,-0.235898,29.009459,28.301767,29.783419,90.316734,22.927628,0.0,3.616315,0.128016,28.453672,28.657459,3.0,1.0,111.0,0.0,1.0,-78234.0,-25704.0,13693.0,-77820.0,24947.0,13552.0,-0.934808,-0.237502,0.264059,-0.312359,0.195976,-0.92953,0.169016,-0.951413,-0.257386,-0.939608,0.199003,0.278449,0.299521,0.084471,0.950343,0.1656,0.976352,-0.138975,-0.934808,-0.237502,0.264059,-0.312359,0.195976,-0.92953,0.169016,-0.951413,-0.257386,-0.939608,0.199003,0.278449,0.299521,0.084471,0.950343,0.1656,0.976352,-0.138975,-78234.0,-25704.0,13693.0,-77820.0,24947.0,13552.0,-4453114.0,-2143223.0,-1240.0,0.0,-4194790.0,-2097902.0,-330.0,-2081.0,-4457813.0,-2228666.0,-6290985.0,0.0,-4193835.0,-2244001.0,-4455434.0,-1137.0,50.0,162.0,-45.0,0.0,-636.0,-757.0,448.0,-423.0,-41.0,-162.0,44.0,0.0,415.0,558.0,379.0,-773.0,-0.013613,-0.044087,0.012362,0.0,-0.023273,-0.027712,-0.016413,-0.01548,-0.011359,-0.044051,0.012141,0.0,0.015194,0.020441,-0.013886,-0.028308,4104.0,11513.970703,51494.671875,0.0,-17685.451172,-17705.791016,17963.460938,-17448.121094,4056.390137,11501.910156,51567.390625,0.0,17748.181641,17729.820312,-17472.240234,17985.78125,0.0,0.0,0.0,0.0,0.0,0.0,0.0,0.0,0.0,0.0,0.0,0.0,0.0,0.0,0.0,0.0,0.0,0.0,0.0,0.0,0.0,0.0,0.0,0.0,0.0,0.0,0.0,0.0,0.0,0.0,0.0,0.0,4103.927246,11513.938477,51494.796875,0.0,-17685.359375,-17705.617188,17963.693359,-17447.978516,4056.401855,11501.833984,51567.417969,0.0,17747.914062,17729.369141,-17471.794922,17985.964844,30.132452,90.364952,22.890884,0.0,3.393863,-0.216368,29.025614,28.327463,29.783504,90.316093,22.927645,0.0,3.566852,0.077899,28.528362,28.652824,1.0,0.996,4407514.0,2015290.0,-570923.0,0.0,-3998285.0,-1901171.0,-199264.0,191787.0,-4502884.0,-2356465.0,-6863956.0,0.0,-4391037.0,-2440999.0,4649570.0,-200979.0,0.0,0.0,0.0,0.0,0.0,0.0,0.0,0.0,0.0,0.0,0.0,0.0,0.0,0.0,0.0,0.0,0.0,0.0,0.0,0.0,0.0,0.0,0.0,0.0
41,2.8449580669403076,30.132984,90.365135,22.890821,0.0,3.376988,-0.235898,29.009459,28.301767,29.783419,90.316734,22.927628,0.0,3.616315,0.128016,28.453672,28.657459,3.0,1.0,111.0,0.0,1.0,-78234.0,-25704.0,13693.0,-77820.0,24947.0,13552.0,-0.934808,-0.237502,0.264059,-0.312359,0.195976,-0.92953,0.169016,-0.951413,-0.257386,-0.939608,0.199003,0.278449,0.299521,0.084471,0.950343,0.1656,0.976352,-0.138975,-0.934808,-0.237502,0.264059,-0.312359,0.195976,-0.92953,0.169016,-0.951413,-0.257386,-0.939608,0.199003,0.278449,0.299521,0.084471,0.950343,0.1656,0.976352,-0.138975,-78234.0,-25704.0,13693.0,-77820.0,24947.0,13552.0,-4453114.0,-2143223.0,-1240.0,0.0,-4194790.0,-2097902.0,-330.0,-2081.0,-4457813.0,-2228666.0,-6290985.0,0.0,-4193835.0,-2244001.0,-4455434.0,-1137.0,50.0,162.0,-45.0,0.0,-635.0,-756.0,448.0,-422.0,-41.0,-162.0,44.0,0.0,414.0,557.0,378.0,-773.0,-0.013613,-0.044087,0.012362,0.0,-0.023267,-0.027699,-0.016397,-0.01547,-0.011359,-0.044051,0.012141,0.0,0.015175,0.02041,-0.013855,-0.028295,4104.0,11513.970703,51494.671875,0.0,-17685.451172,-17705.791016,17963.460938,-17448.121094,4056.390137,11501.910156,51567.390625,0.0,17748.181641,17729.820312,-17472.240234,17985.78125,0.0,0.0,0.0,0.0,0.0,0.0,0.0,0.0,0.0,0.0,0.0,0.0,0.0,0.0,0.0,0.0,0.0,0.0,0.0,0.0,0.0,0.0,0.0,0.0,0.0,0.0,0.0,0.0,0.0,0.0,0.0,0.0,4103.927246,11513.938477,51494.796875,0.0,-17685.359375,-17705.617188,17963.693359,-17447.978516,4056.401855,11501.833984,51567.417969,0.0,17747.914062,17729.369141,-17471.794922,17985.964844,30.132452,90.364952,22.890884,0.0,3.393863,-0.216368,29.025614,28.327463,29.783504,90.316093,22.927645,0.0,3.566852,0.077899,28.528362,28.652824,1.0,0.996,4407514.0,2015290.0,-570923.0,0.0,-3998285.0,-1901171.0,-199264.0,191787.0,-4502884.0,-2356465.0,-6863956.0,0.0,-4391037.0,-2440999.0,4649570.0,-200979.0,0.0,0.0,0.0,0.0,0.0,0.0,0.0,0.0,0.0,0.0,0.0,0.0,0.0,0.0,0.0,0.0,0.0,0.0,0.0,0.0,0.0,0.0,0.0,0.0
42,2.9109630584716797,30.132984,90.365135,22.890821,0.0,3.376988,-0.235898,29.009459,28.301767,29.783419,90.316734,22.927628,0.0,3.616315,0.128016,28.453672,28.657459,3.0,1.0,111.0,0.0,1.0,-78234.0,-25704.0,13693.0,-77820.0,24947.0,13552.0,-0.934808,-0.237502,0.264059,-0.312359,0.195976,-0.92953,0.169016,-0.951413,-0.257386,-0.939608,0.199003,0.278449,0.299521,0.084471,0.950343,0.1656,0.976352,-0.138975,-0.934808,-0.237502,0.264059,-0.312359,0.195976,-0.92953,0.169016,-0.951413,-0.257386,-0.939608,0.199003,0.278449,0.299521,0.084471,0.950343,0.1656,0.976352,-0.138975,-78234.0,-25704.0,13693.0,-77820.0,24947.0,13552.0,-4453114.0,-2143223.0,-1240.0,0.0,-4194790.0,-2097902.0,-330.0,-2081.0,-4457813.0,-2228666.0,-6290985.0,0.0,-4193835.0,-2244001.0,-4455434.0,-1137.0,50.0,162.0,-45.0,0.0,-635.0,-756.0,447.0,-422.0,-41.0,-162.0,44.0,0.0,414.0,557.0,377.0,-772.0,-0.013613,-0.044087,0.012362,0.0,-0.023261,-0.027689,-0.016384,-0.015461,-0.011359,-0.044051,0.012141,0.0,0.01516,0.020384,-0.01383,-0.028285,4104.0,11513.970703,51494.671875,0.0,-17685.451172,-17705.791016,17963.460938,-17448.121094,4056.390137,11501.910156,51567.390625,0.0,17748.181641,17729.820312,-17472.240234,17985.78125,0.0,0.0,0.0,0.0,0.0,0.0,0.0,0.0,0.0,0.0,0.0,0.0,0.0,0.0,0.0,0.0,0.0,0.0,0.0,0.0,0.0,0.0,0.0,0.0,0.0,0.0,0.0,0.0,0.0,0.0,0.0,0.0,4103.927246,11513.938477,51494.796875,0.0,-17685.359375,-17705.617188,17963.693359,-17447.978516,4056.401855,11501.833984,51567.417969,0.0,17747.914062,17729.369141,-17471.794922,17985.964844,30.132452,90.364952,22.890884,0.0,3.393863,-0.216368,29.025614,28.327463,29.783504,90.316093,22.927645,0.0,3.566852,0.077899,28.528362,28.652824,1.0,0.996,4407514.0,2015290.0,-570923.0,0.0,-3998285.0,-1901171.0,-199264.0,191787.0,-4502884.0,-2356465.0,-6863956.0,0.0,-4391037.0,-2440999.0,4649570.0,-200979.0,0.0,0.0,0.0,0.0,0.0,0.0,0.0,0.0,0.0,0.0,0.0,0.0,0.0,0.0,0.0,0.0,0.0,0.0,0.0,0.0,0.0,0.0,0.0,0.0
43,2.9789600372314453,30.132984,90.365135,22.890821,0.0,3.376988,-0.235898,29.009459,28.301767,29.783419,90.316734,22.927628,0.0,3.616315,0.128016,28.453672,28.657459,3.0,1.0,111.0,0.0,1.0,-78234.0,-25704.0,13693.0,-77820.0,24947.0,13552.0,-0.934808,-0.237502,0.264059,-0.312359,0.195976,-0.92953,0.169016,-0.951413,-0.257386,-0.939608,0.199003,0.278449,0.299521,0.084471,0.950343,0.1656,0.976352,-0.138975,-0.934808,-0.237502,0.264059,-0.312359,0.195976,-0.92953,0.169016,-0.951413,-0.257386,-0.939608,0.199003,0.278449,0.299521,0.084471,0.950343,0.1656,0.976352,-0.138975,-78234.0,-25704.0,13693.0,-77820.0,24947.0,13552.0,-4453114.0,-2143223.0,-1240.0,0.0,-4194790.0,-2097902.0,-330.0,-2081.0,-4457813.0,-2228666.0,-6290985.0,0.0,-4193835.0,-2244001.0,-4455434.0,-1137.0,50.0,162.0,-45.0,0.0,-635.0,-756.0,447.0,-422.0,-41.0,-162.0,44.0,0.0,413.0,556.0,377.0,-772.0,-0.013613,-0.044087,0.012362,0.0,-0.023256,-0.027679,-0.01637,-0.015453,-0.011359,-0.044051,0.012141,0.0,0.015144,0.020357,-0.013803,-0.028274,4104.0,11513.970703,51494.671875,0.0,-17685.451172,-17705.791016,17963.460938,-17448.121094,4056.390137,11501.910156,51567.390625,0.0,17748.181641,17729.820312,-17472.240234,17985.78125,0.0,0.0,0.0,0.0,0.0,0.0,0.0,0.0,0.0,0.0,0.0,0.0,0.0,0.0,0.0,0.0,0.0,0.0,0.0,0.0,0.0,0.0,0.0,0.0,0.0,0.0,0.0,0.0,0.0,0.0,0.0,0.0,4103.927246,11513.938477,51494.796875,0.0,-17685.359375,-17705.617188,17963.693359,-17447.978516,4056.401855,11501.833984,51567.417969,0.0,17747.914062,17729.369141,-17471.794922,17985.964844,30.132452,90.364952,22.890884,0.0,3.393863,-0.216368,29.025614,28.327463,29.783504,90.316093,22.927645,0.0,3.566852,0.077899,28.528362,28.652824,1.0,0.996,4407514.0,2015290.0,-570923.0,0.0,-3998285.0,-1901171.0,-199264.0,191787.0,-4502884.0,-2356465.0,-6863956.0,0.0,-4391037.0,-2440999.0,4649570.0,-200979.0,0.0,0.0,0.0,0.0,0.0,0.0,0.0,0.0,0.0,0.0,0.0,0.0,0.0,0.0,0.0,0.0,0.0,0.0,0.0,0.0,0.0,0.0,0.0,0.0
44,3.0509090423583984,30.132984,90.365135,22.890821,0.0,3.376988,-0.235898,29.009459,28.301767,29.783419,90.316734,22.927628,0.0,3.616315,0.128016,28.453672,28.657459,3.0,1.0,111.0,0.0,1.0,-78234.0,-25704.0,13693.0,-77820.0,24947.0,13552.0,-0.934808,-0.237502,0.264059,-0.312359,0.195976,-0.92953,0.169016,-0.951413,-0.257386,-0.939608,0.199003,0.278449,0.299521,0.084471,0.950343,0.1656,0.976352,-0.138975,-0.934808,-0.237502,0.264059,-0.312359,0.195976,-0.92953,0.169016,-0.951413,-0.257386,-0.939608,0.199003,0.278449,0.299521,0.084471,0.950343,0.1656,0.976352,-0.138975,-78234.0,-25704.0,13693.0,-77820.0,24947.0,13552.0,-4453114.0,-2143223.0,-1240.0,0.0,-4194790.0,-2097902.0,-330.0,-2081.0,-4457813.0,-2228666.0,-6290985.0,0.0,-4193835.0,-2244001.0,-4455434.0,-1137.0,50.0,162.0,-45.0,0.0,-635.0,-756.0,446.0,-422.0,-41.0,-162.0,44.0,0.0,413.0,555.0,376.0,-772.0,-0.013613,-0.044087,0.012362,0.0,-0.02325,-0.027668,-0.016355,-0.015444,-0.011359,-0.044051,0.012141,0.0,0.015127,0.020329,-0.013775,-0.028262,4104.0,11513.970703,51494.671875,0.0,-17685.451172,-17705.791016,17963.460938,-17448.121094,4056.390137,11501.910156,51567.390625,0.0,17748.181641,17729.820312,-17472.240234,17985.78125,0.0,0.0,0.0,0.0,0.0,0.0,0.0,0.0,0.0,0.0,0.0,0.0,0.0,0.0,0.0,0.0,0.0,0.0,0.0,0.0,0.0,0.0,0.0,0.0,0.0,0.0,0.0,0.0,0.0,0.0,0.0,0.0,4103.927246,11513.938477,51494.796875,0.0,-17685.359375,-17705.617188,17963.693359,-17447.978516,4056.401855,11501.833984,51567.417969,0.0,17747.914062,17729.369141,-17471.794922,17985.964844,30.132452,90.364952,22.890884,0.0,3.393863,-0.216368,29.025614,28.327463,29.783504,90.316093,22.927645,0.0,3.566852,0.077899,28.528362,28.652824,1.0,0.996,4407514.0,2015290.0,-570923.0,0.0,-3998285.0,-1901171.0,-199264.0,191787.0,-4502884.0,-2356465.0,-6863956.0,0.0,-4391037.0,-2440999.0,4649570.0,-200979.0,0.0,0.0,0.0,0.0,0.0,0.0,0.0,0.0,0.0,0.0,0.0,0.0,0.0,0.0,0.0,0.0,0.0,0.0,0.0,0.0,0.0,0.0,0.0,0.0
45,3.117953062057495,30.132984,90.365135,22.890821,0.0,3.376988,-0.235898,29.009459,28.301767,29.783419,90.316734,22.927628,0.0,3.616315,0.128016,28.453672,28.657459,3.0,1.0,111.0,0.0,1.0,-78234.0,-25704.0,13693.0,-77820.0,24947.0,13552.0,-0.934808,-0.237502,0.264059,-0.312359,0.195976,-0.92953,0.169016,-0.951413,-0.257386,-0.939608,0.199003,0.278449,0.299521,0.084471,0.950343,0.1656,0.976352,-0.138975,-0.934808,-0.237502,0.264059,-0.312359,0.195976,-0.92953,0.169016,-0.951413,-0.257386,-0.939608,0.199003,0.278449,0.299521,0.084471,0.950343,0.1656,0.976352,-0.138975,-78234.0,-25704.0,13693.0,-77820.0,24947.0,13552.0,-4453114.0,-2143223.0,-1240.0,0.0,-4194790.0,-2097902.0,-330.0,-2081.0,-4457813.0,-2228666.0,-6290985.0,0.0,-4193835.0,-2244001.0,-4455434.0,-1137.0,50.0,162.0,-45.0,0.0,-635.0,-755.0,446.0,-421.0,-41.0,-162.0,44.0,0.0,412.0,554.0,375.0,-772.0,-0.013613,-0.044087,0.012362,0.0,-0.023245,-0.027658,-0.016342,-0.015435,-0.011359,-0.044051,0.012141,0.0,0.015111,0.020302,-0.013749,-0.028252,4104.0,11513.970703,51494.671875,0.0,-17685.451172,-17705.791016,17963.460938,-17448.121094,4056.390137,11501.910156,51567.390625,0.0,17748.181641,17729.820312,-17472.240234,17985.78125,0.0,0.0,0.0,0.0,0.0,0.0,0.0,0.0,0.0,0.0,0.0,0.0,0.0,0.0,0.0,0.0,0.0,0.0,0.0,0.0,0.0,0.0,0.0,0.0,0.0,0.0,0.0,0.0,0.0,0.0,0.0,0.0,4103.927246,11513.938477,51494.796875,0.0,-17685.359375,-17705.617188,17963.693359,-17447.978516,4056.401855,11501.833984,51567.417969,0.0,17747.914062,17729.369141,-17471.794922,17985.964844,30.132452,90.364952,22.890884,0.0,3.393863,-0.216368,29.025614,28.327463,29.783504,90.316093,22.927645,0.0,3.566852,0.077899,28.528362,28.652824,1.0,0.996,4407514.0,2015290.0,-570923.0,0.0,-3998285.0,-1901171.0,-199264.0,191787.0,-4502884.0,-2356465.0,-6863956.0,0.0,-4391037.0,-2440999.0,4649570.0,-200979.0,0.0,0.0,0.0,0.0,0.0,0.0,0.0,0.0,0.0,0.0,0.0,0.0,0.0,0.0,0.0,0.0,0.0,0.0,0.0,0.0,0.0,0.0,0.0,0.0
46,3.1809539794921875,30.132984,90.365135,22.890821,0.0,3.376988,-0.235898,29.009459,28.301767,29.783419,90.316734,22.927628,0.0,3.616315,0.128016,28.453672,28.657459,3.0,1.0,111.0,0.0,1.0,-78234.0,-25704.0,13693.0,-77820.0,24947.0,13552.0,-0.934808,-0.237502,0.264059,-0.312359,0.195976,-0.92953,0.169016,-0.951413,-0.257386,-0.939608,0.199003,0.278449,0.299521,0.084471,0.950343,0.1656,0.976352,-0.138975,-0.934808,-0.237502,0.264059,-0.312359,0.195976,-0.92953,0.169016,-0.951413,-0.257386,-0.939608,0.199003,0.278449,0.299521,0.084471,0.950343,0.1656,0.976352,-0.138975,-78234.0,-25704.0,13693.0,-77820.0,24947.0,13552.0,-4453114.0,-2143223.0,-1240.0,0.0,-4194790.0,-2097902.0,-330.0,-2081.0,-4457813.0,-2228666.0,-6290985.0,0.0,-4193835.0,-2244001.0,-4455434.0,-1137.0,50.0,162.0,-45.0,0.0,-635.0,-755.0,446.0,-421.0,-41.0,-162.0,44.0,0.0,412.0,554.0,375.0,-771.0,-0.013613,-0.044087,0.012362,0.0,-0.02324,-0.027648,-0.016329,-0.015428,-0.011359,-0.044051,0.012141,0.0,0.015097,0.020278,-0.013725,-0.028241,4104.0,11513.970703,51494.671875,0.0,-17685.451172,-17705.791016,17963.460938,-17448.121094,4056.390137,11501.910156,51567.390625,0.0,17748.181641,17729.820312,-17472.240234,17985.78125,0.0,0.0,0.0,0.0,0.0,0.0,0.0,0.0,0.0,0.0,0.0,0.0,0.0,0.0,0.0,0.0,0.0,0.0,0.0,0.0,0.0,0.0,0.0,0.0,0.0,0.0,0.0,0.0,0.0,0.0,0.0,0.0,4103.927246,11513.938477,51494.796875,0.0,-17685.359375,-17705.617188,17963.693359,-17447.978516,4056.401855,11501.833984,51567.417969,0.0,17747.914062,17729.369141,-17471.794922,17985.964844,30.132452,90.364952,22.890884,0.0,3.393863,-0.216368,29.025614,28.327463,29.783504,90.316093,22.927645,0.0,3.566852,0.077899,28.528362,28.652824,1.0,0.996,4407514.0,2015290.0,-570923.0,0.0,-3998285.0,-1901171.0,-199264.0,191787.0,-4502884.0,-2356465.0,-6863956.0,0.0,-4391037.0,-2440999.0,4649570.0,-200979.0,0.0,0.0,0.0,0.0,0.0,0.0,0.0,0.0,0.0,0.0,0.0,0.0,0.0,0.0,0.0,0.0,0.0,0.0,0.0,0.0,0.0,0.0,0.0,0.0
47,3.2459590435028076,30.132984,90.365135,22.890821,0.0,3.376988,-0.235898,29.009459,28.301767,29.783419,90.316734,22.927628,0.0,3.616315,0.128016,28.453672,28.657459,3.0,1.0,111.0,0.0,1.0,-78234.0,-25704.0,13693.0,-77820.0,24947.0,13552.0,-0.934808,-0.237502,0.264059,-0.312359,0.195976,-0.92953,0.169016,-0.951413,-0.257386,-0.939608,0.199003,0.278449,0.299521,0.084471,0.950343,0.1656,0.976352,-0.138975,-0.934808,-0.237502,0.264059,-0.312359,0.195976,-0.92953,0.169016,-0.951413,-0.257386,-0.939608,0.199003,0.278449,0.299521,0.084471,0.950343,0.1656,0.976352,-0.138975,-78234.0,-25704.0,13693.0,-77820.0,24947.0,13552.0,-4453114.0,-2143223.0,-1240.0,0.0,-4194790.0,-2097902.0,-330.0,-2081.0,-4457813.0,-2228666.0,-6290985.0,0.0,-4193835.0,-2244001.0,-4455434.0,-1137.0,50.0,162.0,-45.0,0.0,-634.0,-755.0,445.0,-421.0,-41.0,-162.0,44.0,0.0,412.0,553.0,374.0,-771.0,-0.013613,-0.044087,0.012362,0.0,-0.023235,-0.027638,-0.016316,-0.015419,-0.011359,-0.044051,0.012141,0.0,0.015082,0.020252,-0.013699,-0.028231,4104.0,11513.970703,51494.671875,0.0,-17685.451172,-17705.791016,17963.460938,-17448.121094,4056.390137,11501.910156,51567.390625,0.0,17748.181641,17729.820312,-17472.240234,17985.78125,0.0,0.0,0.0,0.0,0.0,0.0,0.0,0.0,0.0,0.0,0.0,0.0,0.0,0.0,0.0,0.0,0.0,0.0,0.0,0.0,0.0,0.0,0.0,0.0,0.0,0.0,0.0,0.0,0.0,0.0,0.0,0.0,4103.927246,11513.938477,51494.796875,0.0,-17685.359375,-17705.617188,17963.693359,-17447.978516,4056.401855,11501.833984,51567.417969,0.0,17747.914062,17729.369141,-17471.794922,17985.964844,30.132452,90.364952,22.890884,0.0,3.393863,-0.216368,29.025614,28.327463,29.783504,90.316093,22.927645,0.0,3.566852,0.077899,28.528362,28.652824,1.0,0.996,4407514.0,2015290.0,-570923.0,0.0,-3998285.0,-1901171.0,-199264.0,191787.0,-4502884.0,-2356465.0,-6863956.0,0.0,-4391037.0,-2440999.0,4649570.0,-200979.0,0.0,0.0,0.0,0.0,0.0,0.0,0.0,0.0,0.0,0.0,0.0,0.0,0.0,0.0,0.0,0.0,0.0,0.0,0.0,0.0,0.0,0.0,0.0,0.0
48,3.315953016281128,30.132984,90.365135,22.890821,0.0,3.376988,-0.235898,29.009459,28.301767,29.783419,90.316734,22.927628,0.0,3.616315,0.128016,28.453672,28.657459,3.0,1.0,111.0,0.0,1.0,-78234.0,-25704.0,13693.0,-77820.0,24947.0,13552.0,-0.934808,-0.237502,0.264059,-0.312359,0.195976,-0.92953,0.169016,-0.951413,-0.257386,-0.939608,0.199003,0.278449,0.299521,0.084471,0.950343,0.1656,0.976352,-0.138975,-0.934808,-0.237502,0.264059,-0.312359,0.195976,-0.92953,0.169016,-0.951413,-0.257386,-0.939608,0.199003,0.278449,0.299521,0.084471,0.950343,0.1656,0.976352,-0.138975,-78234.0,-25704.0,13693.0,-77820.0,24947.0,13552.0,-4453114.0,-2143223.0,-1240.0,0.0,-4194790.0,-2097902.0,-330.0,-2081.0,-4457813.0,-2228666.0,-6290985.0,0.0,-4193835.0,-2244001.0,-4455434.0,-1137.0,50.0,162.0,-45.0,0.0,-634.0,-755.0,445.0,-421.0,-41.0,-162.0,44.0,0.0,411.0,552.0,373.0,-771.0,-0.013613,-0.044087,0.012362,0.0,-0.023229,-0.027628,-0.016302,-0.015411,-0.011359,-0.044051,0.012141,0.0,0.015065,0.020225,-0.013672,-0.02822,4104.0,11513.970703,51494.671875,0.0,-17685.451172,-17705.791016,17963.460938,-17448.121094,4056.390137,11501.910156,51567.390625,0.0,17748.181641,17729.820312,-17472.240234,17985.78125,0.0,0.0,0.0,0.0,0.0,0.0,0.0,0.0,0.0,0.0,0.0,0.0,0.0,0.0,0.0,0.0,0.0,0.0,0.0,0.0,0.0,0.0,0.0,0.0,0.0,0.0,0.0,0.0,0.0,0.0,0.0,0.0,4103.927246,11513.938477,51494.796875,0.0,-17685.359375,-17705.617188,17963.693359,-17447.978516,4056.401855,11501.833984,51567.417969,0.0,17747.914062,17729.369141,-17471.794922,17985.964844,30.132452,90.364952,22.890884,0.0,3.393863,-0.216368,29.025614,28.327463,29.783504,90.316093,22.927645,0.0,3.566852,0.077899,28.528362,28.652824,1.0,0.996,4407514.0,2015290.0,-570923.0,0.0,-3998285.0,-1901171.0,-199264.0,191787.0,-4502884.0,-2356465.0,-6863956.0,0.0,-4391037.0,-2440999.0,4649570.0,-200979.0,0.0,0.0,0.0,0.0,0.0,0.0,0.0,0.0,0.0,0.0,0.0,0.0,0.0,0.0,0.0,0.0,0.0,0.0,0.0,0.0,0.0,0.0,0.0,0.0
49,3.386970043182373,30.132984,90.365135,22.890821,0.0,3.376988,-0.235898,29.009459,28.301767,29.783419,90.316734,22.927628,0.0,3.616315,0.128016,28.453672,28.657459,3.0,1.0,111.0,0.0,1.0,-78234.0,-25704.0,13693.0,-77820.0,24947.0,13552.0,-0.934808,-0.237502,0.264059,-0.312359,0.195976,-0.92953,0.169016,-0.951413,-0.257386,-0.939608,0.199003,0.278449,0.299521,0.084471,0.950343,0.1656,0.976352,-0.138975,-0.934808,-0.237502,0.264059,-0.312359,0.195976,-0.92953,0.169016,-0.951413,-0.257386,-0.939608,0.199003,0.278449,0.299521,0.084471,0.950343,0.1656,0.976352,-0.138975,-78234.0,-25704.0,13693.0,-77820.0,24947.0,13552.0,-4453114.0,-2143223.0,-1240.0,0.0,-4194790.0,-2097902.0,-330.0,-2081.0,-4457813.0,-2228666.0,-6290985.0,0.0,-4193835.0,-2244001.0,-4455434.0,-1137.0,50.0,162.0,-45.0,0.0,-634.0,-754.0,445.0,-420.0,-41.0,-162.0,44.0,0.0,411.0,551.0,372.0,-770.0,-0.013613,-0.044087,0.012362,0.0,-0.023224,-0.027617,-0.016287,-0.015402,-0.011359,-0.044051,0.012141,0.0,0.015049,0.020197,-0.013644,-0.028208,4104.0,11513.970703,51494.671875,0.0,-17685.451172,-17705.791016,17963.460938,-17448.121094,4056.390137,11501.910156,51567.390625,0.0,17748.181641,17729.820312,-17472.240234,17985.78125,0.0,0.0,0.0,0.0,0.0,0.0,0.0,0.0,0.0,0.0,0.0,0.0,0.0,0.0,0.0,0.0,0.0,0.0,0.0,0.0,0.0,0.0,0.0,0.0,0.0,0.0,0.0,0.0,0.0,0.0,0.0,0.0,4103.927246,11513.938477,51494.796875,0.0,-17685.359375,-17705.617188,17963.693359,-17447.978516,4056.401855,11501.833984,51567.417969,0.0,17747.914062,17729.369141,-17471.794922,17985.964844,30.132452,90.364952,22.890884,0.0,3.393863,-0.216368,29.025614,28.327463,29.783504,90.316093,22.927645,0.0,3.566852,0.077899,28.528362,28.652824,1.0,0.996,4407514.0,2015290.0,-570923.0,0.0,-3998285.0,-1901171.0,-199264.0,191787.0,-4502884.0,-2356465.0,-6863956.0,0.0,-4391037.0,-2440999.0,4649570.0,-200979.0,0.0,0.0,0.0,0.0,0.0,0.0,0.0,0.0,0.0,0.0,0.0,0.0,0.0,0.0,0.0,0.0,0.0,0.0,0.0,0.0,0.0,0.0,0.0,0.0
50,3.45491099357605,30.132984,90.365135,22.890821,0.0,3.376988,-0.235898,29.009459,28.301767,29.783419,90.316734,22.927628,0.0,3.616315,0.128016,28.453672,28.657459,3.0,1.0,111.0,0.0,1.0,-78234.0,-25704.0,13693.0,-77820.0,24947.0,13552.0,-0.934808,-0.237502,0.264059,-0.312359,0.195976,-0.92953,0.169016,-0.951413,-0.257386,-0.939608,0.199003,0.278449,0.299521,0.084471,0.950343,0.1656,0.976352,-0.138975,-0.934808,-0.237502,0.264059,-0.312359,0.195976,-0.92953,0.169016,-0.951413,-0.257386,-0.939608,0.199003,0.278449,0.299521,0.084471,0.950343,0.1656,0.976352,-0.138975,-78234.0,-25704.0,13693.0,-77820.0,24947.0,13552.0,-4453114.0,-2143223.0,-1240.0,0.0,-4194790.0,-2097902.0,-330.0,-2081.0,-4457813.0,-2228666.0,-6290985.0,0.0,-4193835.0,-2244001.0,-4455434.0,-1137.0,50.0,162.0,-45.0,0.0,-634.0,-754.0,444.0,-420.0,-41.0,-162.0,44.0,0.0,410.0,551.0,372.0,-770.0,-0.013613,-0.044087,0.012362,0.0,-0.023219,-0.027607,-0.016273,-0.015393,-0.011359,-0.044051,0.012141,0.0,0.015033,0.02017,-0.013618,-0.028197,4104.0,11513.970703,51494.671875,0.0,-17685.451172,-17705.791016,17963.460938,-17448.121094,4056.390137,11501.910156,51567.390625,0.0,17748.181641,17729.820312,-17472.240234,17985.78125,0.0,0.0,0.0,0.0,0.0,0.0,0.0,0.0,0.0,0.0,0.0,0.0,0.0,0.0,0.0,0.0,0.0,0.0,0.0,0.0,0.0,0.0,0.0,0.0,0.0,0.0,0.0,0.0,0.0,0.0,0.0,0.0,4103.927246,11513.938477,51494.796875,0.0,-17685.359375,-17705.617188,17963.693359,-17447.978516,4056.401855,11501.833984,51567.417969,0.0,17747.914062,17729.369141,-17471.794922,17985.964844,30.132452,90.364952,22.890884,0.0,3.393863,-0.216368,29.025614,28.327463,29.783504,90.316093,22.927645,0.0,3.566852,0.077899,28.528362,28.652824,1.0,0.996,4407514.0,2015290.0,-570923.0,0.0,-3998285.0,-1901171.0,-199264.0,191787.0,-4502884.0,-2356465.0,-6863956.0,0.0,-4391037.0,-2440999.0,4649570.0,-200979.0,0.0,0.0,0.0,0.0,0.0,0.0,0.0,0.0,0.0,0.0,0.0,0.0,0.0,0.0,0.0,0.0,0.0,0.0,0.0,0.0,0.0,0.0,0.0,0.0
