MHC-RobotSimulators-Research/Data_Analysis_MotionReplication/mai_plotter/raven_data/leftarm_p5_phys1.csv
,time,jpos0,jpos1,jpos2,jpos3,jpos4,jpos5,jpos6,jpos7,jpos8,jpos9,jpos10,jpos11,jpos12,jpos13,jpos14,jpos15,runlevel,sublevel,last_seq,type0,type1,pos0,pos1,pos2,pos3,pos4,pos5,ori0,ori1,ori2,ori3,ori4,ori5,ori6,ori7,ori8,ori9,ori10,ori11,ori12,ori13,ori14,ori15,ori16,ori17,ori_d0,ori_d1,ori_d2,ori_d3,ori_d4,ori_d5,ori_d6,ori_d7,ori_d8,ori_d9,ori_d10,ori_d11,ori_d12,ori_d13,ori_d14,ori_d15,ori_d16,ori_d17,pos_d0,pos_d1,pos_d2,pos_d3,pos_d4,pos_d5,encVals0,encVals1,encVals2,encVals3,encVals4,encVals5,encVals6,encVals7,encVals8,encVals9,encVals10,encVals11,encVals12,encVals13,encVals14,encVals15,dac_vals0,dac_vals1,dac_vals2,dac_vals3,dac_vals4,dac_vals5,dac_vals6,dac_vals7,dac_vals8,dac_vals9,dac_vals10,dac_vals11,dac_vals12,dac_vals13,dac_vals14,dac_vals15,Tau0,Tau1,Tau2,Tau3,Tau4,Tau5,Tau6,Tau7,Tau8,Tau9,Tau10,Tau11,Tau12,Tau13,Tau14,Tau15,mpos0,mpos1,mpos2,mpos3,mpos4,mpos5,mpos6,mpos7,mpos8,mpos9,mpos10,mpos11,mpos12,mpos13,mpos14,mpos15,mvel0,mvel1,mvel2,mvel3,mvel4,mvel5,mvel6,mvel7,mvel8,mvel9,mvel10,mvel11,mvel12,mvel13,mvel14,mvel15,jvel0,jvel1,jvel2,jvel3,jvel4,jvel5,jvel6,jvel7,jvel8,jvel9,jvel10,jvel11,jvel12,jvel13,jvel14,jvel15,mpos_d0,mpos_d1,mpos_d2,mpos_d3,mpos_d4,mpos_d5,mpos_d6,mpos_d7,mpos_d8,mpos_d9,mpos_d10,mpos_d11,mpos_d12,mpos_d13,mpos_d14,mpos_d15,jpos_d0,jpos_d1,jpos_d2,jpos_d3,jpos_d4,jpos_d5,jpos_d6,jpos_d7,jpos_d8,jpos_d9,jpos_d10,jpos_d11,jpos_d12,jpos_d13,jpos_d14,jpos_d15,grasp_d0,grasp_d1,encoffsets0,encoffsets1,encoffsets2,encoffsets3,encoffsets4,encoffsets5,encoffsets6,encoffsets7,encoffsets8,encoffsets9,encoffsets10,encoffsets11,encoffsets12,encoffsets13,encoffsets14,encoffsets15,jac_vel0,jac_vel1,jac_vel2,jac_vel3,jac_vel4,jac_vel5,jac_vel6,jac_vel7,jac_vel8,jac_vel9,jac_vel10,jac_vel11,jac_f0,jac_f1,jac_f2,jac_f3,jac_f4,jac_f5,jac_f6,jac_f7,jac_f8,jac_f9,jac_f10,jac_f11
0,0.0,30.150829,90.655083,22.831928,0.0,48.314598,2.154795,25.903917,31.357334,30.173296,90.361496,22.857389,0.0,42.369156,-2.533498,31.504978,25.125658,3.0,1.0,111.0,0.0,1.0,-79131.0,-25784.0,14616.0,-78566.0,26339.0,14085.0,-0.952038,-0.305549,-0.016245,-0.250156,0.807817,-0.533717,0.1762,-0.504055,-0.845507,-0.918007,-0.076255,0.389163,0.37151,-0.508646,0.776698,0.138719,0.857592,0.49527,-0.952038,-0.305549,-0.016245,-0.250156,0.807817,-0.533717,0.1762,-0.504055,-0.845507,-0.918007,-0.076255,0.389163,0.37151,-0.508646,0.776698,0.138719,0.857592,0.49527,-79131.0,-25784.0,14616.0,-78566.0,26339.0,14085.0,-4442615.0,-5548.0,-4202954.0,0.0,-302.0,-2324.0,-2343.0,-4774.0,-20115.0,8467.0,1216.0,0.0,1575.0,328.0,1302.0,-2114.0,-20.0,158.0,75.0,0.0,882.0,792.0,498.0,-344.0,45.0,-157.0,-117.0,0.0,606.0,66.0,440.0,-580.0,0.005633,-0.042998,-0.020407,0.0,0.032275,0.029012,-0.018251,-0.012592,0.012298,-0.042737,-0.03186,0.0,0.022179,0.002451,-0.016121,-0.021234,4106.430176,11549.520508,51372.902344,0.0,-17401.140625,-17642.429688,17904.419922,-17389.529297,4109.490234,11514.240234,51423.121094,0.0,17907.660156,17656.291016,-17407.169922,17916.390625,0.0,0.0,0.0,0.0,0.0,0.0,0.0,0.0,0.0,0.0,0.0,0.0,0.0,0.0,0.0,0.0,0.0,0.0,0.0,0.0,0.0,0.0,0.0,0.0,0.0,0.0,0.0,0.0,0.0,0.0,0.0,0.0,4110.064453,11549.804688,51360.511719,0.0,-17401.285156,-17642.636719,17904.697266,-17389.091797,4114.399414,11514.464844,51406.355469,0.0,17907.632812,17657.511719,-17406.400391,17917.207031,30.177513,90.653534,22.825994,0.0,48.287575,2.131821,25.946066,31.394472,30.209343,90.358093,22.849369,0.0,42.363922,-2.39752,31.52248,25.284449,0.999,0.988,4396988.0,-122780.0,3632144.0,0.0,193044.0,193703.0,-196595.0,188443.0,-65776.0,-119469.0,-570152.0,0.0,-197399.0,-195853.0,192111.0,-201185.0,0.0,0.0,0.0,0.0,0.0,0.0,0.0,0.0,0.0,0.0,0.0,0.0,0.0,0.0,0.0,0.0,0.0,0.0,0.0,0.0,0.0,0.0,0.0,0.0
1,0.0679779052734375,30.150829,90.655083,22.831928,0.0,48.314598,2.154795,25.903917,31.357334,30.173296,90.361496,22.857389,0.0,42.369156,-2.523386,31.49992,25.130713,3.0,1.0,111.0,0.0,1.0,-79131.0,-25784.0,14616.0,-78567.0,26337.0,14084.0,-0.952038,-0.305549,-0.016245,-0.250156,0.807817,-0.533717,0.1762,-0.504055,-0.845507,-0.918082,-0.076178,0.389001,0.371329,-0.508686,0.776758,0.138708,0.857575,0.495303,-0.952038,-0.305549,-0.016245,-0.250156,0.807817,-0.533717,0.1762,-0.504055,-0.845507,-0.918082,-0.076178,0.389001,0.371329,-0.508686,0.776758,0.138708,0.857575,0.495303,-79131.0,-25784.0,14616.0,-78567.0,26337.0,14084.0,-4442615.0,-5548.0,-4202954.0,0.0,-302.0,-2324.0,-2343.0,-4774.0,-20115.0,8467.0,1216.0,0.0,1575.0,329.0,1302.0,-2114.0,-20.0,158.0,75.0,0.0,881.0,792.0,498.0,-343.0,45.0,-157.0,-117.0,0.0,606.0,66.0,439.0,-578.0,0.005633,-0.042998,-0.020407,0.0,0.032267,0.028999,-0.018235,-0.012566,0.012298,-0.042737,-0.03186,0.0,0.022178,0.002439,-0.016075,-0.021185,4106.430176,11549.520508,51372.902344,0.0,-17401.140625,-17642.429688,17904.419922,-17389.529297,4109.490234,11514.240234,51423.121094,0.0,17907.660156,17656.380859,-17407.169922,17916.390625,0.0,0.0,0.0,0.0,0.0,0.0,0.0,0.0,0.0,0.0,0.0,0.0,0.0,0.0,0.0,0.0,0.0,0.0,0.0,0.0,0.0,0.0,0.0,0.0,0.0,0.0,0.0,0.0,0.0,0.0,0.0,0.0,4110.064453,11549.804688,51360.511719,0.0,-17401.285156,-17642.636719,17904.697266,-17389.091797,4114.399414,11514.464844,51406.355469,0.0,17907.632812,17657.511719,-17406.400391,17917.207031,30.177513,90.653534,22.825994,0.0,48.287575,2.131821,25.946066,31.394472,30.209343,90.358093,22.849369,0.0,42.363922,-2.39752,31.52248,25.284449,0.999,0.988,4396988.0,-122780.0,3632144.0,0.0,193044.0,193703.0,-196595.0,188443.0,-65776.0,-119469.0,-570152.0,0.0,-197399.0,-195853.0,192111.0,-201185.0,0.0,0.0,0.0,0.0,0.0,0.0,0.0,0.0,0.0,0.0,0.0,0.0,0.0,0.0,0.0,0.0,0.0,0.0,0.0,0.0,0.0,0.0,0.0,0.0
2,0.13387608528137207,30.150829,90.655083,22.831928,0.0,48.314598,2.154795,25.903917,31.357334,30.173296,90.361496,22.857389,0.0,42.369156,-2.523386,31.49992,25.130713,3.0,1.0,111.0,0.0,1.0,-79131.0,-25784.0,14616.0,-78567.0,26337.0,14084.0,-0.952038,-0.305549,-0.016245,-0.250156,0.807817,-0.533717,0.1762,-0.504055,-0.845507,-0.918082,-0.076178,0.389001,0.371329,-0.508686,0.776758,0.138708,0.857575,0.495303,-0.952038,-0.305549,-0.016245,-0.250156,0.807817,-0.533717,0.1762,-0.504055,-0.845507,-0.918082,-0.076178,0.389001,0.371329,-0.508686,0.776758,0.138708,0.857575,0.495303,-79131.0,-25784.0,14616.0,-78567.0,26337.0,14084.0,-4442615.0,-5548.0,-4202954.0,0.0,-302.0,-2324.0,-2343.0,-4774.0,-20115.0,8467.0,1216.0,0.0,1575.0,329.0,1302.0,-2114.0,-20.0,158.0,75.0,0.0,881.0,792.0,497.0,-342.0,45.0,-157.0,-117.0,0.0,606.0,68.0,438.0,-577.0,0.005633,-0.042998,-0.020407,0.0,0.032259,0.028988,-0.018219,-0.012541,0.012298,-0.042737,-0.03186,0.0,0.022176,0.002504,-0.016031,-0.021138,4106.430176,11549.520508,51372.902344,0.0,-17401.140625,-17642.429688,17904.419922,-17389.529297,4109.490234,11514.240234,51423.121094,0.0,17907.660156,17656.380859,-17407.169922,17916.390625,0.0,0.0,0.0,0.0,0.0,0.0,0.0,0.0,0.0,0.0,0.0,0.0,0.0,0.0,0.0,0.0,0.0,0.0,0.0,0.0,0.0,0.0,0.0,0.0,0.0,0.0,0.0,0.0,0.0,0.0,0.0,0.0,4110.064453,11549.804688,51360.511719,0.0,-17401.285156,-17642.636719,17904.697266,-17389.091797,4114.399414,11514.464844,51406.355469,0.0,17907.632812,17657.511719,-17406.400391,17917.207031,30.177513,90.653534,22.825994,0.0,48.287575,2.131821,25.946066,31.394472,30.209343,90.358093,22.849369,0.0,42.363922,-2.39752,31.52248,25.284449,0.999,0.988,4396988.0,-122780.0,3632144.0,0.0,193044.0,193703.0,-196595.0,188443.0,-65776.0,-119469.0,-570152.0,0.0,-197399.0,-195853.0,192111.0,-201185.0,0.0,0.0,0.0,0.0,0.0,0.0,0.0,0.0,0.0,0.0,0.0,0.0,0.0,0.0,0.0,0.0,0.0,0.0,0.0,0.0,0.0,0.0,0.0,0.0
3,0.20087790489196777,30.150829,90.655083,22.831928,0.0,48.314598,2.154795,25.903917,31.357334,30.173296,90.361496,22.857389,0.0,42.369156,-2.523386,31.49992,25.130713,3.0,1.0,111.0,0.0,1.0,-79131.0,-25784.0,14616.0,-78567.0,26337.0,14084.0,-0.952038,-0.305549,-0.016245,-0.250156,0.807817,-0.533717,0.1762,-0.504055,-0.845507,-0.918082,-0.076178,0.389001,0.371329,-0.508686,0.776758,0.138708,0.857575,0.495303,-0.952038,-0.305549,-0.016245,-0.250156,0.807817,-0.533717,0.1762,-0.504055,-0.845507,-0.918082,-0.076178,0.389001,0.371329,-0.508686,0.776758,0.138708,0.857575,0.495303,-79131.0,-25784.0,14616.0,-78567.0,26337.0,14084.0,-4442615.0,-5548.0,-4202954.0,0.0,-302.0,-2324.0,-2343.0,-4774.0,-20115.0,8467.0,1216.0,0.0,1575.0,329.0,1302.0,-2114.0,-20.0,158.0,75.0,0.0,881.0,791.0,497.0,-342.0,45.0,-157.0,-117.0,0.0,605.0,70.0,436.0,-576.0,0.005633,-0.042998,-0.020407,0.0,0.03225,0.028976,-0.018203,-0.012516,0.012298,-0.042737,-0.03186,0.0,0.022175,0.00257,-0.015986,-0.021091,4106.430176,11549.520508,51372.902344,0.0,-17401.140625,-17642.429688,17904.419922,-17389.529297,4109.490234,11514.240234,51423.121094,0.0,17907.660156,17656.380859,-17407.169922,17916.390625,0.0,0.0,0.0,0.0,0.0,0.0,0.0,0.0,0.0,0.0,0.0,0.0,0.0,0.0,0.0,0.0,0.0,0.0,0.0,0.0,0.0,0.0,0.0,0.0,0.0,0.0,0.0,0.0,0.0,0.0,0.0,0.0,4110.064453,11549.804688,51360.511719,0.0,-17401.285156,-17642.636719,17904.697266,-17389.091797,4114.399414,11514.464844,51406.355469,0.0,17907.632812,17657.511719,-17406.400391,17917.207031,30.177513,90.653534,22.825994,0.0,48.287575,2.131821,25.946066,31.394472,30.209343,90.358093,22.849369,0.0,42.363922,-2.39752,31.52248,25.284449,0.999,0.988,4396988.0,-122780.0,3632144.0,0.0,193044.0,193703.0,-196595.0,188443.0,-65776.0,-119469.0,-570152.0,0.0,-197399.0,-195853.0,192111.0,-201185.0,0.0,0.0,0.0,0.0,0.0,0.0,0.0,0.0,0.0,0.0,0.0,0.0,0.0,0.0,0.0,0.0,0.0,0.0,0.0,0.0,0.0,0.0,0.0,0.0
4,0.2708740234375,30.150829,90.655083,22.831928,0.0,48.314598,2.154795,25.903917,31.357334,30.173296,90.361496,22.857389,0.0,42.369156,-2.523386,31.49992,25.130713,3.0,1.0,111.0,0.0,1.0,-79131.0,-25784.0,14616.0,-78567.0,26337.0,14084.0,-0.952038,-0.305549,-0.016245,-0.250156,0.807817,-0.533717,0.1762,-0.504055,-0.845507,-0.918082,-0.076178,0.389001,0.371329,-0.508686,0.776758,0.138708,0.857575,0.495303,-0.952038,-0.305549,-0.016245,-0.250156,0.807817,-0.533717,0.1762,-0.504055,-0.845507,-0.918082,-0.076178,0.389001,0.371329,-0.508686,0.776758,0.138708,0.857575,0.495303,-79131.0,-25784.0,14616.0,-78567.0,26337.0,14084.0,-4442615.0,-5548.0,-4202954.0,0.0,-302.0,-2324.0,-2343.0,-4774.0,-20115.0,8467.0,1216.0,0.0,1575.0,329.0,1302.0,-2114.0,-20.0,158.0,75.0,0.0,881.0,791.0,496.0,-341.0,45.0,-157.0,-117.0,0.0,605.0,72.0,435.0,-575.0,0.005633,-0.042998,-0.020407,0.0,0.032242,0.028963,-0.018186,-0.012489,0.012298,-0.042737,-0.03186,0.0,0.022173,0.002639,-0.015939,-0.021041,4106.430176,11549.520508,51372.902344,0.0,-17401.140625,-17642.429688,17904.419922,-17389.529297,4109.490234,11514.240234,51423.121094,0.0,17907.660156,17656.380859,-17407.169922,17916.390625,0.0,0.0,0.0,0.0,0.0,0.0,0.0,0.0,0.0,0.0,0.0,0.0,0.0,0.0,0.0,0.0,0.0,0.0,0.0,0.0,0.0,0.0,0.0,0.0,0.0,0.0,0.0,0.0,0.0,0.0,0.0,0.0,4110.064453,11549.804688,51360.511719,0.0,-17401.285156,-17642.636719,17904.697266,-17389.091797,4114.399414,11514.464844,51406.355469,0.0,17907.632812,17657.511719,-17406.400391,17917.207031,30.177513,90.653534,22.825994,0.0,48.287575,2.131821,25.946066,31.394472,30.209343,90.358093,22.849369,0.0,42.363922,-2.39752,31.52248,25.284449,0.999,0.988,4396988.0,-122780.0,3632144.0,0.0,193044.0,193703.0,-196595.0,188443.0,-65776.0,-119469.0,-570152.0,0.0,-197399.0,-195853.0,192111.0,-201185.0,0.0,0.0,0.0,0.0,0.0,0.0,0.0,0.0,0.0,0.0,0.0,0.0,0.0,0.0,0.0,0.0,0.0,0.0,0.0,0.0,0.0,0.0,0.0,0.0
5,0.3379180431365967,30.150829,90.655083,22.831928,0.0,48.314598,2.154795,25.903917,31.357334,30.173296,90.361496,22.857389,0.0,42.369156,-2.523386,31.49992,25.130713,3.0,1.0,111.0,0.0,1.0,-79131.0,-25784.0,14616.0,-78567.0,26337.0,14084.0,-0.952038,-0.305549,-0.016245,-0.250156,0.807817,-0.533717,0.1762,-0.504055,-0.845507,-0.918082,-0.076178,0.389001,0.371329,-0.508686,0.776758,0.138708,0.857575,0.495303,-0.952038,-0.305549,-0.016245,-0.250156,0.807817,-0.533717,0.1762,-0.504055,-0.845507,-0.918082,-0.076178,0.389001,0.371329,-0.508686,0.776758,0.138708,0.857575,0.495303,-79131.0,-25784.0,14616.0,-78567.0,26337.0,14084.0,-4442615.0,-5548.0,-4202954.0,0.0,-302.0,-2324.0,-2343.0,-4774.0,-20115.0,8467.0,1216.0,0.0,1575.0,329.0,1302.0,-2114.0,-20.0,158.0,75.0,0.0,880.0,791.0,496.0,-340.0,45.0,-157.0,-117.0,0.0,605.0,73.0,434.0,-573.0,0.005633,-0.042998,-0.020407,0.0,0.032233,0.028951,-0.018169,-0.012463,0.012298,-0.042737,-0.03186,0.0,0.022171,0.002705,-0.015894,-0.020993,4106.430176,11549.520508,51372.902344,0.0,-17401.140625,-17642.429688,17904.419922,-17389.529297,4109.490234,11514.240234,51423.121094,0.0,17907.660156,17656.380859,-17407.169922,17916.390625,0.0,0.0,0.0,0.0,0.0,0.0,0.0,0.0,0.0,0.0,0.0,0.0,0.0,0.0,0.0,0.0,0.0,0.0,0.0,0.0,0.0,0.0,0.0,0.0,0.0,0.0,0.0,0.0,0.0,0.0,0.0,0.0,4110.064453,11549.804688,51360.511719,0.0,-17401.285156,-17642.636719,17904.697266,-17389.091797,4114.399414,11514.464844,51406.355469,0.0,17907.632812,17657.511719,-17406.400391,17917.207031,30.177513,90.653534,22.825994,0.0,48.287575,2.131821,25.946066,31.394472,30.209343,90.358093,22.849369,0.0,42.363922,-2.39752,31.52248,25.284449,0.999,0.988,4396988.0,-122780.0,3632144.0,0.0,193044.0,193703.0,-196595.0,188443.0,-65776.0,-119469.0,-570152.0,0.0,-197399.0,-195853.0,192111.0,-201185.0,0.0,0.0,0.0,0.0,0.0,0.0,0.0,0.0,0.0,0.0,0.0,0.0,0.0,0.0,0.0,0.0,0.0,0.0,0.0,0.0,0.0,0.0,0.0,0.0
6,0.40508008003234863,30.150829,90.655083,22.831928,0.0,48.314598,2.154795,25.903917,31.357334,30.173296,90.361496,22.857389,0.0,42.369156,-2.513469,31.494963,25.135672,3.0,1.0,111.0,0.0,1.0,-79131.0,-25784.0,14616.0,-78568.0,26335.0,14083.0,-0.952038,-0.305549,-0.016245,-0.250156,0.807817,-0.533717,0.1762,-0.504055,-0.845507,-0.918156,-0.076102,0.388841,0.37115,-0.508726,0.776818,0.138696,0.857558,0.495335,-0.952038,-0.305549,-0.016245,-0.250156,0.807817,-0.533717,0.1762,-0.504055,-0.845507,-0.918156,-0.076102,0.388841,0.37115,-0.508726,0.776818,0.138696,0.857558,0.495335,-79131.0,-25784.0,14616.0,-78568.0,26335.0,14083.0,-4442615.0,-5548.0,-4202954.0,0.0,-302.0,-2324.0,-2343.0,-4774.0,-20115.0,8467.0,1216.0,0.0,1575.0,330.0,1302.0,-2114.0,-20.0,158.0,75.0,0.0,880.0,790.0,496.0,-339.0,45.0,-157.0,-117.0,0.0,605.0,73.0,433.0,-572.0,0.005633,-0.042998,-0.020407,0.0,0.032225,0.028939,-0.018153,-0.012438,0.012298,-0.042737,-0.03186,0.0,0.02217,0.002689,-0.015849,-0.020945,4106.430176,11549.520508,51372.902344,0.0,-17401.140625,-17642.429688,17904.419922,-17389.529297,4109.490234,11514.240234,51423.121094,0.0,17907.660156,17656.470703,-17407.169922,17916.390625,0.0,0.0,0.0,0.0,0.0,0.0,0.0,0.0,0.0,0.0,0.0,0.0,0.0,0.0,0.0,0.0,0.0,0.0,0.0,0.0,0.0,0.0,0.0,0.0,0.0,0.0,0.0,0.0,0.0,0.0,0.0,0.0,4110.064453,11549.804688,51360.511719,0.0,-17401.285156,-17642.636719,17904.697266,-17389.091797,4114.399414,11514.464844,51406.355469,0.0,17907.632812,17657.511719,-17406.400391,17917.207031,30.177513,90.653534,22.825994,0.0,48.287575,2.131821,25.946066,31.394472,30.209343,90.358093,22.849369,0.0,42.363922,-2.39752,31.52248,25.284449,0.999,0.988,4396988.0,-122780.0,3632144.0,0.0,193044.0,193703.0,-196595.0,188443.0,-65776.0,-119469.0,-570152.0,0.0,-197399.0,-195853.0,192111.0,-201185.0,0.0,0.0,0.0,0.0,0.0,0.0,0.0,0.0,0.0,0.0,0.0,0.0,0.0,0.0,0.0,0.0,0.0,0.0,0.0,0.0,0.0,0.0,0.0,0.0
7,0.47107601165771484,30.150829,90.655083,22.831928,0.0,48.314598,2.154795,25.903917,31.357334,30.173296,90.361496,22.857389,0.0,42.369156,-2.513469,31.494963,25.135672,3.0,1.0,111.0,0.0,1.0,-79131.0,-25784.0,14616.0,-78568.0,26335.0,14083.0,-0.952038,-0.305549,-0.016245,-0.250156,0.807817,-0.533717,0.1762,-0.504055,-0.845507,-0.918156,-0.076102,0.388841,0.37115,-0.508726,0.776818,0.138696,0.857558,0.495335,-0.952038,-0.305549,-0.016245,-0.250156,0.807817,-0.533717,0.1762,-0.504055,-0.845507,-0.918156,-0.076102,0.388841,0.37115,-0.508726,0.776818,0.138696,0.857558,0.495335,-79131.0,-25784.0,14616.0,-78568.0,26335.0,14083.0,-4442615.0,-5548.0,-4202954.0,0.0,-302.0,-2324.0,-2343.0,-4774.0,-20115.0,8467.0,1216.0,0.0,1575.0,330.0,1302.0,-2114.0,-20.0,158.0,75.0,0.0,880.0,790.0,495.0,-339.0,45.0,-157.0,-117.0,0.0,605.0,75.0,431.0,-571.0,0.005633,-0.042998,-0.020407,0.0,0.032217,0.028927,-0.018137,-0.012413,0.012298,-0.042737,-0.03186,0.0,0.022168,0.002749,-0.015805,-0.020898,4106.430176,11549.520508,51372.902344,0.0,-17401.140625,-17642.429688,17904.419922,-17389.529297,4109.490234,11514.240234,51423.121094,0.0,17907.660156,17656.470703,-17407.169922,17916.390625,0.0,0.0,0.0,0.0,0.0,0.0,0.0,0.0,0.0,0.0,0.0,0.0,0.0,0.0,0.0,0.0,0.0,0.0,0.0,0.0,0.0,0.0,0.0,0.0,0.0,0.0,0.0,0.0,0.0,0.0,0.0,0.0,4110.064453,11549.804688,51360.511719,0.0,-17401.285156,-17642.636719,17904.697266,-17389.091797,4114.399414,11514.464844,51406.355469,0.0,17907.632812,17657.511719,-17406.400391,17917.207031,30.177513,90.653534,22.825994,0.0,48.287575,2.131821,25.946066,31.394472,30.209343,90.358093,22.849369,0.0,42.363922,-2.39752,31.52248,25.284449,0.999,0.988,4396988.0,-122780.0,3632144.0,0.0,193044.0,193703.0,-196595.0,188443.0,-65776.0,-119469.0,-570152.0,0.0,-197399.0,-195853.0,192111.0,-201185.0,0.0,0.0,0.0,0.0,0.0,0.0,0.0,0.0,0.0,0.0,0.0,0.0,0.0,0.0,0.0,0.0,0.0,0.0,0.0,0.0,0.0,0.0,0.0,0.0
8,0.5388779640197754,30.150829,90.655083,22.831928,0.0,48.314598,2.154795,25.903917,31.357334,30.173296,90.361496,22.857389,0.0,42.369156,-2.513469,31.494963,25.135672,3.0,1.0,111.0,0.0,1.0,-79131.0,-25784.0,14616.0,-78568.0,26335.0,14083.0,-0.952038,-0.305549,-0.016245,-0.250156,0.807817,-0.533717,0.1762,-0.504055,-0.845507,-0.918156,-0.076102,0.388841,0.37115,-0.508726,0.776818,0.138696,0.857558,0.495335,-0.952038,-0.305549,-0.016245,-0.250156,0.807817,-0.533717,0.1762,-0.504055,-0.845507,-0.918156,-0.076102,0.388841,0.37115,-0.508726,0.776818,0.138696,0.857558,0.495335,-79131.0,-25784.0,14616.0,-78568.0,26335.0,14083.0,-4442615.0,-5548.0,-4202954.0,0.0,-302.0,-2324.0,-2343.0,-4774.0,-20115.0,8467.0,1216.0,0.0,1575.0,330.0,1302.0,-2114.0,-20.0,158.0,75.0,0.0,880.0,790.0,495.0,-338.0,45.0,-157.0,-117.0,0.0,605.0,76.0,430.0,-569.0,0.005633,-0.042998,-0.020407,0.0,0.032208,0.028915,-0.018121,-0.012387,0.012298,-0.042737,-0.03186,0.0,0.022167,0.002811,-0.015759,-0.02085,4106.430176,11549.520508,51372.902344,0.0,-17401.140625,-17642.429688,17904.419922,-17389.529297,4109.490234,11514.240234,51423.121094,0.0,17907.660156,17656.470703,-17407.169922,17916.390625,0.0,0.0,0.0,0.0,0.0,0.0,0.0,0.0,0.0,0.0,0.0,0.0,0.0,0.0,0.0,0.0,0.0,0.0,0.0,0.0,0.0,0.0,0.0,0.0,0.0,0.0,0.0,0.0,0.0,0.0,0.0,0.0,4110.064453,11549.804688,51360.511719,0.0,-17401.285156,-17642.636719,17904.697266,-17389.091797,4114.399414,11514.464844,51406.355469,0.0,17907.632812,17657.511719,-17406.400391,17917.207031,30.177513,90.653534,22.825994,0.0,48.287575,2.131821,25.946066,31.394472,30.209343,90.358093,22.849369,0.0,42.363922,-2.39752,31.52248,25.284449,0.999,0.988,4396988.0,-122780.0,3632144.0,0.0,193044.0,193703.0,-196595.0,188443.0,-65776.0,-119469.0,-570152.0,0.0,-197399.0,-195853.0,192111.0,-201185.0,0.0,0.0,0.0,0.0,0.0,0.0,0.0,0.0,0.0,0.0,0.0,0.0,0.0,0.0,0.0,0.0,0.0,0.0,0.0,0.0,0.0,0.0,0.0,0.0
9,0.6048738956451416,30.150829,90.655083,22.831928,0.0,48.314598,2.154795,25.903917,31.357334,30.173296,90.361496,22.857389,0.0,42.369156,-2.503552,31.490004,25.140631,3.0,1.0,111.0,0.0,1.0,-79131.0,-25784.0,14616.0,-78568.0,26333.0,14082.0,-0.952038,-0.305549,-0.016245,-0.250156,0.807817,-0.533717,0.1762,-0.504055,-0.845507,-0.91823,-0.076026,0.388682,0.370972,-0.508765,0.776877,0.138685,0.857542,0.495367,-0.952038,-0.305549,-0.016245,-0.250156,0.807817,-0.533717,0.1762,-0.504055,-0.845507,-0.91823,-0.076026,0.388682,0.370972,-0.508765,0.776877,0.138685,0.857542,0.495367,-79131.0,-25784.0,14616.0,-78568.0,26333.0,14082.0,-4442615.0,-5548.0,-4202954.0,0.0,-302.0,-2324.0,-2343.0,-4774.0,-20115.0,8467.0,1216.0,0.0,1575.0,331.0,1302.0,-2114.0,-20.0,158.0,75.0,0.0,879.0,789.0,494.0,-337.0,45.0,-157.0,-117.0,0.0,605.0,76.0,429.0,-568.0,0.005633,-0.042998,-0.020407,0.0,0.0322,0.028903,-0.018105,-0.012361,0.012298,-0.042737,-0.03186,0.0,0.022165,0.002793,-0.015714,-0.020803,4106.430176,11549.520508,51372.902344,0.0,-17401.140625,-17642.429688,17904.419922,-17389.529297,4109.490234,11514.240234,51423.121094,0.0,17907.660156,17656.560547,-17407.169922,17916.390625,0.0,0.0,0.0,0.0,0.0,0.0,0.0,0.0,0.0,0.0,0.0,0.0,0.0,0.0,0.0,0.0,0.0,0.0,0.0,0.0,0.0,0.0,0.0,0.0,0.0,0.0,0.0,0.0,0.0,0.0,0.0,0.0,4110.064453,11549.804688,51360.511719,0.0,-17401.285156,-17642.636719,17904.697266,-17389.091797,4114.399414,11514.464844,51406.355469,0.0,17907.632812,17657.511719,-17406.400391,17917.207031,30.177513,90.653534,22.825994,0.0,48.287575,2.131821,25.946066,31.394472,30.209343,90.358093,22.849369,0.0,42.363922,-2.39752,31.52248,25.284449,0.999,0.988,4396988.0,-122780.0,3632144.0,0.0,193044.0,193703.0,-196595.0,188443.0,-65776.0,-119469.0,-570152.0,0.0,-197399.0,-195853.0,192111.0,-201185.0,0.0,0.0,0.0,0.0,0.0,0.0,0.0,0.0,0.0,0.0,0.0,0.0,0.0,0.0,0.0,0.0,0.0,0.0,0.0,0.0,0.0,0.0,0.0,0.0
10,0.670936107635498,30.150829,90.655083,22.831928,0.0,48.314598,2.154795,25.903917,31.357334,30.173296,90.361496,22.857389,0.0,42.369156,-2.503552,31.490004,25.140631,3.0,1.0,111.0,0.0,1.0,-79131.0,-25784.0,14616.0,-78568.0,26333.0,14082.0,-0.952038,-0.305549,-0.016245,-0.250156,0.807817,-0.533717,0.1762,-0.504055,-0.845507,-0.91823,-0.076026,0.388682,0.370972,-0.508765,0.776877,0.138685,0.857542,0.495367,-0.952038,-0.305549,-0.016245,-0.250156,0.807817,-0.533717,0.1762,-0.504055,-0.845507,-0.91823,-0.076026,0.388682,0.370972,-0.508765,0.776877,0.138685,0.857542,0.495367,-79131.0,-25784.0,14616.0,-78568.0,26333.0,14082.0,-4442615.0,-5548.0,-4202954.0,0.0,-302.0,-2324.0,-2343.0,-4774.0,-20115.0,8467.0,1216.0,0.0,1575.0,331.0,1302.0,-2114.0,-20.0,158.0,75.0,0.0,879.0,789.0,494.0,-337.0,45.0,-157.0,-117.0,0.0,605.0,77.0,428.0,-567.0,0.005633,-0.042998,-0.020407,0.0,0.032191,0.028892,-0.018089,-0.012336,0.012298,-0.042737,-0.03186,0.0,0.022163,0.002848,-0.01567,-0.020756,4106.430176,11549.520508,51372.902344,0.0,-17401.140625,-17642.429688,17904.419922,-17389.529297,4109.490234,11514.240234,51423.121094,0.0,17907.660156,17656.560547,-17407.169922,17916.390625,0.0,0.0,0.0,0.0,0.0,0.0,0.0,0.0,0.0,0.0,0.0,0.0,0.0,0.0,0.0,0.0,0.0,0.0,0.0,0.0,0.0,0.0,0.0,0.0,0.0,0.0,0.0,0.0,0.0,0.0,0.0,0.0,4110.064453,11549.804688,51360.511719,0.0,-17401.285156,-17642.636719,17904.697266,-17389.091797,4114.399414,11514.464844,51406.355469,0.0,17907.632812,17657.511719,-17406.400391,17917.207031,30.177513,90.653534,22.825994,0.0,48.287575,2.131821,25.946066,31.394472,30.209343,90.358093,22.849369,0.0,42.363922,-2.39752,31.52248,25.284449,0.999,0.988,4396988.0,-122780.0,3632144.0,0.0,193044.0,193703.0,-196595.0,188443.0,-65776.0,-119469.0,-570152.0,0.0,-197399.0,-195853.0,192111.0,-201185.0,0.0,0.0,0.0,0.0,0.0,0.0,0.0,0.0,0.0,0.0,0.0,0.0,0.0,0.0,0.0,0.0,0.0,0.0,0.0,0.0,0.0,0.0,0.0,0.0
11,0.7389359474182129,30.150829,90.655083,22.831928,0.0,48.314598,2.154795,25.903917,31.357334,30.173296,90.361496,22.857389,0.0,42.369156,-2.503552,31.490004,25.140631,3.0,1.0,111.0,0.0,1.0,-79131.0,-25784.0,14616.0,-78568.0,26333.0,14082.0,-0.952038,-0.305549,-0.016245,-0.250156,0.807817,-0.533717,0.1762,-0.504055,-0.845507,-0.91823,-0.076026,0.388682,0.370972,-0.508765,0.776877,0.138685,0.857542,0.495367,-0.952038,-0.305549,-0.016245,-0.250156,0.807817,-0.533717,0.1762,-0.504055,-0.845507,-0.91823,-0.076026,0.388682,0.370972,-0.508765,0.776877,0.138685,0.857542,0.495367,-79131.0,-25784.0,14616.0,-78568.0,26333.0,14082.0,-4442615.0,-5548.0,-4202954.0,0.0,-302.0,-2324.0,-2343.0,-4774.0,-20115.0,8467.0,1216.0,0.0,1575.0,331.0,1302.0,-2114.0,-20.0,158.0,75.0,0.0,879.0,789.0,493.0,-336.0,45.0,-157.0,-117.0,0.0,605.0,79.0,426.0,-565.0,0.005633,-0.042998,-0.020407,0.0,0.032183,0.028879,-0.018073,-0.01231,0.012298,-0.042737,-0.03186,0.0,0.022162,0.002905,-0.015624,-0.020707,4106.430176,11549.520508,51372.902344,0.0,-17401.140625,-17642.429688,17904.419922,-17389.529297,4109.490234,11514.240234,51423.121094,0.0,17907.660156,17656.560547,-17407.169922,17916.390625,0.0,0.0,0.0,0.0,0.0,0.0,0.0,0.0,0.0,0.0,0.0,0.0,0.0,0.0,0.0,0.0,0.0,0.0,0.0,0.0,0.0,0.0,0.0,0.0,0.0,0.0,0.0,0.0,0.0,0.0,0.0,0.0,4110.064453,11549.804688,51360.511719,0.0,-17401.285156,-17642.636719,17904.697266,-17389.091797,4114.399414,11514.464844,51406.355469,0.0,17907.632812,17657.511719,-17406.400391,17917.207031,30.177513,90.653534,22.825994,0.0,48.287575,2.131821,25.946066,31.394472,30.209343,90.358093,22.849369,0.0,42.363922,-2.39752,31.52248,25.284449,0.999,0.988,4396988.0,-122780.0,3632144.0,0.0,193044.0,193703.0,-196595.0,188443.0,-65776.0,-119469.0,-570152.0,0.0,-197399.0,-195853.0,192111.0,-201185.0,0.0,0.0,0.0,0.0,0.0,0.0,0.0,0.0,0.0,0.0,0.0,0.0,0.0,0.0,0.0,0.0,0.0,0.0,0.0,0.0,0.0,0.0,0.0,0.0
12,0.8069710731506348,30.150829,90.655083,22.831928,0.0,48.314598,2.154795,25.903917,31.357334,30.173296,90.361496,22.857389,0.0,42.369156,-2.503552,31.490004,25.140631,3.0,1.0,111.0,0.0,1.0,-79131.0,-25784.0,14616.0,-78568.0,26333.0,14082.0,-0.952038,-0.305549,-0.016245,-0.250156,0.807817,-0.533717,0.1762,-0.504055,-0.845507,-0.91823,-0.076026,0.388682,0.370972,-0.508765,0.776877,0.138685,0.857542,0.495367,-0.952038,-0.305549,-0.016245,-0.250156,0.807817,-0.533717,0.1762,-0.504055,-0.845507,-0.91823,-0.076026,0.388682,0.370972,-0.508765,0.776877,0.138685,0.857542,0.495367,-79131.0,-25784.0,14616.0,-78568.0,26333.0,14082.0,-4442615.0,-5548.0,-4202954.0,0.0,-302.0,-2324.0,-2343.0,-4774.0,-20115.0,8467.0,1216.0,0.0,1575.0,331.0,1302.0,-2114.0,-20.0,158.0,75.0,0.0,879.0,788.0,493.0,-335.0,45.0,-157.0,-117.0,0.0,605.0,80.0,425.0,-564.0,0.005633,-0.042998,-0.020407,0.0,0.032174,0.028867,-0.018056,-0.012284,0.012298,-0.042737,-0.03186,0.0,0.02216,0.002961,-0.015579,-0.020659,4106.430176,11549.520508,51372.902344,0.0,-17401.140625,-17642.429688,17904.419922,-17389.529297,4109.490234,11514.240234,51423.121094,0.0,17907.660156,17656.560547,-17407.169922,17916.390625,0.0,0.0,0.0,0.0,0.0,0.0,0.0,0.0,0.0,0.0,0.0,0.0,0.0,0.0,0.0,0.0,0.0,0.0,0.0,0.0,0.0,0.0,0.0,0.0,0.0,0.0,0.0,0.0,0.0,0.0,0.0,0.0,4110.064453,11549.804688,51360.511719,0.0,-17401.285156,-17642.636719,17904.697266,-17389.091797,4114.399414,11514.464844,51406.355469,0.0,17907.632812,17657.511719,-17406.400391,17917.207031,30.177513,90.653534,22.825994,0.0,48.287575,2.131821,25.946066,31.394472,30.209343,90.358093,22.849369,0.0,42.363922,-2.39752,31.52248,25.284449,0.999,0.988,4396988.0,-122780.0,3632144.0,0.0,193044.0,193703.0,-196595.0,188443.0,-65776.0,-119469.0,-570152.0,0.0,-197399.0,-195853.0,192111.0,-201185.0,0.0,0.0,0.0,0.0,0.0,0.0,0.0,0.0,0.0,0.0,0.0,0.0,0.0,0.0,0.0,0.0,0.0,0.0,0.0,0.0,0.0,0.0,0.0,0.0
13,0.8709690570831299,30.150829,90.655083,22.831928,0.0,48.314598,2.154795,25.903917,31.357334,30.173296,90.361496,22.857389,0.0,42.369156,-2.503552,31.490004,25.140631,3.0,1.0,111.0,0.0,1.0,-79131.0,-25784.0,14616.0,-78568.0,26333.0,14082.0,-0.952038,-0.305549,-0.016245,-0.250156,0.807817,-0.533717,0.1762,-0.504055,-0.845507,-0.91823,-0.076026,0.388682,0.370972,-0.508765,0.776877,0.138685,0.857542,0.495367,-0.952038,-0.305549,-0.016245,-0.250156,0.807817,-0.533717,0.1762,-0.504055,-0.845507,-0.91823,-0.076026,0.388682,0.370972,-0.508765,0.776877,0.138685,0.857542,0.495367,-79131.0,-25784.0,14616.0,-78568.0,26333.0,14082.0,-4442615.0,-5548.0,-4202954.0,0.0,-302.0,-2324.0,-2343.0,-4774.0,-20115.0,8467.0,1216.0,0.0,1575.0,331.0,1302.0,-2114.0,-20.0,158.0,75.0,0.0,879.0,788.0,493.0,-335.0,45.0,-157.0,-117.0,0.0,605.0,82.0,424.0,-563.0,0.005633,-0.042998,-0.020407,0.0,0.032166,0.028856,-0.018041,-0.01226,0.012298,-0.042737,-0.03186,0.0,0.022159,0.003014,-0.015536,-0.020613,4106.430176,11549.520508,51372.902344,0.0,-17401.140625,-17642.429688,17904.419922,-17389.529297,4109.490234,11514.240234,51423.121094,0.0,17907.660156,17656.560547,-17407.169922,17916.390625,0.0,0.0,0.0,0.0,0.0,0.0,0.0,0.0,0.0,0.0,0.0,0.0,0.0,0.0,0.0,0.0,0.0,0.0,0.0,0.0,0.0,0.0,0.0,0.0,0.0,0.0,0.0,0.0,0.0,0.0,0.0,0.0,4110.064453,11549.804688,51360.511719,0.0,-17401.285156,-17642.636719,17904.697266,-17389.091797,4114.399414,11514.464844,51406.355469,0.0,17907.632812,17657.511719,-17406.400391,17917.207031,30.177513,90.653534,22.825994,0.0,48.287575,2.131821,25.946066,31.394472,30.209343,90.358093,22.849369,0.0,42.363922,-2.39752,31.52248,25.284449,0.999,0.988,4396988.0,-122780.0,3632144.0,0.0,193044.0,193703.0,-196595.0,188443.0,-65776.0,-119469.0,-570152.0,0.0,-197399.0,-195853.0,192111.0,-201185.0,0.0,0.0,0.0,0.0,0.0,0.0,0.0,0.0,0.0,0.0,0.0,0.0,0.0,0.0,0.0,0.0,0.0,0.0,0.0,0.0,0.0,0.0,0.0,0.0
14,0.9409739971160889,30.150829,90.655083,22.831928,0.0,48.314598,2.154795,25.903917,31.357334,30.173296,90.361496,22.857389,0.0,42.369156,-2.493441,31.484949,25.145687,3.0,1.0,111.0,0.0,1.0,-79131.0,-25784.0,14616.0,-78569.0,26332.0,14081.0,-0.952038,-0.305549,-0.016245,-0.250156,0.807817,-0.533717,0.1762,-0.504055,-0.845507,-0.918305,-0.075949,0.388519,0.37079,-0.508806,0.776937,0.138673,0.857525,0.4954,-0.952038,-0.305549,-0.016245,-0.250156,0.807817,-0.533717,0.1762,-0.504055,-0.845507,-0.918305,-0.075949,0.388519,0.37079,-0.508806,0.776937,0.138673,0.857525,0.4954,-79131.0,-25784.0,14616.0,-78569.0,26332.0,14081.0,-4442615.0,-5548.0,-4202954.0,0.0,-302.0,-2324.0,-2343.0,-4774.0,-20115.0,8467.0,1216.0,0.0,1575.0,332.0,1302.0,-2114.0,-20.0,158.0,75.0,0.0,878.0,788.0,492.0,-334.0,45.0,-157.0,-117.0,0.0,605.0,81.0,423.0,-561.0,0.005633,-0.042998,-0.020407,0.0,0.032158,0.028843,-0.018024,-0.012233,0.012298,-0.042737,-0.03186,0.0,0.022157,0.002991,-0.015489,-0.020563,4106.430176,11549.520508,51372.902344,0.0,-17401.140625,-17642.429688,17904.419922,-17389.529297,4109.490234,11514.240234,51423.121094,0.0,17907.660156,17656.650391,-17407.169922,17916.390625,0.0,0.0,0.0,0.0,0.0,0.0,0.0,0.0,0.0,0.0,0.0,0.0,0.0,0.0,0.0,0.0,0.0,0.0,0.0,0.0,0.0,0.0,0.0,0.0,0.0,0.0,0.0,0.0,0.0,0.0,0.0,0.0,4110.064453,11549.804688,51360.511719,0.0,-17401.285156,-17642.636719,17904.697266,-17389.091797,4114.399414,11514.464844,51406.355469,0.0,17907.632812,17657.511719,-17406.400391,17917.207031,30.177513,90.653534,22.825994,0.0,48.287575,2.131821,25.946066,31.394472,30.209343,90.358093,22.849369,0.0,42.363922,-2.39752,31.52248,25.284449,0.999,0.988,4396988.0,-122780.0,3632144.0,0.0,193044.0,193703.0,-196595.0,188443.0,-65776.0,-119469.0,-570152.0,0.0,-197399.0,-195853.0,192111.0,-201185.0,0.0,0.0,0.0,0.0,0.0,0.0,0.0,0.0,0.0,0.0,0.0,0.0,0.0,0.0,0.0,0.0,0.0,0.0,0.0,0.0,0.0,0.0,0.0,0.0
15,1.0059781074523926,30.150829,90.655083,22.831928,0.0,48.314598,2.154795,25.903917,31.357334,30.173296,90.361496,22.857389,0.0,42.369156,-2.493441,31.484949,25.145687,3.0,1.0,111.0,0.0,1.0,-79131.0,-25784.0,14616.0,-78569.0,26332.0,14081.0,-0.952038,-0.305549,-0.016245,-0.250156,0.807817,-0.533717,0.1762,-0.504055,-0.845507,-0.918305,-0.075949,0.388519,0.37079,-0.508806,0.776937,0.138673,0.857525,0.4954,-0.952038,-0.305549,-0.016245,-0.250156,0.807817,-0.533717,0.1762,-0.504055,-0.845507,-0.918305,-0.075949,0.388519,0.37079,-0.508806,0.776937,0.138673,0.857525,0.4954,-79131.0,-25784.0,14616.0,-78569.0,26332.0,14081.0,-4442615.0,-5548.0,-4202954.0,0.0,-302.0,-2324.0,-2343.0,-4774.0,-20115.0,8467.0,1216.0,0.0,1575.0,332.0,1302.0,-2114.0,-20.0,158.0,75.0,0.0,878.0,787.0,492.0,-333.0,45.0,-157.0,-117.0,0.0,605.0,83.0,422.0,-560.0,0.005633,-0.042998,-0.020407,0.0,0.03215,0.028832,-0.018008,-0.012208,0.012298,-0.042737,-0.03186,0.0,0.022155,0.00304,-0.015445,-0.020517,4106.430176,11549.520508,51372.902344,0.0,-17401.140625,-17642.429688,17904.419922,-17389.529297,4109.490234,11514.240234,51423.121094,0.0,17907.660156,17656.650391,-17407.169922,17916.390625,0.0,0.0,0.0,0.0,0.0,0.0,0.0,0.0,0.0,0.0,0.0,0.0,0.0,0.0,0.0,0.0,0.0,0.0,0.0,0.0,0.0,0.0,0.0,0.0,0.0,0.0,0.0,0.0,0.0,0.0,0.0,0.0,4110.064453,11549.804688,51360.511719,0.0,-17401.285156,-17642.636719,17904.697266,-17389.091797,4114.399414,11514.464844,51406.355469,0.0,17907.632812,17657.511719,-17406.400391,17917.207031,30.177513,90.653534,22.825994,0.0,48.287575,2.131821,25.946066,31.394472,30.209343,90.358093,22.849369,0.0,42.363922,-2.39752,31.52248,25.284449,0.999,0.988,4396988.0,-122780.0,3632144.0,0.0,193044.0,193703.0,-196595.0,188443.0,-65776.0,-119469.0,-570152.0,0.0,-197399.0,-195853.0,192111.0,-201185.0,0.0,0.0,0.0,0.0,0.0,0.0,0.0,0.0,0.0,0.0,0.0,0.0,0.0,0.0,0.0,0.0,0.0,0.0,0.0,0.0,0.0,0.0,0.0,0.0
16,1.0739810466766357,30.150829,90.655083,22.831928,0.0,48.314598,2.154795,25.903917,31.357334,30.173296,90.361496,22.857389,0.0,42.369156,-2.493441,31.484949,25.145687,3.0,1.0,111.0,0.0,1.0,-79131.0,-25784.0,14616.0,-78569.0,26332.0,14081.0,-0.952038,-0.305549,-0.016245,-0.250156,0.807817,-0.533717,0.1762,-0.504055,-0.845507,-0.918305,-0.075949,0.388519,0.37079,-0.508806,0.776937,0.138673,0.857525,0.4954,-0.952038,-0.305549,-0.016245,-0.250156,0.807817,-0.533717,0.1762,-0.504055,-0.845507,-0.918305,-0.075949,0.388519,0.37079,-0.508806,0.776937,0.138673,0.857525,0.4954,-79131.0,-25784.0,14616.0,-78569.0,26332.0,14081.0,-4442615.0,-5548.0,-4202954.0,0.0,-302.0,-2324.0,-2343.0,-4774.0,-20115.0,8467.0,1216.0,0.0,1575.0,332.0,1302.0,-2114.0,-20.0,158.0,75.0,0.0,878.0,787.0,491.0,-332.0,45.0,-157.0,-117.0,0.0,605.0,84.0,420.0,-559.0,0.005633,-0.042998,-0.020407,0.0,0.032141,0.02882,-0.017992,-0.012182,0.012298,-0.042737,-0.03186,0.0,0.022154,0.003091,-0.015399,-0.020469,4106.430176,11549.520508,51372.902344,0.0,-17401.140625,-17642.429688,17904.419922,-17389.529297,4109.490234,11514.240234,51423.121094,0.0,17907.660156,17656.650391,-17407.169922,17916.390625,0.0,0.0,0.0,0.0,0.0,0.0,0.0,0.0,0.0,0.0,0.0,0.0,0.0,0.0,0.0,0.0,0.0,0.0,0.0,0.0,0.0,0.0,0.0,0.0,0.0,0.0,0.0,0.0,0.0,0.0,0.0,0.0,4110.064453,11549.804688,51360.511719,0.0,-17401.285156,-17642.636719,17904.697266,-17389.091797,4114.399414,11514.464844,51406.355469,0.0,17907.632812,17657.511719,-17406.400391,17917.207031,30.177513,90.653534,22.825994,0.0,48.287575,2.131821,25.946066,31.394472,30.209343,90.358093,22.849369,0.0,42.363922,-2.39752,31.52248,25.284449,0.999,0.988,4396988.0,-122780.0,3632144.0,0.0,193044.0,193703.0,-196595.0,188443.0,-65776.0,-119469.0,-570152.0,0.0,-197399.0,-195853.0,192111.0,-201185.0,0.0,0.0,0.0,0.0,0.0,0.0,0.0,0.0,0.0,0.0,0.0,0.0,0.0,0.0,0.0,0.0,0.0,0.0,0.0,0.0,0.0,0.0,0.0,0.0
17,1.1410059928894043,30.150829,90.655083,22.831928,0.0,48.314598,2.154795,25.903917,31.357334,30.173296,90.361496,22.857389,0.0,42.369156,-2.493441,31.484949,25.145687,3.0,1.0,111.0,0.0,1.0,-79131.0,-25784.0,14616.0,-78569.0,26332.0,14081.0,-0.952038,-0.305549,-0.016245,-0.250156,0.807817,-0.533717,0.1762,-0.504055,-0.845507,-0.918305,-0.075949,0.388519,0.37079,-0.508806,0.776937,0.138673,0.857525,0.4954,-0.952038,-0.305549,-0.016245,-0.250156,0.807817,-0.533717,0.1762,-0.504055,-0.845507,-0.918305,-0.075949,0.388519,0.37079,-0.508806,0.776937,0.138673,0.857525,0.4954,-79131.0,-25784.0,14616.0,-78569.0,26332.0,14081.0,-4442615.0,-5548.0,-4202954.0,0.0,-302.0,-2324.0,-2343.0,-4774.0,-20115.0,8467.0,1216.0,0.0,1575.0,332.0,1302.0,-2114.0,-20.0,158.0,75.0,0.0,878.0,787.0,491.0,-332.0,45.0,-157.0,-117.0,0.0,605.0,85.0,419.0,-558.0,0.005633,-0.042998,-0.020407,0.0,0.032133,0.028808,-0.017976,-0.012157,0.012298,-0.042737,-0.03186,0.0,0.022152,0.003142,-0.015354,-0.020421,4106.430176,11549.520508,51372.902344,0.0,-17401.140625,-17642.429688,17904.419922,-17389.529297,4109.490234,11514.240234,51423.121094,0.0,17907.660156,17656.650391,-17407.169922,17916.390625,0.0,0.0,0.0,0.0,0.0,0.0,0.0,0.0,0.0,0.0,0.0,0.0,0.0,0.0,0.0,0.0,0.0,0.0,0.0,0.0,0.0,0.0,0.0,0.0,0.0,0.0,0.0,0.0,0.0,0.0,0.0,0.0,4110.064453,11549.804688,51360.511719,0.0,-17401.285156,-17642.636719,17904.697266,-17389.091797,4114.399414,11514.464844,51406.355469,0.0,17907.632812,17657.511719,-17406.400391,17917.207031,30.177513,90.653534,22.825994,0.0,48.287575,2.131821,25.946066,31.394472,30.209343,90.358093,22.849369,0.0,42.363922,-2.39752,31.52248,25.284449,0.999,0.988,4396988.0,-122780.0,3632144.0,0.0,193044.0,193703.0,-196595.0,188443.0,-65776.0,-119469.0,-570152.0,0.0,-197399.0,-195853.0,192111.0,-201185.0,0.0,0.0,0.0,0.0,0.0,0.0,0.0,0.0,0.0,0.0,0.0,0.0,0.0,0.0,0.0,0.0,0.0,0.0,0.0,0.0,0.0,0.0,0.0,0.0
18,1.2059791088104248,30.150829,90.655083,22.831928,0.0,48.314598,2.154795,25.903917,31.357334,30.173296,90.361496,22.857389,0.0,42.369156,-2.493441,31.484949,25.145687,3.0,1.0,111.0,0.0,1.0,-79131.0,-25784.0,14616.0,-78569.0,26332.0,14081.0,-0.952038,-0.305549,-0.016245,-0.250156,0.807817,-0.533717,0.1762,-0.504055,-0.845507,-0.918305,-0.075949,0.388519,0.37079,-0.508806,0.776937,0.138673,0.857525,0.4954,-0.952038,-0.305549,-0.016245,-0.250156,0.807817,-0.533717,0.1762,-0.504055,-0.845507,-0.918305,-0.075949,0.388519,0.37079,-0.508806,0.776937,0.138673,0.857525,0.4954,-79131.0,-25784.0,14616.0,-78569.0,26332.0,14081.0,-4442615.0,-5548.0,-4202954.0,0.0,-302.0,-2324.0,-2343.0,-4774.0,-20115.0,8467.0,1216.0,0.0,1575.0,332.0,1302.0,-2114.0,-20.0,158.0,75.0,0.0,877.0,786.0,490.0,-331.0,45.0,-157.0,-117.0,0.0,605.0,87.0,418.0,-556.0,0.005633,-0.042998,-0.020407,0.0,0.032125,0.028796,-0.01796,-0.012132,0.012298,-0.042737,-0.03186,0.0,0.022151,0.003191,-0.015311,-0.020375,4106.430176,11549.520508,51372.902344,0.0,-17401.140625,-17642.429688,17904.419922,-17389.529297,4109.490234,11514.240234,51423.121094,0.0,17907.660156,17656.650391,-17407.169922,17916.390625,0.0,0.0,0.0,0.0,0.0,0.0,0.0,0.0,0.0,0.0,0.0,0.0,0.0,0.0,0.0,0.0,0.0,0.0,0.0,0.0,0.0,0.0,0.0,0.0,0.0,0.0,0.0,0.0,0.0,0.0,0.0,0.0,4110.064453,11549.804688,51360.511719,0.0,-17401.285156,-17642.636719,17904.697266,-17389.091797,4114.399414,11514.464844,51406.355469,0.0,17907.632812,17657.511719,-17406.400391,17917.207031,30.177513,90.653534,22.825994,0.0,48.287575,2.131821,25.946066,31.394472,30.209343,90.358093,22.849369,0.0,42.363922,-2.39752,31.52248,25.284449,0.999,0.988,4396988.0,-122780.0,3632144.0,0.0,193044.0,193703.0,-196595.0,188443.0,-65776.0,-119469.0,-570152.0,0.0,-197399.0,-195853.0,192111.0,-201185.0,0.0,0.0,0.0,0.0,0.0,0.0,0.0,0.0,0.0,0.0,0.0,0.0,0.0,0.0,0.0,0.0,0.0,0.0,0.0,0.0,0.0,0.0,0.0,0.0
19,1.2729790210723877,30.150829,90.655083,22.831928,0.0,48.314598,2.154795,25.903917,31.357334,30.173296,90.361496,22.857389,0.0,42.369156,-2.493441,31.484949,25.145687,3.0,1.0,111.0,0.0,1.0,-79131.0,-25784.0,14616.0,-78569.0,26332.0,14081.0,-0.952038,-0.305549,-0.016245,-0.250156,0.807817,-0.533717,0.1762,-0.504055,-0.845507,-0.918305,-0.075949,0.388519,0.37079,-0.508806,0.776937,0.138673,0.857525,0.4954,-0.952038,-0.305549,-0.016245,-0.250156,0.807817,-0.533717,0.1762,-0.504055,-0.845507,-0.918305,-0.075949,0.388519,0.37079,-0.508806,0.776937,0.138673,0.857525,0.4954,-79131.0,-25784.0,14616.0,-78569.0,26332.0,14081.0,-4442615.0,-5548.0,-4202954.0,0.0,-302.0,-2324.0,-2343.0,-4774.0,-20115.0,8467.0,1216.0,0.0,1575.0,332.0,1302.0,-2114.0,-20.0,158.0,75.0,0.0,877.0,786.0,490.0,-330.0,45.0,-157.0,-117.0,0.0,605.0,88.0,417.0,-555.0,0.005633,-0.042998,-0.020407,0.0,0.032116,0.028784,-0.017944,-0.012107,0.012298,-0.042737,-0.03186,0.0,0.022149,0.003241,-0.015266,-0.020327,4106.430176,11549.520508,51372.902344,0.0,-17401.140625,-17642.429688,17904.419922,-17389.529297,4109.490234,11514.240234,51423.121094,0.0,17907.660156,17656.650391,-17407.169922,17916.390625,0.0,0.0,0.0,0.0,0.0,0.0,0.0,0.0,0.0,0.0,0.0,0.0,0.0,0.0,0.0,0.0,0.0,0.0,0.0,0.0,0.0,0.0,0.0,0.0,0.0,0.0,0.0,0.0,0.0,0.0,0.0,0.0,4110.064453,11549.804688,51360.511719,0.0,-17401.285156,-17642.636719,17904.697266,-17389.091797,4114.399414,11514.464844,51406.355469,0.0,17907.632812,17657.511719,-17406.400391,17917.207031,30.177513,90.653534,22.825994,0.0,48.287575,2.131821,25.946066,31.394472,30.209343,90.358093,22.849369,0.0,42.363922,-2.39752,31.52248,25.284449,0.999,0.988,4396988.0,-122780.0,3632144.0,0.0,193044.0,193703.0,-196595.0,188443.0,-65776.0,-119469.0,-570152.0,0.0,-197399.0,-195853.0,192111.0,-201185.0,0.0,0.0,0.0,0.0,0.0,0.0,0.0,0.0,0.0,0.0,0.0,0.0,0.0,0.0,0.0,0.0,0.0,0.0,0.0,0.0,0.0,0.0,0.0,0.0
20,1.3399720191955566,30.150829,90.655083,22.831928,0.0,48.314598,2.154795,25.903917,31.357334,30.173296,90.361496,22.857389,0.0,42.369156,-2.493441,31.484949,25.145687,3.0,1.0,111.0,0.0,1.0,-79131.0,-25784.0,14616.0,-78569.0,26332.0,14081.0,-0.952038,-0.305549,-0.016245,-0.250156,0.807817,-0.533717,0.1762,-0.504055,-0.845507,-0.918305,-0.075949,0.388519,0.37079,-0.508806,0.776937,0.138673,0.857525,0.4954,-0.952038,-0.305549,-0.016245,-0.250156,0.807817,-0.533717,0.1762,-0.504055,-0.845507,-0.918305,-0.075949,0.388519,0.37079,-0.508806,0.776937,0.138673,0.857525,0.4954,-79131.0,-25784.0,14616.0,-78569.0,26332.0,14081.0,-4442615.0,-5548.0,-4202954.0,0.0,-302.0,-2324.0,-2343.0,-4774.0,-20115.0,8467.0,1216.0,0.0,1575.0,332.0,1302.0,-2114.0,-20.0,158.0,75.0,0.0,877.0,786.0,489.0,-330.0,45.0,-157.0,-117.0,0.0,605.0,89.0,415.0,-554.0,0.005633,-0.042998,-0.020407,0.0,0.032108,0.028772,-0.017928,-0.012081,0.012298,-0.042737,-0.03186,0.0,0.022147,0.003292,-0.015221,-0.020279,4106.430176,11549.520508,51372.902344,0.0,-17401.140625,-17642.429688,17904.419922,-17389.529297,4109.490234,11514.240234,51423.121094,0.0,17907.660156,17656.650391,-17407.169922,17916.390625,0.0,0.0,0.0,0.0,0.0,0.0,0.0,0.0,0.0,0.0,0.0,0.0,0.0,0.0,0.0,0.0,0.0,0.0,0.0,0.0,0.0,0.0,0.0,0.0,0.0,0.0,0.0,0.0,0.0,0.0,0.0,0.0,4110.064453,11549.804688,51360.511719,0.0,-17401.285156,-17642.636719,17904.697266,-17389.091797,4114.399414,11514.464844,51406.355469,0.0,17907.632812,17657.511719,-17406.400391,17917.207031,30.177513,90.653534,22.825994,0.0,48.287575,2.131821,25.946066,31.394472,30.209343,90.358093,22.849369,0.0,42.363922,-2.39752,31.52248,25.284449,0.999,0.988,4396988.0,-122780.0,3632144.0,0.0,193044.0,193703.0,-196595.0,188443.0,-65776.0,-119469.0,-570152.0,0.0,-197399.0,-195853.0,192111.0,-201185.0,0.0,0.0,0.0,0.0,0.0,0.0,0.0,0.0,0.0,0.0,0.0,0.0,0.0,0.0,0.0,0.0,0.0,0.0,0.0,0.0,0.0,0.0,0.0,0.0
21,1.4080049991607666,30.150829,90.655083,22.831928,0.0,48.314598,2.154795,25.903917,31.357334,30.173296,90.361496,22.857389,0.0,42.369156,-2.483523,31.47999,25.150644,3.0,1.0,111.0,0.0,1.0,-79131.0,-25784.0,14616.0,-78570.0,26330.0,14080.0,-0.952038,-0.305549,-0.016245,-0.250156,0.807817,-0.533717,0.1762,-0.504055,-0.845507,-0.918379,-0.075873,0.38836,0.370612,-0.508845,0.776996,0.138662,0.857508,0.495432,-0.952038,-0.305549,-0.016245,-0.250156,0.807817,-0.533717,0.1762,-0.504055,-0.845507,-0.918379,-0.075873,0.38836,0.370612,-0.508845,0.776996,0.138662,0.857508,0.495432,-79131.0,-25784.0,14616.0,-78570.0,26330.0,14080.0,-4442615.0,-5548.0,-4202954.0,0.0,-302.0,-2324.0,-2343.0,-4774.0,-20115.0,8467.0,1216.0,0.0,1575.0,333.0,1302.0,-2114.0,-20.0,158.0,75.0,0.0,877.0,785.0,489.0,-329.0,45.0,-157.0,-117.0,0.0,605.0,89.0,414.0,-552.0,0.005633,-0.042998,-0.020407,0.0,0.032099,0.02876,-0.017911,-0.012055,0.012298,-0.042737,-0.03186,0.0,0.022146,0.003261,-0.015175,-0.020231,4106.430176,11549.520508,51372.902344,0.0,-17401.140625,-17642.429688,17904.419922,-17389.529297,4109.490234,11514.240234,51423.121094,0.0,17907.660156,17656.740234,-17407.169922,17916.390625,0.0,0.0,0.0,0.0,0.0,0.0,0.0,0.0,0.0,0.0,0.0,0.0,0.0,0.0,0.0,0.0,0.0,0.0,0.0,0.0,0.0,0.0,0.0,0.0,0.0,0.0,0.0,0.0,0.0,0.0,0.0,0.0,4110.064453,11549.804688,51360.511719,0.0,-17401.285156,-17642.636719,17904.697266,-17389.091797,4114.399414,11514.464844,51406.355469,0.0,17907.632812,17657.511719,-17406.400391,17917.207031,30.177513,90.653534,22.825994,0.0,48.287575,2.131821,25.946066,31.394472,30.209343,90.358093,22.849369,0.0,42.363922,-2.39752,31.52248,25.284449,0.999,0.988,4396988.0,-122780.0,3632144.0,0.0,193044.0,193703.0,-196595.0,188443.0,-65776.0,-119469.0,-570152.0,0.0,-197399.0,-195853.0,192111.0,-201185.0,0.0,0.0,0.0,0.0,0.0,0.0,0.0,0.0,0.0,0.0,0.0,0.0,0.0,0.0,0.0,0.0,0.0,0.0,0.0,0.0,0.0,0.0,0.0,0.0
22,1.473973035812378,30.150829,90.655083,22.831928,0.0,48.314598,2.154795,25.903917,31.357334,30.173296,90.361496,22.857389,0.0,42.369156,-2.483523,31.47999,25.150644,3.0,1.0,111.0,0.0,1.0,-79131.0,-25784.0,14616.0,-78570.0,26330.0,14080.0,-0.952038,-0.305549,-0.016245,-0.250156,0.807817,-0.533717,0.1762,-0.504055,-0.845507,-0.918379,-0.075873,0.38836,0.370612,-0.508845,0.776996,0.138662,0.857508,0.495432,-0.952038,-0.305549,-0.016245,-0.250156,0.807817,-0.533717,0.1762,-0.504055,-0.845507,-0.918379,-0.075873,0.38836,0.370612,-0.508845,0.776996,0.138662,0.857508,0.495432,-79131.0,-25784.0,14616.0,-78570.0,26330.0,14080.0,-4442615.0,-5548.0,-4202954.0,0.0,-302.0,-2324.0,-2343.0,-4774.0,-20115.0,8467.0,1216.0,0.0,1575.0,333.0,1302.0,-2114.0,-20.0,158.0,75.0,0.0,876.0,785.0,489.0,-328.0,45.0,-157.0,-117.0,0.0,605.0,90.0,413.0,-551.0,0.005633,-0.042998,-0.020407,0.0,0.032091,0.028748,-0.017895,-0.01203,0.012298,-0.042737,-0.03186,0.0,0.022144,0.003305,-0.01513,-0.020184,4106.430176,11549.520508,51372.902344,0.0,-17401.140625,-17642.429688,17904.419922,-17389.529297,4109.490234,11514.240234,51423.121094,0.0,17907.660156,17656.740234,-17407.169922,17916.390625,0.0,0.0,0.0,0.0,0.0,0.0,0.0,0.0,0.0,0.0,0.0,0.0,0.0,0.0,0.0,0.0,0.0,0.0,0.0,0.0,0.0,0.0,0.0,0.0,0.0,0.0,0.0,0.0,0.0,0.0,0.0,0.0,4110.064453,11549.804688,51360.511719,0.0,-17401.285156,-17642.636719,17904.697266,-17389.091797,4114.399414,11514.464844,51406.355469,0.0,17907.632812,17657.511719,-17406.400391,17917.207031,30.177513,90.653534,22.825994,0.0,48.287575,2.131821,25.946066,31.394472,30.209343,90.358093,22.849369,0.0,42.363922,-2.39752,31.52248,25.284449,0.999,0.988,4396988.0,-122780.0,3632144.0,0.0,193044.0,193703.0,-196595.0,188443.0,-65776.0,-119469.0,-570152.0,0.0,-197399.0,-195853.0,192111.0,-201185.0,0.0,0.0,0.0,0.0,0.0,0.0,0.0,0.0,0.0,0.0,0.0,0.0,0.0,0.0,0.0,0.0,0.0,0.0,0.0,0.0,0.0,0.0,0.0,0.0
23,1.5399761199951172,30.150829,90.655083,22.831928,0.0,48.314598,2.154795,25.903917,31.357334,30.173296,90.361496,22.857389,0.0,42.369156,-2.483523,31.47999,25.150644,3.0,1.0,111.0,0.0,1.0,-79131.0,-25784.0,14616.0,-78570.0,26330.0,14080.0,-0.952038,-0.305549,-0.016245,-0.250156,0.807817,-0.533717,0.1762,-0.504055,-0.845507,-0.918379,-0.075873,0.38836,0.370612,-0.508845,0.776996,0.138662,0.857508,0.495432,-0.952038,-0.305549,-0.016245,-0.250156,0.807817,-0.533717,0.1762,-0.504055,-0.845507,-0.918379,-0.075873,0.38836,0.370612,-0.508845,0.776996,0.138662,0.857508,0.495432,-79131.0,-25784.0,14616.0,-78570.0,26330.0,14080.0,-4442615.0,-5548.0,-4202954.0,0.0,-302.0,-2324.0,-2343.0,-4774.0,-20115.0,8467.0,1216.0,0.0,1575.0,333.0,1302.0,-2114.0,-20.0,158.0,75.0,0.0,876.0,785.0,488.0,-328.0,45.0,-157.0,-117.0,0.0,605.0,91.0,412.0,-550.0,0.005633,-0.042998,-0.020407,0.0,0.032083,0.028736,-0.017879,-0.012005,0.012298,-0.042737,-0.03186,0.0,0.022143,0.00335,-0.015086,-0.020137,4106.430176,11549.520508,51372.902344,0.0,-17401.140625,-17642.429688,17904.419922,-17389.529297,4109.490234,11514.240234,51423.121094,0.0,17907.660156,17656.740234,-17407.169922,17916.390625,0.0,0.0,0.0,0.0,0.0,0.0,0.0,0.0,0.0,0.0,0.0,0.0,0.0,0.0,0.0,0.0,0.0,0.0,0.0,0.0,0.0,0.0,0.0,0.0,0.0,0.0,0.0,0.0,0.0,0.0,0.0,0.0,4110.064453,11549.804688,51360.511719,0.0,-17401.285156,-17642.636719,17904.697266,-17389.091797,4114.399414,11514.464844,51406.355469,0.0,17907.632812,17657.511719,-17406.400391,17917.207031,30.177513,90.653534,22.825994,0.0,48.287575,2.131821,25.946066,31.394472,30.209343,90.358093,22.849369,0.0,42.363922,-2.39752,31.52248,25.284449,0.999,0.988,4396988.0,-122780.0,3632144.0,0.0,193044.0,193703.0,-196595.0,188443.0,-65776.0,-119469.0,-570152.0,0.0,-197399.0,-195853.0,192111.0,-201185.0,0.0,0.0,0.0,0.0,0.0,0.0,0.0,0.0,0.0,0.0,0.0,0.0,0.0,0.0,0.0,0.0,0.0,0.0,0.0,0.0,0.0,0.0,0.0,0.0
24,1.6059949398040771,30.150829,90.655083,22.831928,0.0,48.314598,2.154795,25.903917,31.357334,30.173296,90.361496,22.857389,0.0,42.369156,-2.483523,31.47999,25.150644,3.0,1.0,111.0,0.0,1.0,-79131.0,-25784.0,14616.0,-78570.0,26330.0,14080.0,-0.952038,-0.305549,-0.016245,-0.250156,0.807817,-0.533717,0.1762,-0.504055,-0.845507,-0.918379,-0.075873,0.38836,0.370612,-0.508845,0.776996,0.138662,0.857508,0.495432,-0.952038,-0.305549,-0.016245,-0.250156,0.807817,-0.533717,0.1762,-0.504055,-0.845507,-0.918379,-0.075873,0.38836,0.370612,-0.508845,0.776996,0.138662,0.857508,0.495432,-79131.0,-25784.0,14616.0,-78570.0,26330.0,14080.0,-4442615.0,-5548.0,-4202954.0,0.0,-302.0,-2324.0,-2343.0,-4774.0,-20115.0,8467.0,1216.0,0.0,1575.0,333.0,1302.0,-2114.0,-20.0,158.0,75.0,0.0,876.0,784.0,488.0,-327.0,45.0,-157.0,-117.0,0.0,605.0,92.0,411.0,-549.0,0.005633,-0.042998,-0.020407,0.0,0.032074,0.028724,-0.017863,-0.01198,0.012298,-0.042737,-0.03186,0.0,0.022141,0.003394,-0.015042,-0.02009,4106.430176,11549.520508,51372.902344,0.0,-17401.140625,-17642.429688,17904.419922,-17389.529297,4109.490234,11514.240234,51423.121094,0.0,17907.660156,17656.740234,-17407.169922,17916.390625,0.0,0.0,0.0,0.0,0.0,0.0,0.0,0.0,0.0,0.0,0.0,0.0,0.0,0.0,0.0,0.0,0.0,0.0,0.0,0.0,0.0,0.0,0.0,0.0,0.0,0.0,0.0,0.0,0.0,0.0,0.0,0.0,4110.064453,11549.804688,51360.511719,0.0,-17401.285156,-17642.636719,17904.697266,-17389.091797,4114.399414,11514.464844,51406.355469,0.0,17907.632812,17657.511719,-17406.400391,17917.207031,30.177513,90.653534,22.825994,0.0,48.287575,2.131821,25.946066,31.394472,30.209343,90.358093,22.849369,0.0,42.363922,-2.39752,31.52248,25.284449,0.999,0.988,4396988.0,-122780.0,3632144.0,0.0,193044.0,193703.0,-196595.0,188443.0,-65776.0,-119469.0,-570152.0,0.0,-197399.0,-195853.0,192111.0,-201185.0,0.0,0.0,0.0,0.0,0.0,0.0,0.0,0.0,0.0,0.0,0.0,0.0,0.0,0.0,0.0,0.0,0.0,0.0,0.0,0.0,0.0,0.0,0.0,0.0
25,1.6739790439605713,30.150829,90.655083,22.831928,0.0,48.314598,2.154795,25.903917,31.357334,30.173296,90.361496,22.857389,0.0,42.369156,-2.483523,31.47999,25.150644,3.0,1.0,111.0,0.0,1.0,-79131.0,-25784.0,14616.0,-78570.0,26330.0,14080.0,-0.952038,-0.305549,-0.016245,-0.250156,0.807817,-0.533717,0.1762,-0.504055,-0.845507,-0.918379,-0.075873,0.38836,0.370612,-0.508845,0.776996,0.138662,0.857508,0.495432,-0.952038,-0.305549,-0.016245,-0.250156,0.807817,-0.533717,0.1762,-0.504055,-0.845507,-0.918379,-0.075873,0.38836,0.370612,-0.508845,0.776996,0.138662,0.857508,0.495432,-79131.0,-25784.0,14616.0,-78570.0,26330.0,14080.0,-4442615.0,-5548.0,-4202954.0,0.0,-302.0,-2324.0,-2343.0,-4774.0,-20115.0,8467.0,1216.0,0.0,1575.0,333.0,1302.0,-2114.0,-20.0,158.0,75.0,0.0,876.0,784.0,487.0,-326.0,45.0,-157.0,-117.0,0.0,605.0,94.0,409.0,-547.0,0.005633,-0.042998,-0.020407,0.0,0.032066,0.028712,-0.017847,-0.011954,0.012298,-0.042737,-0.03186,0.0,0.022139,0.00344,-0.014996,-0.020041,4106.430176,11549.520508,51372.902344,0.0,-17401.140625,-17642.429688,17904.419922,-17389.529297,4109.490234,11514.240234,51423.121094,0.0,17907.660156,17656.740234,-17407.169922,17916.390625,0.0,0.0,0.0,0.0,0.0,0.0,0.0,0.0,0.0,0.0,0.0,0.0,0.0,0.0,0.0,0.0,0.0,0.0,0.0,0.0,0.0,0.0,0.0,0.0,0.0,0.0,0.0,0.0,0.0,0.0,0.0,0.0,4110.064453,11549.804688,51360.511719,0.0,-17401.285156,-17642.636719,17904.697266,-17389.091797,4114.399414,11514.464844,51406.355469,0.0,17907.632812,17657.511719,-17406.400391,17917.207031,30.177513,90.653534,22.825994,0.0,48.287575,2.131821,25.946066,31.394472,30.209343,90.358093,22.849369,0.0,42.363922,-2.39752,31.52248,25.284449,0.999,0.988,4396988.0,-122780.0,3632144.0,0.0,193044.0,193703.0,-196595.0,188443.0,-65776.0,-119469.0,-570152.0,0.0,-197399.0,-195853.0,192111.0,-201185.0,0.0,0.0,0.0,0.0,0.0,0.0,0.0,0.0,0.0,0.0,0.0,0.0,0.0,0.0,0.0,0.0,0.0,0.0,0.0,0.0,0.0,0.0,0.0,0.0
26,1.740920066833496,30.150829,90.655083,22.831928,0.0,48.314598,2.154795,25.903917,31.357334,30.173296,90.361496,22.857389,0.0,42.369156,-2.483523,31.47999,25.150644,3.0,1.0,111.0,0.0,1.0,-79131.0,-25784.0,14616.0,-78570.0,26330.0,14080.0,-0.952038,-0.305549,-0.016245,-0.250156,0.807817,-0.533717,0.1762,-0.504055,-0.845507,-0.918379,-0.075873,0.38836,0.370612,-0.508845,0.776996,0.138662,0.857508,0.495432,-0.952038,-0.305549,-0.016245,-0.250156,0.807817,-0.533717,0.1762,-0.504055,-0.845507,-0.918379,-0.075873,0.38836,0.370612,-0.508845,0.776996,0.138662,0.857508,0.495432,-79131.0,-25784.0,14616.0,-78570.0,26330.0,14080.0,-4442615.0,-5548.0,-4202954.0,0.0,-302.0,-2324.0,-2343.0,-4774.0,-20115.0,8467.0,1216.0,0.0,1575.0,333.0,1302.0,-2114.0,-20.0,158.0,75.0,0.0,876.0,784.0,487.0,-325.0,45.0,-157.0,-117.0,0.0,604.0,95.0,408.0,-546.0,0.005633,-0.042998,-0.020407,0.0,0.032058,0.0287,-0.017831,-0.011928,0.012298,-0.042737,-0.03186,0.0,0.022138,0.003485,-0.014951,-0.019994,4106.430176,11549.520508,51372.902344,0.0,-17401.140625,-17642.429688,17904.419922,-17389.529297,4109.490234,11514.240234,51423.121094,0.0,17907.660156,17656.740234,-17407.169922,17916.390625,0.0,0.0,0.0,0.0,0.0,0.0,0.0,0.0,0.0,0.0,0.0,0.0,0.0,0.0,0.0,0.0,0.0,0.0,0.0,0.0,0.0,0.0,0.0,0.0,0.0,0.0,0.0,0.0,0.0,0.0,0.0,0.0,4110.064453,11549.804688,51360.511719,0.0,-17401.285156,-17642.636719,17904.697266,-17389.091797,4114.399414,11514.464844,51406.355469,0.0,17907.632812,17657.511719,-17406.400391,17917.207031,30.177513,90.653534,22.825994,0.0,48.287575,2.131821,25.946066,31.394472,30.209343,90.358093,22.849369,0.0,42.363922,-2.39752,31.52248,25.284449,0.999,0.988,4396988.0,-122780.0,3632144.0,0.0,193044.0,193703.0,-196595.0,188443.0,-65776.0,-119469.0,-570152.0,0.0,-197399.0,-195853.0,192111.0,-201185.0,0.0,0.0,0.0,0.0,0.0,0.0,0.0,0.0,0.0,0.0,0.0,0.0,0.0,0.0,0.0,0.0,0.0,0.0,0.0,0.0,0.0,0.0,0.0,0.0
27,1.8081820011138916,30.150829,90.655083,22.831928,0.0,48.314598,2.154795,25.903917,31.357334,30.173296,90.361496,22.857389,0.0,42.369156,-2.483523,31.47999,25.150644,3.0,1.0,111.0,0.0,1.0,-79131.0,-25784.0,14616.0,-78570.0,26330.0,14080.0,-0.952038,-0.305549,-0.016245,-0.250156,0.807817,-0.533717,0.1762,-0.504055,-0.845507,-0.918379,-0.075873,0.38836,0.370612,-0.508845,0.776996,0.138662,0.857508,0.495432,-0.952038,-0.305549,-0.016245,-0.250156,0.807817,-0.533717,0.1762,-0.504055,-0.845507,-0.918379,-0.075873,0.38836,0.370612,-0.508845,0.776996,0.138662,0.857508,0.495432,-79131.0,-25784.0,14616.0,-78570.0,26330.0,14080.0,-4442615.0,-5548.0,-4202954.0,0.0,-302.0,-2324.0,-2343.0,-4774.0,-20115.0,8467.0,1216.0,0.0,1575.0,333.0,1302.0,-2114.0,-20.0,158.0,75.0,0.0,875.0,784.0,486.0,-325.0,45.0,-157.0,-117.0,0.0,604.0,96.0,407.0,-545.0,0.005633,-0.042998,-0.020407,0.0,0.032049,0.028688,-0.017815,-0.011902,0.012298,-0.042737,-0.03186,0.0,0.022136,0.003531,-0.014906,-0.019946,4106.430176,11549.520508,51372.902344,0.0,-17401.140625,-17642.429688,17904.419922,-17389.529297,4109.490234,11514.240234,51423.121094,0.0,17907.660156,17656.740234,-17407.169922,17916.390625,0.0,0.0,0.0,0.0,0.0,0.0,0.0,0.0,0.0,0.0,0.0,0.0,0.0,0.0,0.0,0.0,0.0,0.0,0.0,0.0,0.0,0.0,0.0,0.0,0.0,0.0,0.0,0.0,0.0,0.0,0.0,0.0,4110.064453,11549.804688,51360.511719,0.0,-17401.285156,-17642.636719,17904.697266,-17389.091797,4114.399414,11514.464844,51406.355469,0.0,17907.632812,17657.511719,-17406.400391,17917.207031,30.177513,90.653534,22.825994,0.0,48.287575,2.131821,25.946066,31.394472,30.209343,90.358093,22.849369,0.0,42.363922,-2.39752,31.52248,25.284449,0.999,0.988,4396988.0,-122780.0,3632144.0,0.0,193044.0,193703.0,-196595.0,188443.0,-65776.0,-119469.0,-570152.0,0.0,-197399.0,-195853.0,192111.0,-201185.0,0.0,0.0,0.0,0.0,0.0,0.0,0.0,0.0,0.0,0.0,0.0,0.0,0.0,0.0,0.0,0.0,0.0,0.0,0.0,0.0,0.0,0.0,0.0,0.0
28,1.873871088027954,30.150829,90.655083,22.831928,0.0,48.314598,2.154795,25.903917,31.357334,30.173296,90.361496,22.857389,0.0,42.369156,-2.473412,31.474936,25.155701,3.0,1.0,111.0,0.0,1.0,-79131.0,-25784.0,14616.0,-78571.0,26328.0,14078.0,-0.952038,-0.305549,-0.016245,-0.250156,0.807817,-0.533717,0.1762,-0.504055,-0.845507,-0.918454,-0.075796,0.388197,0.37043,-0.508885,0.777057,0.13865,0.857491,0.495465,-0.952038,-0.305549,-0.016245,-0.250156,0.807817,-0.533717,0.1762,-0.504055,-0.845507,-0.918454,-0.075796,0.388197,0.37043,-0.508885,0.777057,0.13865,0.857491,0.495465,-79131.0,-25784.0,14616.0,-78571.0,26328.0,14078.0,-4442615.0,-5548.0,-4202954.0,0.0,-302.0,-2324.0,-2343.0,-4774.0,-20115.0,8467.0,1216.0,0.0,1575.0,334.0,1302.0,-2114.0,-20.0,158.0,75.0,0.0,875.0,783.0,486.0,-324.0,45.0,-157.0,-117.0,0.0,604.0,95.0,406.0,-543.0,0.005633,-0.042998,-0.020407,0.0,0.032041,0.028676,-0.017799,-0.011877,0.012298,-0.042737,-0.03186,0.0,0.022135,0.003495,-0.014862,-0.019899,4106.430176,11549.520508,51372.902344,0.0,-17401.140625,-17642.429688,17904.419922,-17389.529297,4109.490234,11514.240234,51423.121094,0.0,17907.660156,17656.830078,-17407.169922,17916.390625,0.0,0.0,0.0,0.0,0.0,0.0,0.0,0.0,0.0,0.0,0.0,0.0,0.0,0.0,0.0,0.0,0.0,0.0,0.0,0.0,0.0,0.0,0.0,0.0,0.0,0.0,0.0,0.0,0.0,0.0,0.0,0.0,4110.064453,11549.804688,51360.511719,0.0,-17401.285156,-17642.636719,17904.697266,-17389.091797,4114.399414,11514.464844,51406.355469,0.0,17907.632812,17657.511719,-17406.400391,17917.207031,30.177513,90.653534,22.825994,0.0,48.287575,2.131821,25.946066,31.394472,30.209343,90.358093,22.849369,0.0,42.363922,-2.39752,31.52248,25.284449,0.999,0.988,4396988.0,-122780.0,3632144.0,0.0,193044.0,193703.0,-196595.0,188443.0,-65776.0,-119469.0,-570152.0,0.0,-197399.0,-195853.0,192111.0,-201185.0,0.0,0.0,0.0,0.0,0.0,0.0,0.0,0.0,0.0,0.0,0.0,0.0,0.0,0.0,0.0,0.0,0.0,0.0,0.0,0.0,0.0,0.0,0.0,0.0
29,1.9398179054260254,30.150829,90.655083,22.831928,0.0,48.314598,2.154795,25.903917,31.357334,30.173296,90.361496,22.857389,0.0,42.369156,-2.473412,31.474936,25.155701,3.0,1.0,111.0,0.0,1.0,-79131.0,-25784.0,14616.0,-78571.0,26328.0,14078.0,-0.952038,-0.305549,-0.016245,-0.250156,0.807817,-0.533717,0.1762,-0.504055,-0.845507,-0.918454,-0.075796,0.388197,0.37043,-0.508885,0.777057,0.13865,0.857491,0.495465,-0.952038,-0.305549,-0.016245,-0.250156,0.807817,-0.533717,0.1762,-0.504055,-0.845507,-0.918454,-0.075796,0.388197,0.37043,-0.508885,0.777057,0.13865,0.857491,0.495465,-79131.0,-25784.0,14616.0,-78571.0,26328.0,14078.0,-4442615.0,-5548.0,-4202954.0,0.0,-302.0,-2324.0,-2343.0,-4774.0,-20115.0,8467.0,1216.0,0.0,1575.0,334.0,1302.0,-2114.0,-20.0,158.0,75.0,0.0,875.0,783.0,485.0,-323.0,45.0,-157.0,-117.0,0.0,604.0,96.0,404.0,-542.0,0.005633,-0.042998,-0.020407,0.0,0.032033,0.028665,-0.017783,-0.011852,0.012298,-0.042737,-0.03186,0.0,0.022133,0.003534,-0.014817,-0.019852,4106.430176,11549.520508,51372.902344,0.0,-17401.140625,-17642.429688,17904.419922,-17389.529297,4109.490234,11514.240234,51423.121094,0.0,17907.660156,17656.830078,-17407.169922,17916.390625,0.0,0.0,0.0,0.0,0.0,0.0,0.0,0.0,0.0,0.0,0.0,0.0,0.0,0.0,0.0,0.0,0.0,0.0,0.0,0.0,0.0,0.0,0.0,0.0,0.0,0.0,0.0,0.0,0.0,0.0,0.0,0.0,4110.064453,11549.804688,51360.511719,0.0,-17401.285156,-17642.636719,17904.697266,-17389.091797,4114.399414,11514.464844,51406.355469,0.0,17907.632812,17657.511719,-17406.400391,17917.207031,30.177513,90.653534,22.825994,0.0,48.287575,2.131821,25.946066,31.394472,30.209343,90.358093,22.849369,0.0,42.363922,-2.39752,31.52248,25.284449,0.999,0.988,4396988.0,-122780.0,3632144.0,0.0,193044.0,193703.0,-196595.0,188443.0,-65776.0,-119469.0,-570152.0,0.0,-197399.0,-195853.0,192111.0,-201185.0,0.0,0.0,0.0,0.0,0.0,0.0,0.0,0.0,0.0,0.0,0.0,0.0,0.0,0.0,0.0,0.0,0.0,0.0,0.0,0.0,0.0,0.0,0.0,0.0
30,2.0058751106262207,30.150829,90.655083,22.831928,0.0,48.314598,2.154795,25.903917,31.357334,30.173296,90.361496,22.857389,0.0,42.369156,-2.473412,31.474936,25.155701,3.0,1.0,111.0,0.0,1.0,-79131.0,-25784.0,14616.0,-78571.0,26328.0,14078.0,-0.952038,-0.305549,-0.016245,-0.250156,0.807817,-0.533717,0.1762,-0.504055,-0.845507,-0.918454,-0.075796,0.388197,0.37043,-0.508885,0.777057,0.13865,0.857491,0.495465,-0.952038,-0.305549,-0.016245,-0.250156,0.807817,-0.533717,0.1762,-0.504055,-0.845507,-0.918454,-0.075796,0.388197,0.37043,-0.508885,0.777057,0.13865,0.857491,0.495465,-79131.0,-25784.0,14616.0,-78571.0,26328.0,14078.0,-4442615.0,-5548.0,-4202954.0,0.0,-302.0,-2324.0,-2343.0,-4774.0,-20115.0,8467.0,1216.0,0.0,1575.0,334.0,1302.0,-2114.0,-20.0,158.0,75.0,0.0,875.0,783.0,485.0,-323.0,45.0,-157.0,-117.0,0.0,604.0,97.0,403.0,-541.0,0.005633,-0.042998,-0.020407,0.0,0.032024,0.028653,-0.017767,-0.011827,0.012298,-0.042737,-0.03186,0.0,0.022132,0.003573,-0.014773,-0.019805,4106.430176,11549.520508,51372.902344,0.0,-17401.140625,-17642.429688,17904.419922,-17389.529297,4109.490234,11514.240234,51423.121094,0.0,17907.660156,17656.830078,-17407.169922,17916.390625,0.0,0.0,0.0,0.0,0.0,0.0,0.0,0.0,0.0,0.0,0.0,0.0,0.0,0.0,0.0,0.0,0.0,0.0,0.0,0.0,0.0,0.0,0.0,0.0,0.0,0.0,0.0,0.0,0.0,0.0,0.0,0.0,4110.064453,11549.804688,51360.511719,0.0,-17401.285156,-17642.636719,17904.697266,-17389.091797,4114.399414,11514.464844,51406.355469,0.0,17907.632812,17657.511719,-17406.400391,17917.207031,30.177513,90.653534,22.825994,0.0,48.287575,2.131821,25.946066,31.394472,30.209343,90.358093,22.849369,0.0,42.363922,-2.39752,31.52248,25.284449,0.999,0.988,4396988.0,-122780.0,3632144.0,0.0,193044.0,193703.0,-196595.0,188443.0,-65776.0,-119469.0,-570152.0,0.0,-197399.0,-195853.0,192111.0,-201185.0,0.0,0.0,0.0,0.0,0.0,0.0,0.0,0.0,0.0,0.0,0.0,0.0,0.0,0.0,0.0,0.0,0.0,0.0,0.0,0.0,0.0,0.0,0.0,0.0
31,2.0728769302368164,30.150829,90.655083,22.831928,0.0,48.314598,2.154795,25.903917,31.357334,30.173296,90.361496,22.857389,0.0,42.369156,-2.473412,31.474936,25.155701,3.0,1.0,111.0,0.0,1.0,-79131.0,-25784.0,14616.0,-78571.0,26328.0,14078.0,-0.952038,-0.305549,-0.016245,-0.250156,0.807817,-0.533717,0.1762,-0.504055,-0.845507,-0.918454,-0.075796,0.388197,0.37043,-0.508885,0.777057,0.13865,0.857491,0.495465,-0.952038,-0.305549,-0.016245,-0.250156,0.807817,-0.533717,0.1762,-0.504055,-0.845507,-0.918454,-0.075796,0.388197,0.37043,-0.508885,0.777057,0.13865,0.857491,0.495465,-79131.0,-25784.0,14616.0,-78571.0,26328.0,14078.0,-4442615.0,-5548.0,-4202954.0,0.0,-302.0,-2324.0,-2343.0,-4774.0,-20115.0,8467.0,1216.0,0.0,1575.0,334.0,1302.0,-2114.0,-20.0,158.0,75.0,0.0,874.0,782.0,485.0,-322.0,45.0,-157.0,-117.0,0.0,604.0,98.0,402.0,-539.0,0.005633,-0.042998,-0.020407,0.0,0.032016,0.028641,-0.017751,-0.011801,0.012298,-0.042737,-0.03186,0.0,0.02213,0.003613,-0.014728,-0.019757,4106.430176,11549.520508,51372.902344,0.0,-17401.140625,-17642.429688,17904.419922,-17389.529297,4109.490234,11514.240234,51423.121094,0.0,17907.660156,17656.830078,-17407.169922,17916.390625,0.0,0.0,0.0,0.0,0.0,0.0,0.0,0.0,0.0,0.0,0.0,0.0,0.0,0.0,0.0,0.0,0.0,0.0,0.0,0.0,0.0,0.0,0.0,0.0,0.0,0.0,0.0,0.0,0.0,0.0,0.0,0.0,4110.064453,11549.804688,51360.511719,0.0,-17401.285156,-17642.636719,17904.697266,-17389.091797,4114.399414,11514.464844,51406.355469,0.0,17907.632812,17657.511719,-17406.400391,17917.207031,30.177513,90.653534,22.825994,0.0,48.287575,2.131821,25.946066,31.394472,30.209343,90.358093,22.849369,0.0,42.363922,-2.39752,31.52248,25.284449,0.999,0.988,4396988.0,-122780.0,3632144.0,0.0,193044.0,193703.0,-196595.0,188443.0,-65776.0,-119469.0,-570152.0,0.0,-197399.0,-195853.0,192111.0,-201185.0,0.0,0.0,0.0,0.0,0.0,0.0,0.0,0.0,0.0,0.0,0.0,0.0,0.0,0.0,0.0,0.0,0.0,0.0,0.0,0.0,0.0,0.0,0.0,0.0
32,2.140872001647949,30.150829,90.655083,22.831928,0.0,48.314598,2.154795,25.903917,31.357334,30.173296,90.361496,22.857389,0.0,42.369156,-2.473412,31.474936,25.155701,3.0,1.0,111.0,0.0,1.0,-79131.0,-25784.0,14616.0,-78571.0,26328.0,14078.0,-0.952038,-0.305549,-0.016245,-0.250156,0.807817,-0.533717,0.1762,-0.504055,-0.845507,-0.918454,-0.075796,0.388197,0.37043,-0.508885,0.777057,0.13865,0.857491,0.495465,-0.952038,-0.305549,-0.016245,-0.250156,0.807817,-0.533717,0.1762,-0.504055,-0.845507,-0.918454,-0.075796,0.388197,0.37043,-0.508885,0.777057,0.13865,0.857491,0.495465,-79131.0,-25784.0,14616.0,-78571.0,26328.0,14078.0,-4442615.0,-5548.0,-4202954.0,0.0,-302.0,-2324.0,-2343.0,-4774.0,-20115.0,8467.0,1216.0,0.0,1575.0,334.0,1302.0,-2114.0,-20.0,158.0,75.0,0.0,874.0,782.0,484.0,-321.0,45.0,-157.0,-117.0,0.0,604.0,99.0,401.0,-538.0,0.005633,-0.042998,-0.020407,0.0,0.032007,0.028629,-0.017734,-0.011775,0.012298,-0.042737,-0.03186,0.0,0.022128,0.003653,-0.014682,-0.019709,4106.430176,11549.520508,51372.902344,0.0,-17401.140625,-17642.429688,17904.419922,-17389.529297,4109.490234,11514.240234,51423.121094,0.0,17907.660156,17656.830078,-17407.169922,17916.390625,0.0,0.0,0.0,0.0,0.0,0.0,0.0,0.0,0.0,0.0,0.0,0.0,0.0,0.0,0.0,0.0,0.0,0.0,0.0,0.0,0.0,0.0,0.0,0.0,0.0,0.0,0.0,0.0,0.0,0.0,0.0,0.0,4110.064453,11549.804688,51360.511719,0.0,-17401.285156,-17642.636719,17904.697266,-17389.091797,4114.399414,11514.464844,51406.355469,0.0,17907.632812,17657.511719,-17406.400391,17917.207031,30.177513,90.653534,22.825994,0.0,48.287575,2.131821,25.946066,31.394472,30.209343,90.358093,22.849369,0.0,42.363922,-2.39752,31.52248,25.284449,0.999,0.988,4396988.0,-122780.0,3632144.0,0.0,193044.0,193703.0,-196595.0,188443.0,-65776.0,-119469.0,-570152.0,0.0,-197399.0,-195853.0,192111.0,-201185.0,0.0,0.0,0.0,0.0,0.0,0.0,0.0,0.0,0.0,0.0,0.0,0.0,0.0,0.0,0.0,0.0,0.0,0.0,0.0,0.0,0.0,0.0,0.0,0.0
33,2.2088730335235596,30.150829,90.655083,22.831928,0.0,48.314598,2.154795,25.903917,31.357334,30.173296,90.361496,22.857389,0.0,42.369156,-2.473412,31.474936,25.155701,3.0,1.0,111.0,0.0,1.0,-79131.0,-25784.0,14616.0,-78571.0,26328.0,14078.0,-0.952038,-0.305549,-0.016245,-0.250156,0.807817,-0.533717,0.1762,-0.504055,-0.845507,-0.918454,-0.075796,0.388197,0.37043,-0.508885,0.777057,0.13865,0.857491,0.495465,-0.952038,-0.305549,-0.016245,-0.250156,0.807817,-0.533717,0.1762,-0.504055,-0.845507,-0.918454,-0.075796,0.388197,0.37043,-0.508885,0.777057,0.13865,0.857491,0.495465,-79131.0,-25784.0,14616.0,-78571.0,26328.0,14078.0,-4442615.0,-5548.0,-4202954.0,0.0,-302.0,-2324.0,-2343.0,-4774.0,-20115.0,8467.0,1216.0,0.0,1575.0,334.0,1302.0,-2114.0,-20.0,158.0,75.0,0.0,874.0,782.0,484.0,-321.0,45.0,-157.0,-117.0,0.0,604.0,100.0,399.0,-537.0,0.005633,-0.042998,-0.020407,0.0,0.031999,0.028617,-0.017718,-0.01175,0.012298,-0.042737,-0.03186,0.0,0.022127,0.003694,-0.014637,-0.01966,4106.430176,11549.520508,51372.902344,0.0,-17401.140625,-17642.429688,17904.419922,-17389.529297,4109.490234,11514.240234,51423.121094,0.0,17907.660156,17656.830078,-17407.169922,17916.390625,0.0,0.0,0.0,0.0,0.0,0.0,0.0,0.0,0.0,0.0,0.0,0.0,0.0,0.0,0.0,0.0,0.0,0.0,0.0,0.0,0.0,0.0,0.0,0.0,0.0,0.0,0.0,0.0,0.0,0.0,0.0,0.0,4110.064453,11549.804688,51360.511719,0.0,-17401.285156,-17642.636719,17904.697266,-17389.091797,4114.399414,11514.464844,51406.355469,0.0,17907.632812,17657.511719,-17406.400391,17917.207031,30.177513,90.653534,22.825994,0.0,48.287575,2.131821,25.946066,31.394472,30.209343,90.358093,22.849369,0.0,42.363922,-2.39752,31.52248,25.284449,0.999,0.988,4396988.0,-122780.0,3632144.0,0.0,193044.0,193703.0,-196595.0,188443.0,-65776.0,-119469.0,-570152.0,0.0,-197399.0,-195853.0,192111.0,-201185.0,0.0,0.0,0.0,0.0,0.0,0.0,0.0,0.0,0.0,0.0,0.0,0.0,0.0,0.0,0.0,0.0,0.0,0.0,0.0,0.0,0.0,0.0,0.0,0.0
34,2.2768568992614746,30.150829,90.655083,22.831928,0.0,48.314598,2.154795,25.903917,31.357334,30.173296,90.361496,22.857389,0.0,42.369156,-2.473412,31.474936,25.155701,3.0,1.0,111.0,0.0,1.0,-79131.0,-25784.0,14616.0,-78571.0,26328.0,14078.0,-0.952038,-0.305549,-0.016245,-0.250156,0.807817,-0.533717,0.1762,-0.504055,-0.845507,-0.918454,-0.075796,0.388197,0.37043,-0.508885,0.777057,0.13865,0.857491,0.495465,-0.952038,-0.305549,-0.016245,-0.250156,0.807817,-0.533717,0.1762,-0.504055,-0.845507,-0.918454,-0.075796,0.388197,0.37043,-0.508885,0.777057,0.13865,0.857491,0.495465,-79131.0,-25784.0,14616.0,-78571.0,26328.0,14078.0,-4442615.0,-5548.0,-4202954.0,0.0,-302.0,-2324.0,-2343.0,-4774.0,-20115.0,8467.0,1216.0,0.0,1575.0,334.0,1302.0,-2114.0,-20.0,158.0,75.0,0.0,874.0,781.0,483.0,-320.0,45.0,-157.0,-117.0,0.0,604.0,102.0,398.0,-535.0,0.005633,-0.042998,-0.020407,0.0,0.03199,0.028604,-0.017701,-0.011724,0.012298,-0.042737,-0.03186,0.0,0.022125,0.003734,-0.014591,-0.019612,4106.430176,11549.520508,51372.902344,0.0,-17401.140625,-17642.429688,17904.419922,-17389.529297,4109.490234,11514.240234,51423.121094,0.0,17907.660156,17656.830078,-17407.169922,17916.390625,0.0,0.0,0.0,0.0,0.0,0.0,0.0,0.0,0.0,0.0,0.0,0.0,0.0,0.0,0.0,0.0,0.0,0.0,0.0,0.0,0.0,0.0,0.0,0.0,0.0,0.0,0.0,0.0,0.0,0.0,0.0,0.0,4110.064453,11549.804688,51360.511719,0.0,-17401.285156,-17642.636719,17904.697266,-17389.091797,4114.399414,11514.464844,51406.355469,0.0,17907.632812,17657.511719,-17406.400391,17917.207031,30.177513,90.653534,22.825994,0.0,48.287575,2.131821,25.946066,31.394472,30.209343,90.358093,22.849369,0.0,42.363922,-2.39752,31.52248,25.284449,0.999,0.988,4396988.0,-122780.0,3632144.0,0.0,193044.0,193703.0,-196595.0,188443.0,-65776.0,-119469.0,-570152.0,0.0,-197399.0,-195853.0,192111.0,-201185.0,0.0,0.0,0.0,0.0,0.0,0.0,0.0,0.0,0.0,0.0,0.0,0.0,0.0,0.0,0.0,0.0,0.0,0.0,0.0,0.0,0.0,0.0,0.0,0.0
35,2.3448760509490967,30.150829,90.655083,22.831928,0.0,48.314598,2.154795,25.903917,31.357334,30.173296,90.361496,22.857389,0.0,42.369156,-2.473412,31.474936,25.155701,3.0,1.0,111.0,0.0,1.0,-79131.0,-25784.0,14616.0,-78571.0,26328.0,14078.0,-0.952038,-0.305549,-0.016245,-0.250156,0.807817,-0.533717,0.1762,-0.504055,-0.845507,-0.918454,-0.075796,0.388197,0.37043,-0.508885,0.777057,0.13865,0.857491,0.495465,-0.952038,-0.305549,-0.016245,-0.250156,0.807817,-0.533717,0.1762,-0.504055,-0.845507,-0.918454,-0.075796,0.388197,0.37043,-0.508885,0.777057,0.13865,0.857491,0.495465,-79131.0,-25784.0,14616.0,-78571.0,26328.0,14078.0,-4442615.0,-5548.0,-4202954.0,0.0,-302.0,-2324.0,-2343.0,-4774.0,-20115.0,8467.0,1216.0,0.0,1575.0,334.0,1302.0,-2114.0,-20.0,158.0,75.0,0.0,874.0,781.0,483.0,-319.0,45.0,-157.0,-117.0,0.0,604.0,103.0,397.0,-534.0,0.005633,-0.042998,-0.020407,0.0,0.031982,0.028592,-0.017685,-0.011698,0.012298,-0.042737,-0.03186,0.0,0.022123,0.003775,-0.014545,-0.019563,4106.430176,11549.520508,51372.902344,0.0,-17401.140625,-17642.429688,17904.419922,-17389.529297,4109.490234,11514.240234,51423.121094,0.0,17907.660156,17656.830078,-17407.169922,17916.390625,0.0,0.0,0.0,0.0,0.0,0.0,0.0,0.0,0.0,0.0,0.0,0.0,0.0,0.0,0.0,0.0,0.0,0.0,0.0,0.0,0.0,0.0,0.0,0.0,0.0,0.0,0.0,0.0,0.0,0.0,0.0,0.0,4110.064453,11549.804688,51360.511719,0.0,-17401.285156,-17642.636719,17904.697266,-17389.091797,4114.399414,11514.464844,51406.355469,0.0,17907.632812,17657.511719,-17406.400391,17917.207031,30.177513,90.653534,22.825994,0.0,48.287575,2.131821,25.946066,31.394472,30.209343,90.358093,22.849369,0.0,42.363922,-2.39752,31.52248,25.284449,0.999,0.988,4396988.0,-122780.0,3632144.0,0.0,193044.0,193703.0,-196595.0,188443.0,-65776.0,-119469.0,-570152.0,0.0,-197399.0,-195853.0,192111.0,-201185.0,0.0,0.0,0.0,0.0,0.0,0.0,0.0,0.0,0.0,0.0,0.0,0.0,0.0,0.0,0.0,0.0,0.0,0.0,0.0,0.0,0.0,0.0,0.0,0.0
36,2.411881923675537,30.150829,90.655083,22.831928,0.0,48.314598,2.154795,25.903917,31.357334,30.173296,90.361496,22.857389,0.0,42.369156,-2.473412,31.474936,25.155701,3.0,1.0,111.0,0.0,1.0,-79131.0,-25784.0,14616.0,-78571.0,26328.0,14078.0,-0.952038,-0.305549,-0.016245,-0.250156,0.807817,-0.533717,0.1762,-0.504055,-0.845507,-0.918454,-0.075796,0.388197,0.37043,-0.508885,0.777057,0.13865,0.857491,0.495465,-0.952038,-0.305549,-0.016245,-0.250156,0.807817,-0.533717,0.1762,-0.504055,-0.845507,-0.918454,-0.075796,0.388197,0.37043,-0.508885,0.777057,0.13865,0.857491,0.495465,-79131.0,-25784.0,14616.0,-78571.0,26328.0,14078.0,-4442615.0,-5548.0,-4202954.0,0.0,-302.0,-2324.0,-2343.0,-4774.0,-20115.0,8467.0,1216.0,0.0,1575.0,334.0,1302.0,-2114.0,-20.0,158.0,75.0,0.0,873.0,781.0,482.0,-318.0,45.0,-157.0,-117.0,0.0,604.0,104.0,396.0,-533.0,0.005633,-0.042998,-0.020407,0.0,0.031974,0.02858,-0.017669,-0.011672,0.012298,-0.042737,-0.03186,0.0,0.022122,0.003814,-0.014501,-0.019516,4106.430176,11549.520508,51372.902344,0.0,-17401.140625,-17642.429688,17904.419922,-17389.529297,4109.490234,11514.240234,51423.121094,0.0,17907.660156,17656.830078,-17407.169922,17916.390625,0.0,0.0,0.0,0.0,0.0,0.0,0.0,0.0,0.0,0.0,0.0,0.0,0.0,0.0,0.0,0.0,0.0,0.0,0.0,0.0,0.0,0.0,0.0,0.0,0.0,0.0,0.0,0.0,0.0,0.0,0.0,0.0,4110.064453,11549.804688,51360.511719,0.0,-17401.285156,-17642.636719,17904.697266,-17389.091797,4114.399414,11514.464844,51406.355469,0.0,17907.632812,17657.511719,-17406.400391,17917.207031,30.177513,90.653534,22.825994,0.0,48.287575,2.131821,25.946066,31.394472,30.209343,90.358093,22.849369,0.0,42.363922,-2.39752,31.52248,25.284449,0.999,0.988,4396988.0,-122780.0,3632144.0,0.0,193044.0,193703.0,-196595.0,188443.0,-65776.0,-119469.0,-570152.0,0.0,-197399.0,-195853.0,192111.0,-201185.0,0.0,0.0,0.0,0.0,0.0,0.0,0.0,0.0,0.0,0.0,0.0,0.0,0.0,0.0,0.0,0.0,0.0,0.0,0.0,0.0,0.0,0.0,0.0,0.0
37,2.4788780212402344,30.150829,90.655083,22.831928,0.0,48.314598,2.154795,25.903917,31.357334,30.173296,90.361496,22.857389,0.0,42.369156,-2.463495,31.469976,25.16066,3.0,1.0,111.0,0.0,1.0,-79131.0,-25784.0,14616.0,-78572.0,26326.0,14077.0,-0.952038,-0.305549,-0.016245,-0.250156,0.807817,-0.533717,0.1762,-0.504055,-0.845507,-0.918528,-0.07572,0.388038,0.370252,-0.508925,0.777116,0.138639,0.857474,0.495497,-0.952038,-0.305549,-0.016245,-0.250156,0.807817,-0.533717,0.1762,-0.504055,-0.845507,-0.918528,-0.07572,0.388038,0.370252,-0.508925,0.777116,0.138639,0.857474,0.495497,-79131.0,-25784.0,14616.0,-78572.0,26326.0,14077.0,-4442615.0,-5548.0,-4202954.0,0.0,-302.0,-2324.0,-2343.0,-4774.0,-20115.0,8467.0,1216.0,0.0,1575.0,335.0,1302.0,-2114.0,-20.0,158.0,75.0,0.0,873.0,780.0,482.0,-318.0,45.0,-157.0,-117.0,0.0,604.0,103.0,395.0,-532.0,0.005633,-0.042998,-0.020407,0.0,0.031965,0.028568,-0.017653,-0.011647,0.012298,-0.042737,-0.03186,0.0,0.02212,0.003772,-0.014456,-0.019469,4106.430176,11549.520508,51372.902344,0.0,-17401.140625,-17642.429688,17904.419922,-17389.529297,4109.490234,11514.240234,51423.121094,0.0,17907.660156,17656.919922,-17407.169922,17916.390625,0.0,0.0,0.0,0.0,0.0,0.0,0.0,0.0,0.0,0.0,0.0,0.0,0.0,0.0,0.0,0.0,0.0,0.0,0.0,0.0,0.0,0.0,0.0,0.0,0.0,0.0,0.0,0.0,0.0,0.0,0.0,0.0,4110.064453,11549.804688,51360.511719,0.0,-17401.285156,-17642.636719,17904.697266,-17389.091797,4114.399414,11514.464844,51406.355469,0.0,17907.632812,17657.511719,-17406.400391,17917.207031,30.177513,90.653534,22.825994,0.0,48.287575,2.131821,25.946066,31.394472,30.209343,90.358093,22.849369,0.0,42.363922,-2.39752,31.52248,25.284449,0.999,0.988,4396988.0,-122780.0,3632144.0,0.0,193044.0,193703.0,-196595.0,188443.0,-65776.0,-119469.0,-570152.0,0.0,-197399.0,-195853.0,192111.0,-201185.0,0.0,0.0,0.0,0.0,0.0,0.0,0.0,0.0,0.0,0.0,0.0,0.0,0.0,0.0,0.0,0.0,0.0,0.0,0.0,0.0,0.0,0.0,0.0,0.0
38,2.5458779335021973,30.150829,90.655083,22.831928,0.0,48.314598,2.154795,25.903917,31.357334,30.173296,90.361496,22.857389,0.0,42.369156,-2.463495,31.469976,25.16066,3.0,1.0,111.0,0.0,1.0,-79131.0,-25784.0,14616.0,-78572.0,26326.0,14077.0,-0.952038,-0.305549,-0.016245,-0.250156,0.807817,-0.533717,0.1762,-0.504055,-0.845507,-0.918528,-0.07572,0.388038,0.370252,-0.508925,0.777116,0.138639,0.857474,0.495497,-0.952038,-0.305549,-0.016245,-0.250156,0.807817,-0.533717,0.1762,-0.504055,-0.845507,-0.918528,-0.07572,0.388038,0.370252,-0.508925,0.777116,0.138639,0.857474,0.495497,-79131.0,-25784.0,14616.0,-78572.0,26326.0,14077.0,-4442615.0,-5548.0,-4202954.0,0.0,-302.0,-2324.0,-2343.0,-4774.0,-20115.0,8467.0,1216.0,0.0,1575.0,335.0,1302.0,-2114.0,-20.0,158.0,75.0,0.0,873.0,780.0,481.0,-317.0,45.0,-157.0,-117.0,0.0,604.0,104.0,393.0,-530.0,0.005633,-0.042998,-0.020407,0.0,0.031957,0.028557,-0.017637,-0.011621,0.012298,-0.042737,-0.03186,0.0,0.022119,0.003806,-0.014411,-0.019421,4106.430176,11549.520508,51372.902344,0.0,-17401.140625,-17642.429688,17904.419922,-17389.529297,4109.490234,11514.240234,51423.121094,0.0,17907.660156,17656.919922,-17407.169922,17916.390625,0.0,0.0,0.0,0.0,0.0,0.0,0.0,0.0,0.0,0.0,0.0,0.0,0.0,0.0,0.0,0.0,0.0,0.0,0.0,0.0,0.0,0.0,0.0,0.0,0.0,0.0,0.0,0.0,0.0,0.0,0.0,0.0,4110.064453,11549.804688,51360.511719,0.0,-17401.285156,-17642.636719,17904.697266,-17389.091797,4114.399414,11514.464844,51406.355469,0.0,17907.632812,17657.511719,-17406.400391,17917.207031,30.177513,90.653534,22.825994,0.0,48.287575,2.131821,25.946066,31.394472,30.209343,90.358093,22.849369,0.0,42.363922,-2.39752,31.52248,25.284449,0.999,0.988,4396988.0,-122780.0,3632144.0,0.0,193044.0,193703.0,-196595.0,188443.0,-65776.0,-119469.0,-570152.0,0.0,-197399.0,-195853.0,192111.0,-201185.0,0.0,0.0,0.0,0.0,0.0,0.0,0.0,0.0,0.0,0.0,0.0,0.0,0.0,0.0,0.0,0.0,0.0,0.0,0.0,0.0,0.0,0.0,0.0,0.0
39,2.6140809059143066,30.150829,90.655083,22.831928,0.0,48.314598,2.154795,25.903917,31.357334,30.173296,90.361496,22.857389,0.0,42.369156,-2.463495,31.469976,25.16066,3.0,1.0,111.0,0.0,1.0,-79131.0,-25784.0,14616.0,-78572.0,26326.0,14077.0,-0.952038,-0.305549,-0.016245,-0.250156,0.807817,-0.533717,0.1762,-0.504055,-0.845507,-0.918528,-0.07572,0.388038,0.370252,-0.508925,0.777116,0.138639,0.857474,0.495497,-0.952038,-0.305549,-0.016245,-0.250156,0.807817,-0.533717,0.1762,-0.504055,-0.845507,-0.918528,-0.07572,0.388038,0.370252,-0.508925,0.777116,0.138639,0.857474,0.495497,-79131.0,-25784.0,14616.0,-78572.0,26326.0,14077.0,-4442615.0,-5548.0,-4202954.0,0.0,-302.0,-2324.0,-2343.0,-4774.0,-20115.0,8467.0,1216.0,0.0,1575.0,335.0,1302.0,-2114.0,-20.0,158.0,75.0,0.0,873.0,780.0,481.0,-316.0,45.0,-157.0,-117.0,0.0,604.0,104.0,392.0,-529.0,0.005633,-0.042998,-0.020407,0.0,0.031948,0.028544,-0.01762,-0.011595,0.012298,-0.042737,-0.03186,0.0,0.022117,0.003842,-0.014365,-0.019373,4106.430176,11549.520508,51372.902344,0.0,-17401.140625,-17642.429688,17904.419922,-17389.529297,4109.490234,11514.240234,51423.121094,0.0,17907.660156,17656.919922,-17407.169922,17916.390625,0.0,0.0,0.0,0.0,0.0,0.0,0.0,0.0,0.0,0.0,0.0,0.0,0.0,0.0,0.0,0.0,0.0,0.0,0.0,0.0,0.0,0.0,0.0,0.0,0.0,0.0,0.0,0.0,0.0,0.0,0.0,0.0,4110.064453,11549.804688,51360.511719,0.0,-17401.285156,-17642.636719,17904.697266,-17389.091797,4114.399414,11514.464844,51406.355469,0.0,17907.632812,17657.511719,-17406.400391,17917.207031,30.177513,90.653534,22.825994,0.0,48.287575,2.131821,25.946066,31.394472,30.209343,90.358093,22.849369,0.0,42.363922,-2.39752,31.52248,25.284449,0.999,0.988,4396988.0,-122780.0,3632144.0,0.0,193044.0,193703.0,-196595.0,188443.0,-65776.0,-119469.0,-570152.0,0.0,-197399.0,-195853.0,192111.0,-201185.0,0.0,0.0,0.0,0.0,0.0,0.0,0.0,0.0,0.0,0.0,0.0,0.0,0.0,0.0,0.0,0.0,0.0,0.0,0.0,0.0,0.0,0.0,0.0,0.0
40,2.6798760890960693,30.150829,90.655083,22.831928,0.0,48.314598,2.154795,25.903917,31.357334,30.173296,90.361496,22.857389,0.0,42.369156,-2.463495,31.469976,25.16066,3.0,1.0,111.0,0.0,1.0,-79131.0,-25784.0,14616.0,-78572.0,26326.0,14077.0,-0.952038,-0.305549,-0.016245,-0.250156,0.807817,-0.533717,0.1762,-0.504055,-0.845507,-0.918528,-0.07572,0.388038,0.370252,-0.508925,0.777116,0.138639,0.857474,0.495497,-0.952038,-0.305549,-0.016245,-0.250156,0.807817,-0.533717,0.1762,-0.504055,-0.845507,-0.918528,-0.07572,0.388038,0.370252,-0.508925,0.777116,0.138639,0.857474,0.495497,-79131.0,-25784.0,14616.0,-78572.0,26326.0,14077.0,-4442615.0,-5548.0,-4202954.0,0.0,-302.0,-2324.0,-2343.0,-4774.0,-20115.0,8467.0,1216.0,0.0,1575.0,335.0,1302.0,-2114.0,-20.0,158.0,75.0,0.0,872.0,779.0,481.0,-316.0,45.0,-157.0,-117.0,0.0,604.0,105.0,391.0,-528.0,0.005633,-0.042998,-0.020407,0.0,0.03194,0.028533,-0.017604,-0.01157,0.012298,-0.042737,-0.03186,0.0,0.022116,0.003876,-0.014321,-0.019326,4106.430176,11549.520508,51372.902344,0.0,-17401.140625,-17642.429688,17904.419922,-17389.529297,4109.490234,11514.240234,51423.121094,0.0,17907.660156,17656.919922,-17407.169922,17916.390625,0.0,0.0,0.0,0.0,0.0,0.0,0.0,0.0,0.0,0.0,0.0,0.0,0.0,0.0,0.0,0.0,0.0,0.0,0.0,0.0,0.0,0.0,0.0,0.0,0.0,0.0,0.0,0.0,0.0,0.0,0.0,0.0,4110.064453,11549.804688,51360.511719,0.0,-17401.285156,-17642.636719,17904.697266,-17389.091797,4114.399414,11514.464844,51406.355469,0.0,17907.632812,17657.511719,-17406.400391,17917.207031,30.177513,90.653534,22.825994,0.0,48.287575,2.131821,25.946066,31.394472,30.209343,90.358093,22.849369,0.0,42.363922,-2.39752,31.52248,25.284449,0.999,0.988,4396988.0,-122780.0,3632144.0,0.0,193044.0,193703.0,-196595.0,188443.0,-65776.0,-119469.0,-570152.0,0.0,-197399.0,-195853.0,192111.0,-201185.0,0.0,0.0,0.0,0.0,0.0,0.0,0.0,0.0,0.0,0.0,0.0,0.0,0.0,0.0,0.0,0.0,0.0,0.0,0.0,0.0,0.0,0.0,0.0,0.0
41,2.7458760738372803,30.150829,90.655083,22.831928,0.0,48.314598,2.154795,25.903917,31.357334,30.173296,90.361496,22.857389,0.0,42.369156,-2.463495,31.469976,25.16066,3.0,1.0,111.0,0.0,1.0,-79131.0,-25784.0,14616.0,-78572.0,26326.0,14077.0,-0.952038,-0.305549,-0.016245,-0.250156,0.807817,-0.533717,0.1762,-0.504055,-0.845507,-0.918528,-0.07572,0.388038,0.370252,-0.508925,0.777116,0.138639,0.857474,0.495497,-0.952038,-0.305549,-0.016245,-0.250156,0.807817,-0.533717,0.1762,-0.504055,-0.845507,-0.918528,-0.07572,0.388038,0.370252,-0.508925,0.777116,0.138639,0.857474,0.495497,-79131.0,-25784.0,14616.0,-78572.0,26326.0,14077.0,-4442615.0,-5548.0,-4202954.0,0.0,-302.0,-2324.0,-2343.0,-4774.0,-20115.0,8467.0,1216.0,0.0,1575.0,335.0,1302.0,-2114.0,-20.0,158.0,75.0,0.0,872.0,779.0,480.0,-315.0,45.0,-157.0,-117.0,0.0,604.0,106.0,390.0,-526.0,0.005633,-0.042998,-0.020407,0.0,0.031932,0.028521,-0.017588,-0.011545,0.012298,-0.042737,-0.03186,0.0,0.022114,0.00391,-0.014276,-0.019279,4106.430176,11549.520508,51372.902344,0.0,-17401.140625,-17642.429688,17904.419922,-17389.529297,4109.490234,11514.240234,51423.121094,0.0,17907.660156,17656.919922,-17407.169922,17916.390625,0.0,0.0,0.0,0.0,0.0,0.0,0.0,0.0,0.0,0.0,0.0,0.0,0.0,0.0,0.0,0.0,0.0,0.0,0.0,0.0,0.0,0.0,0.0,0.0,0.0,0.0,0.0,0.0,0.0,0.0,0.0,0.0,4110.064453,11549.804688,51360.511719,0.0,-17401.285156,-17642.636719,17904.697266,-17389.091797,4114.399414,11514.464844,51406.355469,0.0,17907.632812,17657.511719,-17406.400391,17917.207031,30.177513,90.653534,22.825994,0.0,48.287575,2.131821,25.946066,31.394472,30.209343,90.358093,22.849369,0.0,42.363922,-2.39752,31.52248,25.284449,0.999,0.988,4396988.0,-122780.0,3632144.0,0.0,193044.0,193703.0,-196595.0,188443.0,-65776.0,-119469.0,-570152.0,0.0,-197399.0,-195853.0,192111.0,-201185.0,0.0,0.0,0.0,0.0,0.0,0.0,0.0,0.0,0.0,0.0,0.0,0.0,0.0,0.0,0.0,0.0,0.0,0.0,0.0,0.0,0.0,0.0,0.0,0.0
42,2.8129160404205322,30.150829,90.655083,22.831928,0.0,48.314598,2.154795,25.903917,31.357334,30.173296,90.361496,22.857389,0.0,42.369156,-2.463495,31.469976,25.16066,3.0,1.0,111.0,0.0,1.0,-79131.0,-25784.0,14616.0,-78572.0,26326.0,14077.0,-0.952038,-0.305549,-0.016245,-0.250156,0.807817,-0.533717,0.1762,-0.504055,-0.845507,-0.918528,-0.07572,0.388038,0.370252,-0.508925,0.777116,0.138639,0.857474,0.495497,-0.952038,-0.305549,-0.016245,-0.250156,0.807817,-0.533717,0.1762,-0.504055,-0.845507,-0.918528,-0.07572,0.388038,0.370252,-0.508925,0.777116,0.138639,0.857474,0.495497,-79131.0,-25784.0,14616.0,-78572.0,26326.0,14077.0,-4442615.0,-5548.0,-4202954.0,0.0,-302.0,-2324.0,-2343.0,-4774.0,-20115.0,8467.0,1216.0,0.0,1575.0,335.0,1302.0,-2114.0,-20.0,158.0,75.0,0.0,872.0,779.0,480.0,-314.0,45.0,-157.0,-117.0,0.0,604.0,107.0,388.0,-525.0,0.005633,-0.042998,-0.020407,0.0,0.031923,0.028509,-0.017572,-0.011519,0.012298,-0.042737,-0.03186,0.0,0.022112,0.003945,-0.014231,-0.019231,4106.430176,11549.520508,51372.902344,0.0,-17401.140625,-17642.429688,17904.419922,-17389.529297,4109.490234,11514.240234,51423.121094,0.0,17907.660156,17656.919922,-17407.169922,17916.390625,0.0,0.0,0.0,0.0,0.0,0.0,0.0,0.0,0.0,0.0,0.0,0.0,0.0,0.0,0.0,0.0,0.0,0.0,0.0,0.0,0.0,0.0,0.0,0.0,0.0,0.0,0.0,0.0,0.0,0.0,0.0,0.0,4110.064453,11549.804688,51360.511719,0.0,-17401.285156,-17642.636719,17904.697266,-17389.091797,4114.399414,11514.464844,51406.355469,0.0,17907.632812,17657.511719,-17406.400391,17917.207031,30.177513,90.653534,22.825994,0.0,48.287575,2.131821,25.946066,31.394472,30.209343,90.358093,22.849369,0.0,42.363922,-2.39752,31.52248,25.284449,0.999,0.988,4396988.0,-122780.0,3632144.0,0.0,193044.0,193703.0,-196595.0,188443.0,-65776.0,-119469.0,-570152.0,0.0,-197399.0,-195853.0,192111.0,-201185.0,0.0,0.0,0.0,0.0,0.0,0.0,0.0,0.0,0.0,0.0,0.0,0.0,0.0,0.0,0.0,0.0,0.0,0.0,0.0,0.0,0.0,0.0,0.0,0.0
43,2.8798470497131348,30.150829,90.655083,22.831928,0.0,48.314598,2.154795,25.903917,31.357334,30.173296,90.361496,22.857389,0.0,42.369156,-2.463495,31.469976,25.16066,3.0,1.0,111.0,0.0,1.0,-79131.0,-25784.0,14616.0,-78572.0,26326.0,14077.0,-0.952038,-0.305549,-0.016245,-0.250156,0.807817,-0.533717,0.1762,-0.504055,-0.845507,-0.918528,-0.07572,0.388038,0.370252,-0.508925,0.777116,0.138639,0.857474,0.495497,-0.952038,-0.305549,-0.016245,-0.250156,0.807817,-0.533717,0.1762,-0.504055,-0.845507,-0.918528,-0.07572,0.388038,0.370252,-0.508925,0.777116,0.138639,0.857474,0.495497,-79131.0,-25784.0,14616.0,-78572.0,26326.0,14077.0,-4442615.0,-5548.0,-4202954.0,0.0,-302.0,-2324.0,-2343.0,-4774.0,-20115.0,8467.0,1216.0,0.0,1575.0,335.0,1302.0,-2114.0,-20.0,158.0,75.0,0.0,872.0,778.0,479.0,-314.0,45.0,-157.0,-117.0,0.0,604.0,108.0,387.0,-524.0,0.005633,-0.042998,-0.020407,0.0,0.031915,0.028497,-0.017556,-0.011494,0.012298,-0.042737,-0.03186,0.0,0.022111,0.003979,-0.014186,-0.019183,4106.430176,11549.520508,51372.902344,0.0,-17401.140625,-17642.429688,17904.419922,-17389.529297,4109.490234,11514.240234,51423.121094,0.0,17907.660156,17656.919922,-17407.169922,17916.390625,0.0,0.0,0.0,0.0,0.0,0.0,0.0,0.0,0.0,0.0,0.0,0.0,0.0,0.0,0.0,0.0,0.0,0.0,0.0,0.0,0.0,0.0,0.0,0.0,0.0,0.0,0.0,0.0,0.0,0.0,0.0,0.0,4110.064453,11549.804688,51360.511719,0.0,-17401.285156,-17642.636719,17904.697266,-17389.091797,4114.399414,11514.464844,51406.355469,0.0,17907.632812,17657.511719,-17406.400391,17917.207031,30.177513,90.653534,22.825994,0.0,48.287575,2.131821,25.946066,31.394472,30.209343,90.358093,22.849369,0.0,42.363922,-2.39752,31.52248,25.284449,0.999,0.988,4396988.0,-122780.0,3632144.0,0.0,193044.0,193703.0,-196595.0,188443.0,-65776.0,-119469.0,-570152.0,0.0,-197399.0,-195853.0,192111.0,-201185.0,0.0,0.0,0.0,0.0,0.0,0.0,0.0,0.0,0.0,0.0,0.0,0.0,0.0,0.0,0.0,0.0,0.0,0.0,0.0,0.0,0.0,0.0,0.0,0.0
44,2.9458539485931396,30.150829,90.655083,22.831928,0.0,48.314598,2.154795,25.903917,31.357334,30.173296,90.361496,22.857389,0.0,42.369156,-2.453383,31.46492,25.165716,3.0,1.0,111.0,0.0,1.0,-79131.0,-25784.0,14616.0,-78573.0,26325.0,14076.0,-0.952038,-0.305549,-0.016245,-0.250156,0.807817,-0.533717,0.1762,-0.504055,-0.845507,-0.918603,-0.075643,0.387875,0.37007,-0.508965,0.777176,0.138627,0.857457,0.49553,-0.952038,-0.305549,-0.016245,-0.250156,0.807817,-0.533717,0.1762,-0.504055,-0.845507,-0.918603,-0.075643,0.387875,0.37007,-0.508965,0.777176,0.138627,0.857457,0.49553,-79131.0,-25784.0,14616.0,-78573.0,26325.0,14076.0,-4442615.0,-5548.0,-4202954.0,0.0,-302.0,-2324.0,-2343.0,-4774.0,-20115.0,8467.0,1216.0,0.0,1575.0,336.0,1302.0,-2114.0,-20.0,158.0,75.0,0.0,871.0,778.0,479.0,-313.0,45.0,-157.0,-117.0,0.0,604.0,107.0,386.0,-522.0,0.005633,-0.042998,-0.020407,0.0,0.031907,0.028485,-0.01754,-0.011469,0.012298,-0.042737,-0.03186,0.0,0.022109,0.003933,-0.014142,-0.019136,4106.430176,11549.520508,51372.902344,0.0,-17401.140625,-17642.429688,17904.419922,-17389.529297,4109.490234,11514.240234,51423.121094,0.0,17907.660156,17657.011719,-17407.169922,17916.390625,0.0,0.0,0.0,0.0,0.0,0.0,0.0,0.0,0.0,0.0,0.0,0.0,0.0,0.0,0.0,0.0,0.0,0.0,0.0,0.0,0.0,0.0,0.0,0.0,0.0,0.0,0.0,0.0,0.0,0.0,0.0,0.0,4110.064453,11549.804688,51360.511719,0.0,-17401.285156,-17642.636719,17904.697266,-17389.091797,4114.399414,11514.464844,51406.355469,0.0,17907.632812,17657.511719,-17406.400391,17917.207031,30.177513,90.653534,22.825994,0.0,48.287575,2.131821,25.946066,31.394472,30.209343,90.358093,22.849369,0.0,42.363922,-2.39752,31.52248,25.284449,0.999,0.988,4396988.0,-122780.0,3632144.0,0.0,193044.0,193703.0,-196595.0,188443.0,-65776.0,-119469.0,-570152.0,0.0,-197399.0,-195853.0,192111.0,-201185.0,0.0,0.0,0.0,0.0,0.0,0.0,0.0,0.0,0.0,0.0,0.0,0.0,0.0,0.0,0.0,0.0,0.0,0.0,0.0,0.0,0.0,0.0,0.0,0.0
45,3.010870933532715,30.150829,90.655083,22.831928,0.0,48.314598,2.154795,25.903917,31.357334,30.173296,90.361496,22.857389,0.0,42.369156,-2.453383,31.46492,25.165716,3.0,1.0,111.0,0.0,1.0,-79131.0,-25784.0,14616.0,-78573.0,26325.0,14076.0,-0.952038,-0.305549,-0.016245,-0.250156,0.807817,-0.533717,0.1762,-0.504055,-0.845507,-0.918603,-0.075643,0.387875,0.37007,-0.508965,0.777176,0.138627,0.857457,0.49553,-0.952038,-0.305549,-0.016245,-0.250156,0.807817,-0.533717,0.1762,-0.504055,-0.845507,-0.918603,-0.075643,0.387875,0.37007,-0.508965,0.777176,0.138627,0.857457,0.49553,-79131.0,-25784.0,14616.0,-78573.0,26325.0,14076.0,-4442615.0,-5548.0,-4202954.0,0.0,-302.0,-2324.0,-2343.0,-4774.0,-20115.0,8467.0,1216.0,0.0,1575.0,336.0,1302.0,-2114.0,-20.0,158.0,75.0,0.0,871.0,778.0,478.0,-312.0,45.0,-157.0,-117.0,0.0,604.0,108.0,385.0,-521.0,0.005633,-0.042998,-0.020407,0.0,0.031899,0.028473,-0.017524,-0.011444,0.012298,-0.042737,-0.03186,0.0,0.022108,0.003962,-0.014098,-0.01909,4106.430176,11549.520508,51372.902344,0.0,-17401.140625,-17642.429688,17904.419922,-17389.529297,4109.490234,11514.240234,51423.121094,0.0,17907.660156,17657.011719,-17407.169922,17916.390625,0.0,0.0,0.0,0.0,0.0,0.0,0.0,0.0,0.0,0.0,0.0,0.0,0.0,0.0,0.0,0.0,0.0,0.0,0.0,0.0,0.0,0.0,0.0,0.0,0.0,0.0,0.0,0.0,0.0,0.0,0.0,0.0,4110.064453,11549.804688,51360.511719,0.0,-17401.285156,-17642.636719,17904.697266,-17389.091797,4114.399414,11514.464844,51406.355469,0.0,17907.632812,17657.511719,-17406.400391,17917.207031,30.177513,90.653534,22.825994,0.0,48.287575,2.131821,25.946066,31.394472,30.209343,90.358093,22.849369,0.0,42.363922,-2.39752,31.52248,25.284449,0.999,0.988,4396988.0,-122780.0,3632144.0,0.0,193044.0,193703.0,-196595.0,188443.0,-65776.0,-119469.0,-570152.0,0.0,-197399.0,-195853.0,192111.0,-201185.0,0.0,0.0,0.0,0.0,0.0,0.0,0.0,0.0,0.0,0.0,0.0,0.0,0.0,0.0,0.0,0.0,0.0,0.0,0.0,0.0,0.0,0.0,0.0,0.0
46,3.076878070831299,30.150829,90.655083,22.831928,0.0,48.314598,2.154795,25.903917,31.357334,30.173296,90.361496,22.857389,0.0,42.369156,-2.453383,31.46492,25.165716,3.0,1.0,111.0,0.0,1.0,-79131.0,-25784.0,14616.0,-78573.0,26325.0,14076.0,-0.952038,-0.305549,-0.016245,-0.250156,0.807817,-0.533717,0.1762,-0.504055,-0.845507,-0.918603,-0.075643,0.387875,0.37007,-0.508965,0.777176,0.138627,0.857457,0.49553,-0.952038,-0.305549,-0.016245,-0.250156,0.807817,-0.533717,0.1762,-0.504055,-0.845507,-0.918603,-0.075643,0.387875,0.37007,-0.508965,0.777176,0.138627,0.857457,0.49553,-79131.0,-25784.0,14616.0,-78573.0,26325.0,14076.0,-4442615.0,-5548.0,-4202954.0,0.0,-302.0,-2324.0,-2343.0,-4774.0,-20115.0,8467.0,1216.0,0.0,1575.0,336.0,1302.0,-2114.0,-20.0,158.0,75.0,0.0,871.0,777.0,478.0,-312.0,45.0,-157.0,-117.0,0.0,604.0,109.0,384.0,-520.0,0.005633,-0.042998,-0.020407,0.0,0.03189,0.028462,-0.017508,-0.011419,0.012298,-0.042737,-0.03186,0.0,0.022106,0.003991,-0.014054,-0.019043,4106.430176,11549.520508,51372.902344,0.0,-17401.140625,-17642.429688,17904.419922,-17389.529297,4109.490234,11514.240234,51423.121094,0.0,17907.660156,17657.011719,-17407.169922,17916.390625,0.0,0.0,0.0,0.0,0.0,0.0,0.0,0.0,0.0,0.0,0.0,0.0,0.0,0.0,0.0,0.0,0.0,0.0,0.0,0.0,0.0,0.0,0.0,0.0,0.0,0.0,0.0,0.0,0.0,0.0,0.0,0.0,4110.064453,11549.804688,51360.511719,0.0,-17401.285156,-17642.636719,17904.697266,-17389.091797,4114.399414,11514.464844,51406.355469,0.0,17907.632812,17657.511719,-17406.400391,17917.207031,30.177513,90.653534,22.825994,0.0,48.287575,2.131821,25.946066,31.394472,30.209343,90.358093,22.849369,0.0,42.363922,-2.39752,31.52248,25.284449,0.999,0.988,4396988.0,-122780.0,3632144.0,0.0,193044.0,193703.0,-196595.0,188443.0,-65776.0,-119469.0,-570152.0,0.0,-197399.0,-195853.0,192111.0,-201185.0,0.0,0.0,0.0,0.0,0.0,0.0,0.0,0.0,0.0,0.0,0.0,0.0,0.0,0.0,0.0,0.0,0.0,0.0,0.0,0.0,0.0,0.0,0.0,0.0
47,3.142874002456665,30.150829,90.655083,22.831928,0.0,48.314598,2.154795,25.903917,31.357334,30.173296,90.361496,22.857389,0.0,42.369156,-2.453383,31.46492,25.165716,3.0,1.0,111.0,0.0,1.0,-79131.0,-25784.0,14616.0,-78573.0,26325.0,14076.0,-0.952038,-0.305549,-0.016245,-0.250156,0.807817,-0.533717,0.1762,-0.504055,-0.845507,-0.918603,-0.075643,0.387875,0.37007,-0.508965,0.777176,0.138627,0.857457,0.49553,-0.952038,-0.305549,-0.016245,-0.250156,0.807817,-0.533717,0.1762,-0.504055,-0.845507,-0.918603,-0.075643,0.387875,0.37007,-0.508965,0.777176,0.138627,0.857457,0.49553,-79131.0,-25784.0,14616.0,-78573.0,26325.0,14076.0,-4442615.0,-5548.0,-4202954.0,0.0,-302.0,-2324.0,-2343.0,-4774.0,-20115.0,8467.0,1216.0,0.0,1575.0,336.0,1302.0,-2114.0,-20.0,158.0,75.0,0.0,871.0,777.0,478.0,-311.0,45.0,-157.0,-117.0,0.0,604.0,109.0,382.0,-519.0,0.005633,-0.042998,-0.020407,0.0,0.031882,0.02845,-0.017493,-0.011394,0.012298,-0.042737,-0.03186,0.0,0.022104,0.00402,-0.014009,-0.018996,4106.430176,11549.520508,51372.902344,0.0,-17401.140625,-17642.429688,17904.419922,-17389.529297,4109.490234,11514.240234,51423.121094,0.0,17907.660156,17657.011719,-17407.169922,17916.390625,0.0,0.0,0.0,0.0,0.0,0.0,0.0,0.0,0.0,0.0,0.0,0.0,0.0,0.0,0.0,0.0,0.0,0.0,0.0,0.0,0.0,0.0,0.0,0.0,0.0,0.0,0.0,0.0,0.0,0.0,0.0,0.0,4110.064453,11549.804688,51360.511719,0.0,-17401.285156,-17642.636719,17904.697266,-17389.091797,4114.399414,11514.464844,51406.355469,0.0,17907.632812,17657.511719,-17406.400391,17917.207031,30.177513,90.653534,22.825994,0.0,48.287575,2.131821,25.946066,31.394472,30.209343,90.358093,22.849369,0.0,42.363922,-2.39752,31.52248,25.284449,0.999,0.988,4396988.0,-122780.0,3632144.0,0.0,193044.0,193703.0,-196595.0,188443.0,-65776.0,-119469.0,-570152.0,0.0,-197399.0,-195853.0,192111.0,-201185.0,0.0,0.0,0.0,0.0,0.0,0.0,0.0,0.0,0.0,0.0,0.0,0.0,0.0,0.0,0.0,0.0,0.0,0.0,0.0,0.0,0.0,0.0,0.0,0.0
48,3.2098419666290283,30.150829,90.655083,22.831928,0.0,48.314598,2.154795,25.903917,31.357334,30.173296,90.361496,22.857389,0.0,42.369156,-2.453383,31.46492,25.165716,3.0,1.0,111.0,0.0,1.0,-79131.0,-25784.0,14616.0,-78573.0,26325.0,14076.0,-0.952038,-0.305549,-0.016245,-0.250156,0.807817,-0.533717,0.1762,-0.504055,-0.845507,-0.918603,-0.075643,0.387875,0.37007,-0.508965,0.777176,0.138627,0.857457,0.49553,-0.952038,-0.305549,-0.016245,-0.250156,0.807817,-0.533717,0.1762,-0.504055,-0.845507,-0.918603,-0.075643,0.387875,0.37007,-0.508965,0.777176,0.138627,0.857457,0.49553,-79131.0,-25784.0,14616.0,-78573.0,26325.0,14076.0,-4442615.0,-5548.0,-4202954.0,0.0,-302.0,-2324.0,-2343.0,-4774.0,-20115.0,8467.0,1216.0,0.0,1575.0,336.0,1302.0,-2114.0,-20.0,158.0,75.0,0.0,871.0,777.0,477.0,-310.0,45.0,-157.0,-117.0,0.0,604.0,110.0,381.0,-517.0,0.005633,-0.042998,-0.020407,0.0,0.031874,0.028438,-0.017476,-0.011368,0.012298,-0.042737,-0.03186,0.0,0.022103,0.004049,-0.013964,-0.018948,4106.430176,11549.520508,51372.902344,0.0,-17401.140625,-17642.429688,17904.419922,-17389.529297,4109.490234,11514.240234,51423.121094,0.0,17907.660156,17657.011719,-17407.169922,17916.390625,0.0,0.0,0.0,0.0,0.0,0.0,0.0,0.0,0.0,0.0,0.0,0.0,0.0,0.0,0.0,0.0,0.0,0.0,0.0,0.0,0.0,0.0,0.0,0.0,0.0,0.0,0.0,0.0,0.0,0.0,0.0,0.0,4110.064453,11549.804688,51360.511719,0.0,-17401.285156,-17642.636719,17904.697266,-17389.091797,4114.399414,11514.464844,51406.355469,0.0,17907.632812,17657.511719,-17406.400391,17917.207031,30.177513,90.653534,22.825994,0.0,48.287575,2.131821,25.946066,31.394472,30.209343,90.358093,22.849369,0.0,42.363922,-2.39752,31.52248,25.284449,0.999,0.988,4396988.0,-122780.0,3632144.0,0.0,193044.0,193703.0,-196595.0,188443.0,-65776.0,-119469.0,-570152.0,0.0,-197399.0,-195853.0,192111.0,-201185.0,0.0,0.0,0.0,0.0,0.0,0.0,0.0,0.0,0.0,0.0,0.0,0.0,0.0,0.0,0.0,0.0,0.0,0.0,0.0,0.0,0.0,0.0,0.0,0.0
49,3.2750139236450195,30.150829,90.655083,22.831928,0.0,48.314598,2.154795,25.903917,31.357334,30.173296,90.361496,22.857389,0.0,42.369156,-2.453383,31.46492,25.165716,3.0,1.0,111.0,0.0,1.0,-79131.0,-25784.0,14616.0,-78573.0,26325.0,14076.0,-0.952038,-0.305549,-0.016245,-0.250156,0.807817,-0.533717,0.1762,-0.504055,-0.845507,-0.918603,-0.075643,0.387875,0.37007,-0.508965,0.777176,0.138627,0.857457,0.49553,-0.952038,-0.305549,-0.016245,-0.250156,0.807817,-0.533717,0.1762,-0.504055,-0.845507,-0.918603,-0.075643,0.387875,0.37007,-0.508965,0.777176,0.138627,0.857457,0.49553,-79131.0,-25784.0,14616.0,-78573.0,26325.0,14076.0,-4442615.0,-5548.0,-4202954.0,0.0,-302.0,-2324.0,-2343.0,-4774.0,-20115.0,8467.0,1216.0,0.0,1575.0,336.0,1302.0,-2114.0,-20.0,158.0,75.0,0.0,870.0,776.0,477.0,-309.0,45.0,-157.0,-117.0,0.0,603.0,111.0,380.0,-516.0,0.005633,-0.042998,-0.020407,0.0,0.031866,0.028426,-0.017461,-0.011343,0.012298,-0.042737,-0.03186,0.0,0.022101,0.004078,-0.013921,-0.018902,4106.430176,11549.520508,51372.902344,0.0,-17401.140625,-17642.429688,17904.419922,-17389.529297,4109.490234,11514.240234,51423.121094,0.0,17907.660156,17657.011719,-17407.169922,17916.390625,0.0,0.0,0.0,0.0,0.0,0.0,0.0,0.0,0.0,0.0,0.0,0.0,0.0,0.0,0.0,0.0,0.0,0.0,0.0,0.0,0.0,0.0,0.0,0.0,0.0,0.0,0.0,0.0,0.0,0.0,0.0,0.0,4110.064453,11549.804688,51360.511719,0.0,-17401.285156,-17642.636719,17904.697266,-17389.091797,4114.399414,11514.464844,51406.355469,0.0,17907.632812,17657.511719,-17406.400391,17917.207031,30.177513,90.653534,22.825994,0.0,48.287575,2.131821,25.946066,31.394472,30.209343,90.358093,22.849369,0.0,42.363922,-2.39752,31.52248,25.284449,0.999,0.988,4396988.0,-122780.0,3632144.0,0.0,193044.0,193703.0,-196595.0,188443.0,-65776.0,-119469.0,-570152.0,0.0,-197399.0,-195853.0,192111.0,-201185.0,0.0,0.0,0.0,0.0,0.0,0.0,0.0,0.0,0.0,0.0,0.0,0.0,0.0,0.0,0.0,0.0,0.0,0.0,0.0,0.0,0.0,0.0,0.0,0.0
50,3.3409719467163086,30.150829,90.655083,22.831928,0.0,48.314598,2.154795,25.903917,31.357334,30.173296,90.361496,22.857389,0.0,42.369156,-2.453383,31.46492,25.165716,3.0,1.0,111.0,0.0,1.0,-79131.0,-25784.0,14616.0,-78573.0,26325.0,14076.0,-0.952038,-0.305549,-0.016245,-0.250156,0.807817,-0.533717,0.1762,-0.504055,-0.845507,-0.918603,-0.075643,0.387875,0.37007,-0.508965,0.777176,0.138627,0.857457,0.49553,-0.952038,-0.305549,-0.016245,-0.250156,0.807817,-0.533717,0.1762,-0.504055,-0.845507,-0.918603,-0.075643,0.387875,0.37007,-0.508965,0.777176,0.138627,0.857457,0.49553,-79131.0,-25784.0,14616.0,-78573.0,26325.0,14076.0,-4442615.0,-5548.0,-4202954.0,0.0,-302.0,-2324.0,-2343.0,-4774.0,-20115.0,8467.0,1216.0,0.0,1575.0,336.0,1302.0,-2114.0,-20.0,158.0,75.0,0.0,870.0,776.0,476.0,-309.0,45.0,-157.0,-117.0,0.0,603.0,112.0,379.0,-515.0,0.005633,-0.042998,-0.020407,0.0,0.031857,0.028414,-0.017445,-0.011318,0.012298,-0.042737,-0.03186,0.0,0.0221,0.004107,-0.013876,-0.018855,4106.430176,11549.520508,51372.902344,0.0,-17401.140625,-17642.429688,17904.419922,-17389.529297,4109.490234,11514.240234,51423.121094,0.0,17907.660156,17657.011719,-17407.169922,17916.390625,0.0,0.0,0.0,0.0,0.0,0.0,0.0,0.0,0.0,0.0,0.0,0.0,0.0,0.0,0.0,0.0,0.0,0.0,0.0,0.0,0.0,0.0,0.0,0.0,0.0,0.0,0.0,0.0,0.0,0.0,0.0,0.0,4110.064453,11549.804688,51360.511719,0.0,-17401.285156,-17642.636719,17904.697266,-17389.091797,4114.399414,11514.464844,51406.355469,0.0,17907.632812,17657.511719,-17406.400391,17917.207031,30.177513,90.653534,22.825994,0.0,48.287575,2.131821,25.946066,31.394472,30.209343,90.358093,22.849369,0.0,42.363922,-2.39752,31.52248,25.284449,0.999,0.988,4396988.0,-122780.0,3632144.0,0.0,193044.0,193703.0,-196595.0,188443.0,-65776.0,-119469.0,-570152.0,0.0,-197399.0,-195853.0,192111.0,-201185.0,0.0,0.0,0.0,0.0,0.0,0.0,0.0,0.0,0.0,0.0,0.0,0.0,0.0,0.0,0.0,0.0,0.0,0.0,0.0,0.0,0.0,0.0,0.0,0.0
