MHC-RobotSimulators-Research/Data_Analysis_MotionReplication/mai_plotter/raven_data/rightarm_p5_phys2.csv
,time,jpos0,jpos1,jpos2,jpos3,jpos4,jpos5,jpos6,jpos7,jpos8,jpos9,jpos10,jpos11,jpos12,jpos13,jpos14,jpos15,runlevel,sublevel,last_seq,type0,type1,pos0,pos1,pos2,pos3,pos4,pos5,ori0,ori1,ori2,ori3,ori4,ori5,ori6,ori7,ori8,ori9,ori10,ori11,ori12,ori13,ori14,ori15,ori16,ori17,ori_d0,ori_d1,ori_d2,ori_d3,ori_d4,ori_d5,ori_d6,ori_d7,ori_d8,ori_d9,ori_d10,ori_d11,ori_d12,ori_d13,ori_d14,ori_d15,ori_d16,ori_d17,pos_d0,pos_d1,pos_d2,pos_d3,pos_d4,pos_d5,encVals0,encVals1,encVals2,encVals3,encVals4,encVals5,encVals6,encVals7,encVals8,encVals9,encVals10,encVals11,encVals12,encVals13,encVals14,encVals15,dac_vals0,dac_vals1,dac_vals2,dac_vals3,dac_vals4,dac_vals5,dac_vals6,dac_vals7,dac_vals8,dac_vals9,dac_vals10,dac_vals11,dac_vals12,dac_vals13,dac_vals14,dac_vals15,Tau0,Tau1,Tau2,Tau3,Tau4,Tau5,Tau6,Tau7,Tau8,Tau9,Tau10,Tau11,Tau12,Tau13,Tau14,Tau15,mpos0,mpos1,mpos2,mpos3,mpos4,mpos5,mpos6,mpos7,mpos8,mpos9,mpos10,mpos11,mpos12,mpos13,mpos14,mpos15,mvel0,mvel1,mvel2,mvel3,mvel4,mvel5,mvel6,mvel7,mvel8,mvel9,mvel10,mvel11,mvel12,mvel13,mvel14,mvel15,jvel0,jvel1,jvel2,jvel3,jvel4,jvel5,jvel6,jvel7,jvel8,jvel9,jvel10,jvel11,jvel12,jvel13,jvel14,jvel15,mpos_d0,mpos_d1,mpos_d2,mpos_d3,mpos_d4,mpos_d5,mpos_d6,mpos_d7,mpos_d8,mpos_d9,mpos_d10,mpos_d11,mpos_d12,mpos_d13,mpos_d14,mpos_d15,jpos_d0,jpos_d1,jpos_d2,jpos_d3,jpos_d4,jpos_d5,jpos_d6,jpos_d7,jpos_d8,jpos_d9,jpos_d10,jpos_d11,jpos_d12,jpos_d13,jpos_d14,jpos_d15,grasp_d0,grasp_d1,encoffsets0,encoffsets1,encoffsets2,encoffsets3,encoffsets4,encoffsets5,encoffsets6,encoffsets7,encoffsets8,encoffsets9,encoffsets10,encoffsets11,encoffsets12,encoffsets13,encoffsets14,encoffsets15,jac_vel0,jac_vel1,jac_vel2,jac_vel3,jac_vel4,jac_vel5,jac_vel6,jac_vel7,jac_vel8,jac_vel9,jac_vel10,jac_vel11,jac_f0,jac_f1,jac_f2,jac_f3,jac_f4,jac_f5,jac_f6,jac_f7,jac_f8,jac_f9,jac_f10,jac_f11
0,0.0,30.173956,90.637642,22.826511,0.0,12.259851,-3.31362,24.608015,38.147942,29.783419,90.426353,22.931202,0.0,3.169514,-0.240209,43.328758,45.430447,3.0,1.0,111.0,0.0,1.0,-79025.0,-26762.0,13894.0,-77711.0,25025.0,13650.0,-0.947558,-0.161573,0.275731,-0.31741,0.375366,-0.870834,0.037203,-0.912685,-0.406966,-0.933996,0.217764,0.283249,0.3073,0.085213,0.94779,0.182258,0.972274,-0.146508,-0.947502,-0.161904,0.275731,-0.317542,0.375255,-0.870834,0.037522,-0.912672,-0.406966,-0.933996,0.217764,0.283249,0.3073,0.085213,0.94779,0.182258,0.972274,-0.146508,-79025.0,-26762.0,13894.0,-77711.0,25025.0,13650.0,-4453176.0,-2143599.0,242.0,0.0,-4193748.0,-2097700.0,773.0,-434.0,-4457813.0,-2228518.0,-6290878.0,0.0,-4193825.0,-2244001.0,-4456865.0,594.0,50.0,165.0,-45.0,0.0,647.0,75.0,550.0,-321.0,-43.0,-163.0,45.0,0.0,610.0,241.0,-398.0,507.0,-0.013684,-0.04487,0.012432,0.0,0.023685,0.002765,-0.020149,-0.011749,-0.011741,-0.044209,0.012247,0.0,0.022357,0.008855,0.014566,0.018562,4109.580078,11547.810547,51361.292969,0.0,-17591.669922,-17687.609375,17864.189453,-17299.890625,4056.390137,11515.230469,51577.019531,0.0,17749.082031,17729.820312,-17343.451172,18141.570312,0.0,0.0,0.0,0.0,0.0,0.0,0.0,0.0,0.0,0.0,0.0,0.0,0.0,0.0,0.0,0.0,0.0,0.0,0.0,0.0,0.0,0.0,0.0,0.0,0.0,0.0,0.0,0.0,0.0,0.0,0.0,0.0,4109.545898,11547.732422,51361.445312,0.0,-17591.671875,-17687.611328,17864.298828,-17300.154297,4056.339844,11515.167969,51577.089844,0.0,17749.083984,17729.818359,-17343.492188,18141.539062,30.173706,90.637032,22.826588,0.0,12.259465,-3.313743,24.620073,38.118809,29.783051,90.425888,22.931242,0.0,3.169792,-0.240589,43.324318,45.426846,1.095,1.549,4407514.0,2015290.0,-570923.0,0.0,-3998285.0,-1901171.0,-199264.0,191787.0,-4502884.0,-2356465.0,-6863956.0,0.0,-4391037.0,-2440999.0,4649570.0,-200979.0,0.0,0.0,0.0,0.0,0.0,0.0,0.0,0.0,0.0,0.0,0.0,0.0,0.0,0.0,0.0,0.0,0.0,0.0,0.0,0.0,0.0,0.0,0.0,0.0
1,0.09085893630981445,30.173956,90.637642,22.826511,0.0,12.259851,-3.31362,24.608015,38.147942,29.783419,90.426353,22.931202,0.0,3.169514,-0.240209,43.328758,45.430447,3.0,1.0,111.0,0.0,1.0,-79025.0,-26762.0,13894.0,-77711.0,25025.0,13650.0,-0.947558,-0.161573,0.275731,-0.31741,0.375366,-0.870834,0.037203,-0.912685,-0.406966,-0.933996,0.217764,0.283249,0.3073,0.085213,0.94779,0.182258,0.972274,-0.146508,-0.947558,-0.161573,0.275731,-0.31741,0.375366,-0.870834,0.037203,-0.912685,-0.406966,-0.933996,0.217764,0.283249,0.3073,0.085213,0.94779,0.182258,0.972274,-0.146508,-79025.0,-26762.0,13894.0,-77711.0,25025.0,13650.0,-4453176.0,-2143599.0,242.0,0.0,-4193748.0,-2097700.0,773.0,-434.0,-4457813.0,-2228518.0,-6290878.0,0.0,-4193825.0,-2244001.0,-4456865.0,594.0,50.0,165.0,-45.0,0.0,647.0,75.0,550.0,-321.0,-43.0,-163.0,45.0,0.0,610.0,241.0,-397.0,507.0,-0.013684,-0.04487,0.012432,0.0,0.023685,0.002765,-0.02014,-0.011769,-0.011741,-0.044209,0.012247,0.0,0.022357,0.008855,0.014563,0.018559,4109.580078,11547.810547,51361.292969,0.0,-17591.669922,-17687.609375,17864.189453,-17299.890625,4056.390137,11515.230469,51577.019531,0.0,17749.082031,17729.820312,-17343.451172,18141.570312,0.0,0.0,0.0,0.0,0.0,0.0,0.0,0.0,0.0,0.0,0.0,0.0,0.0,0.0,0.0,0.0,0.0,0.0,0.0,0.0,0.0,0.0,0.0,0.0,0.0,0.0,0.0,0.0,0.0,0.0,0.0,0.0,4109.545898,11547.732422,51361.445312,0.0,-17591.671875,-17687.611328,17864.298828,-17300.154297,4056.339844,11515.167969,51577.089844,0.0,17749.083984,17729.818359,-17343.492188,18141.539062,30.173706,90.637032,22.826588,0.0,12.259465,-3.313743,24.620073,38.118809,29.783051,90.425888,22.931242,0.0,3.169792,-0.240589,43.324318,45.426846,1.095,1.549,4407514.0,2015290.0,-570923.0,0.0,-3998285.0,-1901171.0,-199264.0,191787.0,-4502884.0,-2356465.0,-6863956.0,0.0,-4391037.0,-2440999.0,4649570.0,-200979.0,0.0,0.0,0.0,0.0,0.0,0.0,0.0,0.0,0.0,0.0,0.0,0.0,0.0,0.0,0.0,0.0,0.0,0.0,0.0,0.0,0.0,0.0,0.0,0.0
2,0.15686297416687012,30.173956,90.637642,22.826511,0.0,12.259851,-3.31362,24.608015,38.147942,29.783419,90.426353,22.931202,0.0,3.169514,-0.240209,43.328758,45.430447,3.0,1.0,111.0,0.0,1.0,-79025.0,-26762.0,13894.0,-77711.0,25025.0,13650.0,-0.947558,-0.161573,0.275731,-0.31741,0.375366,-0.870834,0.037203,-0.912685,-0.406966,-0.933996,0.217764,0.283249,0.3073,0.085213,0.94779,0.182258,0.972274,-0.146508,-0.947558,-0.161573,0.275731,-0.31741,0.375366,-0.870834,0.037203,-0.912685,-0.406966,-0.933996,0.217764,0.283249,0.3073,0.085213,0.94779,0.182258,0.972274,-0.146508,-79025.0,-26762.0,13894.0,-77711.0,25025.0,13650.0,-4453176.0,-2143599.0,242.0,0.0,-4193748.0,-2097700.0,773.0,-434.0,-4457813.0,-2228518.0,-6290878.0,0.0,-4193825.0,-2244001.0,-4456865.0,594.0,50.0,165.0,-45.0,0.0,647.0,75.0,550.0,-322.0,-43.0,-163.0,45.0,0.0,610.0,241.0,-397.0,507.0,-0.013684,-0.04487,0.012432,0.0,0.023685,0.002765,-0.020134,-0.011785,-0.011741,-0.044209,0.012247,0.0,0.022357,0.008855,0.01456,0.018557,4109.580078,11547.810547,51361.292969,0.0,-17591.669922,-17687.609375,17864.189453,-17299.890625,4056.390137,11515.230469,51577.019531,0.0,17749.082031,17729.820312,-17343.451172,18141.570312,0.0,0.0,0.0,0.0,0.0,0.0,0.0,0.0,0.0,0.0,0.0,0.0,0.0,0.0,0.0,0.0,0.0,0.0,0.0,0.0,0.0,0.0,0.0,0.0,0.0,0.0,0.0,0.0,0.0,0.0,0.0,0.0,4109.545898,11547.732422,51361.445312,0.0,-17591.671875,-17687.611328,17864.298828,-17300.154297,4056.339844,11515.167969,51577.089844,0.0,17749.083984,17729.818359,-17343.492188,18141.539062,30.173706,90.637032,22.826588,0.0,12.259465,-3.313743,24.620073,38.118809,29.783051,90.425888,22.931242,0.0,3.169792,-0.240589,43.324318,45.426846,1.095,1.549,4407514.0,2015290.0,-570923.0,0.0,-3998285.0,-1901171.0,-199264.0,191787.0,-4502884.0,-2356465.0,-6863956.0,0.0,-4391037.0,-2440999.0,4649570.0,-200979.0,0.0,0.0,0.0,0.0,0.0,0.0,0.0,0.0,0.0,0.0,0.0,0.0,0.0,0.0,0.0,0.0,0.0,0.0,0.0,0.0,0.0,0.0,0.0,0.0
3,0.22686505317687988,30.173956,90.637642,22.826511,0.0,12.259851,-3.31362,24.608015,38.147942,29.783419,90.426353,22.931202,0.0,3.169514,-0.240209,43.328758,45.430447,3.0,1.0,111.0,0.0,1.0,-79025.0,-26762.0,13894.0,-77711.0,25025.0,13650.0,-0.947558,-0.161573,0.275731,-0.31741,0.375366,-0.870834,0.037203,-0.912685,-0.406966,-0.933996,0.217764,0.283249,0.3073,0.085213,0.94779,0.182258,0.972274,-0.146508,-0.947558,-0.161573,0.275731,-0.31741,0.375366,-0.870834,0.037203,-0.912685,-0.406966,-0.933996,0.217764,0.283249,0.3073,0.085213,0.94779,0.182258,0.972274,-0.146508,-79025.0,-26762.0,13894.0,-77711.0,25025.0,13650.0,-4453176.0,-2143599.0,242.0,0.0,-4193748.0,-2097700.0,773.0,-434.0,-4457813.0,-2228518.0,-6290878.0,0.0,-4193825.0,-2244001.0,-4456865.0,594.0,50.0,165.0,-45.0,0.0,647.0,75.0,550.0,-322.0,-43.0,-163.0,45.0,0.0,610.0,241.0,-397.0,507.0,-0.013684,-0.04487,0.012432,0.0,0.023685,0.002764,-0.020128,-0.011801,-0.011741,-0.044209,0.012247,0.0,0.022357,0.008854,0.014558,0.018556,4109.580078,11547.810547,51361.292969,0.0,-17591.669922,-17687.609375,17864.189453,-17299.890625,4056.390137,11515.230469,51577.019531,0.0,17749.082031,17729.820312,-17343.451172,18141.570312,0.0,0.0,0.0,0.0,0.0,0.0,0.0,0.0,0.0,0.0,0.0,0.0,0.0,0.0,0.0,0.0,0.0,0.0,0.0,0.0,0.0,0.0,0.0,0.0,0.0,0.0,0.0,0.0,0.0,0.0,0.0,0.0,4109.545898,11547.732422,51361.445312,0.0,-17591.671875,-17687.611328,17864.298828,-17300.154297,4056.339844,11515.167969,51577.089844,0.0,17749.083984,17729.818359,-17343.492188,18141.539062,30.173706,90.637032,22.826588,0.0,12.259465,-3.313743,24.620073,38.118809,29.783051,90.425888,22.931242,0.0,3.169792,-0.240589,43.324318,45.426846,1.095,1.549,4407514.0,2015290.0,-570923.0,0.0,-3998285.0,-1901171.0,-199264.0,191787.0,-4502884.0,-2356465.0,-6863956.0,0.0,-4391037.0,-2440999.0,4649570.0,-200979.0,0.0,0.0,0.0,0.0,0.0,0.0,0.0,0.0,0.0,0.0,0.0,0.0,0.0,0.0,0.0,0.0,0.0,0.0,0.0,0.0,0.0,0.0,0.0,0.0
4,0.29285407066345215,30.173956,90.637642,22.826511,0.0,12.259851,-3.31362,24.608015,38.147942,29.783419,90.426353,22.931202,0.0,3.169514,-0.240209,43.328758,45.430447,3.0,1.0,111.0,0.0,1.0,-79025.0,-26762.0,13894.0,-77711.0,25025.0,13650.0,-0.947558,-0.161573,0.275731,-0.31741,0.375366,-0.870834,0.037203,-0.912685,-0.406966,-0.933996,0.217764,0.283249,0.3073,0.085213,0.94779,0.182258,0.972274,-0.146508,-0.947558,-0.161573,0.275731,-0.31741,0.375366,-0.870834,0.037203,-0.912685,-0.406966,-0.933996,0.217764,0.283249,0.3073,0.085213,0.94779,0.182258,0.972274,-0.146508,-79025.0,-26762.0,13894.0,-77711.0,25025.0,13650.0,-4453176.0,-2143599.0,242.0,0.0,-4193748.0,-2097700.0,773.0,-434.0,-4457813.0,-2228518.0,-6290878.0,0.0,-4193825.0,-2244001.0,-4456865.0,594.0,50.0,165.0,-45.0,0.0,647.0,75.0,549.0,-322.0,-43.0,-163.0,45.0,0.0,610.0,241.0,-397.0,507.0,-0.013684,-0.04487,0.012432,0.0,0.023684,0.002764,-0.020121,-0.011816,-0.011741,-0.044209,0.012247,0.0,0.022357,0.008854,0.014555,0.018554,4109.580078,11547.810547,51361.292969,0.0,-17591.669922,-17687.609375,17864.189453,-17299.890625,4056.390137,11515.230469,51577.019531,0.0,17749.082031,17729.820312,-17343.451172,18141.570312,0.0,0.0,0.0,0.0,0.0,0.0,0.0,0.0,0.0,0.0,0.0,0.0,0.0,0.0,0.0,0.0,0.0,0.0,0.0,0.0,0.0,0.0,0.0,0.0,0.0,0.0,0.0,0.0,0.0,0.0,0.0,0.0,4109.545898,11547.732422,51361.445312,0.0,-17591.671875,-17687.611328,17864.298828,-17300.154297,4056.339844,11515.167969,51577.089844,0.0,17749.083984,17729.818359,-17343.492188,18141.539062,30.173706,90.637032,22.826588,0.0,12.259465,-3.313743,24.620073,38.118809,29.783051,90.425888,22.931242,0.0,3.169792,-0.240589,43.324318,45.426846,1.095,1.549,4407514.0,2015290.0,-570923.0,0.0,-3998285.0,-1901171.0,-199264.0,191787.0,-4502884.0,-2356465.0,-6863956.0,0.0,-4391037.0,-2440999.0,4649570.0,-200979.0,0.0,0.0,0.0,0.0,0.0,0.0,0.0,0.0,0.0,0.0,0.0,0.0,0.0,0.0,0.0,0.0,0.0,0.0,0.0,0.0,0.0,0.0,0.0,0.0
5,0.3608579635620117,30.173956,90.637642,22.826511,0.0,12.259851,-3.31362,24.608015,38.147942,29.783419,90.426353,22.931202,0.0,3.169514,-0.240209,43.328758,45.430447,3.0,1.0,111.0,0.0,1.0,-79025.0,-26762.0,13894.0,-77711.0,25025.0,13650.0,-0.947558,-0.161573,0.275731,-0.31741,0.375366,-0.870834,0.037203,-0.912685,-0.406966,-0.933996,0.217764,0.283249,0.3073,0.085213,0.94779,0.182258,0.972274,-0.146508,-0.947558,-0.161573,0.275731,-0.31741,0.375366,-0.870834,0.037203,-0.912685,-0.406966,-0.933996,0.217764,0.283249,0.3073,0.085213,0.94779,0.182258,0.972274,-0.146508,-79025.0,-26762.0,13894.0,-77711.0,25025.0,13650.0,-4453176.0,-2143599.0,242.0,0.0,-4193748.0,-2097700.0,773.0,-434.0,-4457813.0,-2228518.0,-6290878.0,0.0,-4193825.0,-2244001.0,-4456865.0,594.0,50.0,165.0,-45.0,0.0,647.0,75.0,549.0,-323.0,-43.0,-163.0,45.0,0.0,610.0,241.0,-397.0,506.0,-0.013684,-0.04487,0.012432,0.0,0.023684,0.002764,-0.020115,-0.011831,-0.011741,-0.044209,0.012247,0.0,0.022357,0.008854,0.014553,0.018552,4109.580078,11547.810547,51361.292969,0.0,-17591.669922,-17687.609375,17864.189453,-17299.890625,4056.390137,11515.230469,51577.019531,0.0,17749.082031,17729.820312,-17343.451172,18141.570312,0.0,0.0,0.0,0.0,0.0,0.0,0.0,0.0,0.0,0.0,0.0,0.0,0.0,0.0,0.0,0.0,0.0,0.0,0.0,0.0,0.0,0.0,0.0,0.0,0.0,0.0,0.0,0.0,0.0,0.0,0.0,0.0,4109.545898,11547.732422,51361.445312,0.0,-17591.671875,-17687.611328,17864.298828,-17300.154297,4056.339844,11515.167969,51577.089844,0.0,17749.083984,17729.818359,-17343.492188,18141.539062,30.173706,90.637032,22.826588,0.0,12.259465,-3.313743,24.620073,38.118809,29.783051,90.425888,22.931242,0.0,3.169792,-0.240589,43.324318,45.426846,1.095,1.549,4407514.0,2015290.0,-570923.0,0.0,-3998285.0,-1901171.0,-199264.0,191787.0,-4502884.0,-2356465.0,-6863956.0,0.0,-4391037.0,-2440999.0,4649570.0,-200979.0,0.0,0.0,0.0,0.0,0.0,0.0,0.0,0.0,0.0,0.0,0.0,0.0,0.0,0.0,0.0,0.0,0.0,0.0,0.0,0.0,0.0,0.0,0.0,0.0
6,0.43489694595336914,30.173956,90.637642,22.826511,0.0,12.259851,-3.31362,24.608015,38.147942,29.783419,90.426353,22.931202,0.0,3.169514,-0.240209,43.328758,45.430447,3.0,1.0,111.0,0.0,1.0,-79025.0,-26762.0,13894.0,-77711.0,25025.0,13650.0,-0.947558,-0.161573,0.275731,-0.31741,0.375366,-0.870834,0.037203,-0.912685,-0.406966,-0.933996,0.217764,0.283249,0.3073,0.085213,0.94779,0.182258,0.972274,-0.146508,-0.947558,-0.161573,0.275731,-0.31741,0.375366,-0.870834,0.037203,-0.912685,-0.406966,-0.933996,0.217764,0.283249,0.3073,0.085213,0.94779,0.182258,0.972274,-0.146508,-79025.0,-26762.0,13894.0,-77711.0,25025.0,13650.0,-4453176.0,-2143599.0,242.0,0.0,-4193748.0,-2097700.0,773.0,-434.0,-4457813.0,-2228518.0,-6290878.0,0.0,-4193825.0,-2244001.0,-4456865.0,594.0,50.0,165.0,-45.0,0.0,647.0,75.0,549.0,-323.0,-43.0,-163.0,45.0,0.0,610.0,241.0,-397.0,506.0,-0.013684,-0.04487,0.012432,0.0,0.023684,0.002764,-0.020108,-0.011848,-0.011741,-0.044209,0.012247,0.0,0.022358,0.008854,0.01455,0.01855,4109.580078,11547.810547,51361.292969,0.0,-17591.669922,-17687.609375,17864.189453,-17299.890625,4056.390137,11515.230469,51577.019531,0.0,17749.082031,17729.820312,-17343.451172,18141.570312,0.0,0.0,0.0,0.0,0.0,0.0,0.0,0.0,0.0,0.0,0.0,0.0,0.0,0.0,0.0,0.0,0.0,0.0,0.0,0.0,0.0,0.0,0.0,0.0,0.0,0.0,0.0,0.0,0.0,0.0,0.0,0.0,4109.545898,11547.732422,51361.445312,0.0,-17591.671875,-17687.611328,17864.298828,-17300.154297,4056.339844,11515.167969,51577.089844,0.0,17749.083984,17729.818359,-17343.492188,18141.539062,30.173706,90.637032,22.826588,0.0,12.259465,-3.313743,24.620073,38.118809,29.783051,90.425888,22.931242,0.0,3.169792,-0.240589,43.324318,45.426846,1.095,1.549,4407514.0,2015290.0,-570923.0,0.0,-3998285.0,-1901171.0,-199264.0,191787.0,-4502884.0,-2356465.0,-6863956.0,0.0,-4391037.0,-2440999.0,4649570.0,-200979.0,0.0,0.0,0.0,0.0,0.0,0.0,0.0,0.0,0.0,0.0,0.0,0.0,0.0,0.0,0.0,0.0,0.0,0.0,0.0,0.0,0.0,0.0,0.0,0.0
7,0.4988059997558594,30.173956,90.637642,22.826511,0.0,12.259851,-3.31362,24.608015,38.147942,29.783419,90.426353,22.931202,0.0,3.169514,-0.240209,43.328758,45.430447,3.0,1.0,111.0,0.0,1.0,-79025.0,-26762.0,13894.0,-77711.0,25025.0,13650.0,-0.947558,-0.161573,0.275731,-0.31741,0.375366,-0.870834,0.037203,-0.912685,-0.406966,-0.933996,0.217764,0.283249,0.3073,0.085213,0.94779,0.182258,0.972274,-0.146508,-0.947558,-0.161573,0.275731,-0.31741,0.375366,-0.870834,0.037203,-0.912685,-0.406966,-0.933996,0.217764,0.283249,0.3073,0.085213,0.94779,0.182258,0.972274,-0.146508,-79025.0,-26762.0,13894.0,-77711.0,25025.0,13650.0,-4453176.0,-2143599.0,242.0,0.0,-4193748.0,-2097700.0,773.0,-434.0,-4457813.0,-2228518.0,-6290878.0,0.0,-4193825.0,-2244001.0,-4456865.0,594.0,50.0,165.0,-45.0,0.0,647.0,75.0,549.0,-324.0,-43.0,-163.0,45.0,0.0,611.0,241.0,-397.0,506.0,-0.013684,-0.04487,0.012432,0.0,0.023684,0.002764,-0.020102,-0.011863,-0.011741,-0.044209,0.012247,0.0,0.022358,0.008854,0.014548,0.018548,4109.580078,11547.810547,51361.292969,0.0,-17591.669922,-17687.609375,17864.189453,-17299.890625,4056.390137,11515.230469,51577.019531,0.0,17749.082031,17729.820312,-17343.451172,18141.570312,0.0,0.0,0.0,0.0,0.0,0.0,0.0,0.0,0.0,0.0,0.0,0.0,0.0,0.0,0.0,0.0,0.0,0.0,0.0,0.0,0.0,0.0,0.0,0.0,0.0,0.0,0.0,0.0,0.0,0.0,0.0,0.0,4109.545898,11547.732422,51361.445312,0.0,-17591.671875,-17687.611328,17864.298828,-17300.154297,4056.339844,11515.167969,51577.089844,0.0,17749.083984,17729.818359,-17343.492188,18141.539062,30.173706,90.637032,22.826588,0.0,12.259465,-3.313743,24.620073,38.118809,29.783051,90.425888,22.931242,0.0,3.169792,-0.240589,43.324318,45.426846,1.095,1.549,4407514.0,2015290.0,-570923.0,0.0,-3998285.0,-1901171.0,-199264.0,191787.0,-4502884.0,-2356465.0,-6863956.0,0.0,-4391037.0,-2440999.0,4649570.0,-200979.0,0.0,0.0,0.0,0.0,0.0,0.0,0.0,0.0,0.0,0.0,0.0,0.0,0.0,0.0,0.0,0.0,0.0,0.0,0.0,0.0,0.0,0.0,0.0,0.0
8,0.5718739032745361,30.173956,90.637642,22.826511,0.0,12.259851,-3.31362,24.608015,38.147942,29.783419,90.426353,22.931202,0.0,3.169514,-0.240209,43.328758,45.430447,3.0,1.0,111.0,0.0,1.0,-79025.0,-26762.0,13894.0,-77711.0,25025.0,13650.0,-0.947558,-0.161573,0.275731,-0.31741,0.375366,-0.870834,0.037203,-0.912685,-0.406966,-0.933996,0.217764,0.283249,0.3073,0.085213,0.94779,0.182258,0.972274,-0.146508,-0.947558,-0.161573,0.275731,-0.31741,0.375366,-0.870834,0.037203,-0.912685,-0.406966,-0.933996,0.217764,0.283249,0.3073,0.085213,0.94779,0.182258,0.972274,-0.146508,-79025.0,-26762.0,13894.0,-77711.0,25025.0,13650.0,-4453176.0,-2143599.0,242.0,0.0,-4193748.0,-2097700.0,773.0,-434.0,-4457813.0,-2228518.0,-6290878.0,0.0,-4193825.0,-2244001.0,-4456865.0,594.0,50.0,165.0,-45.0,0.0,647.0,75.0,549.0,-324.0,-43.0,-163.0,45.0,0.0,611.0,241.0,-397.0,506.0,-0.013684,-0.04487,0.012432,0.0,0.023684,0.002764,-0.020095,-0.011879,-0.011741,-0.044209,0.012247,0.0,0.022358,0.008853,0.014545,0.018546,4109.580078,11547.810547,51361.292969,0.0,-17591.669922,-17687.609375,17864.189453,-17299.890625,4056.390137,11515.230469,51577.019531,0.0,17749.082031,17729.820312,-17343.451172,18141.570312,0.0,0.0,0.0,0.0,0.0,0.0,0.0,0.0,0.0,0.0,0.0,0.0,0.0,0.0,0.0,0.0,0.0,0.0,0.0,0.0,0.0,0.0,0.0,0.0,0.0,0.0,0.0,0.0,0.0,0.0,0.0,0.0,4109.545898,11547.732422,51361.445312,0.0,-17591.671875,-17687.611328,17864.298828,-17300.154297,4056.339844,11515.167969,51577.089844,0.0,17749.083984,17729.818359,-17343.492188,18141.539062,30.173706,90.637032,22.826588,0.0,12.259465,-3.313743,24.620073,38.118809,29.783051,90.425888,22.931242,0.0,3.169792,-0.240589,43.324318,45.426846,1.095,1.549,4407514.0,2015290.0,-570923.0,0.0,-3998285.0,-1901171.0,-199264.0,191787.0,-4502884.0,-2356465.0,-6863956.0,0.0,-4391037.0,-2440999.0,4649570.0,-200979.0,0.0,0.0,0.0,0.0,0.0,0.0,0.0,0.0,0.0,0.0,0.0,0.0,0.0,0.0,0.0,0.0,0.0,0.0,0.0,0.0,0.0,0.0,0.0,0.0
9,0.6478679180145264,30.173956,90.637642,22.826511,0.0,12.259851,-3.31362,24.608015,38.147942,29.783419,90.426353,22.931202,0.0,3.169514,-0.240209,43.328758,45.430447,3.0,1.0,111.0,0.0,1.0,-79025.0,-26762.0,13894.0,-77711.0,25025.0,13650.0,-0.947558,-0.161573,0.275731,-0.31741,0.375366,-0.870834,0.037203,-0.912685,-0.406966,-0.933996,0.217764,0.283249,0.3073,0.085213,0.94779,0.182258,0.972274,-0.146508,-0.947558,-0.161573,0.275731,-0.31741,0.375366,-0.870834,0.037203,-0.912685,-0.406966,-0.933996,0.217764,0.283249,0.3073,0.085213,0.94779,0.182258,0.972274,-0.146508,-79025.0,-26762.0,13894.0,-77711.0,25025.0,13650.0,-4453176.0,-2143599.0,242.0,0.0,-4193748.0,-2097700.0,773.0,-434.0,-4457813.0,-2228518.0,-6290878.0,0.0,-4193825.0,-2244001.0,-4456865.0,594.0,50.0,165.0,-45.0,0.0,647.0,75.0,548.0,-325.0,-43.0,-163.0,45.0,0.0,611.0,241.0,-397.0,506.0,-0.013684,-0.04487,0.012432,0.0,0.023684,0.002764,-0.020088,-0.011897,-0.011741,-0.044209,0.012247,0.0,0.022358,0.008853,0.014542,0.018544,4109.580078,11547.810547,51361.292969,0.0,-17591.669922,-17687.609375,17864.189453,-17299.890625,4056.390137,11515.230469,51577.019531,0.0,17749.082031,17729.820312,-17343.451172,18141.570312,0.0,0.0,0.0,0.0,0.0,0.0,0.0,0.0,0.0,0.0,0.0,0.0,0.0,0.0,0.0,0.0,0.0,0.0,0.0,0.0,0.0,0.0,0.0,0.0,0.0,0.0,0.0,0.0,0.0,0.0,0.0,0.0,4109.545898,11547.732422,51361.445312,0.0,-17591.671875,-17687.611328,17864.298828,-17300.154297,4056.339844,11515.167969,51577.089844,0.0,17749.083984,17729.818359,-17343.492188,18141.539062,30.173706,90.637032,22.826588,0.0,12.259465,-3.313743,24.620073,38.118809,29.783051,90.425888,22.931242,0.0,3.169792,-0.240589,43.324318,45.426846,1.095,1.549,4407514.0,2015290.0,-570923.0,0.0,-3998285.0,-1901171.0,-199264.0,191787.0,-4502884.0,-2356465.0,-6863956.0,0.0,-4391037.0,-2440999.0,4649570.0,-200979.0,0.0,0.0,0.0,0.0,0.0,0.0,0.0,0.0,0.0,0.0,0.0,0.0,0.0,0.0,0.0,0.0,0.0,0.0,0.0,0.0,0.0,0.0,0.0,0.0
10,0.71486496925354,30.173956,90.637642,22.826511,0.0,12.259851,-3.31362,24.608015,38.147942,29.783419,90.426353,22.931202,0.0,3.169514,-0.240209,43.328758,45.430447,3.0,1.0,111.0,0.0,1.0,-79025.0,-26762.0,13894.0,-77711.0,25025.0,13650.0,-0.947558,-0.161573,0.275731,-0.31741,0.375366,-0.870834,0.037203,-0.912685,-0.406966,-0.933996,0.217764,0.283249,0.3073,0.085213,0.94779,0.182258,0.972274,-0.146508,-0.947558,-0.161573,0.275731,-0.31741,0.375366,-0.870834,0.037203,-0.912685,-0.406966,-0.933996,0.217764,0.283249,0.3073,0.085213,0.94779,0.182258,0.972274,-0.146508,-79025.0,-26762.0,13894.0,-77711.0,25025.0,13650.0,-4453176.0,-2143599.0,242.0,0.0,-4193748.0,-2097700.0,773.0,-434.0,-4457813.0,-2228518.0,-6290878.0,0.0,-4193825.0,-2244001.0,-4456865.0,594.0,50.0,165.0,-45.0,0.0,647.0,75.0,548.0,-325.0,-43.0,-163.0,45.0,0.0,611.0,241.0,-397.0,506.0,-0.013684,-0.04487,0.012432,0.0,0.023684,0.002764,-0.020082,-0.011912,-0.011741,-0.044209,0.012247,0.0,0.022358,0.008853,0.01454,0.018542,4109.580078,11547.810547,51361.292969,0.0,-17591.669922,-17687.609375,17864.189453,-17299.890625,4056.390137,11515.230469,51577.019531,0.0,17749.082031,17729.820312,-17343.451172,18141.570312,0.0,0.0,0.0,0.0,0.0,0.0,0.0,0.0,0.0,0.0,0.0,0.0,0.0,0.0,0.0,0.0,0.0,0.0,0.0,0.0,0.0,0.0,0.0,0.0,0.0,0.0,0.0,0.0,0.0,0.0,0.0,0.0,4109.545898,11547.732422,51361.445312,0.0,-17591.671875,-17687.611328,17864.298828,-17300.154297,4056.339844,11515.167969,51577.089844,0.0,17749.083984,17729.818359,-17343.492188,18141.539062,30.173706,90.637032,22.826588,0.0,12.259465,-3.313743,24.620073,38.118809,29.783051,90.425888,22.931242,0.0,3.169792,-0.240589,43.324318,45.426846,1.095,1.549,4407514.0,2015290.0,-570923.0,0.0,-3998285.0,-1901171.0,-199264.0,191787.0,-4502884.0,-2356465.0,-6863956.0,0.0,-4391037.0,-2440999.0,4649570.0,-200979.0,0.0,0.0,0.0,0.0,0.0,0.0,0.0,0.0,0.0,0.0,0.0,0.0,0.0,0.0,0.0,0.0,0.0,0.0,0.0,0.0,0.0,0.0,0.0,0.0
11,0.7798750400543213,30.173956,90.637642,22.826511,0.0,12.259851,-3.31362,24.608015,38.147942,29.783419,90.426353,22.931202,0.0,3.169514,-0.240209,43.328758,45.430447,3.0,1.0,111.0,0.0,1.0,-79025.0,-26762.0,13894.0,-77711.0,25025.0,13650.0,-0.947558,-0.161573,0.275731,-0.31741,0.375366,-0.870834,0.037203,-0.912685,-0.406966,-0.933996,0.217764,0.283249,0.3073,0.085213,0.94779,0.182258,0.972274,-0.146508,-0.947558,-0.161573,0.275731,-0.31741,0.375366,-0.870834,0.037203,-0.912685,-0.406966,-0.933996,0.217764,0.283249,0.3073,0.085213,0.94779,0.182258,0.972274,-0.146508,-79025.0,-26762.0,13894.0,-77711.0,25025.0,13650.0,-4453176.0,-2143599.0,242.0,0.0,-4193748.0,-2097700.0,773.0,-434.0,-4457813.0,-2228518.0,-6290878.0,0.0,-4193825.0,-2244001.0,-4456865.0,594.0,50.0,165.0,-45.0,0.0,647.0,75.0,548.0,-325.0,-43.0,-163.0,45.0,0.0,611.0,241.0,-397.0,506.0,-0.013684,-0.04487,0.012432,0.0,0.023684,0.002764,-0.020076,-0.011927,-0.011741,-0.044209,0.012247,0.0,0.022358,0.008853,0.014537,0.018541,4109.580078,11547.810547,51361.292969,0.0,-17591.669922,-17687.609375,17864.189453,-17299.890625,4056.390137,11515.230469,51577.019531,0.0,17749.082031,17729.820312,-17343.451172,18141.570312,0.0,0.0,0.0,0.0,0.0,0.0,0.0,0.0,0.0,0.0,0.0,0.0,0.0,0.0,0.0,0.0,0.0,0.0,0.0,0.0,0.0,0.0,0.0,0.0,0.0,0.0,0.0,0.0,0.0,0.0,0.0,0.0,4109.545898,11547.732422,51361.445312,0.0,-17591.671875,-17687.611328,17864.298828,-17300.154297,4056.339844,11515.167969,51577.089844,0.0,17749.083984,17729.818359,-17343.492188,18141.539062,30.173706,90.637032,22.826588,0.0,12.259465,-3.313743,24.620073,38.118809,29.783051,90.425888,22.931242,0.0,3.169792,-0.240589,43.324318,45.426846,1.095,1.549,4407514.0,2015290.0,-570923.0,0.0,-3998285.0,-1901171.0,-199264.0,191787.0,-4502884.0,-2356465.0,-6863956.0,0.0,-4391037.0,-2440999.0,4649570.0,-200979.0,0.0,0.0,0.0,0.0,0.0,0.0,0.0,0.0,0.0,0.0,0.0,0.0,0.0,0.0,0.0,0.0,0.0,0.0,0.0,0.0,0.0,0.0,0.0,0.0
12,0.8528618812561035,30.173956,90.637642,22.826511,0.0,12.259851,-3.31362,24.608015,38.147942,29.783419,90.426353,22.931202,0.0,3.169514,-0.240209,43.328758,45.430447,3.0,1.0,111.0,0.0,1.0,-79025.0,-26762.0,13894.0,-77711.0,25025.0,13650.0,-0.947558,-0.161573,0.275731,-0.31741,0.375366,-0.870834,0.037203,-0.912685,-0.406966,-0.933996,0.217764,0.283249,0.3073,0.085213,0.94779,0.182258,0.972274,-0.146508,-0.947558,-0.161573,0.275731,-0.31741,0.375366,-0.870834,0.037203,-0.912685,-0.406966,-0.933996,0.217764,0.283249,0.3073,0.085213,0.94779,0.182258,0.972274,-0.146508,-79025.0,-26762.0,13894.0,-77711.0,25025.0,13650.0,-4453176.0,-2143599.0,242.0,0.0,-4193748.0,-2097700.0,773.0,-434.0,-4457813.0,-2228518.0,-6290878.0,0.0,-4193825.0,-2244001.0,-4456865.0,594.0,50.0,165.0,-45.0,0.0,647.0,75.0,548.0,-326.0,-43.0,-163.0,45.0,0.0,611.0,241.0,-397.0,506.0,-0.013684,-0.04487,0.012432,0.0,0.023684,0.002763,-0.020069,-0.011944,-0.011741,-0.044209,0.012247,0.0,0.022358,0.008852,0.014535,0.018539,4109.580078,11547.810547,51361.292969,0.0,-17591.669922,-17687.609375,17864.189453,-17299.890625,4056.390137,11515.230469,51577.019531,0.0,17749.082031,17729.820312,-17343.451172,18141.570312,0.0,0.0,0.0,0.0,0.0,0.0,0.0,0.0,0.0,0.0,0.0,0.0,0.0,0.0,0.0,0.0,0.0,0.0,0.0,0.0,0.0,0.0,0.0,0.0,0.0,0.0,0.0,0.0,0.0,0.0,0.0,0.0,4109.545898,11547.732422,51361.445312,0.0,-17591.671875,-17687.611328,17864.298828,-17300.154297,4056.339844,11515.167969,51577.089844,0.0,17749.083984,17729.818359,-17343.492188,18141.539062,30.173706,90.637032,22.826588,0.0,12.259465,-3.313743,24.620073,38.118809,29.783051,90.425888,22.931242,0.0,3.169792,-0.240589,43.324318,45.426846,1.095,1.549,4407514.0,2015290.0,-570923.0,0.0,-3998285.0,-1901171.0,-199264.0,191787.0,-4502884.0,-2356465.0,-6863956.0,0.0,-4391037.0,-2440999.0,4649570.0,-200979.0,0.0,0.0,0.0,0.0,0.0,0.0,0.0,0.0,0.0,0.0,0.0,0.0,0.0,0.0,0.0,0.0,0.0,0.0,0.0,0.0,0.0,0.0,0.0,0.0
13,0.9168651103973389,30.173956,90.637642,22.826511,0.0,12.259851,-3.31362,24.608015,38.147942,29.783419,90.426353,22.931202,0.0,3.169514,-0.240209,43.328758,45.430447,3.0,1.0,111.0,0.0,1.0,-79025.0,-26762.0,13894.0,-77711.0,25025.0,13650.0,-0.947558,-0.161573,0.275731,-0.31741,0.375366,-0.870834,0.037203,-0.912685,-0.406966,-0.933996,0.217764,0.283249,0.3073,0.085213,0.94779,0.182258,0.972274,-0.146508,-0.947558,-0.161573,0.275731,-0.31741,0.375366,-0.870834,0.037203,-0.912685,-0.406966,-0.933996,0.217764,0.283249,0.3073,0.085213,0.94779,0.182258,0.972274,-0.146508,-79025.0,-26762.0,13894.0,-77711.0,25025.0,13650.0,-4453176.0,-2143599.0,242.0,0.0,-4193748.0,-2097700.0,773.0,-434.0,-4457813.0,-2228518.0,-6290878.0,0.0,-4193825.0,-2244001.0,-4456865.0,594.0,50.0,165.0,-45.0,0.0,647.0,75.0,548.0,-326.0,-43.0,-163.0,45.0,0.0,611.0,241.0,-397.0,506.0,-0.013684,-0.04487,0.012432,0.0,0.023684,0.002763,-0.020063,-0.011958,-0.011741,-0.044209,0.012247,0.0,0.022358,0.008852,0.014532,0.018537,4109.580078,11547.810547,51361.292969,0.0,-17591.669922,-17687.609375,17864.189453,-17299.890625,4056.390137,11515.230469,51577.019531,0.0,17749.082031,17729.820312,-17343.451172,18141.570312,0.0,0.0,0.0,0.0,0.0,0.0,0.0,0.0,0.0,0.0,0.0,0.0,0.0,0.0,0.0,0.0,0.0,0.0,0.0,0.0,0.0,0.0,0.0,0.0,0.0,0.0,0.0,0.0,0.0,0.0,0.0,0.0,4109.545898,11547.732422,51361.445312,0.0,-17591.671875,-17687.611328,17864.298828,-17300.154297,4056.339844,11515.167969,51577.089844,0.0,17749.083984,17729.818359,-17343.492188,18141.539062,30.173706,90.637032,22.826588,0.0,12.259465,-3.313743,24.620073,38.118809,29.783051,90.425888,22.931242,0.0,3.169792,-0.240589,43.324318,45.426846,1.095,1.549,4407514.0,2015290.0,-570923.0,0.0,-3998285.0,-1901171.0,-199264.0,191787.0,-4502884.0,-2356465.0,-6863956.0,0.0,-4391037.0,-2440999.0,4649570.0,-200979.0,0.0,0.0,0.0,0.0,0.0,0.0,0.0,0.0,0.0,0.0,0.0,0.0,0.0,0.0,0.0,0.0,0.0,0.0,0.0,0.0,0.0,0.0,0.0,0.0
14,0.9818549156188965,30.173956,90.637642,22.826511,0.0,12.259851,-3.31362,24.608015,38.147942,29.783419,90.426353,22.931202,0.0,3.169514,-0.240209,43.328758,45.430447,3.0,1.0,111.0,0.0,1.0,-79025.0,-26762.0,13894.0,-77711.0,25025.0,13650.0,-0.947558,-0.161573,0.275731,-0.31741,0.375366,-0.870834,0.037203,-0.912685,-0.406966,-0.933996,0.217764,0.283249,0.3073,0.085213,0.94779,0.182258,0.972274,-0.146508,-0.947558,-0.161573,0.275731,-0.31741,0.375366,-0.870834,0.037203,-0.912685,-0.406966,-0.933996,0.217764,0.283249,0.3073,0.085213,0.94779,0.182258,0.972274,-0.146508,-79025.0,-26762.0,13894.0,-77711.0,25025.0,13650.0,-4453176.0,-2143599.0,242.0,0.0,-4193748.0,-2097700.0,773.0,-434.0,-4457813.0,-2228518.0,-6290878.0,0.0,-4193825.0,-2244001.0,-4456865.0,594.0,50.0,165.0,-45.0,0.0,647.0,75.0,548.0,-327.0,-43.0,-163.0,45.0,0.0,611.0,241.0,-397.0,506.0,-0.013684,-0.04487,0.012432,0.0,0.023683,0.002763,-0.020057,-0.011973,-0.011741,-0.044209,0.012247,0.0,0.022358,0.008852,0.01453,0.018535,4109.580078,11547.810547,51361.292969,0.0,-17591.669922,-17687.609375,17864.189453,-17299.890625,4056.390137,11515.230469,51577.019531,0.0,17749.082031,17729.820312,-17343.451172,18141.570312,0.0,0.0,0.0,0.0,0.0,0.0,0.0,0.0,0.0,0.0,0.0,0.0,0.0,0.0,0.0,0.0,0.0,0.0,0.0,0.0,0.0,0.0,0.0,0.0,0.0,0.0,0.0,0.0,0.0,0.0,0.0,0.0,4109.545898,11547.732422,51361.445312,0.0,-17591.671875,-17687.611328,17864.298828,-17300.154297,4056.339844,11515.167969,51577.089844,0.0,17749.083984,17729.818359,-17343.492188,18141.539062,30.173706,90.637032,22.826588,0.0,12.259465,-3.313743,24.620073,38.118809,29.783051,90.425888,22.931242,0.0,3.169792,-0.240589,43.324318,45.426846,1.095,1.549,4407514.0,2015290.0,-570923.0,0.0,-3998285.0,-1901171.0,-199264.0,191787.0,-4502884.0,-2356465.0,-6863956.0,0.0,-4391037.0,-2440999.0,4649570.0,-200979.0,0.0,0.0,0.0,0.0,0.0,0.0,0.0,0.0,0.0,0.0,0.0,0.0,0.0,0.0,0.0,0.0,0.0,0.0,0.0,0.0,0.0,0.0,0.0,0.0
15,1.0528531074523926,30.173956,90.637642,22.826511,0.0,12.259851,-3.31362,24.608015,38.147942,29.783419,90.426353,22.931202,0.0,3.169514,-0.240209,43.328758,45.430447,3.0,1.0,111.0,0.0,1.0,-79025.0,-26762.0,13894.0,-77711.0,25025.0,13650.0,-0.947558,-0.161573,0.275731,-0.31741,0.375366,-0.870834,0.037203,-0.912685,-0.406966,-0.933996,0.217764,0.283249,0.3073,0.085213,0.94779,0.182258,0.972274,-0.146508,-0.947558,-0.161573,0.275731,-0.31741,0.375366,-0.870834,0.037203,-0.912685,-0.406966,-0.933996,0.217764,0.283249,0.3073,0.085213,0.94779,0.182258,0.972274,-0.146508,-79025.0,-26762.0,13894.0,-77711.0,25025.0,13650.0,-4453176.0,-2143599.0,242.0,0.0,-4193748.0,-2097700.0,773.0,-434.0,-4457813.0,-2228518.0,-6290878.0,0.0,-4193825.0,-2244001.0,-4456865.0,594.0,50.0,165.0,-45.0,0.0,647.0,75.0,547.0,-327.0,-43.0,-163.0,45.0,0.0,611.0,241.0,-397.0,506.0,-0.013684,-0.04487,0.012432,0.0,0.023683,0.002763,-0.02005,-0.011989,-0.011741,-0.044209,0.012247,0.0,0.022359,0.008852,0.014527,0.018533,4109.580078,11547.810547,51361.292969,0.0,-17591.669922,-17687.609375,17864.189453,-17299.890625,4056.390137,11515.230469,51577.019531,0.0,17749.082031,17729.820312,-17343.451172,18141.570312,0.0,0.0,0.0,0.0,0.0,0.0,0.0,0.0,0.0,0.0,0.0,0.0,0.0,0.0,0.0,0.0,0.0,0.0,0.0,0.0,0.0,0.0,0.0,0.0,0.0,0.0,0.0,0.0,0.0,0.0,0.0,0.0,4109.545898,11547.732422,51361.445312,0.0,-17591.671875,-17687.611328,17864.298828,-17300.154297,4056.339844,11515.167969,51577.089844,0.0,17749.083984,17729.818359,-17343.492188,18141.539062,30.173706,90.637032,22.826588,0.0,12.259465,-3.313743,24.620073,38.118809,29.783051,90.425888,22.931242,0.0,3.169792,-0.240589,43.324318,45.426846,1.095,1.549,4407514.0,2015290.0,-570923.0,0.0,-3998285.0,-1901171.0,-199264.0,191787.0,-4502884.0,-2356465.0,-6863956.0,0.0,-4391037.0,-2440999.0,4649570.0,-200979.0,0.0,0.0,0.0,0.0,0.0,0.0,0.0,0.0,0.0,0.0,0.0,0.0,0.0,0.0,0.0,0.0,0.0,0.0,0.0,0.0,0.0,0.0,0.0,0.0
16,1.1218600273132324,30.173956,90.637642,22.826511,0.0,12.259851,-3.31362,24.608015,38.147942,29.783419,90.426353,22.931202,0.0,3.169514,-0.240209,43.328758,45.430447,3.0,1.0,111.0,0.0,1.0,-79025.0,-26762.0,13894.0,-77711.0,25025.0,13650.0,-0.947558,-0.161573,0.275731,-0.31741,0.375366,-0.870834,0.037203,-0.912685,-0.406966,-0.933996,0.217764,0.283249,0.3073,0.085213,0.94779,0.182258,0.972274,-0.146508,-0.947558,-0.161573,0.275731,-0.31741,0.375366,-0.870834,0.037203,-0.912685,-0.406966,-0.933996,0.217764,0.283249,0.3073,0.085213,0.94779,0.182258,0.972274,-0.146508,-79025.0,-26762.0,13894.0,-77711.0,25025.0,13650.0,-4453176.0,-2143599.0,242.0,0.0,-4193748.0,-2097700.0,773.0,-434.0,-4457813.0,-2228518.0,-6290878.0,0.0,-4193825.0,-2244001.0,-4456865.0,594.0,50.0,165.0,-45.0,0.0,647.0,75.0,547.0,-328.0,-43.0,-163.0,45.0,0.0,611.0,241.0,-396.0,506.0,-0.013684,-0.04487,0.012432,0.0,0.023683,0.002763,-0.020044,-0.012005,-0.011741,-0.044209,0.012247,0.0,0.022359,0.008852,0.014525,0.018532,4109.580078,11547.810547,51361.292969,0.0,-17591.669922,-17687.609375,17864.189453,-17299.890625,4056.390137,11515.230469,51577.019531,0.0,17749.082031,17729.820312,-17343.451172,18141.570312,0.0,0.0,0.0,0.0,0.0,0.0,0.0,0.0,0.0,0.0,0.0,0.0,0.0,0.0,0.0,0.0,0.0,0.0,0.0,0.0,0.0,0.0,0.0,0.0,0.0,0.0,0.0,0.0,0.0,0.0,0.0,0.0,4109.545898,11547.732422,51361.445312,0.0,-17591.671875,-17687.611328,17864.298828,-17300.154297,4056.339844,11515.167969,51577.089844,0.0,17749.083984,17729.818359,-17343.492188,18141.539062,30.173706,90.637032,22.826588,0.0,12.259465,-3.313743,24.620073,38.118809,29.783051,90.425888,22.931242,0.0,3.169792,-0.240589,43.324318,45.426846,1.095,1.549,4407514.0,2015290.0,-570923.0,0.0,-3998285.0,-1901171.0,-199264.0,191787.0,-4502884.0,-2356465.0,-6863956.0,0.0,-4391037.0,-2440999.0,4649570.0,-200979.0,0.0,0.0,0.0,0.0,0.0,0.0,0.0,0.0,0.0,0.0,0.0,0.0,0.0,0.0,0.0,0.0,0.0,0.0,0.0,0.0,0.0,0.0,0.0,0.0
17,1.1878750324249268,30.173956,90.637642,22.826511,0.0,12.259851,-3.31362,24.608015,38.147942,29.783419,90.426353,22.931202,0.0,3.169514,-0.240209,43.328758,45.430447,3.0,1.0,111.0,0.0,1.0,-79025.0,-26762.0,13894.0,-77711.0,25025.0,13650.0,-0.947558,-0.161573,0.275731,-0.31741,0.375366,-0.870834,0.037203,-0.912685,-0.406966,-0.933996,0.217764,0.283249,0.3073,0.085213,0.94779,0.182258,0.972274,-0.146508,-0.947558,-0.161573,0.275731,-0.31741,0.375366,-0.870834,0.037203,-0.912685,-0.406966,-0.933996,0.217764,0.283249,0.3073,0.085213,0.94779,0.182258,0.972274,-0.146508,-79025.0,-26762.0,13894.0,-77711.0,25025.0,13650.0,-4453176.0,-2143599.0,242.0,0.0,-4193748.0,-2097700.0,773.0,-434.0,-4457813.0,-2228518.0,-6290878.0,0.0,-4193825.0,-2244001.0,-4456865.0,594.0,50.0,165.0,-45.0,0.0,647.0,75.0,547.0,-328.0,-43.0,-163.0,45.0,0.0,611.0,241.0,-396.0,506.0,-0.013684,-0.04487,0.012432,0.0,0.023683,0.002763,-0.020037,-0.01202,-0.011741,-0.044209,0.012247,0.0,0.022359,0.008851,0.014522,0.01853,4109.580078,11547.810547,51361.292969,0.0,-17591.669922,-17687.609375,17864.189453,-17299.890625,4056.390137,11515.230469,51577.019531,0.0,17749.082031,17729.820312,-17343.451172,18141.570312,0.0,0.0,0.0,0.0,0.0,0.0,0.0,0.0,0.0,0.0,0.0,0.0,0.0,0.0,0.0,0.0,0.0,0.0,0.0,0.0,0.0,0.0,0.0,0.0,0.0,0.0,0.0,0.0,0.0,0.0,0.0,0.0,4109.545898,11547.732422,51361.445312,0.0,-17591.671875,-17687.611328,17864.298828,-17300.154297,4056.339844,11515.167969,51577.089844,0.0,17749.083984,17729.818359,-17343.492188,18141.539062,30.173706,90.637032,22.826588,0.0,12.259465,-3.313743,24.620073,38.118809,29.783051,90.425888,22.931242,0.0,3.169792,-0.240589,43.324318,45.426846,1.095,1.549,4407514.0,2015290.0,-570923.0,0.0,-3998285.0,-1901171.0,-199264.0,191787.0,-4502884.0,-2356465.0,-6863956.0,0.0,-4391037.0,-2440999.0,4649570.0,-200979.0,0.0,0.0,0.0,0.0,0.0,0.0,0.0,0.0,0.0,0.0,0.0,0.0,0.0,0.0,0.0,0.0,0.0,0.0,0.0,0.0,0.0,0.0,0.0,0.0
18,1.2587969303131104,30.173956,90.637642,22.826511,0.0,12.259851,-3.31362,24.608015,38.147942,29.783419,90.426353,22.931202,0.0,3.169514,-0.240209,43.328758,45.430447,3.0,1.0,111.0,0.0,1.0,-79025.0,-26762.0,13894.0,-77711.0,25025.0,13650.0,-0.947558,-0.161573,0.275731,-0.31741,0.375366,-0.870834,0.037203,-0.912685,-0.406966,-0.933996,0.217764,0.283249,0.3073,0.085213,0.94779,0.182258,0.972274,-0.146508,-0.947558,-0.161573,0.275731,-0.31741,0.375366,-0.870834,0.037203,-0.912685,-0.406966,-0.933996,0.217764,0.283249,0.3073,0.085213,0.94779,0.182258,0.972274,-0.146508,-79025.0,-26762.0,13894.0,-77711.0,25025.0,13650.0,-4453176.0,-2143599.0,242.0,0.0,-4193748.0,-2097700.0,773.0,-434.0,-4457813.0,-2228518.0,-6290878.0,0.0,-4193825.0,-2244001.0,-4456865.0,594.0,50.0,165.0,-45.0,0.0,647.0,75.0,547.0,-328.0,-43.0,-163.0,45.0,0.0,611.0,241.0,-396.0,506.0,-0.013684,-0.04487,0.012432,0.0,0.023683,0.002763,-0.020031,-0.012037,-0.011741,-0.044209,0.012247,0.0,0.022359,0.008851,0.014519,0.018528,4109.580078,11547.810547,51361.292969,0.0,-17591.669922,-17687.609375,17864.189453,-17299.890625,4056.390137,11515.230469,51577.019531,0.0,17749.082031,17729.820312,-17343.451172,18141.570312,0.0,0.0,0.0,0.0,0.0,0.0,0.0,0.0,0.0,0.0,0.0,0.0,0.0,0.0,0.0,0.0,0.0,0.0,0.0,0.0,0.0,0.0,0.0,0.0,0.0,0.0,0.0,0.0,0.0,0.0,0.0,0.0,4109.545898,11547.732422,51361.445312,0.0,-17591.671875,-17687.611328,17864.298828,-17300.154297,4056.339844,11515.167969,51577.089844,0.0,17749.083984,17729.818359,-17343.492188,18141.539062,30.173706,90.637032,22.826588,0.0,12.259465,-3.313743,24.620073,38.118809,29.783051,90.425888,22.931242,0.0,3.169792,-0.240589,43.324318,45.426846,1.095,1.549,4407514.0,2015290.0,-570923.0,0.0,-3998285.0,-1901171.0,-199264.0,191787.0,-4502884.0,-2356465.0,-6863956.0,0.0,-4391037.0,-2440999.0,4649570.0,-200979.0,0.0,0.0,0.0,0.0,0.0,0.0,0.0,0.0,0.0,0.0,0.0,0.0,0.0,0.0,0.0,0.0,0.0,0.0,0.0,0.0,0.0,0.0,0.0,0.0
19,1.3238708972930908,30.173956,90.637642,22.826511,0.0,12.259851,-3.31362,24.608015,38.147942,29.783419,90.426353,22.931202,0.0,3.169514,-0.240209,43.328758,45.430447,3.0,1.0,111.0,0.0,1.0,-79025.0,-26762.0,13894.0,-77711.0,25025.0,13650.0,-0.947558,-0.161573,0.275731,-0.31741,0.375366,-0.870834,0.037203,-0.912685,-0.406966,-0.933996,0.217764,0.283249,0.3073,0.085213,0.94779,0.182258,0.972274,-0.146508,-0.947558,-0.161573,0.275731,-0.31741,0.375366,-0.870834,0.037203,-0.912685,-0.406966,-0.933996,0.217764,0.283249,0.3073,0.085213,0.94779,0.182258,0.972274,-0.146508,-79025.0,-26762.0,13894.0,-77711.0,25025.0,13650.0,-4453176.0,-2143599.0,242.0,0.0,-4193748.0,-2097700.0,773.0,-434.0,-4457813.0,-2228518.0,-6290878.0,0.0,-4193825.0,-2244001.0,-4456865.0,594.0,50.0,165.0,-45.0,0.0,647.0,75.0,547.0,-329.0,-43.0,-163.0,45.0,0.0,611.0,241.0,-396.0,506.0,-0.013684,-0.04487,0.012432,0.0,0.023683,0.002763,-0.020025,-0.012051,-0.011741,-0.044209,0.012247,0.0,0.022359,0.008851,0.014517,0.018526,4109.580078,11547.810547,51361.292969,0.0,-17591.669922,-17687.609375,17864.189453,-17299.890625,4056.390137,11515.230469,51577.019531,0.0,17749.082031,17729.820312,-17343.451172,18141.570312,0.0,0.0,0.0,0.0,0.0,0.0,0.0,0.0,0.0,0.0,0.0,0.0,0.0,0.0,0.0,0.0,0.0,0.0,0.0,0.0,0.0,0.0,0.0,0.0,0.0,0.0,0.0,0.0,0.0,0.0,0.0,0.0,4109.545898,11547.732422,51361.445312,0.0,-17591.671875,-17687.611328,17864.298828,-17300.154297,4056.339844,11515.167969,51577.089844,0.0,17749.083984,17729.818359,-17343.492188,18141.539062,30.173706,90.637032,22.826588,0.0,12.259465,-3.313743,24.620073,38.118809,29.783051,90.425888,22.931242,0.0,3.169792,-0.240589,43.324318,45.426846,1.095,1.549,4407514.0,2015290.0,-570923.0,0.0,-3998285.0,-1901171.0,-199264.0,191787.0,-4502884.0,-2356465.0,-6863956.0,0.0,-4391037.0,-2440999.0,4649570.0,-200979.0,0.0,0.0,0.0,0.0,0.0,0.0,0.0,0.0,0.0,0.0,0.0,0.0,0.0,0.0,0.0,0.0,0.0,0.0,0.0,0.0,0.0,0.0,0.0,0.0
20,1.394874095916748,30.173956,90.637642,22.826511,0.0,12.259851,-3.31362,24.608015,38.147942,29.783419,90.426353,22.931202,0.0,3.169514,-0.240209,43.328758,45.430447,3.0,1.0,111.0,0.0,1.0,-79025.0,-26762.0,13894.0,-77711.0,25025.0,13650.0,-0.947558,-0.161573,0.275731,-0.31741,0.375366,-0.870834,0.037203,-0.912685,-0.406966,-0.933996,0.217764,0.283249,0.3073,0.085213,0.94779,0.182258,0.972274,-0.146508,-0.947558,-0.161573,0.275731,-0.31741,0.375366,-0.870834,0.037203,-0.912685,-0.406966,-0.933996,0.217764,0.283249,0.3073,0.085213,0.94779,0.182258,0.972274,-0.146508,-79025.0,-26762.0,13894.0,-77711.0,25025.0,13650.0,-4453176.0,-2143599.0,242.0,0.0,-4193748.0,-2097700.0,773.0,-434.0,-4457813.0,-2228518.0,-6290878.0,0.0,-4193825.0,-2244001.0,-4456865.0,594.0,50.0,165.0,-45.0,0.0,647.0,75.0,547.0,-329.0,-43.0,-163.0,45.0,0.0,611.0,241.0,-396.0,506.0,-0.013684,-0.04487,0.012432,0.0,0.023683,0.002763,-0.020018,-0.012068,-0.011741,-0.044209,0.012247,0.0,0.022359,0.008851,0.014514,0.018524,4109.580078,11547.810547,51361.292969,0.0,-17591.669922,-17687.609375,17864.189453,-17299.890625,4056.390137,11515.230469,51577.019531,0.0,17749.082031,17729.820312,-17343.451172,18141.570312,0.0,0.0,0.0,0.0,0.0,0.0,0.0,0.0,0.0,0.0,0.0,0.0,0.0,0.0,0.0,0.0,0.0,0.0,0.0,0.0,0.0,0.0,0.0,0.0,0.0,0.0,0.0,0.0,0.0,0.0,0.0,0.0,4109.545898,11547.732422,51361.445312,0.0,-17591.671875,-17687.611328,17864.298828,-17300.154297,4056.339844,11515.167969,51577.089844,0.0,17749.083984,17729.818359,-17343.492188,18141.539062,30.173706,90.637032,22.826588,0.0,12.259465,-3.313743,24.620073,38.118809,29.783051,90.425888,22.931242,0.0,3.169792,-0.240589,43.324318,45.426846,1.095,1.549,4407514.0,2015290.0,-570923.0,0.0,-3998285.0,-1901171.0,-199264.0,191787.0,-4502884.0,-2356465.0,-6863956.0,0.0,-4391037.0,-2440999.0,4649570.0,-200979.0,0.0,0.0,0.0,0.0,0.0,0.0,0.0,0.0,0.0,0.0,0.0,0.0,0.0,0.0,0.0,0.0,0.0,0.0,0.0,0.0,0.0,0.0,0.0,0.0
21,1.4688529968261719,30.173956,90.637642,22.826511,0.0,12.259851,-3.31362,24.608015,38.147942,29.783419,90.426353,22.931202,0.0,3.169514,-0.240209,43.328758,45.430447,3.0,1.0,111.0,0.0,1.0,-79025.0,-26762.0,13894.0,-77711.0,25025.0,13650.0,-0.947558,-0.161573,0.275731,-0.31741,0.375366,-0.870834,0.037203,-0.912685,-0.406966,-0.933996,0.217764,0.283249,0.3073,0.085213,0.94779,0.182258,0.972274,-0.146508,-0.947558,-0.161573,0.275731,-0.31741,0.375366,-0.870834,0.037203,-0.912685,-0.406966,-0.933996,0.217764,0.283249,0.3073,0.085213,0.94779,0.182258,0.972274,-0.146508,-79025.0,-26762.0,13894.0,-77711.0,25025.0,13650.0,-4453176.0,-2143599.0,242.0,0.0,-4193748.0,-2097700.0,773.0,-434.0,-4457813.0,-2228518.0,-6290878.0,0.0,-4193825.0,-2244001.0,-4456865.0,594.0,50.0,165.0,-45.0,0.0,647.0,75.0,546.0,-330.0,-43.0,-163.0,45.0,0.0,611.0,241.0,-396.0,506.0,-0.013684,-0.04487,0.012432,0.0,0.023683,0.002763,-0.020011,-0.012085,-0.011741,-0.044209,0.012247,0.0,0.022359,0.008851,0.014512,0.018522,4109.580078,11547.810547,51361.292969,0.0,-17591.669922,-17687.609375,17864.189453,-17299.890625,4056.390137,11515.230469,51577.019531,0.0,17749.082031,17729.820312,-17343.451172,18141.570312,0.0,0.0,0.0,0.0,0.0,0.0,0.0,0.0,0.0,0.0,0.0,0.0,0.0,0.0,0.0,0.0,0.0,0.0,0.0,0.0,0.0,0.0,0.0,0.0,0.0,0.0,0.0,0.0,0.0,0.0,0.0,0.0,4109.545898,11547.732422,51361.445312,0.0,-17591.671875,-17687.611328,17864.298828,-17300.154297,4056.339844,11515.167969,51577.089844,0.0,17749.083984,17729.818359,-17343.492188,18141.539062,30.173706,90.637032,22.826588,0.0,12.259465,-3.313743,24.620073,38.118809,29.783051,90.425888,22.931242,0.0,3.169792,-0.240589,43.324318,45.426846,1.095,1.549,4407514.0,2015290.0,-570923.0,0.0,-3998285.0,-1901171.0,-199264.0,191787.0,-4502884.0,-2356465.0,-6863956.0,0.0,-4391037.0,-2440999.0,4649570.0,-200979.0,0.0,0.0,0.0,0.0,0.0,0.0,0.0,0.0,0.0,0.0,0.0,0.0,0.0,0.0,0.0,0.0,0.0,0.0,0.0,0.0,0.0,0.0,0.0,0.0
22,1.5368599891662598,30.173956,90.637642,22.826511,0.0,12.259851,-3.31362,24.608015,38.147942,29.783419,90.426353,22.931202,0.0,3.169514,-0.240209,43.328758,45.430447,3.0,1.0,111.0,0.0,1.0,-79025.0,-26762.0,13894.0,-77711.0,25025.0,13650.0,-0.947558,-0.161573,0.275731,-0.31741,0.375366,-0.870834,0.037203,-0.912685,-0.406966,-0.933996,0.217764,0.283249,0.3073,0.085213,0.94779,0.182258,0.972274,-0.146508,-0.947558,-0.161573,0.275731,-0.31741,0.375366,-0.870834,0.037203,-0.912685,-0.406966,-0.933996,0.217764,0.283249,0.3073,0.085213,0.94779,0.182258,0.972274,-0.146508,-79025.0,-26762.0,13894.0,-77711.0,25025.0,13650.0,-4453176.0,-2143599.0,242.0,0.0,-4193748.0,-2097700.0,773.0,-434.0,-4457813.0,-2228518.0,-6290878.0,0.0,-4193825.0,-2244001.0,-4456865.0,594.0,50.0,165.0,-45.0,0.0,647.0,75.0,546.0,-330.0,-43.0,-163.0,45.0,0.0,611.0,241.0,-396.0,506.0,-0.013684,-0.04487,0.012432,0.0,0.023683,0.002762,-0.020005,-0.0121,-0.011741,-0.044209,0.012247,0.0,0.022359,0.00885,0.014509,0.01852,4109.580078,11547.810547,51361.292969,0.0,-17591.669922,-17687.609375,17864.189453,-17299.890625,4056.390137,11515.230469,51577.019531,0.0,17749.082031,17729.820312,-17343.451172,18141.570312,0.0,0.0,0.0,0.0,0.0,0.0,0.0,0.0,0.0,0.0,0.0,0.0,0.0,0.0,0.0,0.0,0.0,0.0,0.0,0.0,0.0,0.0,0.0,0.0,0.0,0.0,0.0,0.0,0.0,0.0,0.0,0.0,4109.545898,11547.732422,51361.445312,0.0,-17591.671875,-17687.611328,17864.298828,-17300.154297,4056.339844,11515.167969,51577.089844,0.0,17749.083984,17729.818359,-17343.492188,18141.539062,30.173706,90.637032,22.826588,0.0,12.259465,-3.313743,24.620073,38.118809,29.783051,90.425888,22.931242,0.0,3.169792,-0.240589,43.324318,45.426846,1.095,1.549,4407514.0,2015290.0,-570923.0,0.0,-3998285.0,-1901171.0,-199264.0,191787.0,-4502884.0,-2356465.0,-6863956.0,0.0,-4391037.0,-2440999.0,4649570.0,-200979.0,0.0,0.0,0.0,0.0,0.0,0.0,0.0,0.0,0.0,0.0,0.0,0.0,0.0,0.0,0.0,0.0,0.0,0.0,0.0,0.0,0.0,0.0,0.0,0.0
23,1.605863094329834,30.173956,90.637642,22.826511,0.0,12.259851,-3.31362,24.608015,38.147942,29.783419,90.426353,22.931202,0.0,3.169514,-0.240209,43.328758,45.430447,3.0,1.0,111.0,0.0,1.0,-79025.0,-26762.0,13894.0,-77711.0,25025.0,13650.0,-0.947558,-0.161573,0.275731,-0.31741,0.375366,-0.870834,0.037203,-0.912685,-0.406966,-0.933996,0.217764,0.283249,0.3073,0.085213,0.94779,0.182258,0.972274,-0.146508,-0.947558,-0.161573,0.275731,-0.31741,0.375366,-0.870834,0.037203,-0.912685,-0.406966,-0.933996,0.217764,0.283249,0.3073,0.085213,0.94779,0.182258,0.972274,-0.146508,-79025.0,-26762.0,13894.0,-77711.0,25025.0,13650.0,-4453176.0,-2143599.0,242.0,0.0,-4193748.0,-2097700.0,773.0,-434.0,-4457813.0,-2228518.0,-6290878.0,0.0,-4193825.0,-2244001.0,-4456865.0,594.0,50.0,165.0,-45.0,0.0,647.0,75.0,546.0,-331.0,-43.0,-163.0,45.0,0.0,611.0,241.0,-396.0,506.0,-0.013684,-0.04487,0.012432,0.0,0.023682,0.002762,-0.019998,-0.012116,-0.011741,-0.044209,0.012247,0.0,0.022359,0.00885,0.014507,0.018519,4109.580078,11547.810547,51361.292969,0.0,-17591.669922,-17687.609375,17864.189453,-17299.890625,4056.390137,11515.230469,51577.019531,0.0,17749.082031,17729.820312,-17343.451172,18141.570312,0.0,0.0,0.0,0.0,0.0,0.0,0.0,0.0,0.0,0.0,0.0,0.0,0.0,0.0,0.0,0.0,0.0,0.0,0.0,0.0,0.0,0.0,0.0,0.0,0.0,0.0,0.0,0.0,0.0,0.0,0.0,0.0,4109.545898,11547.732422,51361.445312,0.0,-17591.671875,-17687.611328,17864.298828,-17300.154297,4056.339844,11515.167969,51577.089844,0.0,17749.083984,17729.818359,-17343.492188,18141.539062,30.173706,90.637032,22.826588,0.0,12.259465,-3.313743,24.620073,38.118809,29.783051,90.425888,22.931242,0.0,3.169792,-0.240589,43.324318,45.426846,1.095,1.549,4407514.0,2015290.0,-570923.0,0.0,-3998285.0,-1901171.0,-199264.0,191787.0,-4502884.0,-2356465.0,-6863956.0,0.0,-4391037.0,-2440999.0,4649570.0,-200979.0,0.0,0.0,0.0,0.0,0.0,0.0,0.0,0.0,0.0,0.0,0.0,0.0,0.0,0.0,0.0,0.0,0.0,0.0,0.0,0.0,0.0,0.0,0.0,0.0
24,1.6818950176239014,30.173956,90.637642,22.826511,0.0,12.259851,-3.31362,24.608015,38.147942,29.783419,90.426353,22.931202,0.0,3.169514,-0.240209,43.328758,45.430447,3.0,1.0,111.0,0.0,1.0,-79025.0,-26762.0,13894.0,-77711.0,25025.0,13650.0,-0.947558,-0.161573,0.275731,-0.31741,0.375366,-0.870834,0.037203,-0.912685,-0.406966,-0.933996,0.217764,0.283249,0.3073,0.085213,0.94779,0.182258,0.972274,-0.146508,-0.947558,-0.161573,0.275731,-0.31741,0.375366,-0.870834,0.037203,-0.912685,-0.406966,-0.933996,0.217764,0.283249,0.3073,0.085213,0.94779,0.182258,0.972274,-0.146508,-79025.0,-26762.0,13894.0,-77711.0,25025.0,13650.0,-4453176.0,-2143599.0,242.0,0.0,-4193748.0,-2097700.0,773.0,-434.0,-4457813.0,-2228518.0,-6290878.0,0.0,-4193825.0,-2244001.0,-4456865.0,594.0,50.0,165.0,-45.0,0.0,647.0,75.0,546.0,-331.0,-43.0,-163.0,45.0,0.0,611.0,241.0,-396.0,506.0,-0.013684,-0.04487,0.012432,0.0,0.023682,0.002762,-0.019991,-0.012133,-0.011741,-0.044209,0.012247,0.0,0.022359,0.00885,0.014504,0.018516,4109.580078,11547.810547,51361.292969,0.0,-17591.669922,-17687.609375,17864.189453,-17299.890625,4056.390137,11515.230469,51577.019531,0.0,17749.082031,17729.820312,-17343.451172,18141.570312,0.0,0.0,0.0,0.0,0.0,0.0,0.0,0.0,0.0,0.0,0.0,0.0,0.0,0.0,0.0,0.0,0.0,0.0,0.0,0.0,0.0,0.0,0.0,0.0,0.0,0.0,0.0,0.0,0.0,0.0,0.0,0.0,4109.545898,11547.732422,51361.445312,0.0,-17591.671875,-17687.611328,17864.298828,-17300.154297,4056.339844,11515.167969,51577.089844,0.0,17749.083984,17729.818359,-17343.492188,18141.539062,30.173706,90.637032,22.826588,0.0,12.259465,-3.313743,24.620073,38.118809,29.783051,90.425888,22.931242,0.0,3.169792,-0.240589,43.324318,45.426846,1.095,1.549,4407514.0,2015290.0,-570923.0,0.0,-3998285.0,-1901171.0,-199264.0,191787.0,-4502884.0,-2356465.0,-6863956.0,0.0,-4391037.0,-2440999.0,4649570.0,-200979.0,0.0,0.0,0.0,0.0,0.0,0.0,0.0,0.0,0.0,0.0,0.0,0.0,0.0,0.0,0.0,0.0,0.0,0.0,0.0,0.0,0.0,0.0,0.0,0.0
25,1.7578270435333252,30.173956,90.637642,22.826511,0.0,12.259851,-3.31362,24.608015,38.147942,29.783419,90.426353,22.931202,0.0,3.169514,-0.240209,43.328758,45.430447,3.0,1.0,111.0,0.0,1.0,-79025.0,-26762.0,13894.0,-77711.0,25025.0,13650.0,-0.947558,-0.161573,0.275731,-0.31741,0.375366,-0.870834,0.037203,-0.912685,-0.406966,-0.933996,0.217764,0.283249,0.3073,0.085213,0.94779,0.182258,0.972274,-0.146508,-0.947558,-0.161573,0.275731,-0.31741,0.375366,-0.870834,0.037203,-0.912685,-0.406966,-0.933996,0.217764,0.283249,0.3073,0.085213,0.94779,0.182258,0.972274,-0.146508,-79025.0,-26762.0,13894.0,-77711.0,25025.0,13650.0,-4453176.0,-2143599.0,242.0,0.0,-4193748.0,-2097700.0,773.0,-434.0,-4457813.0,-2228518.0,-6290878.0,0.0,-4193825.0,-2244001.0,-4456865.0,594.0,50.0,165.0,-45.0,0.0,647.0,75.0,546.0,-332.0,-43.0,-163.0,45.0,0.0,611.0,241.0,-396.0,505.0,-0.013684,-0.04487,0.012432,0.0,0.023682,0.002762,-0.019984,-0.012151,-0.011741,-0.044209,0.012247,0.0,0.02236,0.00885,0.014501,0.018514,4109.580078,11547.810547,51361.292969,0.0,-17591.669922,-17687.609375,17864.189453,-17299.890625,4056.390137,11515.230469,51577.019531,0.0,17749.082031,17729.820312,-17343.451172,18141.570312,0.0,0.0,0.0,0.0,0.0,0.0,0.0,0.0,0.0,0.0,0.0,0.0,0.0,0.0,0.0,0.0,0.0,0.0,0.0,0.0,0.0,0.0,0.0,0.0,0.0,0.0,0.0,0.0,0.0,0.0,0.0,0.0,4109.545898,11547.732422,51361.445312,0.0,-17591.671875,-17687.611328,17864.298828,-17300.154297,4056.339844,11515.167969,51577.089844,0.0,17749.083984,17729.818359,-17343.492188,18141.539062,30.173706,90.637032,22.826588,0.0,12.259465,-3.313743,24.620073,38.118809,29.783051,90.425888,22.931242,0.0,3.169792,-0.240589,43.324318,45.426846,1.095,1.549,4407514.0,2015290.0,-570923.0,0.0,-3998285.0,-1901171.0,-199264.0,191787.0,-4502884.0,-2356465.0,-6863956.0,0.0,-4391037.0,-2440999.0,4649570.0,-200979.0,0.0,0.0,0.0,0.0,0.0,0.0,0.0,0.0,0.0,0.0,0.0,0.0,0.0,0.0,0.0,0.0,0.0,0.0,0.0,0.0,0.0,0.0,0.0,0.0
26,1.8278720378875732,30.173956,90.637642,22.826511,0.0,12.259851,-3.31362,24.608015,38.147942,29.783419,90.426353,22.931202,0.0,3.169514,-0.240209,43.328758,45.430447,3.0,1.0,111.0,0.0,1.0,-79025.0,-26762.0,13894.0,-77711.0,25025.0,13650.0,-0.947558,-0.161573,0.275731,-0.31741,0.375366,-0.870834,0.037203,-0.912685,-0.406966,-0.933996,0.217764,0.283249,0.3073,0.085213,0.94779,0.182258,0.972274,-0.146508,-0.947558,-0.161573,0.275731,-0.31741,0.375366,-0.870834,0.037203,-0.912685,-0.406966,-0.933996,0.217764,0.283249,0.3073,0.085213,0.94779,0.182258,0.972274,-0.146508,-79025.0,-26762.0,13894.0,-77711.0,25025.0,13650.0,-4453176.0,-2143599.0,242.0,0.0,-4193748.0,-2097700.0,773.0,-434.0,-4457813.0,-2228518.0,-6290878.0,0.0,-4193825.0,-2244001.0,-4456865.0,594.0,50.0,165.0,-45.0,0.0,647.0,75.0,545.0,-332.0,-43.0,-163.0,45.0,0.0,611.0,241.0,-396.0,505.0,-0.013684,-0.04487,0.012432,0.0,0.023682,0.002762,-0.019977,-0.012167,-0.011741,-0.044209,0.012247,0.0,0.02236,0.00885,0.014498,0.018513,4109.580078,11547.810547,51361.292969,0.0,-17591.669922,-17687.609375,17864.189453,-17299.890625,4056.390137,11515.230469,51577.019531,0.0,17749.082031,17729.820312,-17343.451172,18141.570312,0.0,0.0,0.0,0.0,0.0,0.0,0.0,0.0,0.0,0.0,0.0,0.0,0.0,0.0,0.0,0.0,0.0,0.0,0.0,0.0,0.0,0.0,0.0,0.0,0.0,0.0,0.0,0.0,0.0,0.0,0.0,0.0,4109.545898,11547.732422,51361.445312,0.0,-17591.671875,-17687.611328,17864.298828,-17300.154297,4056.339844,11515.167969,51577.089844,0.0,17749.083984,17729.818359,-17343.492188,18141.539062,30.173706,90.637032,22.826588,0.0,12.259465,-3.313743,24.620073,38.118809,29.783051,90.425888,22.931242,0.0,3.169792,-0.240589,43.324318,45.426846,1.095,1.549,4407514.0,2015290.0,-570923.0,0.0,-3998285.0,-1901171.0,-199264.0,191787.0,-4502884.0,-2356465.0,-6863956.0,0.0,-4391037.0,-2440999.0,4649570.0,-200979.0,0.0,0.0,0.0,0.0,0.0,0.0,0.0,0.0,0.0,0.0,0.0,0.0,0.0,0.0,0.0,0.0,0.0,0.0,0.0,0.0,0.0,0.0,0.0,0.0
27,1.898866891860962,30.173956,90.637642,22.826511,0.0,12.259851,-3.31362,24.608015,38.147942,29.783419,90.426353,22.931202,0.0,3.169514,-0.240209,43.328758,45.430447,3.0,1.0,111.0,0.0,1.0,-79025.0,-26762.0,13894.0,-77711.0,25025.0,13650.0,-0.947558,-0.161573,0.275731,-0.31741,0.375366,-0.870834,0.037203,-0.912685,-0.406966,-0.933996,0.217764,0.283249,0.3073,0.085213,0.94779,0.182258,0.972274,-0.146508,-0.947558,-0.161573,0.275731,-0.31741,0.375366,-0.870834,0.037203,-0.912685,-0.406966,-0.933996,0.217764,0.283249,0.3073,0.085213,0.94779,0.182258,0.972274,-0.146508,-79025.0,-26762.0,13894.0,-77711.0,25025.0,13650.0,-4453176.0,-2143599.0,242.0,0.0,-4193748.0,-2097700.0,773.0,-434.0,-4457813.0,-2228518.0,-6290878.0,0.0,-4193825.0,-2244001.0,-4456865.0,594.0,50.0,165.0,-45.0,0.0,647.0,75.0,545.0,-332.0,-43.0,-163.0,45.0,0.0,611.0,241.0,-396.0,505.0,-0.013684,-0.04487,0.012432,0.0,0.023682,0.002762,-0.019971,-0.012183,-0.011741,-0.044209,0.012247,0.0,0.02236,0.008849,0.014496,0.018511,4109.580078,11547.810547,51361.292969,0.0,-17591.669922,-17687.609375,17864.189453,-17299.890625,4056.390137,11515.230469,51577.019531,0.0,17749.082031,17729.820312,-17343.451172,18141.570312,0.0,0.0,0.0,0.0,0.0,0.0,0.0,0.0,0.0,0.0,0.0,0.0,0.0,0.0,0.0,0.0,0.0,0.0,0.0,0.0,0.0,0.0,0.0,0.0,0.0,0.0,0.0,0.0,0.0,0.0,0.0,0.0,4109.545898,11547.732422,51361.445312,0.0,-17591.671875,-17687.611328,17864.298828,-17300.154297,4056.339844,11515.167969,51577.089844,0.0,17749.083984,17729.818359,-17343.492188,18141.539062,30.173706,90.637032,22.826588,0.0,12.259465,-3.313743,24.620073,38.118809,29.783051,90.425888,22.931242,0.0,3.169792,-0.240589,43.324318,45.426846,1.095,1.549,4407514.0,2015290.0,-570923.0,0.0,-3998285.0,-1901171.0,-199264.0,191787.0,-4502884.0,-2356465.0,-6863956.0,0.0,-4391037.0,-2440999.0,4649570.0,-200979.0,0.0,0.0,0.0,0.0,0.0,0.0,0.0,0.0,0.0,0.0,0.0,0.0,0.0,0.0,0.0,0.0,0.0,0.0,0.0,0.0,0.0,0.0,0.0,0.0
28,1.968858003616333,30.173956,90.637642,22.826511,0.0,12.259851,-3.31362,24.608015,38.147942,29.783419,90.426353,22.931202,0.0,3.169514,-0.240209,43.328758,45.430447,3.0,1.0,111.0,0.0,1.0,-79025.0,-26762.0,13894.0,-77711.0,25025.0,13650.0,-0.947558,-0.161573,0.275731,-0.31741,0.375366,-0.870834,0.037203,-0.912685,-0.406966,-0.933996,0.217764,0.283249,0.3073,0.085213,0.94779,0.182258,0.972274,-0.146508,-0.947558,-0.161573,0.275731,-0.31741,0.375366,-0.870834,0.037203,-0.912685,-0.406966,-0.933996,0.217764,0.283249,0.3073,0.085213,0.94779,0.182258,0.972274,-0.146508,-79025.0,-26762.0,13894.0,-77711.0,25025.0,13650.0,-4453176.0,-2143599.0,242.0,0.0,-4193748.0,-2097700.0,773.0,-434.0,-4457813.0,-2228518.0,-6290878.0,0.0,-4193825.0,-2244001.0,-4456865.0,594.0,50.0,165.0,-45.0,0.0,647.0,75.0,545.0,-333.0,-43.0,-163.0,45.0,0.0,611.0,241.0,-396.0,505.0,-0.013684,-0.04487,0.012432,0.0,0.023682,0.002762,-0.019964,-0.012199,-0.011741,-0.044209,0.012247,0.0,0.02236,0.008849,0.014493,0.018509,4109.580078,11547.810547,51361.292969,0.0,-17591.669922,-17687.609375,17864.189453,-17299.890625,4056.390137,11515.230469,51577.019531,0.0,17749.082031,17729.820312,-17343.451172,18141.570312,0.0,0.0,0.0,0.0,0.0,0.0,0.0,0.0,0.0,0.0,0.0,0.0,0.0,0.0,0.0,0.0,0.0,0.0,0.0,0.0,0.0,0.0,0.0,0.0,0.0,0.0,0.0,0.0,0.0,0.0,0.0,0.0,4109.545898,11547.732422,51361.445312,0.0,-17591.671875,-17687.611328,17864.298828,-17300.154297,4056.339844,11515.167969,51577.089844,0.0,17749.083984,17729.818359,-17343.492188,18141.539062,30.173706,90.637032,22.826588,0.0,12.259465,-3.313743,24.620073,38.118809,29.783051,90.425888,22.931242,0.0,3.169792,-0.240589,43.324318,45.426846,1.095,1.549,4407514.0,2015290.0,-570923.0,0.0,-3998285.0,-1901171.0,-199264.0,191787.0,-4502884.0,-2356465.0,-6863956.0,0.0,-4391037.0,-2440999.0,4649570.0,-200979.0,0.0,0.0,0.0,0.0,0.0,0.0,0.0,0.0,0.0,0.0,0.0,0.0,0.0,0.0,0.0,0.0,0.0,0.0,0.0,0.0,0.0,0.0,0.0,0.0
29,2.0368590354919434,30.173956,90.637642,22.826511,0.0,12.259851,-3.31362,24.608015,38.147942,29.783419,90.426353,22.931202,0.0,3.169514,-0.240209,43.328758,45.430447,3.0,1.0,111.0,0.0,1.0,-79025.0,-26762.0,13894.0,-77711.0,25025.0,13650.0,-0.947558,-0.161573,0.275731,-0.31741,0.375366,-0.870834,0.037203,-0.912685,-0.406966,-0.933996,0.217764,0.283249,0.3073,0.085213,0.94779,0.182258,0.972274,-0.146508,-0.947558,-0.161573,0.275731,-0.31741,0.375366,-0.870834,0.037203,-0.912685,-0.406966,-0.933996,0.217764,0.283249,0.3073,0.085213,0.94779,0.182258,0.972274,-0.146508,-79025.0,-26762.0,13894.0,-77711.0,25025.0,13650.0,-4453176.0,-2143599.0,242.0,0.0,-4193748.0,-2097700.0,773.0,-434.0,-4457813.0,-2228518.0,-6290878.0,0.0,-4193825.0,-2244001.0,-4456865.0,594.0,50.0,165.0,-45.0,0.0,647.0,75.0,545.0,-333.0,-43.0,-163.0,45.0,0.0,611.0,241.0,-396.0,505.0,-0.013684,-0.04487,0.012432,0.0,0.023682,0.002762,-0.019958,-0.012215,-0.011741,-0.044209,0.012247,0.0,0.02236,0.008849,0.01449,0.018507,4109.580078,11547.810547,51361.292969,0.0,-17591.669922,-17687.609375,17864.189453,-17299.890625,4056.390137,11515.230469,51577.019531,0.0,17749.082031,17729.820312,-17343.451172,18141.570312,0.0,0.0,0.0,0.0,0.0,0.0,0.0,0.0,0.0,0.0,0.0,0.0,0.0,0.0,0.0,0.0,0.0,0.0,0.0,0.0,0.0,0.0,0.0,0.0,0.0,0.0,0.0,0.0,0.0,0.0,0.0,0.0,4109.545898,11547.732422,51361.445312,0.0,-17591.671875,-17687.611328,17864.298828,-17300.154297,4056.339844,11515.167969,51577.089844,0.0,17749.083984,17729.818359,-17343.492188,18141.539062,30.173706,90.637032,22.826588,0.0,12.259465,-3.313743,24.620073,38.118809,29.783051,90.425888,22.931242,0.0,3.169792,-0.240589,43.324318,45.426846,1.095,1.549,4407514.0,2015290.0,-570923.0,0.0,-3998285.0,-1901171.0,-199264.0,191787.0,-4502884.0,-2356465.0,-6863956.0,0.0,-4391037.0,-2440999.0,4649570.0,-200979.0,0.0,0.0,0.0,0.0,0.0,0.0,0.0,0.0,0.0,0.0,0.0,0.0,0.0,0.0,0.0,0.0,0.0,0.0,0.0,0.0,0.0,0.0,0.0,0.0
30,3.3628718852996826,30.173956,90.637642,22.826511,0.0,12.259851,-3.31362,24.608015,38.147942,29.783419,90.426353,22.931202,0.0,3.235953,-0.240209,31.348021,31.357958,3.0,1.0,111.0,0.0,1.0,-79025.0,-26762.0,13894.0,-77711.0,25025.0,13650.0,-0.947558,-0.161573,0.275731,-0.31741,0.375366,-0.870834,0.037203,-0.912685,-0.406966,-0.937814,0.200355,0.283482,0.305694,0.089707,0.947894,0.164485,0.975608,-0.145376,-0.947558,-0.161573,0.275731,-0.31741,0.375366,-0.870834,0.037203,-0.912685,-0.406966,-0.937762,0.200601,0.283482,0.305717,0.089628,0.947894,0.16474,0.975565,-0.145376,-79025.0,-26762.0,13894.0,-77711.0,25025.0,13650.0,-4453176.0,-2143599.0,242.0,0.0,-4193748.0,-2097700.0,773.0,-434.0,-4457813.0,-2228518.0,-6290878.0,0.0,-4193821.0,-2244001.0,-4455668.0,-812.0,50.0,165.0,-45.0,0.0,647.0,75.0,542.0,-342.0,-43.0,-163.0,45.0,0.0,719.0,325.0,829.0,-923.0,-0.013684,-0.04487,0.012432,0.0,0.02368,0.00276,-0.019833,-0.012518,-0.011741,-0.044209,0.012247,0.0,0.026311,0.011926,-0.030355,-0.033809,4109.580078,11547.810547,51361.292969,0.0,-17591.669922,-17687.609375,17864.189453,-17299.890625,4056.390137,11515.230469,51577.019531,0.0,17749.439453,17729.820312,-17451.181641,18015.03125,0.0,0.0,0.0,0.0,0.0,0.0,0.0,0.0,0.0,0.0,0.0,0.0,0.0,0.0,-90.92347,-360.196838,0.0,0.0,0.0,0.0,0.0,0.0,0.0,0.0,0.0,0.0,0.0,0.0,0.0,0.0,-10.11164,-40.057652,4109.545898,11547.732422,51361.445312,0.0,-17591.671875,-17687.611328,17864.298828,-17300.154297,4056.339844,11515.167969,51577.089844,0.0,17751.253906,17731.957031,-17473.246094,17990.914062,30.173706,90.637032,22.826588,0.0,12.259465,-3.313743,24.620073,38.118809,29.783051,90.425888,22.931242,0.0,3.572323,-0.002525,28.775398,28.79491,1.095,1.095,4407514.0,2015290.0,-570923.0,0.0,-3998285.0,-1901171.0,-199264.0,191787.0,-4502884.0,-2356465.0,-6863956.0,0.0,-4391037.0,-2440999.0,4649570.0,-200979.0,0.0,0.0,0.0,0.0,0.0,0.0,0.0,0.0,0.0,0.0,0.0,-0.176481,0.0,0.0,0.0,0.0,0.0,0.0,0.0,0.0,0.0,0.0,0.0,-0.176481
31,3.4388558864593506,30.173956,90.637642,22.826511,0.0,12.259851,-3.31362,24.608015,38.147942,29.783419,90.426353,22.931202,0.0,3.252805,-0.240209,30.987698,30.887573,3.0,1.0,111.0,0.0,1.0,-79025.0,-26762.0,13894.0,-77711.0,25025.0,13650.0,-0.947558,-0.161573,0.275731,-0.31741,0.375366,-0.870834,0.037203,-0.912685,-0.406966,-0.938006,0.199372,0.283541,0.305608,0.089722,0.947921,0.163549,0.975808,-0.145089,-0.947558,-0.161573,0.275731,-0.31741,0.375366,-0.870834,0.037203,-0.912685,-0.406966,-0.938006,0.199372,0.283541,0.305608,0.089722,0.947921,0.163549,0.975808,-0.145089,-79025.0,-26762.0,13894.0,-77711.0,25025.0,13650.0,-4453176.0,-2143599.0,242.0,0.0,-4193748.0,-2097700.0,773.0,-434.0,-4457813.0,-2228518.0,-6290878.0,0.0,-4193820.0,-2244001.0,-4455632.0,-859.0,50.0,165.0,-45.0,0.0,647.0,75.0,541.0,-342.0,-43.0,-163.0,45.0,0.0,718.0,330.0,799.0,-873.0,-0.013684,-0.04487,0.012432,0.0,0.02368,0.00276,-0.019826,-0.012535,-0.011741,-0.044209,0.012247,0.0,0.026298,0.012076,-0.029269,-0.031973,4109.580078,11547.810547,51361.292969,0.0,-17591.669922,-17687.609375,17864.189453,-17299.890625,4056.390137,11515.230469,51577.019531,0.0,17749.53125,17729.820312,-17454.421875,18010.800781,0.0,0.0,0.0,0.0,0.0,0.0,0.0,0.0,0.0,0.0,0.0,0.0,0.0,0.0,0.0,0.0,0.0,0.0,0.0,0.0,0.0,0.0,0.0,0.0,0.0,0.0,0.0,0.0,0.0,0.0,0.0,0.0,4109.545898,11547.732422,51361.445312,0.0,-17591.671875,-17687.611328,17864.298828,-17300.154297,4056.339844,11515.167969,51577.089844,0.0,17751.261719,17731.966797,-17473.712891,17990.373047,30.173706,90.637032,22.826588,0.0,12.259465,-3.313743,24.620073,38.118809,29.783051,90.425888,22.931242,0.0,3.573774,-0.001668,28.722971,28.734974,1.095,1.079,4407514.0,2015290.0,-570923.0,0.0,-3998285.0,-1901171.0,-199264.0,191787.0,-4502884.0,-2356465.0,-6863956.0,0.0,-4391037.0,-2440999.0,4649570.0,-200979.0,0.0,0.0,0.0,0.0,0.0,0.0,0.0,0.0,0.0,0.0,0.0,0.0,0.0,0.0,0.0,0.0,0.0,0.0,0.0,0.0,0.0,0.0,0.0,0.0
32,3.509855031967163,30.173956,90.637642,22.826511,0.0,12.259851,-3.31362,24.608015,38.147942,29.783419,90.426353,22.931202,0.0,3.252805,-0.240209,30.827663,30.847515,3.0,1.0,111.0,0.0,1.0,-79025.0,-26762.0,13894.0,-77711.0,25025.0,13650.0,-0.947558,-0.161573,0.275731,-0.31741,0.375366,-0.870834,0.037203,-0.912685,-0.406966,-0.937797,0.200354,0.283541,0.305702,0.089402,0.947921,0.164571,0.975636,-0.145089,-0.947558,-0.161573,0.275731,-0.31741,0.375366,-0.870834,0.037203,-0.912685,-0.406966,-0.937797,0.200354,0.283541,0.305702,0.089402,0.947921,0.164571,0.975636,-0.145089,-79025.0,-26762.0,13894.0,-77711.0,25025.0,13650.0,-4453176.0,-2143599.0,242.0,0.0,-4193748.0,-2097700.0,773.0,-434.0,-4457813.0,-2228518.0,-6290878.0,0.0,-4193820.0,-2244001.0,-4455616.0,-863.0,50.0,165.0,-45.0,0.0,647.0,75.0,541.0,-343.0,-43.0,-163.0,45.0,0.0,721.0,333.0,797.0,-899.0,-0.013684,-0.04487,0.012432,0.0,0.02368,0.00276,-0.019819,-0.012551,-0.011741,-0.044209,0.012247,0.0,0.026405,0.012209,-0.029169,-0.032918,4109.580078,11547.810547,51361.292969,0.0,-17591.669922,-17687.609375,17864.189453,-17299.890625,4056.390137,11515.230469,51577.019531,0.0,17749.53125,17729.820312,-17455.859375,18010.441406,0.0,0.0,0.0,0.0,0.0,0.0,0.0,0.0,0.0,0.0,0.0,0.0,0.0,0.0,-89.174942,-89.174942,0.0,0.0,0.0,0.0,0.0,0.0,0.0,0.0,0.0,0.0,0.0,0.0,0.0,0.0,-9.917186,-9.917186,4109.545898,11547.732422,51361.445312,0.0,-17591.671875,-17687.611328,17864.298828,-17300.154297,4056.339844,11515.167969,51577.089844,0.0,17751.261719,17731.966797,-17473.712891,17990.373047,30.173706,90.637032,22.826588,0.0,12.259465,-3.313743,24.620073,38.118809,29.783051,90.425888,22.931242,0.0,3.573774,-0.001668,28.722971,28.734974,1.095,1.076,4407514.0,2015290.0,-570923.0,0.0,-3998285.0,-1901171.0,-199264.0,191787.0,-4502884.0,-2356465.0,-6863956.0,0.0,-4391037.0,-2440999.0,4649570.0,-200979.0,0.0,0.0,0.0,0.0,0.0,0.0,0.0,0.0,0.0,0.0,0.0,-0.173088,0.0,0.0,0.0,0.0,0.0,0.0,0.0,0.0,0.0,0.0,0.0,-0.173088
33,3.576840877532959,30.173956,90.637642,22.826511,0.0,12.259851,-3.31362,24.608015,38.147942,29.783419,90.426353,22.931202,0.0,3.252805,-0.240209,30.697571,30.777512,3.0,1.0,111.0,0.0,1.0,-79025.0,-26762.0,13894.0,-77711.0,25025.0,13650.0,-0.947558,-0.161573,0.275731,-0.31741,0.375366,-0.870834,0.037203,-0.912685,-0.406966,-0.937692,0.200846,0.283541,0.305749,0.089241,0.947921,0.165083,0.97555,-0.145089,-0.947558,-0.161573,0.275731,-0.31741,0.375366,-0.870834,0.037203,-0.912685,-0.406966,-0.937692,0.200846,0.283541,0.305749,0.089241,0.947921,0.165083,0.97555,-0.145089,-79025.0,-26762.0,13894.0,-77711.0,25025.0,13650.0,-4453176.0,-2143599.0,242.0,0.0,-4193748.0,-2097700.0,773.0,-434.0,-4457813.0,-2228518.0,-6290878.0,0.0,-4193820.0,-2244001.0,-4455603.0,-870.0,50.0,165.0,-45.0,0.0,647.0,75.0,541.0,-343.0,-43.0,-163.0,45.0,0.0,724.0,337.0,796.0,-916.0,-0.013684,-0.04487,0.012432,0.0,0.02368,0.002759,-0.019813,-0.012567,-0.011741,-0.044209,0.012247,0.0,0.026506,0.012335,-0.029158,-0.033527,4109.580078,11547.810547,51361.292969,0.0,-17591.669922,-17687.609375,17864.189453,-17299.890625,4056.390137,11515.230469,51577.019531,0.0,17749.53125,17729.820312,-17457.029297,18009.810547,0.0,0.0,0.0,0.0,0.0,0.0,0.0,0.0,0.0,0.0,0.0,0.0,0.0,0.0,-89.174942,0.0,0.0,0.0,0.0,0.0,0.0,0.0,0.0,0.0,0.0,0.0,0.0,0.0,0.0,0.0,-9.917186,0.0,4109.545898,11547.732422,51361.445312,0.0,-17591.671875,-17687.611328,17864.298828,-17300.154297,4056.339844,11515.167969,51577.089844,0.0,17751.261719,17731.966797,-17473.712891,17990.373047,30.173706,90.637032,22.826588,0.0,12.259465,-3.313743,24.620073,38.118809,29.783051,90.425888,22.931242,0.0,3.573774,-0.001668,28.722971,28.734974,1.095,1.072,4407514.0,2015290.0,-570923.0,0.0,-3998285.0,-1901171.0,-199264.0,191787.0,-4502884.0,-2356465.0,-6863956.0,0.0,-4391037.0,-2440999.0,4649570.0,-200979.0,0.0,0.0,0.0,0.0,0.0,0.0,0.0,0.0,0.0,0.0,0.0,-0.173088,0.0,0.0,0.0,0.0,0.0,0.0,0.0,0.0,0.0,0.0,0.0,-0.173088
34,3.6448209285736084,30.173956,90.637642,22.826511,0.0,12.259851,-3.31362,24.608015,38.147942,29.783419,90.426353,22.931202,0.0,3.269334,-0.240209,30.607346,30.677368,3.0,1.0,111.0,0.0,1.0,-79025.0,-26762.0,13894.0,-77711.0,25025.0,13650.0,-0.947558,-0.161573,0.275731,-0.31741,0.375366,-0.870834,0.037203,-0.912685,-0.406966,-0.937709,0.200684,0.283598,0.305741,0.088994,0.947946,0.164999,0.975605,-0.144808,-0.947558,-0.161573,0.275731,-0.31741,0.375366,-0.870834,0.037203,-0.912685,-0.406966,-0.937709,0.200684,0.283598,0.305741,0.088994,0.947946,0.164999,0.975605,-0.144808,-79025.0,-26762.0,13894.0,-77711.0,25025.0,13650.0,-4453176.0,-2143599.0,242.0,0.0,-4193748.0,-2097700.0,773.0,-434.0,-4457813.0,-2228518.0,-6290878.0,0.0,-4193819.0,-2244001.0,-4455594.0,-880.0,50.0,165.0,-45.0,0.0,647.0,75.0,541.0,-343.0,-43.0,-163.0,45.0,0.0,723.0,340.0,803.0,-925.0,-0.013684,-0.04487,0.012432,0.0,0.023679,0.002759,-0.019807,-0.012582,-0.011741,-0.044209,0.012247,0.0,0.026464,0.012462,-0.029414,-0.033869,4109.580078,11547.810547,51361.292969,0.0,-17591.669922,-17687.609375,17864.189453,-17299.890625,4056.390137,11515.230469,51577.019531,0.0,17749.619141,17729.820312,-17457.841797,18008.910156,0.0,0.0,0.0,0.0,0.0,0.0,0.0,0.0,0.0,0.0,0.0,0.0,0.0,0.0,0.0,-89.174942,0.0,0.0,0.0,0.0,0.0,0.0,0.0,0.0,0.0,0.0,0.0,0.0,0.0,0.0,0.0,-9.917186,4109.545898,11547.732422,51361.445312,0.0,-17591.671875,-17687.611328,17864.298828,-17300.154297,4056.339844,11515.167969,51577.089844,0.0,17751.261719,17731.966797,-17473.712891,17990.373047,30.173706,90.637032,22.826588,0.0,12.259465,-3.313743,24.620073,38.118809,29.783051,90.425888,22.931242,0.0,3.573774,-0.001668,28.722971,28.734974,1.095,1.069,4407514.0,2015290.0,-570923.0,0.0,-3998285.0,-1901171.0,-199264.0,191787.0,-4502884.0,-2356465.0,-6863956.0,0.0,-4391037.0,-2440999.0,4649570.0,-200979.0,0.0,0.0,0.0,0.0,0.0,0.0,0.0,0.0,0.0,0.0,0.0,0.0,0.0,0.0,0.0,0.0,0.0,0.0,0.0,0.0,0.0,0.0,0.0,0.0
35,3.715831995010376,30.173956,90.637642,22.826511,0.0,12.259851,-3.31362,24.608015,38.147942,29.783419,90.426353,22.931202,0.0,3.269334,-0.240209,30.447306,30.597254,3.0,1.0,111.0,0.0,1.0,-79025.0,-26762.0,13894.0,-77711.0,25025.0,13650.0,-0.947558,-0.161573,0.275731,-0.31741,0.375366,-0.870834,0.037203,-0.912685,-0.406966,-0.937569,0.201338,0.283598,0.305803,0.088781,0.947946,0.16568,0.97549,-0.144808,-0.947558,-0.161573,0.275731,-0.31741,0.375366,-0.870834,0.037203,-0.912685,-0.406966,-0.937569,0.201338,0.283598,0.305803,0.088781,0.947946,0.16568,0.97549,-0.144808,-79025.0,-26762.0,13894.0,-77711.0,25025.0,13650.0,-4453176.0,-2143599.0,242.0,0.0,-4193748.0,-2097700.0,773.0,-434.0,-4457813.0,-2228518.0,-6290878.0,0.0,-4193819.0,-2244001.0,-4455578.0,-888.0,50.0,165.0,-45.0,0.0,647.0,75.0,541.0,-344.0,-43.0,-163.0,45.0,0.0,726.0,344.0,795.0,-939.0,-0.013684,-0.04487,0.012432,0.0,0.023679,0.002759,-0.0198,-0.012599,-0.011741,-0.044209,0.012247,0.0,0.026566,0.012595,-0.029103,-0.034366,4109.580078,11547.810547,51361.292969,0.0,-17591.669922,-17687.609375,17864.189453,-17299.890625,4056.390137,11515.230469,51577.019531,0.0,17749.619141,17729.820312,-17459.279297,18008.191406,0.0,0.0,0.0,0.0,0.0,0.0,0.0,0.0,0.0,0.0,0.0,0.0,0.0,0.0,0.0,0.0,0.0,0.0,0.0,0.0,0.0,0.0,0.0,0.0,0.0,0.0,0.0,0.0,0.0,0.0,0.0,0.0,4109.545898,11547.732422,51361.445312,0.0,-17591.671875,-17687.611328,17864.298828,-17300.154297,4056.339844,11515.167969,51577.089844,0.0,17751.261719,17731.966797,-17473.712891,17990.373047,30.173706,90.637032,22.826588,0.0,12.259465,-3.313743,24.620073,38.118809,29.783051,90.425888,22.931242,0.0,3.573774,-0.001668,28.722971,28.734974,1.095,1.065,4407514.0,2015290.0,-570923.0,0.0,-3998285.0,-1901171.0,-199264.0,191787.0,-4502884.0,-2356465.0,-6863956.0,0.0,-4391037.0,-2440999.0,4649570.0,-200979.0,0.0,0.0,0.0,0.0,0.0,0.0,0.0,0.0,0.0,0.0,0.0,0.0,0.0,0.0,0.0,0.0,0.0,0.0,0.0,0.0,0.0,0.0,0.0,0.0
36,3.781820058822632,30.173956,90.637642,22.826511,0.0,12.259851,-3.31362,24.608015,38.147942,29.783419,90.426353,22.931202,0.0,3.286187,-0.240209,30.307106,30.45705,3.0,1.0,111.0,0.0,1.0,-79025.0,-26762.0,13894.0,-77711.0,25025.0,13650.0,-0.947558,-0.161573,0.275731,-0.31741,0.375366,-0.870834,0.037203,-0.912685,-0.406966,-0.937568,0.201256,0.283657,0.305803,0.088502,0.947973,0.165681,0.975532,-0.144521,-0.947558,-0.161573,0.275731,-0.31741,0.375366,-0.870834,0.037203,-0.912685,-0.406966,-0.937568,0.201256,0.283657,0.305803,0.088502,0.947973,0.165681,0.975532,-0.144521,-79025.0,-26762.0,13894.0,-77711.0,25025.0,13650.0,-4453176.0,-2143599.0,242.0,0.0,-4193748.0,-2097700.0,773.0,-434.0,-4457813.0,-2228518.0,-6290878.0,0.0,-4193818.0,-2244001.0,-4455564.0,-902.0,50.0,165.0,-45.0,0.0,647.0,75.0,540.0,-344.0,-43.0,-163.0,45.0,0.0,724.0,347.0,786.0,-936.0,-0.013684,-0.04487,0.012432,0.0,0.023679,0.002759,-0.019794,-0.012614,-0.011741,-0.044209,0.012247,0.0,0.026517,0.012718,-0.028788,-0.034258,4109.580078,11547.810547,51361.292969,0.0,-17591.669922,-17687.609375,17864.189453,-17299.890625,4056.390137,11515.230469,51577.019531,0.0,17749.710938,17729.820312,-17460.541016,18006.929688,0.0,0.0,0.0,0.0,0.0,0.0,0.0,0.0,0.0,0.0,0.0,0.0,0.0,0.0,0.0,0.0,0.0,0.0,0.0,0.0,0.0,0.0,0.0,0.0,0.0,0.0,0.0,0.0,0.0,0.0,0.0,0.0,4109.545898,11547.732422,51361.445312,0.0,-17591.671875,-17687.611328,17864.298828,-17300.154297,4056.339844,11515.167969,51577.089844,0.0,17751.261719,17731.966797,-17473.712891,17990.373047,30.173706,90.637032,22.826588,0.0,12.259465,-3.313743,24.620073,38.118809,29.783051,90.425888,22.931242,0.0,3.573774,-0.001668,28.722971,28.734974,1.095,1.06,4407514.0,2015290.0,-570923.0,0.0,-3998285.0,-1901171.0,-199264.0,191787.0,-4502884.0,-2356465.0,-6863956.0,0.0,-4391037.0,-2440999.0,4649570.0,-200979.0,0.0,0.0,0.0,0.0,0.0,0.0,0.0,0.0,0.0,0.0,0.0,0.0,0.0,0.0,0.0,0.0,0.0,0.0,0.0,0.0,0.0,0.0,0.0,0.0
37,3.8578250408172607,30.173956,90.637642,22.826511,0.0,12.259851,-3.31362,24.608015,38.147942,29.783419,90.426353,22.931202,0.0,3.286187,-0.240209,30.197044,30.276985,3.0,1.0,111.0,0.0,1.0,-79025.0,-26762.0,13894.0,-77711.0,25025.0,13650.0,-0.947558,-0.161573,0.275731,-0.31741,0.375366,-0.870834,0.037203,-0.912685,-0.406966,-0.937691,0.200683,0.283657,0.305748,0.088688,0.947973,0.165085,0.975633,-0.144521,-0.947558,-0.161573,0.275731,-0.31741,0.375366,-0.870834,0.037203,-0.912685,-0.406966,-0.937691,0.200683,0.283657,0.305748,0.088688,0.947973,0.165085,0.975633,-0.144521,-79025.0,-26762.0,13894.0,-77711.0,25025.0,13650.0,-4453176.0,-2143599.0,242.0,0.0,-4193748.0,-2097700.0,773.0,-434.0,-4457813.0,-2228518.0,-6290878.0,0.0,-4193818.0,-2244001.0,-4455553.0,-920.0,50.0,165.0,-45.0,0.0,647.0,75.0,540.0,-345.0,-43.0,-163.0,45.0,0.0,727.0,351.0,785.0,-926.0,-0.013684,-0.04487,0.012432,0.0,0.023679,0.002759,-0.019787,-0.012631,-0.011741,-0.044209,0.012247,0.0,0.02662,0.012861,-0.028755,-0.033891,4109.580078,11547.810547,51361.292969,0.0,-17591.669922,-17687.609375,17864.189453,-17299.890625,4056.390137,11515.230469,51577.019531,0.0,17749.710938,17729.820312,-17461.53125,18005.310547,0.0,0.0,0.0,0.0,0.0,0.0,0.0,0.0,0.0,0.0,0.0,0.0,0.0,0.0,0.0,-89.174942,0.0,0.0,0.0,0.0,0.0,0.0,0.0,0.0,0.0,0.0,0.0,0.0,0.0,0.0,0.0,-9.917186,4109.545898,11547.732422,51361.445312,0.0,-17591.671875,-17687.611328,17864.298828,-17300.154297,4056.339844,11515.167969,51577.089844,0.0,17751.261719,17731.966797,-17473.712891,17990.373047,30.173706,90.637032,22.826588,0.0,12.259465,-3.313743,24.620073,38.118809,29.783051,90.425888,22.931242,0.0,3.573774,-0.001668,28.722971,28.734974,1.095,1.055,4407514.0,2015290.0,-570923.0,0.0,-3998285.0,-1901171.0,-199264.0,191787.0,-4502884.0,-2356465.0,-6863956.0,0.0,-4391037.0,-2440999.0,4649570.0,-200979.0,0.0,0.0,0.0,0.0,0.0,0.0,0.0,0.0,0.0,0.0,0.0,0.0,0.0,0.0,0.0,0.0,0.0,0.0,0.0,0.0,0.0,0.0,0.0,0.0
38,3.9228169918060303,30.173956,90.637642,22.826511,0.0,12.259851,-3.31362,24.608015,38.147942,29.783419,90.426353,22.931202,0.0,3.286187,-0.240209,30.127043,30.166924,3.0,1.0,111.0,0.0,1.0,-79025.0,-26762.0,13894.0,-77711.0,25025.0,13650.0,-0.947558,-0.161573,0.275731,-0.31741,0.375366,-0.870834,0.037203,-0.912685,-0.406966,-0.937761,0.200355,0.283657,0.305717,0.088795,0.947973,0.164744,0.975691,-0.144521,-0.947558,-0.161573,0.275731,-0.31741,0.375366,-0.870834,0.037203,-0.912685,-0.406966,-0.937761,0.200355,0.283657,0.305717,0.088795,0.947973,0.164744,0.975691,-0.144521,-79025.0,-26762.0,13894.0,-77711.0,25025.0,13650.0,-4453176.0,-2143599.0,242.0,0.0,-4193748.0,-2097700.0,773.0,-434.0,-4457813.0,-2228518.0,-6290878.0,0.0,-4193818.0,-2244001.0,-4455546.0,-931.0,50.0,165.0,-45.0,0.0,647.0,75.0,540.0,-345.0,-43.0,-163.0,45.0,0.0,729.0,354.0,789.0,-924.0,-0.013684,-0.04487,0.012432,0.0,0.023679,0.002759,-0.019781,-0.012646,-0.011741,-0.044209,0.012247,0.0,0.026708,0.012982,-0.028881,-0.033843,4109.580078,11547.810547,51361.292969,0.0,-17591.669922,-17687.609375,17864.189453,-17299.890625,4056.390137,11515.230469,51577.019531,0.0,17749.710938,17729.820312,-17462.160156,18004.320312,0.0,0.0,0.0,0.0,0.0,0.0,0.0,0.0,0.0,0.0,0.0,0.0,0.0,0.0,0.0,0.0,0.0,0.0,0.0,0.0,0.0,0.0,0.0,0.0,0.0,0.0,0.0,0.0,0.0,0.0,0.0,0.0,4109.545898,11547.732422,51361.445312,0.0,-17591.671875,-17687.611328,17864.298828,-17300.154297,4056.339844,11515.167969,51577.089844,0.0,17751.261719,17731.966797,-17473.712891,17990.373047,30.173706,90.637032,22.826588,0.0,12.259465,-3.313743,24.620073,38.118809,29.783051,90.425888,22.931242,0.0,3.573774,-0.001668,28.722971,28.734974,1.095,1.052,4407514.0,2015290.0,-570923.0,0.0,-3998285.0,-1901171.0,-199264.0,191787.0,-4502884.0,-2356465.0,-6863956.0,0.0,-4391037.0,-2440999.0,4649570.0,-200979.0,0.0,0.0,0.0,0.0,0.0,0.0,0.0,0.0,0.0,0.0,0.0,0.0,0.0,0.0,0.0,0.0,0.0,0.0,0.0,0.0,0.0,0.0,0.0,0.0
39,3.9928739070892334,30.173956,90.637642,22.826511,0.0,12.259851,-3.31362,24.608015,38.147942,29.783419,90.426353,22.931202,0.0,3.302715,-0.240209,30.046925,30.076696,3.0,1.0,111.0,0.0,1.0,-79025.0,-26762.0,13894.0,-77711.0,25025.0,13650.0,-0.947558,-0.161573,0.275731,-0.31741,0.375366,-0.870834,0.037203,-0.912685,-0.406966,-0.937779,0.200192,0.283715,0.30571,0.088548,0.947998,0.164659,0.975747,-0.144239,-0.947558,-0.161573,0.275731,-0.31741,0.375366,-0.870834,0.037203,-0.912685,-0.406966,-0.937779,0.200192,0.283715,0.30571,0.088548,0.947998,0.164659,0.975747,-0.144239,-79025.0,-26762.0,13894.0,-77711.0,25025.0,13650.0,-4453176.0,-2143599.0,242.0,0.0,-4193748.0,-2097700.0,773.0,-434.0,-4457813.0,-2228518.0,-6290878.0,0.0,-4193817.0,-2244001.0,-4455538.0,-940.0,50.0,165.0,-45.0,0.0,647.0,75.0,540.0,-346.0,-43.0,-163.0,45.0,0.0,728.0,358.0,790.0,-928.0,-0.013684,-0.04487,0.012432,0.0,0.023679,0.002759,-0.019774,-0.012662,-0.011741,-0.044209,0.012247,0.0,0.026661,0.013113,-0.028939,-0.03396,4109.580078,11547.810547,51361.292969,0.0,-17591.669922,-17687.609375,17864.189453,-17299.890625,4056.390137,11515.230469,51577.019531,0.0,17749.800781,17729.820312,-17462.880859,18003.509766,0.0,0.0,0.0,0.0,0.0,0.0,0.0,0.0,0.0,0.0,0.0,0.0,0.0,0.0,0.0,0.0,0.0,0.0,0.0,0.0,0.0,0.0,0.0,0.0,0.0,0.0,0.0,0.0,0.0,0.0,0.0,0.0,4109.545898,11547.732422,51361.445312,0.0,-17591.671875,-17687.611328,17864.298828,-17300.154297,4056.339844,11515.167969,51577.089844,0.0,17751.261719,17731.966797,-17473.712891,17990.373047,30.173706,90.637032,22.826588,0.0,12.259465,-3.313743,24.620073,38.118809,29.783051,90.425888,22.931242,0.0,3.573774,-0.001668,28.722971,28.734974,1.095,1.049,4407514.0,2015290.0,-570923.0,0.0,-3998285.0,-1901171.0,-199264.0,191787.0,-4502884.0,-2356465.0,-6863956.0,0.0,-4391037.0,-2440999.0,4649570.0,-200979.0,0.0,0.0,0.0,0.0,0.0,0.0,0.0,0.0,0.0,0.0,0.0,0.0,0.0,0.0,0.0,0.0,0.0,0.0,0.0,0.0,0.0,0.0,0.0,0.0
40,4.066835880279541,30.173956,90.637642,22.826511,0.0,12.259851,-3.31362,24.608015,38.147942,29.783419,90.426353,22.931202,0.0,3.302715,-0.240209,29.96681,29.966635,3.0,1.0,111.0,0.0,1.0,-79025.0,-26762.0,13894.0,-77711.0,25025.0,13650.0,-0.947558,-0.161573,0.275731,-0.31741,0.375366,-0.870834,0.037203,-0.912685,-0.406966,-0.937831,0.199947,0.283715,0.305687,0.088628,0.947998,0.164404,0.97579,-0.144239,-0.947558,-0.161573,0.275731,-0.31741,0.375366,-0.870834,0.037203,-0.912685,-0.406966,-0.937831,0.199947,0.283715,0.305687,0.088628,0.947998,0.164404,0.97579,-0.144239,-79025.0,-26762.0,13894.0,-77711.0,25025.0,13650.0,-4453176.0,-2143599.0,242.0,0.0,-4193748.0,-2097700.0,773.0,-434.0,-4457813.0,-2228518.0,-6290878.0,0.0,-4193817.0,-2244001.0,-4455530.0,-951.0,50.0,165.0,-45.0,0.0,647.0,75.0,540.0,-346.0,-43.0,-163.0,45.0,0.0,731.0,362.0,792.0,-926.0,-0.013684,-0.04487,0.012432,0.0,0.023679,0.002759,-0.019767,-0.012679,-0.011741,-0.044209,0.012247,0.0,0.026755,0.013252,-0.028988,-0.033912,4109.580078,11547.810547,51361.292969,0.0,-17591.669922,-17687.609375,17864.189453,-17299.890625,4056.390137,11515.230469,51577.019531,0.0,17749.800781,17729.820312,-17463.601562,18002.519531,0.0,0.0,0.0,0.0,0.0,0.0,0.0,0.0,0.0,0.0,0.0,0.0,0.0,0.0,0.0,-90.92347,0.0,0.0,0.0,0.0,0.0,0.0,0.0,0.0,0.0,0.0,0.0,0.0,0.0,0.0,0.0,-10.11164,4109.545898,11547.732422,51361.445312,0.0,-17591.671875,-17687.611328,17864.298828,-17300.154297,4056.339844,11515.167969,51577.089844,0.0,17751.261719,17731.966797,-17473.712891,17990.373047,30.173706,90.637032,22.826588,0.0,12.259465,-3.313743,24.620073,38.118809,29.783051,90.425888,22.931242,0.0,3.573774,-0.001668,28.722971,28.734974,1.095,1.046,4407514.0,2015290.0,-570923.0,0.0,-3998285.0,-1901171.0,-199264.0,191787.0,-4502884.0,-2356465.0,-6863956.0,0.0,-4391037.0,-2440999.0,4649570.0,-200979.0,0.0,0.0,0.0,0.0,0.0,0.0,0.0,0.0,0.0,0.0,0.0,0.0,0.0,0.0,0.0,0.0,0.0,0.0,0.0,0.0,0.0,0.0,0.0,0.0
41,4.135833978652954,30.173956,90.637642,22.826511,0.0,12.259851,-3.31362,24.608015,38.147942,29.783419,90.426353,22.931202,0.0,3.302715,-0.240209,29.886694,29.886715,3.0,1.0,111.0,0.0,1.0,-79025.0,-26762.0,13894.0,-77711.0,25025.0,13650.0,-0.947558,-0.161573,0.275731,-0.31741,0.375366,-0.870834,0.037203,-0.912685,-0.406966,-0.937831,0.199948,0.283715,0.305687,0.088628,0.947998,0.164406,0.97579,-0.144239,-0.947558,-0.161573,0.275731,-0.31741,0.375366,-0.870834,0.037203,-0.912685,-0.406966,-0.937831,0.199948,0.283715,0.305687,0.088628,0.947998,0.164406,0.97579,-0.144239,-79025.0,-26762.0,13894.0,-77711.0,25025.0,13650.0,-4453176.0,-2143599.0,242.0,0.0,-4193748.0,-2097700.0,773.0,-434.0,-4457813.0,-2228518.0,-6290878.0,0.0,-4193817.0,-2244001.0,-4455522.0,-959.0,50.0,165.0,-45.0,0.0,647.0,75.0,540.0,-346.0,-43.0,-163.0,45.0,0.0,733.0,365.0,791.0,-929.0,-0.013684,-0.04487,0.012432,0.0,0.023679,0.002759,-0.019761,-0.012695,-0.011741,-0.044209,0.012247,0.0,0.026843,0.013381,-0.028948,-0.033996,4109.580078,11547.810547,51361.292969,0.0,-17591.669922,-17687.609375,17864.189453,-17299.890625,4056.390137,11515.230469,51577.019531,0.0,17749.800781,17729.820312,-17464.320312,18001.800781,0.0,0.0,0.0,0.0,0.0,0.0,0.0,0.0,0.0,0.0,0.0,0.0,0.0,0.0,0.0,0.0,0.0,0.0,0.0,0.0,0.0,0.0,0.0,0.0,0.0,0.0,0.0,0.0,0.0,0.0,0.0,0.0,4109.545898,11547.732422,51361.445312,0.0,-17591.671875,-17687.611328,17864.298828,-17300.154297,4056.339844,11515.167969,51577.089844,0.0,17751.261719,17731.966797,-17473.712891,17990.373047,30.173706,90.637032,22.826588,0.0,12.259465,-3.313743,24.620073,38.118809,29.783051,90.425888,22.931242,0.0,3.573774,-0.001668,28.722971,28.734974,1.095,1.043,4407514.0,2015290.0,-570923.0,0.0,-3998285.0,-1901171.0,-199264.0,191787.0,-4502884.0,-2356465.0,-6863956.0,0.0,-4391037.0,-2440999.0,4649570.0,-200979.0,0.0,0.0,0.0,0.0,0.0,0.0,0.0,0.0,0.0,0.0,0.0,0.0,0.0,0.0,0.0,0.0,0.0,0.0,0.0,0.0,0.0,0.0,0.0,0.0
42,4.20588493347168,30.173956,90.637642,22.826511,0.0,12.259851,-3.31362,24.608015,38.147942,29.783419,90.426353,22.931202,0.0,3.319568,-0.240209,29.836721,29.82663,3.0,1.0,111.0,0.0,1.0,-79025.0,-26762.0,13894.0,-77711.0,25025.0,13650.0,-0.947558,-0.161573,0.275731,-0.31741,0.375366,-0.870834,0.037203,-0.912685,-0.406966,-0.937848,0.199783,0.283774,0.305679,0.088376,0.948024,0.164321,0.975846,-0.143952,-0.947558,-0.161573,0.275731,-0.31741,0.375366,-0.870834,0.037203,-0.912685,-0.406966,-0.937848,0.199783,0.283774,0.305679,0.088376,0.948024,0.164321,0.975846,-0.143952,-79025.0,-26762.0,13894.0,-77711.0,25025.0,13650.0,-4453176.0,-2143599.0,242.0,0.0,-4193748.0,-2097700.0,773.0,-434.0,-4457813.0,-2228518.0,-6290878.0,0.0,-4193816.0,-2244001.0,-4455517.0,-965.0,50.0,165.0,-45.0,0.0,647.0,75.0,539.0,-347.0,-43.0,-163.0,45.0,0.0,732.0,369.0,795.0,-934.0,-0.013684,-0.04487,0.012432,0.0,0.023679,0.002758,-0.019754,-0.012711,-0.011741,-0.044209,0.012247,0.0,0.026787,0.013512,-0.029116,-0.034206,4109.580078,11547.810547,51361.292969,0.0,-17591.669922,-17687.609375,17864.189453,-17299.890625,4056.390137,11515.230469,51577.019531,0.0,17749.890625,17729.820312,-17464.771484,18001.261719,0.0,0.0,0.0,0.0,0.0,0.0,0.0,0.0,0.0,0.0,0.0,0.0,0.0,0.0,0.0,0.0,0.0,0.0,0.0,0.0,0.0,0.0,0.0,0.0,0.0,0.0,0.0,0.0,0.0,0.0,0.0,0.0,4109.545898,11547.732422,51361.445312,0.0,-17591.671875,-17687.611328,17864.298828,-17300.154297,4056.339844,11515.167969,51577.089844,0.0,17751.261719,17731.966797,-17473.712891,17990.373047,30.173706,90.637032,22.826588,0.0,12.259465,-3.313743,24.620073,38.118809,29.783051,90.425888,22.931242,0.0,3.573774,-0.001668,28.722971,28.734974,1.095,1.041,4407514.0,2015290.0,-570923.0,0.0,-3998285.0,-1901171.0,-199264.0,191787.0,-4502884.0,-2356465.0,-6863956.0,0.0,-4391037.0,-2440999.0,4649570.0,-200979.0,0.0,0.0,0.0,0.0,0.0,0.0,0.0,0.0,0.0,0.0,0.0,0.0,0.0,0.0,0.0,0.0,0.0,0.0,0.0,0.0,0.0,0.0,0.0,0.0
43,4.273890018463135,30.173956,90.637642,22.826511,0.0,12.259851,-3.31362,24.608015,38.147942,29.783419,90.426353,22.931202,0.0,3.319568,-0.240209,29.776632,29.766542,3.0,1.0,111.0,0.0,1.0,-79025.0,-26762.0,13894.0,-77711.0,25025.0,13650.0,-0.947558,-0.161573,0.275731,-0.31741,0.375366,-0.870834,0.037203,-0.912685,-0.406966,-0.937848,0.199783,0.283774,0.305679,0.088376,0.948024,0.164321,0.975846,-0.143952,-0.947558,-0.161573,0.275731,-0.31741,0.375366,-0.870834,0.037203,-0.912685,-0.406966,-0.937848,0.199783,0.283774,0.305679,0.088376,0.948024,0.164321,0.975846,-0.143952,-79025.0,-26762.0,13894.0,-77711.0,25025.0,13650.0,-4453176.0,-2143599.0,242.0,0.0,-4193748.0,-2097700.0,773.0,-434.0,-4457813.0,-2228518.0,-6290878.0,0.0,-4193816.0,-2244001.0,-4455511.0,-971.0,50.0,165.0,-45.0,0.0,647.0,75.0,539.0,-347.0,-43.0,-163.0,45.0,0.0,734.0,372.0,796.0,-939.0,-0.013684,-0.04487,0.012432,0.0,0.023679,0.002758,-0.019748,-0.012726,-0.011741,-0.044209,0.012247,0.0,0.026869,0.01364,-0.029158,-0.034367,4109.580078,11547.810547,51361.292969,0.0,-17591.669922,-17687.609375,17864.189453,-17299.890625,4056.390137,11515.230469,51577.019531,0.0,17749.890625,17729.820312,-17465.310547,18000.720703,0.0,0.0,0.0,0.0,0.0,0.0,0.0,0.0,0.0,0.0,0.0,0.0,0.0,0.0,0.0,-89.174942,0.0,0.0,0.0,0.0,0.0,0.0,0.0,0.0,0.0,0.0,0.0,0.0,0.0,0.0,0.0,-9.917186,4109.545898,11547.732422,51361.445312,0.0,-17591.671875,-17687.611328,17864.298828,-17300.154297,4056.339844,11515.167969,51577.089844,0.0,17751.261719,17731.966797,-17473.712891,17990.373047,30.173706,90.637032,22.826588,0.0,12.259465,-3.313743,24.620073,38.118809,29.783051,90.425888,22.931242,0.0,3.573774,-0.001668,28.722971,28.734974,1.095,1.039,4407514.0,2015290.0,-570923.0,0.0,-3998285.0,-1901171.0,-199264.0,191787.0,-4502884.0,-2356465.0,-6863956.0,0.0,-4391037.0,-2440999.0,4649570.0,-200979.0,0.0,0.0,0.0,0.0,0.0,0.0,0.0,0.0,0.0,0.0,0.0,0.0,0.0,0.0,0.0,0.0,0.0,0.0,0.0,0.0,0.0,0.0,0.0,0.0
44,4.337884902954102,30.173956,90.637642,22.826511,0.0,12.259851,-3.31362,24.608015,38.147942,29.783419,90.426353,22.931202,0.0,3.319568,-0.240209,29.72666,29.746515,3.0,1.0,111.0,0.0,1.0,-79025.0,-26762.0,13894.0,-77711.0,25025.0,13650.0,-0.947558,-0.161573,0.275731,-0.31741,0.375366,-0.870834,0.037203,-0.912685,-0.406966,-0.937796,0.200028,0.283774,0.305702,0.088296,0.948024,0.164576,0.975803,-0.143952,-0.947558,-0.161573,0.275731,-0.31741,0.375366,-0.870834,0.037203,-0.912685,-0.406966,-0.937796,0.200028,0.283774,0.305702,0.088296,0.948024,0.164576,0.975803,-0.143952,-79025.0,-26762.0,13894.0,-77711.0,25025.0,13650.0,-4453176.0,-2143599.0,242.0,0.0,-4193748.0,-2097700.0,773.0,-434.0,-4457813.0,-2228518.0,-6290878.0,0.0,-4193816.0,-2244001.0,-4455506.0,-973.0,50.0,165.0,-45.0,0.0,647.0,75.0,539.0,-348.0,-43.0,-163.0,45.0,0.0,736.0,376.0,798.0,-950.0,-0.013684,-0.04487,0.012432,0.0,0.023678,0.002758,-0.019742,-0.012741,-0.011741,-0.044209,0.012247,0.0,0.026945,0.013759,-0.029221,-0.034783,4109.580078,11547.810547,51361.292969,0.0,-17591.669922,-17687.609375,17864.189453,-17299.890625,4056.390137,11515.230469,51577.019531,0.0,17749.890625,17729.820312,-17465.759766,18000.541016,0.0,0.0,0.0,0.0,0.0,0.0,0.0,0.0,0.0,0.0,0.0,0.0,0.0,0.0,0.0,0.0,0.0,0.0,0.0,0.0,0.0,0.0,0.0,0.0,0.0,0.0,0.0,0.0,0.0,0.0,0.0,0.0,4109.545898,11547.732422,51361.445312,0.0,-17591.671875,-17687.611328,17864.298828,-17300.154297,4056.339844,11515.167969,51577.089844,0.0,17751.261719,17731.966797,-17473.712891,17990.373047,30.173706,90.637032,22.826588,0.0,12.259465,-3.313743,24.620073,38.118809,29.783051,90.425888,22.931242,0.0,3.573774,-0.001668,28.722971,28.734974,1.095,1.038,4407514.0,2015290.0,-570923.0,0.0,-3998285.0,-1901171.0,-199264.0,191787.0,-4502884.0,-2356465.0,-6863956.0,0.0,-4391037.0,-2440999.0,4649570.0,-200979.0,0.0,0.0,0.0,0.0,0.0,0.0,0.0,0.0,0.0,0.0,0.0,0.0,0.0,0.0,0.0,0.0,0.0,0.0,0.0,0.0,0.0,0.0,0.0,0.0
45,4.40789794921875,30.173956,90.637642,22.826511,0.0,12.259851,-3.31362,24.608015,38.147942,29.783419,90.426353,22.931202,0.0,3.336097,-0.240209,29.666571,29.726486,3.0,1.0,111.0,0.0,1.0,-79025.0,-26762.0,13894.0,-77711.0,25025.0,13650.0,-0.947558,-0.161573,0.275731,-0.31741,0.375366,-0.870834,0.037203,-0.912685,-0.406966,-0.937726,0.200276,0.283831,0.305733,0.087915,0.94805,0.164918,0.975787,-0.143671,-0.947558,-0.161573,0.275731,-0.31741,0.375366,-0.870834,0.037203,-0.912685,-0.406966,-0.937726,0.200276,0.283831,0.305733,0.087915,0.94805,0.164918,0.975787,-0.143671,-79025.0,-26762.0,13894.0,-77711.0,25025.0,13650.0,-4453176.0,-2143599.0,242.0,0.0,-4193748.0,-2097700.0,773.0,-434.0,-4457813.0,-2228518.0,-6290878.0,0.0,-4193815.0,-2244001.0,-4455500.0,-975.0,50.0,165.0,-45.0,0.0,647.0,75.0,539.0,-348.0,-43.0,-163.0,45.0,0.0,734.0,379.0,798.0,-963.0,-0.013684,-0.04487,0.012432,0.0,0.023678,0.002758,-0.019735,-0.012757,-0.011741,-0.044209,0.012247,0.0,0.026888,0.013891,-0.029218,-0.035242,4109.580078,11547.810547,51361.292969,0.0,-17591.669922,-17687.609375,17864.189453,-17299.890625,4056.390137,11515.230469,51577.019531,0.0,17749.980469,17729.820312,-17466.300781,18000.361328,0.0,0.0,0.0,0.0,0.0,0.0,0.0,0.0,0.0,0.0,0.0,0.0,0.0,0.0,0.0,0.0,0.0,0.0,0.0,0.0,0.0,0.0,0.0,0.0,0.0,0.0,0.0,0.0,0.0,0.0,0.0,0.0,4109.545898,11547.732422,51361.445312,0.0,-17591.671875,-17687.611328,17864.298828,-17300.154297,4056.339844,11515.167969,51577.089844,0.0,17751.261719,17731.966797,-17473.712891,17990.373047,30.173706,90.637032,22.826588,0.0,12.259465,-3.313743,24.620073,38.118809,29.783051,90.425888,22.931242,0.0,3.573774,-0.001668,28.722971,28.734974,1.095,1.036,4407514.0,2015290.0,-570923.0,0.0,-3998285.0,-1901171.0,-199264.0,191787.0,-4502884.0,-2356465.0,-6863956.0,0.0,-4391037.0,-2440999.0,4649570.0,-200979.0,0.0,0.0,0.0,0.0,0.0,0.0,0.0,0.0,0.0,0.0,0.0,0.0,0.0,0.0,0.0,0.0,0.0,0.0,0.0,0.0,0.0,0.0,0.0,0.0
46,4.473886013031006,30.173956,90.637642,22.826511,0.0,12.259851,-3.31362,24.608015,38.147942,29.783419,90.426353,22.931202,0.0,3.336097,-0.240209,29.616598,29.706457,3.0,1.0,111.0,0.0,1.0,-79025.0,-26762.0,13894.0,-77711.0,25025.0,13650.0,-0.947558,-0.161573,0.275731,-0.31741,0.375366,-0.870834,0.037203,-0.912685,-0.406966,-0.937673,0.200521,0.283831,0.305756,0.087835,0.94805,0.165173,0.975744,-0.143671,-0.947558,-0.161573,0.275731,-0.31741,0.375366,-0.870834,0.037203,-0.912685,-0.406966,-0.937673,0.200521,0.283831,0.305756,0.087835,0.94805,0.165173,0.975744,-0.143671,-79025.0,-26762.0,13894.0,-77711.0,25025.0,13650.0,-4453176.0,-2143599.0,242.0,0.0,-4193748.0,-2097700.0,773.0,-434.0,-4457813.0,-2228518.0,-6290878.0,0.0,-4193815.0,-2244001.0,-4455495.0,-977.0,50.0,165.0,-45.0,0.0,647.0,75.0,539.0,-349.0,-43.0,-163.0,45.0,0.0,736.0,382.0,799.0,-974.0,-0.013684,-0.04487,0.012432,0.0,0.023678,0.002758,-0.019729,-0.012772,-0.011741,-0.044209,0.012247,0.0,0.026961,0.014014,-0.029241,-0.035655,4109.580078,11547.810547,51361.292969,0.0,-17591.669922,-17687.609375,17864.189453,-17299.890625,4056.390137,11515.230469,51577.019531,0.0,17749.980469,17729.820312,-17466.75,18000.179688,0.0,0.0,0.0,0.0,0.0,0.0,0.0,0.0,0.0,0.0,0.0,0.0,0.0,0.0,0.0,0.0,0.0,0.0,0.0,0.0,0.0,0.0,0.0,0.0,0.0,0.0,0.0,0.0,0.0,0.0,0.0,0.0,4109.545898,11547.732422,51361.445312,0.0,-17591.671875,-17687.611328,17864.298828,-17300.154297,4056.339844,11515.167969,51577.089844,0.0,17751.261719,17731.966797,-17473.712891,17990.373047,30.173706,90.637032,22.826588,0.0,12.259465,-3.313743,24.620073,38.118809,29.783051,90.425888,22.931242,0.0,3.573774,-0.001668,28.722971,28.734974,1.095,1.035,4407514.0,2015290.0,-570923.0,0.0,-3998285.0,-1901171.0,-199264.0,191787.0,-4502884.0,-2356465.0,-6863956.0,0.0,-4391037.0,-2440999.0,4649570.0,-200979.0,0.0,0.0,0.0,0.0,0.0,0.0,0.0,0.0,0.0,0.0,0.0,0.0,0.0,0.0,0.0,0.0,0.0,0.0,0.0,0.0,0.0,0.0,0.0,0.0
47,4.539903879165649,30.173956,90.637642,22.826511,0.0,12.259851,-3.31362,24.608015,38.147942,29.783419,90.426353,22.931202,0.0,3.336097,-0.240209,29.57654,29.646372,3.0,1.0,111.0,0.0,1.0,-79025.0,-26762.0,13894.0,-77711.0,25025.0,13650.0,-0.947558,-0.161573,0.275731,-0.31741,0.375366,-0.870834,0.037203,-0.912685,-0.406966,-0.937708,0.200357,0.283831,0.30574,0.087889,0.94805,0.165003,0.975773,-0.143671,-0.947558,-0.161573,0.275731,-0.31741,0.375366,-0.870834,0.037203,-0.912685,-0.406966,-0.937708,0.200357,0.283831,0.30574,0.087889,0.94805,0.165003,0.975773,-0.143671,-79025.0,-26762.0,13894.0,-77711.0,25025.0,13650.0,-4453176.0,-2143599.0,242.0,0.0,-4193748.0,-2097700.0,773.0,-434.0,-4457813.0,-2228518.0,-6290878.0,0.0,-4193815.0,-2244001.0,-4455491.0,-983.0,50.0,165.0,-45.0,0.0,647.0,75.0,538.0,-349.0,-43.0,-163.0,45.0,0.0,738.0,386.0,801.0,-976.0,-0.013684,-0.04487,0.012432,0.0,0.023678,0.002758,-0.019723,-0.012787,-0.011741,-0.044209,0.012247,0.0,0.027035,0.014138,-0.029317,-0.035733,4109.580078,11547.810547,51361.292969,0.0,-17591.669922,-17687.609375,17864.189453,-17299.890625,4056.390137,11515.230469,51577.019531,0.0,17749.980469,17729.820312,-17467.109375,17999.640625,0.0,0.0,0.0,0.0,0.0,0.0,0.0,0.0,0.0,0.0,0.0,0.0,0.0,0.0,0.0,0.0,0.0,0.0,0.0,0.0,0.0,0.0,0.0,0.0,0.0,0.0,0.0,0.0,0.0,0.0,0.0,0.0,4109.545898,11547.732422,51361.445312,0.0,-17591.671875,-17687.611328,17864.298828,-17300.154297,4056.339844,11515.167969,51577.089844,0.0,17751.261719,17731.966797,-17473.712891,17990.373047,30.173706,90.637032,22.826588,0.0,12.259465,-3.313743,24.620073,38.118809,29.783051,90.425888,22.931242,0.0,3.573774,-0.001668,28.722971,28.734974,1.095,1.033,4407514.0,2015290.0,-570923.0,0.0,-3998285.0,-1901171.0,-199264.0,191787.0,-4502884.0,-2356465.0,-6863956.0,0.0,-4391037.0,-2440999.0,4649570.0,-200979.0,0.0,0.0,0.0,0.0,0.0,0.0,0.0,0.0,0.0,0.0,0.0,0.0,0.0,0.0,0.0,0.0,0.0,0.0,0.0,0.0,0.0,0.0,0.0,0.0
48,4.605886936187744,30.173956,90.637642,22.826511,0.0,12.259851,-3.31362,24.608015,38.147942,29.783419,90.426353,22.931202,0.0,3.352949,-0.240209,29.536484,29.586283,3.0,1.0,111.0,0.0,1.0,-79025.0,-26762.0,13894.0,-77711.0,25025.0,13650.0,-0.947558,-0.161573,0.275731,-0.31741,0.375366,-0.870834,0.037203,-0.912685,-0.406966,-0.937743,0.20011,0.28389,0.305725,0.087663,0.948076,0.164833,0.975844,-0.143384,-0.947558,-0.161573,0.275731,-0.31741,0.375366,-0.870834,0.037203,-0.912685,-0.406966,-0.937743,0.20011,0.28389,0.305725,0.087663,0.948076,0.164833,0.975844,-0.143384,-79025.0,-26762.0,13894.0,-77711.0,25025.0,13650.0,-4453176.0,-2143599.0,242.0,0.0,-4193748.0,-2097700.0,773.0,-434.0,-4457813.0,-2228518.0,-6290878.0,0.0,-4193814.0,-2244001.0,-4455487.0,-989.0,50.0,165.0,-45.0,0.0,647.0,75.0,538.0,-349.0,-43.0,-163.0,45.0,0.0,736.0,389.0,802.0,-977.0,-0.013684,-0.04487,0.012432,0.0,0.023678,0.002758,-0.019717,-0.012802,-0.011741,-0.044209,0.012247,0.0,0.026966,0.014261,-0.029372,-0.03578,4109.580078,11547.810547,51361.292969,0.0,-17591.669922,-17687.609375,17864.189453,-17299.890625,4056.390137,11515.230469,51577.019531,0.0,17750.070312,17729.820312,-17467.470703,17999.099609,0.0,0.0,0.0,0.0,0.0,0.0,0.0,0.0,0.0,0.0,0.0,0.0,0.0,0.0,0.0,0.0,0.0,0.0,0.0,0.0,0.0,0.0,0.0,0.0,0.0,0.0,0.0,0.0,0.0,0.0,0.0,0.0,4109.545898,11547.732422,51361.445312,0.0,-17591.671875,-17687.611328,17864.298828,-17300.154297,4056.339844,11515.167969,51577.089844,0.0,17751.261719,17731.966797,-17473.712891,17990.373047,30.173706,90.637032,22.826588,0.0,12.259465,-3.313743,24.620073,38.118809,29.783051,90.425888,22.931242,0.0,3.573774,-0.001668,28.722971,28.734974,1.095,1.031,4407514.0,2015290.0,-570923.0,0.0,-3998285.0,-1901171.0,-199264.0,191787.0,-4502884.0,-2356465.0,-6863956.0,0.0,-4391037.0,-2440999.0,4649570.0,-200979.0,0.0,0.0,0.0,0.0,0.0,0.0,0.0,0.0,0.0,0.0,0.0,0.0,0.0,0.0,0.0,0.0,0.0,0.0,0.0,0.0,0.0,0.0,0.0,0.0
49,4.675903081893921,30.173956,90.637642,22.826511,0.0,12.259851,-3.31362,24.608015,38.147942,29.783419,90.426353,22.931202,0.0,3.352949,-0.240209,29.496424,29.49625,3.0,1.0,111.0,0.0,1.0,-79025.0,-26762.0,13894.0,-77711.0,25025.0,13650.0,-0.947558,-0.161573,0.275731,-0.31741,0.375366,-0.870834,0.037203,-0.912685,-0.406966,-0.93783,0.199701,0.28389,0.305687,0.087796,0.948076,0.164408,0.975916,-0.143384,-0.947558,-0.161573,0.275731,-0.31741,0.375366,-0.870834,0.037203,-0.912685,-0.406966,-0.937813,0.199784,0.28389,0.305695,0.087769,0.948076,0.164494,0.975901,-0.143384,-79025.0,-26762.0,13894.0,-77711.0,25025.0,13650.0,-4453176.0,-2143599.0,242.0,0.0,-4193748.0,-2097700.0,773.0,-434.0,-4457813.0,-2228518.0,-6290878.0,0.0,-4193814.0,-2244001.0,-4455483.0,-998.0,50.0,165.0,-45.0,0.0,647.0,75.0,538.0,-350.0,-43.0,-163.0,45.0,0.0,738.0,393.0,804.0,-972.0,-0.013684,-0.04487,0.012432,0.0,0.023678,0.002758,-0.01971,-0.012818,-0.011741,-0.044209,0.012247,0.0,0.027039,0.014392,-0.029427,-0.035586,4109.580078,11547.810547,51361.292969,0.0,-17591.669922,-17687.609375,17864.189453,-17299.890625,4056.390137,11515.230469,51577.019531,0.0,17750.070312,17729.820312,-17467.830078,17998.291016,0.0,0.0,0.0,0.0,0.0,0.0,0.0,0.0,0.0,0.0,0.0,0.0,0.0,0.0,0.0,-90.92347,0.0,0.0,0.0,0.0,0.0,0.0,0.0,0.0,0.0,0.0,0.0,0.0,0.0,0.0,0.0,-10.11164,4109.545898,11547.732422,51361.445312,0.0,-17591.671875,-17687.611328,17864.298828,-17300.154297,4056.339844,11515.167969,51577.089844,0.0,17751.261719,17731.966797,-17473.712891,17990.373047,30.173706,90.637032,22.826588,0.0,12.259465,-3.313743,24.620073,38.118809,29.783051,90.425888,22.931242,0.0,3.573774,-0.001668,28.722971,28.734974,1.095,1.029,4407514.0,2015290.0,-570923.0,0.0,-3998285.0,-1901171.0,-199264.0,191787.0,-4502884.0,-2356465.0,-6863956.0,0.0,-4391037.0,-2440999.0,4649570.0,-200979.0,0.0,0.0,0.0,0.0,0.0,0.0,0.0,0.0,0.0,0.0,0.0,0.0,0.0,0.0,0.0,0.0,0.0,0.0,0.0,0.0,0.0,0.0,0.0,0.0
50,4.74188494682312,30.173956,90.637642,22.826511,0.0,12.259851,-3.31362,24.608015,38.147942,29.783419,90.426353,22.931202,0.0,3.352949,-0.240209,29.456366,29.256102,3.0,1.0,111.0,0.0,1.0,-79025.0,-26762.0,13894.0,-77711.0,25025.0,13650.0,-0.947558,-0.161573,0.275731,-0.31741,0.375366,-0.870834,0.037203,-0.912685,-0.406966,-0.938178,0.198064,0.28389,0.305533,0.08833,0.948076,0.162703,0.976201,-0.143384,-0.947558,-0.161573,0.275731,-0.31741,0.375366,-0.870834,0.037203,-0.912685,-0.406966,-0.938178,0.198064,0.28389,0.305533,0.08833,0.948076,0.162703,0.976201,-0.143384,-79025.0,-26762.0,13894.0,-77711.0,25025.0,13650.0,-4453176.0,-2143599.0,242.0,0.0,-4193748.0,-2097700.0,773.0,-434.0,-4457813.0,-2228518.0,-6290878.0,0.0,-4193814.0,-2244001.0,-4455479.0,-1022.0,50.0,165.0,-45.0,0.0,647.0,75.0,538.0,-350.0,-43.0,-163.0,45.0,0.0,740.0,396.0,804.0,-932.0,-0.013684,-0.04487,0.012432,0.0,0.023678,0.002758,-0.019704,-0.012834,-0.011741,-0.044209,0.012247,0.0,0.027107,0.014516,-0.02944,-0.034108,4109.580078,11547.810547,51361.292969,0.0,-17591.669922,-17687.609375,17864.189453,-17299.890625,4056.390137,11515.230469,51577.019531,0.0,17750.070312,17729.820312,-17468.191406,17996.130859,0.0,0.0,0.0,0.0,0.0,0.0,0.0,0.0,0.0,0.0,0.0,0.0,0.0,0.0,0.0,-89.174942,0.0,0.0,0.0,0.0,0.0,0.0,0.0,0.0,0.0,0.0,0.0,0.0,0.0,0.0,0.0,-9.917186,4109.545898,11547.732422,51361.445312,0.0,-17591.671875,-17687.611328,17864.298828,-17300.154297,4056.339844,11515.167969,51577.089844,0.0,17751.261719,17731.966797,-17473.712891,17990.373047,30.173706,90.637032,22.826588,0.0,12.259465,-3.313743,24.620073,38.118809,29.783051,90.425888,22.931242,0.0,3.573774,-0.001668,28.722971,28.734974,1.095,1.024,4407514.0,2015290.0,-570923.0,0.0,-3998285.0,-1901171.0,-199264.0,191787.0,-4502884.0,-2356465.0,-6863956.0,0.0,-4391037.0,-2440999.0,4649570.0,-200979.0,0.0,0.0,0.0,0.0,0.0,0.0,0.0,0.0,0.0,0.0,0.0,0.0,0.0,0.0,0.0,0.0,0.0,0.0,0.0,0.0,0.0,0.0,0.0,0.0
