MHC-RobotSimulators-Research/Data_Analysis_MotionReplication/mai_plotter/raven_data/rightarm_p5_phys1.csv
,time,jpos0,jpos1,jpos2,jpos3,jpos4,jpos5,jpos6,jpos7,jpos8,jpos9,jpos10,jpos11,jpos12,jpos13,jpos14,jpos15,runlevel,sublevel,last_seq,type0,type1,pos0,pos1,pos2,pos3,pos4,pos5,ori0,ori1,ori2,ori3,ori4,ori5,ori6,ori7,ori8,ori9,ori10,ori11,ori12,ori13,ori14,ori15,ori16,ori17,ori_d0,ori_d1,ori_d2,ori_d3,ori_d4,ori_d5,ori_d6,ori_d7,ori_d8,ori_d9,ori_d10,ori_d11,ori_d12,ori_d13,ori_d14,ori_d15,ori_d16,ori_d17,pos_d0,pos_d1,pos_d2,pos_d3,pos_d4,pos_d5,encVals0,encVals1,encVals2,encVals3,encVals4,encVals5,encVals6,encVals7,encVals8,encVals9,encVals10,encVals11,encVals12,encVals13,encVals14,encVals15,dac_vals0,dac_vals1,dac_vals2,dac_vals3,dac_vals4,dac_vals5,dac_vals6,dac_vals7,dac_vals8,dac_vals9,dac_vals10,dac_vals11,dac_vals12,dac_vals13,dac_vals14,dac_vals15,Tau0,Tau1,Tau2,Tau3,Tau4,Tau5,Tau6,Tau7,Tau8,Tau9,Tau10,Tau11,Tau12,Tau13,Tau14,Tau15,mpos0,mpos1,mpos2,mpos3,mpos4,mpos5,mpos6,mpos7,mpos8,mpos9,mpos10,mpos11,mpos12,mpos13,mpos14,mpos15,mvel0,mvel1,mvel2,mvel3,mvel4,mvel5,mvel6,mvel7,mvel8,mvel9,mvel10,mvel11,mvel12,mvel13,mvel14,mvel15,jvel0,jvel1,jvel2,jvel3,jvel4,jvel5,jvel6,jvel7,jvel8,jvel9,jvel10,jvel11,jvel12,jvel13,jvel14,jvel15,mpos_d0,mpos_d1,mpos_d2,mpos_d3,mpos_d4,mpos_d5,mpos_d6,mpos_d7,mpos_d8,mpos_d9,mpos_d10,mpos_d11,mpos_d12,mpos_d13,mpos_d14,mpos_d15,jpos_d0,jpos_d1,jpos_d2,jpos_d3,jpos_d4,jpos_d5,jpos_d6,jpos_d7,jpos_d8,jpos_d9,jpos_d10,jpos_d11,jpos_d12,jpos_d13,jpos_d14,jpos_d15,grasp_d0,grasp_d1,encoffsets0,encoffsets1,encoffsets2,encoffsets3,encoffsets4,encoffsets5,encoffsets6,encoffsets7,encoffsets8,encoffsets9,encoffsets10,encoffsets11,encoffsets12,encoffsets13,encoffsets14,encoffsets15,jac_vel0,jac_vel1,jac_vel2,jac_vel3,jac_vel4,jac_vel5,jac_vel6,jac_vel7,jac_vel8,jac_vel9,jac_vel10,jac_vel11,jac_f0,jac_f1,jac_f2,jac_f3,jac_f4,jac_f5,jac_f6,jac_f7,jac_f8,jac_f9,jac_f10,jac_f11
0,0.0,30.113163,90.410973,22.836821,0.0,55.498585,-9.749409,25.884205,31.346907,30.071533,90.379257,22.924168,0.0,4.39753,-0.754521,43.409527,45.219593,3.0,1.0,111.0,0.0,1.0,-79005.0,-26782.0,11880.0,-77676.0,25556.0,13605.0,-0.943281,-0.303102,0.135461,-0.331851,0.872817,-0.357862,-0.009764,-0.382517,-0.923897,-0.930559,0.209183,0.300505,0.319879,0.065129,0.945217,0.178152,0.975705,-0.127519,-0.943281,-0.303102,0.135461,-0.331851,0.872817,-0.357862,-0.009764,-0.382517,-0.923897,-0.930559,0.209183,0.300505,0.319879,0.065129,0.945217,0.178152,0.975705,-0.127519,-79005.0,-26782.0,11880.0,-77676.0,25556.0,13605.0,-4442558.0,-5211.0,-4203017.0,0.0,107.0,-3535.0,-1768.0,-4202.0,-20269.0,8471.0,2802.0,0.0,-156.0,1051.0,569.0,350.0,-19.0,163.0,56.0,0.0,978.0,-862.0,563.0,-494.0,-53.0,-163.0,39.0,0.0,-341.0,723.0,-91.0,389.0,0.005333,-0.044313,-0.015369,0.0,0.035811,-0.031546,-0.020617,-0.018094,-0.014372,-0.044316,0.010709,0.0,-0.012486,0.026483,0.003354,0.01427,4101.300293,11519.19043,51378.570312,0.0,-17364.330078,-17751.419922,17852.671875,-17338.050781,4095.630127,11514.599609,51565.863281,0.0,17751.871094,17721.359375,-17341.201172,18138.150391,0.0,0.0,0.0,0.0,0.0,0.0,0.0,0.0,0.0,0.0,0.0,0.0,0.0,0.0,0.0,0.0,0.0,0.0,0.0,0.0,0.0,0.0,0.0,0.0,0.0,0.0,0.0,0.0,0.0,0.0,0.0,0.0,4104.819336,11519.124023,51368.101562,0.0,-17364.386719,-17750.847656,17852.855469,-17337.708984,4095.359619,11514.527344,51565.351562,0.0,17752.509766,17721.365234,-17341.769531,18137.242188,30.139002,90.40667,22.831804,0.0,55.488235,-9.685671,25.872965,31.416842,30.069546,90.378944,22.923948,0.0,4.515999,-0.753866,43.345722,45.118961,0.998,1.546,4396988.0,-122780.0,3632144.0,0.0,193044.0,193703.0,-196595.0,188443.0,-65776.0,-119469.0,-570152.0,0.0,-197399.0,-195853.0,192111.0,-201185.0,0.0,0.0,0.0,0.0,0.0,0.0,0.0,0.0,0.0,0.0,0.0,0.0,0.0,0.0,0.0,0.0,0.0,0.0,0.0,0.0,0.0,0.0,0.0,0.0
1,0.06496500968933105,30.113163,90.410973,22.836821,0.0,55.498585,-9.749409,25.884205,31.346907,30.071533,90.379257,22.924168,0.0,4.39753,-0.754521,43.409527,45.219593,3.0,1.0,111.0,0.0,1.0,-79005.0,-26782.0,11880.0,-77676.0,25556.0,13605.0,-0.943281,-0.303102,0.135461,-0.331851,0.872817,-0.357862,-0.009764,-0.382517,-0.923897,-0.930559,0.209183,0.300505,0.319879,0.065129,0.945217,0.178152,0.975705,-0.127519,-0.943281,-0.303102,0.135461,-0.331851,0.872817,-0.357862,-0.009764,-0.382517,-0.923897,-0.930559,0.209183,0.300505,0.319879,0.065129,0.945217,0.178152,0.975705,-0.127519,-79005.0,-26782.0,11880.0,-77676.0,25556.0,13605.0,-4442558.0,-5211.0,-4203017.0,0.0,107.0,-3535.0,-1768.0,-4202.0,-20269.0,8471.0,2802.0,0.0,-156.0,1051.0,569.0,350.0,47.0,164.0,-45.0,0.0,980.0,-875.0,573.0,-508.0,-48.0,-162.0,45.0,0.0,-368.0,723.0,-99.0,406.0,-0.012955,-0.044464,0.012206,0.0,0.035896,-0.032041,-0.020983,-0.018606,-0.013229,-0.044101,0.012265,0.0,-0.013488,0.026475,0.00364,0.014857,4101.300293,11519.19043,51378.570312,0.0,-17364.330078,-17751.419922,17852.671875,-17338.050781,4095.630127,11514.599609,51565.863281,0.0,17751.871094,17721.359375,-17341.201172,18138.150391,0.0,0.0,0.0,0.0,0.0,0.0,0.0,0.0,0.0,0.0,0.0,0.0,0.0,0.0,0.0,0.0,0.0,0.0,0.0,0.0,0.0,0.0,0.0,0.0,0.0,0.0,0.0,0.0,0.0,0.0,0.0,0.0,4101.32666,11519.095703,51378.632812,0.0,-17364.332031,-17751.416016,17852.451172,-17338.279297,4095.577637,11514.568359,51565.945312,0.0,17751.871094,17721.357422,-17341.427734,18137.929688,30.113354,90.410164,22.836857,0.0,55.498158,-9.748807,25.859434,31.321754,30.071148,90.379051,22.92421,0.0,4.39777,-0.754911,43.384396,45.194881,0.998,1.546,4396988.0,-122780.0,3632144.0,0.0,193044.0,193703.0,-196595.0,188443.0,-65776.0,-119469.0,-570152.0,0.0,-197399.0,-195853.0,192111.0,-201185.0,0.0,0.0,0.0,0.0,0.0,0.0,0.0,0.0,0.0,0.0,0.0,0.0,0.0,0.0,0.0,0.0,0.0,0.0,0.0,0.0,0.0,0.0,0.0,0.0
2,0.12995386123657227,30.113163,90.410973,22.836821,0.0,55.498585,-9.749409,25.884205,31.346907,30.071533,90.379257,22.924168,0.0,4.39753,-0.754521,43.409527,45.219593,3.0,1.0,111.0,0.0,1.0,-79005.0,-26782.0,11880.0,-77676.0,25556.0,13605.0,-0.943281,-0.303102,0.135461,-0.331851,0.872817,-0.357862,-0.009764,-0.382517,-0.923897,-0.930559,0.209183,0.300505,0.319879,0.065129,0.945217,0.178152,0.975705,-0.127519,-0.943281,-0.303102,0.135461,-0.331851,0.872817,-0.357862,-0.009764,-0.382517,-0.923897,-0.930559,0.209183,0.300505,0.319879,0.065129,0.945217,0.178152,0.975705,-0.127519,-79005.0,-26782.0,11880.0,-77676.0,25556.0,13605.0,-4442558.0,-5211.0,-4203017.0,0.0,107.0,-3535.0,-1768.0,-4202.0,-20269.0,8471.0,2802.0,0.0,-156.0,1051.0,569.0,350.0,47.0,164.0,-45.0,0.0,980.0,-875.0,573.0,-508.0,-48.0,-162.0,45.0,0.0,-368.0,723.0,-99.0,405.0,-0.012955,-0.044464,0.012206,0.0,0.035895,-0.032041,-0.020996,-0.018619,-0.013229,-0.044101,0.012265,0.0,-0.013487,0.026475,0.003627,0.014844,4101.300293,11519.19043,51378.570312,0.0,-17364.330078,-17751.419922,17852.671875,-17338.050781,4095.630127,11514.599609,51565.863281,0.0,17751.871094,17721.359375,-17341.201172,18138.150391,0.0,0.0,0.0,0.0,0.0,0.0,0.0,0.0,0.0,0.0,0.0,0.0,0.0,0.0,0.0,0.0,0.0,0.0,0.0,0.0,0.0,0.0,0.0,0.0,0.0,0.0,0.0,0.0,0.0,0.0,0.0,0.0,4101.32666,11519.095703,51378.632812,0.0,-17364.332031,-17751.416016,17852.451172,-17338.279297,4095.577637,11514.568359,51565.945312,0.0,17751.871094,17721.357422,-17341.427734,18137.929688,30.113354,90.410164,22.836857,0.0,55.498158,-9.748807,25.859434,31.321754,30.071148,90.379051,22.92421,0.0,4.39777,-0.754911,43.384396,45.194881,0.998,1.546,4396988.0,-122780.0,3632144.0,0.0,193044.0,193703.0,-196595.0,188443.0,-65776.0,-119469.0,-570152.0,0.0,-197399.0,-195853.0,192111.0,-201185.0,0.0,0.0,0.0,0.0,0.0,0.0,0.0,0.0,0.0,0.0,0.0,0.0,0.0,0.0,0.0,0.0,0.0,0.0,0.0,0.0,0.0,0.0,0.0,0.0
3,0.19695401191711426,30.113163,90.410973,22.836821,0.0,55.498585,-9.749409,25.884205,31.346907,30.071533,90.379257,22.924168,0.0,4.39753,-0.754521,43.409527,45.219593,3.0,1.0,111.0,0.0,1.0,-79005.0,-26782.0,11880.0,-77676.0,25556.0,13605.0,-0.943281,-0.303102,0.135461,-0.331851,0.872817,-0.357862,-0.009764,-0.382517,-0.923897,-0.930559,0.209183,0.300505,0.319879,0.065129,0.945217,0.178152,0.975705,-0.127519,-0.943281,-0.303102,0.135461,-0.331851,0.872817,-0.357862,-0.009764,-0.382517,-0.923897,-0.930559,0.209183,0.300505,0.319879,0.065129,0.945217,0.178152,0.975705,-0.127519,-79005.0,-26782.0,11880.0,-77676.0,25556.0,13605.0,-4442558.0,-5211.0,-4203017.0,0.0,107.0,-3535.0,-1768.0,-4202.0,-20269.0,8471.0,2802.0,0.0,-156.0,1051.0,569.0,350.0,47.0,164.0,-45.0,0.0,980.0,-875.0,574.0,-509.0,-48.0,-162.0,45.0,0.0,-368.0,723.0,-98.0,405.0,-0.012955,-0.044464,0.012206,0.0,0.035895,-0.03204,-0.021009,-0.018632,-0.013229,-0.044101,0.012265,0.0,-0.013487,0.026475,0.003614,0.014831,4101.300293,11519.19043,51378.570312,0.0,-17364.330078,-17751.419922,17852.671875,-17338.050781,4095.630127,11514.599609,51565.863281,0.0,17751.871094,17721.359375,-17341.201172,18138.150391,0.0,0.0,0.0,0.0,0.0,0.0,0.0,0.0,0.0,0.0,0.0,0.0,0.0,0.0,0.0,0.0,0.0,0.0,0.0,0.0,0.0,0.0,0.0,0.0,0.0,0.0,0.0,0.0,0.0,0.0,0.0,0.0,4101.32666,11519.095703,51378.632812,0.0,-17364.332031,-17751.416016,17852.451172,-17338.279297,4095.577637,11514.568359,51565.945312,0.0,17751.871094,17721.357422,-17341.427734,18137.929688,30.113354,90.410164,22.836857,0.0,55.498158,-9.748807,25.859434,31.321754,30.071148,90.379051,22.92421,0.0,4.39777,-0.754911,43.384396,45.194881,0.998,1.546,4396988.0,-122780.0,3632144.0,0.0,193044.0,193703.0,-196595.0,188443.0,-65776.0,-119469.0,-570152.0,0.0,-197399.0,-195853.0,192111.0,-201185.0,0.0,0.0,0.0,0.0,0.0,0.0,0.0,0.0,0.0,0.0,0.0,0.0,0.0,0.0,0.0,0.0,0.0,0.0,0.0,0.0,0.0,0.0,0.0,0.0
4,0.2619500160217285,30.113163,90.410973,22.836821,0.0,55.498585,-9.749409,25.884205,31.346907,30.071533,90.379257,22.924168,0.0,4.39753,-0.754521,43.409527,45.219593,3.0,1.0,111.0,0.0,1.0,-79005.0,-26782.0,11880.0,-77676.0,25556.0,13605.0,-0.943281,-0.303102,0.135461,-0.331851,0.872817,-0.357862,-0.009764,-0.382517,-0.923897,-0.930559,0.209183,0.300505,0.319879,0.065129,0.945217,0.178152,0.975705,-0.127519,-0.943281,-0.303102,0.135461,-0.331851,0.872817,-0.357862,-0.009764,-0.382517,-0.923897,-0.930559,0.209183,0.300505,0.319879,0.065129,0.945217,0.178152,0.975705,-0.127519,-79005.0,-26782.0,11880.0,-77676.0,25556.0,13605.0,-4442558.0,-5211.0,-4203017.0,0.0,107.0,-3535.0,-1768.0,-4202.0,-20269.0,8471.0,2802.0,0.0,-156.0,1051.0,569.0,350.0,47.0,164.0,-45.0,0.0,980.0,-875.0,574.0,-509.0,-48.0,-162.0,45.0,0.0,-368.0,723.0,-98.0,404.0,-0.012955,-0.044464,0.012206,0.0,0.035895,-0.03204,-0.021021,-0.018645,-0.013229,-0.044101,0.012265,0.0,-0.013487,0.026475,0.003601,0.014819,4101.300293,11519.19043,51378.570312,0.0,-17364.330078,-17751.419922,17852.671875,-17338.050781,4095.630127,11514.599609,51565.863281,0.0,17751.871094,17721.359375,-17341.201172,18138.150391,0.0,0.0,0.0,0.0,0.0,0.0,0.0,0.0,0.0,0.0,0.0,0.0,0.0,0.0,0.0,0.0,0.0,0.0,0.0,0.0,0.0,0.0,0.0,0.0,0.0,0.0,0.0,0.0,0.0,0.0,0.0,0.0,4101.32666,11519.095703,51378.632812,0.0,-17364.332031,-17751.416016,17852.451172,-17338.279297,4095.577637,11514.568359,51565.945312,0.0,17751.871094,17721.357422,-17341.427734,18137.929688,30.113354,90.410164,22.836857,0.0,55.498158,-9.748807,25.859434,31.321754,30.071148,90.379051,22.92421,0.0,4.39777,-0.754911,43.384396,45.194881,0.998,1.546,4396988.0,-122780.0,3632144.0,0.0,193044.0,193703.0,-196595.0,188443.0,-65776.0,-119469.0,-570152.0,0.0,-197399.0,-195853.0,192111.0,-201185.0,0.0,0.0,0.0,0.0,0.0,0.0,0.0,0.0,0.0,0.0,0.0,0.0,0.0,0.0,0.0,0.0,0.0,0.0,0.0,0.0,0.0,0.0,0.0,0.0
5,0.3289978504180908,30.113163,90.410973,22.836821,0.0,55.498585,-9.749409,25.884205,31.346907,30.071533,90.379257,22.924168,0.0,4.39753,-0.754521,43.409527,45.219593,3.0,1.0,111.0,0.0,1.0,-79005.0,-26782.0,11880.0,-77676.0,25556.0,13605.0,-0.943281,-0.303102,0.135461,-0.331851,0.872817,-0.357862,-0.009764,-0.382517,-0.923897,-0.930559,0.209183,0.300505,0.319879,0.065129,0.945217,0.178152,0.975705,-0.127519,-0.943281,-0.303102,0.135461,-0.331851,0.872817,-0.357862,-0.009764,-0.382517,-0.923897,-0.930559,0.209183,0.300505,0.319879,0.065129,0.945217,0.178152,0.975705,-0.127519,-79005.0,-26782.0,11880.0,-77676.0,25556.0,13605.0,-4442558.0,-5211.0,-4203017.0,0.0,107.0,-3535.0,-1768.0,-4202.0,-20269.0,8471.0,2802.0,0.0,-156.0,1051.0,569.0,350.0,47.0,164.0,-45.0,0.0,980.0,-875.0,574.0,-509.0,-48.0,-162.0,45.0,0.0,-368.0,723.0,-98.0,404.0,-0.012955,-0.044464,0.012206,0.0,0.035895,-0.03204,-0.021034,-0.018658,-0.013229,-0.044101,0.012265,0.0,-0.013487,0.026475,0.003588,0.014806,4101.300293,11519.19043,51378.570312,0.0,-17364.330078,-17751.419922,17852.671875,-17338.050781,4095.630127,11514.599609,51565.863281,0.0,17751.871094,17721.359375,-17341.201172,18138.150391,0.0,0.0,0.0,0.0,0.0,0.0,0.0,0.0,0.0,0.0,0.0,0.0,0.0,0.0,0.0,0.0,0.0,0.0,0.0,0.0,0.0,0.0,0.0,0.0,0.0,0.0,0.0,0.0,0.0,0.0,0.0,0.0,4101.32666,11519.095703,51378.632812,0.0,-17364.332031,-17751.416016,17852.451172,-17338.279297,4095.577637,11514.568359,51565.945312,0.0,17751.871094,17721.357422,-17341.427734,18137.929688,30.113354,90.410164,22.836857,0.0,55.498158,-9.748807,25.859434,31.321754,30.071148,90.379051,22.92421,0.0,4.39777,-0.754911,43.384396,45.194881,0.998,1.546,4396988.0,-122780.0,3632144.0,0.0,193044.0,193703.0,-196595.0,188443.0,-65776.0,-119469.0,-570152.0,0.0,-197399.0,-195853.0,192111.0,-201185.0,0.0,0.0,0.0,0.0,0.0,0.0,0.0,0.0,0.0,0.0,0.0,0.0,0.0,0.0,0.0,0.0,0.0,0.0,0.0,0.0,0.0,0.0,0.0,0.0
6,0.3950040340423584,30.113163,90.410973,22.836821,0.0,55.498585,-9.749409,25.884205,31.346907,30.071533,90.379257,22.924168,0.0,4.39753,-0.754521,43.409527,45.219593,3.0,1.0,111.0,0.0,1.0,-79005.0,-26782.0,11880.0,-77676.0,25556.0,13605.0,-0.943281,-0.303102,0.135461,-0.331851,0.872817,-0.357862,-0.009764,-0.382517,-0.923897,-0.930559,0.209183,0.300505,0.319879,0.065129,0.945217,0.178152,0.975705,-0.127519,-0.943281,-0.303102,0.135461,-0.331851,0.872817,-0.357862,-0.009764,-0.382517,-0.923897,-0.930559,0.209183,0.300505,0.319879,0.065129,0.945217,0.178152,0.975705,-0.127519,-79005.0,-26782.0,11880.0,-77676.0,25556.0,13605.0,-4442558.0,-5211.0,-4203017.0,0.0,107.0,-3535.0,-1768.0,-4202.0,-20269.0,8471.0,2802.0,0.0,-156.0,1051.0,569.0,350.0,47.0,164.0,-45.0,0.0,980.0,-875.0,575.0,-510.0,-48.0,-162.0,45.0,0.0,-368.0,723.0,-97.0,404.0,-0.012955,-0.044464,0.012206,0.0,0.035895,-0.032039,-0.021047,-0.018671,-0.013229,-0.044101,0.012265,0.0,-0.013487,0.026474,0.003575,0.014793,4101.300293,11519.19043,51378.570312,0.0,-17364.330078,-17751.419922,17852.671875,-17338.050781,4095.630127,11514.599609,51565.863281,0.0,17751.871094,17721.359375,-17341.201172,18138.150391,0.0,0.0,0.0,0.0,0.0,0.0,0.0,0.0,0.0,0.0,0.0,0.0,0.0,0.0,0.0,0.0,0.0,0.0,0.0,0.0,0.0,0.0,0.0,0.0,0.0,0.0,0.0,0.0,0.0,0.0,0.0,0.0,4101.32666,11519.095703,51378.632812,0.0,-17364.332031,-17751.416016,17852.451172,-17338.279297,4095.577637,11514.568359,51565.945312,0.0,17751.871094,17721.357422,-17341.427734,18137.929688,30.113354,90.410164,22.836857,0.0,55.498158,-9.748807,25.859434,31.321754,30.071148,90.379051,22.92421,0.0,4.39777,-0.754911,43.384396,45.194881,0.998,1.546,4396988.0,-122780.0,3632144.0,0.0,193044.0,193703.0,-196595.0,188443.0,-65776.0,-119469.0,-570152.0,0.0,-197399.0,-195853.0,192111.0,-201185.0,0.0,0.0,0.0,0.0,0.0,0.0,0.0,0.0,0.0,0.0,0.0,0.0,0.0,0.0,0.0,0.0,0.0,0.0,0.0,0.0,0.0,0.0,0.0,0.0
7,0.46000099182128906,30.113163,90.410973,22.836821,0.0,55.498585,-9.749409,25.884205,31.346907,30.071533,90.379257,22.924168,0.0,4.39753,-0.754521,43.409527,45.219593,3.0,1.0,111.0,0.0,1.0,-79005.0,-26782.0,11880.0,-77676.0,25556.0,13605.0,-0.943281,-0.303102,0.135461,-0.331851,0.872817,-0.357862,-0.009764,-0.382517,-0.923897,-0.930559,0.209183,0.300505,0.319879,0.065129,0.945217,0.178152,0.975705,-0.127519,-0.943281,-0.303102,0.135461,-0.331851,0.872817,-0.357862,-0.009764,-0.382517,-0.923897,-0.930559,0.209183,0.300505,0.319879,0.065129,0.945217,0.178152,0.975705,-0.127519,-79005.0,-26782.0,11880.0,-77676.0,25556.0,13605.0,-4442558.0,-5211.0,-4203017.0,0.0,107.0,-3535.0,-1768.0,-4202.0,-20269.0,8471.0,2802.0,0.0,-156.0,1051.0,569.0,350.0,47.0,164.0,-45.0,0.0,980.0,-875.0,575.0,-510.0,-48.0,-162.0,45.0,0.0,-368.0,723.0,-97.0,403.0,-0.012955,-0.044464,0.012206,0.0,0.035894,-0.032039,-0.021059,-0.018684,-0.013229,-0.044101,0.012265,0.0,-0.013487,0.026474,0.003562,0.014781,4101.300293,11519.19043,51378.570312,0.0,-17364.330078,-17751.419922,17852.671875,-17338.050781,4095.630127,11514.599609,51565.863281,0.0,17751.871094,17721.359375,-17341.201172,18138.150391,0.0,0.0,0.0,0.0,0.0,0.0,0.0,0.0,0.0,0.0,0.0,0.0,0.0,0.0,0.0,0.0,0.0,0.0,0.0,0.0,0.0,0.0,0.0,0.0,0.0,0.0,0.0,0.0,0.0,0.0,0.0,0.0,4101.32666,11519.095703,51378.632812,0.0,-17364.332031,-17751.416016,17852.451172,-17338.279297,4095.577637,11514.568359,51565.945312,0.0,17751.871094,17721.357422,-17341.427734,18137.929688,30.113354,90.410164,22.836857,0.0,55.498158,-9.748807,25.859434,31.321754,30.071148,90.379051,22.92421,0.0,4.39777,-0.754911,43.384396,45.194881,0.998,1.546,4396988.0,-122780.0,3632144.0,0.0,193044.0,193703.0,-196595.0,188443.0,-65776.0,-119469.0,-570152.0,0.0,-197399.0,-195853.0,192111.0,-201185.0,0.0,0.0,0.0,0.0,0.0,0.0,0.0,0.0,0.0,0.0,0.0,0.0,0.0,0.0,0.0,0.0,0.0,0.0,0.0,0.0,0.0,0.0,0.0,0.0
8,0.5269489288330078,30.113163,90.410973,22.836821,0.0,55.498585,-9.749409,25.884205,31.346907,30.071533,90.379257,22.924168,0.0,4.39753,-0.754521,43.409527,45.219593,3.0,1.0,111.0,0.0,1.0,-79005.0,-26782.0,11880.0,-77676.0,25556.0,13605.0,-0.943281,-0.303102,0.135461,-0.331851,0.872817,-0.357862,-0.009764,-0.382517,-0.923897,-0.930559,0.209183,0.300505,0.319879,0.065129,0.945217,0.178152,0.975705,-0.127519,-0.943281,-0.303102,0.135461,-0.331851,0.872817,-0.357862,-0.009764,-0.382517,-0.923897,-0.930559,0.209183,0.300505,0.319879,0.065129,0.945217,0.178152,0.975705,-0.127519,-79005.0,-26782.0,11880.0,-77676.0,25556.0,13605.0,-4442558.0,-5211.0,-4203017.0,0.0,107.0,-3535.0,-1768.0,-4202.0,-20269.0,8471.0,2802.0,0.0,-156.0,1051.0,569.0,350.0,47.0,164.0,-45.0,0.0,980.0,-875.0,575.0,-510.0,-48.0,-162.0,45.0,0.0,-368.0,723.0,-96.0,403.0,-0.012955,-0.044464,0.012206,0.0,0.035894,-0.032038,-0.021072,-0.018698,-0.013229,-0.044101,0.012265,0.0,-0.013487,0.026474,0.003549,0.014768,4101.300293,11519.19043,51378.570312,0.0,-17364.330078,-17751.419922,17852.671875,-17338.050781,4095.630127,11514.599609,51565.863281,0.0,17751.871094,17721.359375,-17341.201172,18138.150391,0.0,0.0,0.0,0.0,0.0,0.0,0.0,0.0,0.0,0.0,0.0,0.0,0.0,0.0,0.0,0.0,0.0,0.0,0.0,0.0,0.0,0.0,0.0,0.0,0.0,0.0,0.0,0.0,0.0,0.0,0.0,0.0,4101.32666,11519.095703,51378.632812,0.0,-17364.332031,-17751.416016,17852.451172,-17338.279297,4095.577637,11514.568359,51565.945312,0.0,17751.871094,17721.357422,-17341.427734,18137.929688,30.113354,90.410164,22.836857,0.0,55.498158,-9.748807,25.859434,31.321754,30.071148,90.379051,22.92421,0.0,4.39777,-0.754911,43.384396,45.194881,0.998,1.546,4396988.0,-122780.0,3632144.0,0.0,193044.0,193703.0,-196595.0,188443.0,-65776.0,-119469.0,-570152.0,0.0,-197399.0,-195853.0,192111.0,-201185.0,0.0,0.0,0.0,0.0,0.0,0.0,0.0,0.0,0.0,0.0,0.0,0.0,0.0,0.0,0.0,0.0,0.0,0.0,0.0,0.0,0.0,0.0,0.0,0.0
9,0.5919950008392334,30.113163,90.410973,22.836821,0.0,55.498585,-9.749409,25.884205,31.346907,30.071533,90.379257,22.924168,0.0,4.39753,-0.754521,43.409527,45.219593,3.0,1.0,111.0,0.0,1.0,-79005.0,-26782.0,11880.0,-77676.0,25556.0,13605.0,-0.943281,-0.303102,0.135461,-0.331851,0.872817,-0.357862,-0.009764,-0.382517,-0.923897,-0.930559,0.209183,0.300505,0.319879,0.065129,0.945217,0.178152,0.975705,-0.127519,-0.943281,-0.303102,0.135461,-0.331851,0.872817,-0.357862,-0.009764,-0.382517,-0.923897,-0.930559,0.209183,0.300505,0.319879,0.065129,0.945217,0.178152,0.975705,-0.127519,-79005.0,-26782.0,11880.0,-77676.0,25556.0,13605.0,-4442558.0,-5211.0,-4203017.0,0.0,107.0,-3535.0,-1768.0,-4202.0,-20269.0,8471.0,2802.0,0.0,-156.0,1051.0,569.0,350.0,47.0,164.0,-45.0,0.0,980.0,-875.0,576.0,-511.0,-48.0,-162.0,45.0,0.0,-368.0,723.0,-96.0,403.0,-0.012955,-0.044464,0.012206,0.0,0.035894,-0.032038,-0.021085,-0.018711,-0.013229,-0.044101,0.012265,0.0,-0.013487,0.026474,0.003536,0.014755,4101.300293,11519.19043,51378.570312,0.0,-17364.330078,-17751.419922,17852.671875,-17338.050781,4095.630127,11514.599609,51565.863281,0.0,17751.871094,17721.359375,-17341.201172,18138.150391,0.0,0.0,0.0,0.0,0.0,0.0,0.0,0.0,0.0,0.0,0.0,0.0,0.0,0.0,0.0,0.0,0.0,0.0,0.0,0.0,0.0,0.0,0.0,0.0,0.0,0.0,0.0,0.0,0.0,0.0,0.0,0.0,4101.32666,11519.095703,51378.632812,0.0,-17364.332031,-17751.416016,17852.451172,-17338.279297,4095.577637,11514.568359,51565.945312,0.0,17751.871094,17721.357422,-17341.427734,18137.929688,30.113354,90.410164,22.836857,0.0,55.498158,-9.748807,25.859434,31.321754,30.071148,90.379051,22.92421,0.0,4.39777,-0.754911,43.384396,45.194881,0.998,1.546,4396988.0,-122780.0,3632144.0,0.0,193044.0,193703.0,-196595.0,188443.0,-65776.0,-119469.0,-570152.0,0.0,-197399.0,-195853.0,192111.0,-201185.0,0.0,0.0,0.0,0.0,0.0,0.0,0.0,0.0,0.0,0.0,0.0,0.0,0.0,0.0,0.0,0.0,0.0,0.0,0.0,0.0,0.0,0.0,0.0,0.0
10,0.6598949432373047,30.113163,90.410973,22.836821,0.0,55.498585,-9.749409,25.884205,31.346907,30.071533,90.379257,22.924168,0.0,4.39753,-0.754521,43.409527,45.219593,3.0,1.0,111.0,0.0,1.0,-79005.0,-26782.0,11880.0,-77676.0,25556.0,13605.0,-0.943281,-0.303102,0.135461,-0.331851,0.872817,-0.357862,-0.009764,-0.382517,-0.923897,-0.930559,0.209183,0.300505,0.319879,0.065129,0.945217,0.178152,0.975705,-0.127519,-0.943281,-0.303102,0.135461,-0.331851,0.872817,-0.357862,-0.009764,-0.382517,-0.923897,-0.930559,0.209183,0.300505,0.319879,0.065129,0.945217,0.178152,0.975705,-0.127519,-79005.0,-26782.0,11880.0,-77676.0,25556.0,13605.0,-4442558.0,-5211.0,-4203017.0,0.0,107.0,-3535.0,-1768.0,-4202.0,-20269.0,8471.0,2802.0,0.0,-156.0,1051.0,569.0,350.0,47.0,164.0,-45.0,0.0,980.0,-875.0,576.0,-511.0,-48.0,-162.0,45.0,0.0,-368.0,723.0,-96.0,402.0,-0.012955,-0.044464,0.012206,0.0,0.035894,-0.032038,-0.021098,-0.018724,-0.013229,-0.044101,0.012265,0.0,-0.013487,0.026474,0.003522,0.014742,4101.300293,11519.19043,51378.570312,0.0,-17364.330078,-17751.419922,17852.671875,-17338.050781,4095.630127,11514.599609,51565.863281,0.0,17751.871094,17721.359375,-17341.201172,18138.150391,0.0,0.0,0.0,0.0,0.0,0.0,0.0,0.0,0.0,0.0,0.0,0.0,0.0,0.0,0.0,0.0,0.0,0.0,0.0,0.0,0.0,0.0,0.0,0.0,0.0,0.0,0.0,0.0,0.0,0.0,0.0,0.0,4101.32666,11519.095703,51378.632812,0.0,-17364.332031,-17751.416016,17852.451172,-17338.279297,4095.577637,11514.568359,51565.945312,0.0,17751.871094,17721.357422,-17341.427734,18137.929688,30.113354,90.410164,22.836857,0.0,55.498158,-9.748807,25.859434,31.321754,30.071148,90.379051,22.92421,0.0,4.39777,-0.754911,43.384396,45.194881,0.998,1.546,4396988.0,-122780.0,3632144.0,0.0,193044.0,193703.0,-196595.0,188443.0,-65776.0,-119469.0,-570152.0,0.0,-197399.0,-195853.0,192111.0,-201185.0,0.0,0.0,0.0,0.0,0.0,0.0,0.0,0.0,0.0,0.0,0.0,0.0,0.0,0.0,0.0,0.0,0.0,0.0,0.0,0.0,0.0,0.0,0.0,0.0
11,0.7259540557861328,30.113163,90.410973,22.836821,0.0,55.498585,-9.749409,25.884205,31.346907,30.071533,90.379257,22.924168,0.0,4.39753,-0.754521,43.409527,45.219593,3.0,1.0,111.0,0.0,1.0,-79005.0,-26782.0,11880.0,-77676.0,25556.0,13605.0,-0.943281,-0.303102,0.135461,-0.331851,0.872817,-0.357862,-0.009764,-0.382517,-0.923897,-0.930559,0.209183,0.300505,0.319879,0.065129,0.945217,0.178152,0.975705,-0.127519,-0.943281,-0.303102,0.135461,-0.331851,0.872817,-0.357862,-0.009764,-0.382517,-0.923897,-0.930559,0.209183,0.300505,0.319879,0.065129,0.945217,0.178152,0.975705,-0.127519,-79005.0,-26782.0,11880.0,-77676.0,25556.0,13605.0,-4442558.0,-5211.0,-4203017.0,0.0,107.0,-3535.0,-1768.0,-4202.0,-20269.0,8471.0,2802.0,0.0,-156.0,1051.0,569.0,350.0,47.0,164.0,-45.0,0.0,980.0,-875.0,576.0,-512.0,-48.0,-162.0,45.0,0.0,-368.0,723.0,-95.0,402.0,-0.012955,-0.044464,0.012206,0.0,0.035894,-0.032037,-0.02111,-0.018738,-0.013229,-0.044101,0.012265,0.0,-0.013487,0.026473,0.003509,0.01473,4101.300293,11519.19043,51378.570312,0.0,-17364.330078,-17751.419922,17852.671875,-17338.050781,4095.630127,11514.599609,51565.863281,0.0,17751.871094,17721.359375,-17341.201172,18138.150391,0.0,0.0,0.0,0.0,0.0,0.0,0.0,0.0,0.0,0.0,0.0,0.0,0.0,0.0,0.0,0.0,0.0,0.0,0.0,0.0,0.0,0.0,0.0,0.0,0.0,0.0,0.0,0.0,0.0,0.0,0.0,0.0,4101.32666,11519.095703,51378.632812,0.0,-17364.332031,-17751.416016,17852.451172,-17338.279297,4095.577637,11514.568359,51565.945312,0.0,17751.871094,17721.357422,-17341.427734,18137.929688,30.113354,90.410164,22.836857,0.0,55.498158,-9.748807,25.859434,31.321754,30.071148,90.379051,22.92421,0.0,4.39777,-0.754911,43.384396,45.194881,0.998,1.546,4396988.0,-122780.0,3632144.0,0.0,193044.0,193703.0,-196595.0,188443.0,-65776.0,-119469.0,-570152.0,0.0,-197399.0,-195853.0,192111.0,-201185.0,0.0,0.0,0.0,0.0,0.0,0.0,0.0,0.0,0.0,0.0,0.0,0.0,0.0,0.0,0.0,0.0,0.0,0.0,0.0,0.0,0.0,0.0,0.0,0.0
12,0.7929520606994629,30.113163,90.410973,22.836821,0.0,55.498585,-9.749409,25.884205,31.346907,30.071533,90.379257,22.924168,0.0,4.39753,-0.754521,43.409527,45.219593,3.0,1.0,111.0,0.0,1.0,-79005.0,-26782.0,11880.0,-77676.0,25556.0,13605.0,-0.943281,-0.303102,0.135461,-0.331851,0.872817,-0.357862,-0.009764,-0.382517,-0.923897,-0.930559,0.209183,0.300505,0.319879,0.065129,0.945217,0.178152,0.975705,-0.127519,-0.943281,-0.303102,0.135461,-0.331851,0.872817,-0.357862,-0.009764,-0.382517,-0.923897,-0.930559,0.209183,0.300505,0.319879,0.065129,0.945217,0.178152,0.975705,-0.127519,-79005.0,-26782.0,11880.0,-77676.0,25556.0,13605.0,-4442558.0,-5211.0,-4203017.0,0.0,107.0,-3535.0,-1768.0,-4202.0,-20269.0,8471.0,2802.0,0.0,-156.0,1051.0,569.0,350.0,47.0,164.0,-45.0,0.0,980.0,-875.0,577.0,-512.0,-48.0,-162.0,45.0,0.0,-368.0,723.0,-95.0,402.0,-0.012955,-0.044464,0.012206,0.0,0.035893,-0.032037,-0.021123,-0.018751,-0.013229,-0.044101,0.012265,0.0,-0.013487,0.026473,0.003496,0.014717,4101.300293,11519.19043,51378.570312,0.0,-17364.330078,-17751.419922,17852.671875,-17338.050781,4095.630127,11514.599609,51565.863281,0.0,17751.871094,17721.359375,-17341.201172,18138.150391,0.0,0.0,0.0,0.0,0.0,0.0,0.0,0.0,0.0,0.0,0.0,0.0,0.0,0.0,0.0,0.0,0.0,0.0,0.0,0.0,0.0,0.0,0.0,0.0,0.0,0.0,0.0,0.0,0.0,0.0,0.0,0.0,4101.32666,11519.095703,51378.632812,0.0,-17364.332031,-17751.416016,17852.451172,-17338.279297,4095.577637,11514.568359,51565.945312,0.0,17751.871094,17721.357422,-17341.427734,18137.929688,30.113354,90.410164,22.836857,0.0,55.498158,-9.748807,25.859434,31.321754,30.071148,90.379051,22.92421,0.0,4.39777,-0.754911,43.384396,45.194881,0.998,1.546,4396988.0,-122780.0,3632144.0,0.0,193044.0,193703.0,-196595.0,188443.0,-65776.0,-119469.0,-570152.0,0.0,-197399.0,-195853.0,192111.0,-201185.0,0.0,0.0,0.0,0.0,0.0,0.0,0.0,0.0,0.0,0.0,0.0,0.0,0.0,0.0,0.0,0.0,0.0,0.0,0.0,0.0,0.0,0.0,0.0,0.0
13,0.8579959869384766,30.113163,90.410973,22.836821,0.0,55.498585,-9.749409,25.884205,31.346907,30.071533,90.379257,22.924168,0.0,4.39753,-0.754521,43.409527,45.219593,3.0,1.0,111.0,0.0,1.0,-79005.0,-26782.0,11880.0,-77676.0,25556.0,13605.0,-0.943281,-0.303102,0.135461,-0.331851,0.872817,-0.357862,-0.009764,-0.382517,-0.923897,-0.930559,0.209183,0.300505,0.319879,0.065129,0.945217,0.178152,0.975705,-0.127519,-0.943281,-0.303102,0.135461,-0.331851,0.872817,-0.357862,-0.009764,-0.382517,-0.923897,-0.930559,0.209183,0.300505,0.319879,0.065129,0.945217,0.178152,0.975705,-0.127519,-79005.0,-26782.0,11880.0,-77676.0,25556.0,13605.0,-4442558.0,-5211.0,-4203017.0,0.0,107.0,-3535.0,-1768.0,-4202.0,-20269.0,8471.0,2802.0,0.0,-156.0,1051.0,569.0,350.0,47.0,164.0,-45.0,0.0,980.0,-875.0,577.0,-512.0,-48.0,-162.0,45.0,0.0,-368.0,723.0,-95.0,401.0,-0.012955,-0.044464,0.012206,0.0,0.035893,-0.032036,-0.021136,-0.018764,-0.013229,-0.044101,0.012265,0.0,-0.013486,0.026473,0.003483,0.014704,4101.300293,11519.19043,51378.570312,0.0,-17364.330078,-17751.419922,17852.671875,-17338.050781,4095.630127,11514.599609,51565.863281,0.0,17751.871094,17721.359375,-17341.201172,18138.150391,0.0,0.0,0.0,0.0,0.0,0.0,0.0,0.0,0.0,0.0,0.0,0.0,0.0,0.0,0.0,0.0,0.0,0.0,0.0,0.0,0.0,0.0,0.0,0.0,0.0,0.0,0.0,0.0,0.0,0.0,0.0,0.0,4101.32666,11519.095703,51378.632812,0.0,-17364.332031,-17751.416016,17852.451172,-17338.279297,4095.577637,11514.568359,51565.945312,0.0,17751.871094,17721.357422,-17341.427734,18137.929688,30.113354,90.410164,22.836857,0.0,55.498158,-9.748807,25.859434,31.321754,30.071148,90.379051,22.92421,0.0,4.39777,-0.754911,43.384396,45.194881,0.998,1.546,4396988.0,-122780.0,3632144.0,0.0,193044.0,193703.0,-196595.0,188443.0,-65776.0,-119469.0,-570152.0,0.0,-197399.0,-195853.0,192111.0,-201185.0,0.0,0.0,0.0,0.0,0.0,0.0,0.0,0.0,0.0,0.0,0.0,0.0,0.0,0.0,0.0,0.0,0.0,0.0,0.0,0.0,0.0,0.0,0.0,0.0
14,0.9249608516693115,30.113163,90.410973,22.836821,0.0,55.498585,-9.749409,25.884205,31.346907,30.071533,90.379257,22.924168,0.0,4.39753,-0.754521,43.409527,45.219593,3.0,1.0,111.0,0.0,1.0,-79005.0,-26782.0,11880.0,-77676.0,25556.0,13605.0,-0.943281,-0.303102,0.135461,-0.331851,0.872817,-0.357862,-0.009764,-0.382517,-0.923897,-0.930559,0.209183,0.300505,0.319879,0.065129,0.945217,0.178152,0.975705,-0.127519,-0.943281,-0.303102,0.135461,-0.331851,0.872817,-0.357862,-0.009764,-0.382517,-0.923897,-0.930559,0.209183,0.300505,0.319879,0.065129,0.945217,0.178152,0.975705,-0.127519,-79005.0,-26782.0,11880.0,-77676.0,25556.0,13605.0,-4442558.0,-5211.0,-4203017.0,0.0,107.0,-3535.0,-1768.0,-4202.0,-20269.0,8471.0,2802.0,0.0,-156.0,1051.0,569.0,350.0,47.0,164.0,-45.0,0.0,980.0,-875.0,577.0,-513.0,-48.0,-162.0,45.0,0.0,-368.0,723.0,-94.0,401.0,-0.012955,-0.044464,0.012206,0.0,0.035893,-0.032036,-0.021149,-0.018777,-0.013229,-0.044101,0.012265,0.0,-0.013486,0.026473,0.00347,0.014691,4101.300293,11519.19043,51378.570312,0.0,-17364.330078,-17751.419922,17852.671875,-17338.050781,4095.630127,11514.599609,51565.863281,0.0,17751.871094,17721.359375,-17341.201172,18138.150391,0.0,0.0,0.0,0.0,0.0,0.0,0.0,0.0,0.0,0.0,0.0,0.0,0.0,0.0,0.0,0.0,0.0,0.0,0.0,0.0,0.0,0.0,0.0,0.0,0.0,0.0,0.0,0.0,0.0,0.0,0.0,0.0,4101.32666,11519.095703,51378.632812,0.0,-17364.332031,-17751.416016,17852.451172,-17338.279297,4095.577637,11514.568359,51565.945312,0.0,17751.871094,17721.357422,-17341.427734,18137.929688,30.113354,90.410164,22.836857,0.0,55.498158,-9.748807,25.859434,31.321754,30.071148,90.379051,22.92421,0.0,4.39777,-0.754911,43.384396,45.194881,0.998,1.546,4396988.0,-122780.0,3632144.0,0.0,193044.0,193703.0,-196595.0,188443.0,-65776.0,-119469.0,-570152.0,0.0,-197399.0,-195853.0,192111.0,-201185.0,0.0,0.0,0.0,0.0,0.0,0.0,0.0,0.0,0.0,0.0,0.0,0.0,0.0,0.0,0.0,0.0,0.0,0.0,0.0,0.0,0.0,0.0,0.0,0.0
15,0.9899518489837646,30.113163,90.410973,22.836821,0.0,55.498585,-9.749409,25.884205,31.346907,30.071533,90.379257,22.924168,0.0,4.39753,-0.754521,43.409527,45.219593,3.0,1.0,111.0,0.0,1.0,-79005.0,-26782.0,11880.0,-77676.0,25556.0,13605.0,-0.943281,-0.303102,0.135461,-0.331851,0.872817,-0.357862,-0.009764,-0.382517,-0.923897,-0.930559,0.209183,0.300505,0.319879,0.065129,0.945217,0.178152,0.975705,-0.127519,-0.943281,-0.303102,0.135461,-0.331851,0.872817,-0.357862,-0.009764,-0.382517,-0.923897,-0.930559,0.209183,0.300505,0.319879,0.065129,0.945217,0.178152,0.975705,-0.127519,-79005.0,-26782.0,11880.0,-77676.0,25556.0,13605.0,-4442558.0,-5211.0,-4203017.0,0.0,107.0,-3535.0,-1768.0,-4202.0,-20269.0,8471.0,2802.0,0.0,-156.0,1051.0,569.0,350.0,47.0,164.0,-45.0,0.0,980.0,-875.0,578.0,-513.0,-48.0,-162.0,45.0,0.0,-368.0,723.0,-94.0,401.0,-0.012955,-0.044464,0.012206,0.0,0.035893,-0.032036,-0.021161,-0.01879,-0.013229,-0.044101,0.012265,0.0,-0.013486,0.026473,0.003457,0.014679,4101.300293,11519.19043,51378.570312,0.0,-17364.330078,-17751.419922,17852.671875,-17338.050781,4095.630127,11514.599609,51565.863281,0.0,17751.871094,17721.359375,-17341.201172,18138.150391,0.0,0.0,0.0,0.0,0.0,0.0,0.0,0.0,0.0,0.0,0.0,0.0,0.0,0.0,0.0,0.0,0.0,0.0,0.0,0.0,0.0,0.0,0.0,0.0,0.0,0.0,0.0,0.0,0.0,0.0,0.0,0.0,4101.32666,11519.095703,51378.632812,0.0,-17364.332031,-17751.416016,17852.451172,-17338.279297,4095.577637,11514.568359,51565.945312,0.0,17751.871094,17721.357422,-17341.427734,18137.929688,30.113354,90.410164,22.836857,0.0,55.498158,-9.748807,25.859434,31.321754,30.071148,90.379051,22.92421,0.0,4.39777,-0.754911,43.384396,45.194881,0.998,1.546,4396988.0,-122780.0,3632144.0,0.0,193044.0,193703.0,-196595.0,188443.0,-65776.0,-119469.0,-570152.0,0.0,-197399.0,-195853.0,192111.0,-201185.0,0.0,0.0,0.0,0.0,0.0,0.0,0.0,0.0,0.0,0.0,0.0,0.0,0.0,0.0,0.0,0.0,0.0,0.0,0.0,0.0,0.0,0.0,0.0,0.0
16,1.0580110549926758,30.113163,90.410973,22.836821,0.0,55.515114,-9.749409,25.884205,31.346907,30.071533,90.379257,22.924168,0.0,4.39753,-0.754521,43.409527,45.219593,3.0,1.0,111.0,0.0,1.0,-79005.0,-26781.0,11880.0,-77676.0,25556.0,13605.0,-0.943298,-0.303094,0.135362,-0.331804,0.872935,-0.357618,-0.00977,-0.382254,-0.924006,-0.930559,0.209183,0.300505,0.319879,0.065129,0.945217,0.178152,0.975705,-0.127519,-0.943298,-0.303094,0.135362,-0.331804,0.872935,-0.357618,-0.00977,-0.382254,-0.924006,-0.930559,0.209183,0.300505,0.319879,0.065129,0.945217,0.178152,0.975705,-0.127519,-79005.0,-26781.0,11880.0,-77676.0,25556.0,13605.0,-4442558.0,-5211.0,-4203017.0,0.0,108.0,-3535.0,-1768.0,-4202.0,-20269.0,8471.0,2802.0,0.0,-156.0,1051.0,569.0,350.0,47.0,164.0,-45.0,0.0,976.0,-875.0,578.0,-513.0,-48.0,-162.0,45.0,0.0,-368.0,723.0,-94.0,400.0,-0.012955,-0.044464,0.012206,0.0,0.035749,-0.032035,-0.021174,-0.018804,-0.013229,-0.044101,0.012265,0.0,-0.013486,0.026472,0.003444,0.014666,4101.300293,11519.19043,51378.570312,0.0,-17364.240234,-17751.419922,17852.671875,-17338.050781,4095.630127,11514.599609,51565.863281,0.0,17751.871094,17721.359375,-17341.201172,18138.150391,0.0,0.0,0.0,0.0,0.0,0.0,0.0,0.0,0.0,0.0,0.0,0.0,0.0,0.0,0.0,0.0,0.0,0.0,0.0,0.0,0.0,0.0,0.0,0.0,0.0,0.0,0.0,0.0,0.0,0.0,0.0,0.0,4101.32666,11519.095703,51378.632812,0.0,-17364.332031,-17751.416016,17852.451172,-17338.279297,4095.577637,11514.568359,51565.945312,0.0,17751.871094,17721.357422,-17341.427734,18137.929688,30.113354,90.410164,22.836857,0.0,55.498158,-9.748807,25.859434,31.321754,30.071148,90.379051,22.92421,0.0,4.39777,-0.754911,43.384396,45.194881,0.998,1.546,4396988.0,-122780.0,3632144.0,0.0,193044.0,193703.0,-196595.0,188443.0,-65776.0,-119469.0,-570152.0,0.0,-197399.0,-195853.0,192111.0,-201185.0,0.0,0.0,0.0,0.0,0.0,0.0,0.0,0.0,0.0,0.0,0.0,0.0,0.0,0.0,0.0,0.0,0.0,0.0,0.0,0.0,0.0,0.0,0.0,0.0
17,1.124979019165039,30.113163,90.410973,22.836821,0.0,55.515114,-9.749409,25.884205,31.346907,30.071533,90.379257,22.924168,0.0,4.39753,-0.754521,43.409527,45.219593,3.0,1.0,111.0,0.0,1.0,-79005.0,-26781.0,11880.0,-77676.0,25556.0,13605.0,-0.943298,-0.303094,0.135362,-0.331804,0.872935,-0.357618,-0.00977,-0.382254,-0.924006,-0.930559,0.209183,0.300505,0.319879,0.065129,0.945217,0.178152,0.975705,-0.127519,-0.943298,-0.303094,0.135362,-0.331804,0.872935,-0.357618,-0.00977,-0.382254,-0.924006,-0.930559,0.209183,0.300505,0.319879,0.065129,0.945217,0.178152,0.975705,-0.127519,-79005.0,-26781.0,11880.0,-77676.0,25556.0,13605.0,-4442558.0,-5211.0,-4203017.0,0.0,108.0,-3535.0,-1768.0,-4202.0,-20269.0,8471.0,2802.0,0.0,-156.0,1051.0,569.0,350.0,47.0,164.0,-45.0,0.0,976.0,-875.0,579.0,-514.0,-48.0,-162.0,45.0,0.0,-368.0,723.0,-93.0,400.0,-0.012955,-0.044464,0.012206,0.0,0.035744,-0.032035,-0.021187,-0.018817,-0.013229,-0.044101,0.012265,0.0,-0.013486,0.026472,0.00343,0.014653,4101.300293,11519.19043,51378.570312,0.0,-17364.240234,-17751.419922,17852.671875,-17338.050781,4095.630127,11514.599609,51565.863281,0.0,17751.871094,17721.359375,-17341.201172,18138.150391,0.0,0.0,0.0,0.0,0.0,0.0,0.0,0.0,0.0,0.0,0.0,0.0,0.0,0.0,0.0,0.0,0.0,0.0,0.0,0.0,0.0,0.0,0.0,0.0,0.0,0.0,0.0,0.0,0.0,0.0,0.0,0.0,4101.32666,11519.095703,51378.632812,0.0,-17364.332031,-17751.416016,17852.451172,-17338.279297,4095.577637,11514.568359,51565.945312,0.0,17751.871094,17721.357422,-17341.427734,18137.929688,30.113354,90.410164,22.836857,0.0,55.498158,-9.748807,25.859434,31.321754,30.071148,90.379051,22.92421,0.0,4.39777,-0.754911,43.384396,45.194881,0.998,1.546,4396988.0,-122780.0,3632144.0,0.0,193044.0,193703.0,-196595.0,188443.0,-65776.0,-119469.0,-570152.0,0.0,-197399.0,-195853.0,192111.0,-201185.0,0.0,0.0,0.0,0.0,0.0,0.0,0.0,0.0,0.0,0.0,0.0,0.0,0.0,0.0,0.0,0.0,0.0,0.0,0.0,0.0,0.0,0.0,0.0,0.0
18,1.18996000289917,30.113163,90.410973,22.836821,0.0,55.515114,-9.749409,25.884205,31.346907,30.071533,90.379257,22.924168,0.0,4.39753,-0.754521,43.409527,45.219593,3.0,1.0,111.0,0.0,1.0,-79005.0,-26781.0,11880.0,-77676.0,25556.0,13605.0,-0.943298,-0.303094,0.135362,-0.331804,0.872935,-0.357618,-0.00977,-0.382254,-0.924006,-0.930559,0.209183,0.300505,0.319879,0.065129,0.945217,0.178152,0.975705,-0.127519,-0.943298,-0.303094,0.135362,-0.331804,0.872935,-0.357618,-0.00977,-0.382254,-0.924006,-0.930559,0.209183,0.300505,0.319879,0.065129,0.945217,0.178152,0.975705,-0.127519,-79005.0,-26781.0,11880.0,-77676.0,25556.0,13605.0,-4442558.0,-5211.0,-4203017.0,0.0,108.0,-3535.0,-1768.0,-4202.0,-20269.0,8471.0,2802.0,0.0,-156.0,1051.0,569.0,350.0,47.0,164.0,-45.0,0.0,976.0,-875.0,579.0,-514.0,-48.0,-162.0,45.0,0.0,-368.0,723.0,-93.0,400.0,-0.012955,-0.044464,0.012206,0.0,0.035739,-0.032034,-0.0212,-0.01883,-0.013229,-0.044101,0.012265,0.0,-0.013486,0.026472,0.003417,0.01464,4101.300293,11519.19043,51378.570312,0.0,-17364.240234,-17751.419922,17852.671875,-17338.050781,4095.630127,11514.599609,51565.863281,0.0,17751.871094,17721.359375,-17341.201172,18138.150391,0.0,0.0,0.0,0.0,0.0,0.0,0.0,0.0,0.0,0.0,0.0,0.0,0.0,0.0,0.0,0.0,0.0,0.0,0.0,0.0,0.0,0.0,0.0,0.0,0.0,0.0,0.0,0.0,0.0,0.0,0.0,0.0,4101.32666,11519.095703,51378.632812,0.0,-17364.332031,-17751.416016,17852.451172,-17338.279297,4095.577637,11514.568359,51565.945312,0.0,17751.871094,17721.357422,-17341.427734,18137.929688,30.113354,90.410164,22.836857,0.0,55.498158,-9.748807,25.859434,31.321754,30.071148,90.379051,22.92421,0.0,4.39777,-0.754911,43.384396,45.194881,0.998,1.546,4396988.0,-122780.0,3632144.0,0.0,193044.0,193703.0,-196595.0,188443.0,-65776.0,-119469.0,-570152.0,0.0,-197399.0,-195853.0,192111.0,-201185.0,0.0,0.0,0.0,0.0,0.0,0.0,0.0,0.0,0.0,0.0,0.0,0.0,0.0,0.0,0.0,0.0,0.0,0.0,0.0,0.0,0.0,0.0,0.0,0.0
19,1.2559168338775635,30.113163,90.410973,22.836821,0.0,55.515114,-9.749409,25.884205,31.346907,30.071533,90.379257,22.924168,0.0,4.39753,-0.754521,43.409527,45.219593,3.0,1.0,111.0,0.0,1.0,-79005.0,-26781.0,11880.0,-77676.0,25556.0,13605.0,-0.943298,-0.303094,0.135362,-0.331804,0.872935,-0.357618,-0.00977,-0.382254,-0.924006,-0.930559,0.209183,0.300505,0.319879,0.065129,0.945217,0.178152,0.975705,-0.127519,-0.943298,-0.303094,0.135362,-0.331804,0.872935,-0.357618,-0.00977,-0.382254,-0.924006,-0.930559,0.209183,0.300505,0.319879,0.065129,0.945217,0.178152,0.975705,-0.127519,-79005.0,-26781.0,11880.0,-77676.0,25556.0,13605.0,-4442558.0,-5211.0,-4203017.0,0.0,108.0,-3535.0,-1768.0,-4202.0,-20269.0,8471.0,2802.0,0.0,-156.0,1051.0,569.0,350.0,47.0,164.0,-45.0,0.0,976.0,-875.0,579.0,-514.0,-48.0,-162.0,45.0,0.0,-368.0,723.0,-93.0,399.0,-0.012955,-0.044464,0.012206,0.0,0.035733,-0.032034,-0.021212,-0.018843,-0.013229,-0.044101,0.012265,0.0,-0.013486,0.026472,0.003404,0.014628,4101.300293,11519.19043,51378.570312,0.0,-17364.240234,-17751.419922,17852.671875,-17338.050781,4095.630127,11514.599609,51565.863281,0.0,17751.871094,17721.359375,-17341.201172,18138.150391,0.0,0.0,0.0,0.0,0.0,0.0,0.0,0.0,0.0,0.0,0.0,0.0,0.0,0.0,0.0,0.0,0.0,0.0,0.0,0.0,0.0,0.0,0.0,0.0,0.0,0.0,0.0,0.0,0.0,0.0,0.0,0.0,4101.32666,11519.095703,51378.632812,0.0,-17364.332031,-17751.416016,17852.451172,-17338.279297,4095.577637,11514.568359,51565.945312,0.0,17751.871094,17721.357422,-17341.427734,18137.929688,30.113354,90.410164,22.836857,0.0,55.498158,-9.748807,25.859434,31.321754,30.071148,90.379051,22.92421,0.0,4.39777,-0.754911,43.384396,45.194881,0.998,1.546,4396988.0,-122780.0,3632144.0,0.0,193044.0,193703.0,-196595.0,188443.0,-65776.0,-119469.0,-570152.0,0.0,-197399.0,-195853.0,192111.0,-201185.0,0.0,0.0,0.0,0.0,0.0,0.0,0.0,0.0,0.0,0.0,0.0,0.0,0.0,0.0,0.0,0.0,0.0,0.0,0.0,0.0,0.0,0.0,0.0,0.0
20,1.3209500312805176,30.113163,90.410973,22.836821,0.0,55.515114,-9.749409,25.884205,31.346907,30.071533,90.379257,22.924168,0.0,4.39753,-0.754521,43.409527,45.219593,3.0,1.0,111.0,0.0,1.0,-79005.0,-26781.0,11880.0,-77676.0,25556.0,13605.0,-0.943298,-0.303094,0.135362,-0.331804,0.872935,-0.357618,-0.00977,-0.382254,-0.924006,-0.930559,0.209183,0.300505,0.319879,0.065129,0.945217,0.178152,0.975705,-0.127519,-0.943298,-0.303094,0.135362,-0.331804,0.872935,-0.357618,-0.00977,-0.382254,-0.924006,-0.930559,0.209183,0.300505,0.319879,0.065129,0.945217,0.178152,0.975705,-0.127519,-79005.0,-26781.0,11880.0,-77676.0,25556.0,13605.0,-4442558.0,-5211.0,-4203017.0,0.0,108.0,-3535.0,-1768.0,-4202.0,-20269.0,8471.0,2802.0,0.0,-156.0,1051.0,569.0,350.0,47.0,164.0,-45.0,0.0,976.0,-875.0,580.0,-515.0,-48.0,-162.0,45.0,0.0,-368.0,723.0,-92.0,399.0,-0.012955,-0.044464,0.012206,0.0,0.035728,-0.032034,-0.021225,-0.018856,-0.013229,-0.044101,0.012265,0.0,-0.013486,0.026472,0.003391,0.014615,4101.300293,11519.19043,51378.570312,0.0,-17364.240234,-17751.419922,17852.671875,-17338.050781,4095.630127,11514.599609,51565.863281,0.0,17751.871094,17721.359375,-17341.201172,18138.150391,0.0,0.0,0.0,0.0,0.0,0.0,0.0,0.0,0.0,0.0,0.0,0.0,0.0,0.0,0.0,0.0,0.0,0.0,0.0,0.0,0.0,0.0,0.0,0.0,0.0,0.0,0.0,0.0,0.0,0.0,0.0,0.0,4101.32666,11519.095703,51378.632812,0.0,-17364.332031,-17751.416016,17852.451172,-17338.279297,4095.577637,11514.568359,51565.945312,0.0,17751.871094,17721.357422,-17341.427734,18137.929688,30.113354,90.410164,22.836857,0.0,55.498158,-9.748807,25.859434,31.321754,30.071148,90.379051,22.92421,0.0,4.39777,-0.754911,43.384396,45.194881,0.998,1.546,4396988.0,-122780.0,3632144.0,0.0,193044.0,193703.0,-196595.0,188443.0,-65776.0,-119469.0,-570152.0,0.0,-197399.0,-195853.0,192111.0,-201185.0,0.0,0.0,0.0,0.0,0.0,0.0,0.0,0.0,0.0,0.0,0.0,0.0,0.0,0.0,0.0,0.0,0.0,0.0,0.0,0.0,0.0,0.0,0.0,0.0
21,1.3869500160217285,30.113163,90.410973,22.836821,0.0,55.515114,-9.749409,25.884205,31.346907,30.071533,90.379257,22.924168,0.0,4.39753,-0.754521,43.409527,45.219593,3.0,1.0,111.0,0.0,1.0,-79005.0,-26781.0,11880.0,-77676.0,25556.0,13605.0,-0.943298,-0.303094,0.135362,-0.331804,0.872935,-0.357618,-0.00977,-0.382254,-0.924006,-0.930559,0.209183,0.300505,0.319879,0.065129,0.945217,0.178152,0.975705,-0.127519,-0.943298,-0.303094,0.135362,-0.331804,0.872935,-0.357618,-0.00977,-0.382254,-0.924006,-0.930559,0.209183,0.300505,0.319879,0.065129,0.945217,0.178152,0.975705,-0.127519,-79005.0,-26781.0,11880.0,-77676.0,25556.0,13605.0,-4442558.0,-5211.0,-4203017.0,0.0,108.0,-3535.0,-1768.0,-4202.0,-20269.0,8471.0,2802.0,0.0,-156.0,1051.0,569.0,350.0,47.0,164.0,-45.0,0.0,976.0,-875.0,580.0,-515.0,-48.0,-162.0,45.0,0.0,-368.0,723.0,-92.0,399.0,-0.012955,-0.044464,0.012206,0.0,0.035723,-0.032033,-0.021238,-0.01887,-0.013229,-0.044101,0.012265,0.0,-0.013486,0.026472,0.003378,0.014603,4101.300293,11519.19043,51378.570312,0.0,-17364.240234,-17751.419922,17852.671875,-17338.050781,4095.630127,11514.599609,51565.863281,0.0,17751.871094,17721.359375,-17341.201172,18138.150391,0.0,0.0,0.0,0.0,0.0,0.0,0.0,0.0,0.0,0.0,0.0,0.0,0.0,0.0,0.0,0.0,0.0,0.0,0.0,0.0,0.0,0.0,0.0,0.0,0.0,0.0,0.0,0.0,0.0,0.0,0.0,0.0,4101.32666,11519.095703,51378.632812,0.0,-17364.332031,-17751.416016,17852.451172,-17338.279297,4095.577637,11514.568359,51565.945312,0.0,17751.871094,17721.357422,-17341.427734,18137.929688,30.113354,90.410164,22.836857,0.0,55.498158,-9.748807,25.859434,31.321754,30.071148,90.379051,22.92421,0.0,4.39777,-0.754911,43.384396,45.194881,0.998,1.546,4396988.0,-122780.0,3632144.0,0.0,193044.0,193703.0,-196595.0,188443.0,-65776.0,-119469.0,-570152.0,0.0,-197399.0,-195853.0,192111.0,-201185.0,0.0,0.0,0.0,0.0,0.0,0.0,0.0,0.0,0.0,0.0,0.0,0.0,0.0,0.0,0.0,0.0,0.0,0.0,0.0,0.0,0.0,0.0,0.0,0.0
22,1.4530010223388672,30.113163,90.410973,22.836821,0.0,55.515114,-9.749409,25.884205,31.346907,30.071533,90.379257,22.924168,0.0,4.39753,-0.754521,43.409527,45.219593,3.0,1.0,111.0,0.0,1.0,-79005.0,-26781.0,11880.0,-77676.0,25556.0,13605.0,-0.943298,-0.303094,0.135362,-0.331804,0.872935,-0.357618,-0.00977,-0.382254,-0.924006,-0.930559,0.209183,0.300505,0.319879,0.065129,0.945217,0.178152,0.975705,-0.127519,-0.943298,-0.303094,0.135362,-0.331804,0.872935,-0.357618,-0.00977,-0.382254,-0.924006,-0.930559,0.209183,0.300505,0.319879,0.065129,0.945217,0.178152,0.975705,-0.127519,-79005.0,-26781.0,11880.0,-77676.0,25556.0,13605.0,-4442558.0,-5211.0,-4203017.0,0.0,108.0,-3535.0,-1768.0,-4202.0,-20269.0,8471.0,2802.0,0.0,-156.0,1051.0,569.0,350.0,47.0,164.0,-45.0,0.0,976.0,-875.0,580.0,-516.0,-48.0,-162.0,45.0,0.0,-368.0,723.0,-91.0,398.0,-0.012955,-0.044464,0.012206,0.0,0.035717,-0.032033,-0.02125,-0.018883,-0.013229,-0.044101,0.012265,0.0,-0.013486,0.026471,0.003365,0.01459,4101.300293,11519.19043,51378.570312,0.0,-17364.240234,-17751.419922,17852.671875,-17338.050781,4095.630127,11514.599609,51565.863281,0.0,17751.871094,17721.359375,-17341.201172,18138.150391,0.0,0.0,0.0,0.0,0.0,0.0,0.0,0.0,0.0,0.0,0.0,0.0,0.0,0.0,0.0,0.0,0.0,0.0,0.0,0.0,0.0,0.0,0.0,0.0,0.0,0.0,0.0,0.0,0.0,0.0,0.0,0.0,4101.32666,11519.095703,51378.632812,0.0,-17364.332031,-17751.416016,17852.451172,-17338.279297,4095.577637,11514.568359,51565.945312,0.0,17751.871094,17721.357422,-17341.427734,18137.929688,30.113354,90.410164,22.836857,0.0,55.498158,-9.748807,25.859434,31.321754,30.071148,90.379051,22.92421,0.0,4.39777,-0.754911,43.384396,45.194881,0.998,1.546,4396988.0,-122780.0,3632144.0,0.0,193044.0,193703.0,-196595.0,188443.0,-65776.0,-119469.0,-570152.0,0.0,-197399.0,-195853.0,192111.0,-201185.0,0.0,0.0,0.0,0.0,0.0,0.0,0.0,0.0,0.0,0.0,0.0,0.0,0.0,0.0,0.0,0.0,0.0,0.0,0.0,0.0,0.0,0.0,0.0,0.0
23,1.5188970565795898,30.113163,90.410973,22.836821,0.0,55.515114,-9.749409,25.884205,31.346907,30.071533,90.379257,22.924168,0.0,4.39753,-0.754521,43.409527,45.219593,3.0,1.0,111.0,0.0,1.0,-79005.0,-26781.0,11880.0,-77676.0,25556.0,13605.0,-0.943298,-0.303094,0.135362,-0.331804,0.872935,-0.357618,-0.00977,-0.382254,-0.924006,-0.930559,0.209183,0.300505,0.319879,0.065129,0.945217,0.178152,0.975705,-0.127519,-0.943298,-0.303094,0.135362,-0.331804,0.872935,-0.357618,-0.00977,-0.382254,-0.924006,-0.930559,0.209183,0.300505,0.319879,0.065129,0.945217,0.178152,0.975705,-0.127519,-79005.0,-26781.0,11880.0,-77676.0,25556.0,13605.0,-4442558.0,-5211.0,-4203017.0,0.0,108.0,-3535.0,-1768.0,-4202.0,-20269.0,8471.0,2802.0,0.0,-156.0,1051.0,569.0,350.0,47.0,164.0,-45.0,0.0,975.0,-875.0,581.0,-516.0,-48.0,-162.0,45.0,0.0,-368.0,723.0,-91.0,398.0,-0.012955,-0.044464,0.012206,0.0,0.035712,-0.032032,-0.021263,-0.018896,-0.013229,-0.044101,0.012265,0.0,-0.013485,0.026471,0.003352,0.014577,4101.300293,11519.19043,51378.570312,0.0,-17364.240234,-17751.419922,17852.671875,-17338.050781,4095.630127,11514.599609,51565.863281,0.0,17751.871094,17721.359375,-17341.201172,18138.150391,0.0,0.0,0.0,0.0,0.0,0.0,0.0,0.0,0.0,0.0,0.0,0.0,0.0,0.0,0.0,0.0,0.0,0.0,0.0,0.0,0.0,0.0,0.0,0.0,0.0,0.0,0.0,0.0,0.0,0.0,0.0,0.0,4101.32666,11519.095703,51378.632812,0.0,-17364.332031,-17751.416016,17852.451172,-17338.279297,4095.577637,11514.568359,51565.945312,0.0,17751.871094,17721.357422,-17341.427734,18137.929688,30.113354,90.410164,22.836857,0.0,55.498158,-9.748807,25.859434,31.321754,30.071148,90.379051,22.92421,0.0,4.39777,-0.754911,43.384396,45.194881,0.998,1.546,4396988.0,-122780.0,3632144.0,0.0,193044.0,193703.0,-196595.0,188443.0,-65776.0,-119469.0,-570152.0,0.0,-197399.0,-195853.0,192111.0,-201185.0,0.0,0.0,0.0,0.0,0.0,0.0,0.0,0.0,0.0,0.0,0.0,0.0,0.0,0.0,0.0,0.0,0.0,0.0,0.0,0.0,0.0,0.0,0.0,0.0
24,1.583967924118042,30.113163,90.410973,22.836821,0.0,55.515114,-9.749409,25.884205,31.346907,30.071533,90.379257,22.924168,0.0,4.39753,-0.754521,43.409527,45.219593,3.0,1.0,111.0,0.0,1.0,-79005.0,-26781.0,11880.0,-77676.0,25556.0,13605.0,-0.943298,-0.303094,0.135362,-0.331804,0.872935,-0.357618,-0.00977,-0.382254,-0.924006,-0.930559,0.209183,0.300505,0.319879,0.065129,0.945217,0.178152,0.975705,-0.127519,-0.943298,-0.303094,0.135362,-0.331804,0.872935,-0.357618,-0.00977,-0.382254,-0.924006,-0.930559,0.209183,0.300505,0.319879,0.065129,0.945217,0.178152,0.975705,-0.127519,-79005.0,-26781.0,11880.0,-77676.0,25556.0,13605.0,-4442558.0,-5211.0,-4203017.0,0.0,108.0,-3535.0,-1768.0,-4202.0,-20269.0,8471.0,2802.0,0.0,-156.0,1051.0,569.0,350.0,47.0,164.0,-45.0,0.0,975.0,-875.0,581.0,-516.0,-48.0,-162.0,45.0,0.0,-368.0,723.0,-91.0,398.0,-0.012955,-0.044464,0.012206,0.0,0.035707,-0.032032,-0.021275,-0.018909,-0.013229,-0.044101,0.012265,0.0,-0.013485,0.026471,0.003339,0.014565,4101.300293,11519.19043,51378.570312,0.0,-17364.240234,-17751.419922,17852.671875,-17338.050781,4095.630127,11514.599609,51565.863281,0.0,17751.871094,17721.359375,-17341.201172,18138.150391,0.0,0.0,0.0,0.0,0.0,0.0,0.0,0.0,0.0,0.0,0.0,0.0,0.0,0.0,0.0,0.0,0.0,0.0,0.0,0.0,0.0,0.0,0.0,0.0,0.0,0.0,0.0,0.0,0.0,0.0,0.0,0.0,4101.32666,11519.095703,51378.632812,0.0,-17364.332031,-17751.416016,17852.451172,-17338.279297,4095.577637,11514.568359,51565.945312,0.0,17751.871094,17721.357422,-17341.427734,18137.929688,30.113354,90.410164,22.836857,0.0,55.498158,-9.748807,25.859434,31.321754,30.071148,90.379051,22.92421,0.0,4.39777,-0.754911,43.384396,45.194881,0.998,1.546,4396988.0,-122780.0,3632144.0,0.0,193044.0,193703.0,-196595.0,188443.0,-65776.0,-119469.0,-570152.0,0.0,-197399.0,-195853.0,192111.0,-201185.0,0.0,0.0,0.0,0.0,0.0,0.0,0.0,0.0,0.0,0.0,0.0,0.0,0.0,0.0,0.0,0.0,0.0,0.0,0.0,0.0,0.0,0.0,0.0,0.0
25,1.6519489288330078,30.113163,90.410973,22.836821,0.0,55.515114,-9.749409,25.884205,31.346907,30.071533,90.379257,22.924168,0.0,4.39753,-0.754521,43.409527,45.219593,3.0,1.0,111.0,0.0,1.0,-79005.0,-26781.0,11880.0,-77676.0,25556.0,13605.0,-0.943298,-0.303094,0.135362,-0.331804,0.872935,-0.357618,-0.00977,-0.382254,-0.924006,-0.930559,0.209183,0.300505,0.319879,0.065129,0.945217,0.178152,0.975705,-0.127519,-0.943298,-0.303094,0.135362,-0.331804,0.872935,-0.357618,-0.00977,-0.382254,-0.924006,-0.930559,0.209183,0.300505,0.319879,0.065129,0.945217,0.178152,0.975705,-0.127519,-79005.0,-26781.0,11880.0,-77676.0,25556.0,13605.0,-4442558.0,-5211.0,-4203017.0,0.0,108.0,-3535.0,-1768.0,-4202.0,-20269.0,8471.0,2802.0,0.0,-156.0,1051.0,569.0,350.0,47.0,164.0,-45.0,0.0,975.0,-875.0,581.0,-517.0,-48.0,-162.0,45.0,0.0,-368.0,723.0,-90.0,397.0,-0.012955,-0.044464,0.012206,0.0,0.035701,-0.032032,-0.021288,-0.018922,-0.013229,-0.044101,0.012265,0.0,-0.013485,0.026471,0.003326,0.014552,4101.300293,11519.19043,51378.570312,0.0,-17364.240234,-17751.419922,17852.671875,-17338.050781,4095.630127,11514.599609,51565.863281,0.0,17751.871094,17721.359375,-17341.201172,18138.150391,0.0,0.0,0.0,0.0,0.0,0.0,0.0,0.0,0.0,0.0,0.0,0.0,0.0,0.0,0.0,0.0,0.0,0.0,0.0,0.0,0.0,0.0,0.0,0.0,0.0,0.0,0.0,0.0,0.0,0.0,0.0,0.0,4101.32666,11519.095703,51378.632812,0.0,-17364.332031,-17751.416016,17852.451172,-17338.279297,4095.577637,11514.568359,51565.945312,0.0,17751.871094,17721.357422,-17341.427734,18137.929688,30.113354,90.410164,22.836857,0.0,55.498158,-9.748807,25.859434,31.321754,30.071148,90.379051,22.92421,0.0,4.39777,-0.754911,43.384396,45.194881,0.998,1.546,4396988.0,-122780.0,3632144.0,0.0,193044.0,193703.0,-196595.0,188443.0,-65776.0,-119469.0,-570152.0,0.0,-197399.0,-195853.0,192111.0,-201185.0,0.0,0.0,0.0,0.0,0.0,0.0,0.0,0.0,0.0,0.0,0.0,0.0,0.0,0.0,0.0,0.0,0.0,0.0,0.0,0.0,0.0,0.0,0.0,0.0
26,1.7179620265960693,30.113163,90.410973,22.836821,0.0,55.515114,-9.749409,25.884205,31.346907,30.071533,90.379257,22.924168,0.0,4.39753,-0.754521,43.409527,45.219593,3.0,1.0,111.0,0.0,1.0,-79005.0,-26781.0,11880.0,-77676.0,25556.0,13605.0,-0.943298,-0.303094,0.135362,-0.331804,0.872935,-0.357618,-0.00977,-0.382254,-0.924006,-0.930559,0.209183,0.300505,0.319879,0.065129,0.945217,0.178152,0.975705,-0.127519,-0.943298,-0.303094,0.135362,-0.331804,0.872935,-0.357618,-0.00977,-0.382254,-0.924006,-0.930559,0.209183,0.300505,0.319879,0.065129,0.945217,0.178152,0.975705,-0.127519,-79005.0,-26781.0,11880.0,-77676.0,25556.0,13605.0,-4442558.0,-5211.0,-4203017.0,0.0,108.0,-3535.0,-1768.0,-4202.0,-20269.0,8471.0,2802.0,0.0,-156.0,1051.0,569.0,350.0,47.0,164.0,-45.0,0.0,975.0,-875.0,582.0,-517.0,-48.0,-162.0,45.0,0.0,-368.0,723.0,-90.0,397.0,-0.012955,-0.044464,0.012206,0.0,0.035696,-0.032031,-0.021301,-0.018936,-0.013229,-0.044101,0.012265,0.0,-0.013485,0.026471,0.003313,0.014539,4101.300293,11519.19043,51378.570312,0.0,-17364.240234,-17751.419922,17852.671875,-17338.050781,4095.630127,11514.599609,51565.863281,0.0,17751.871094,17721.359375,-17341.201172,18138.150391,0.0,0.0,0.0,0.0,0.0,0.0,0.0,0.0,0.0,0.0,0.0,0.0,0.0,0.0,0.0,0.0,0.0,0.0,0.0,0.0,0.0,0.0,0.0,0.0,0.0,0.0,0.0,0.0,0.0,0.0,0.0,0.0,4101.32666,11519.095703,51378.632812,0.0,-17364.332031,-17751.416016,17852.451172,-17338.279297,4095.577637,11514.568359,51565.945312,0.0,17751.871094,17721.357422,-17341.427734,18137.929688,30.113354,90.410164,22.836857,0.0,55.498158,-9.748807,25.859434,31.321754,30.071148,90.379051,22.92421,0.0,4.39777,-0.754911,43.384396,45.194881,0.998,1.546,4396988.0,-122780.0,3632144.0,0.0,193044.0,193703.0,-196595.0,188443.0,-65776.0,-119469.0,-570152.0,0.0,-197399.0,-195853.0,192111.0,-201185.0,0.0,0.0,0.0,0.0,0.0,0.0,0.0,0.0,0.0,0.0,0.0,0.0,0.0,0.0,0.0,0.0,0.0,0.0,0.0,0.0,0.0,0.0,0.0,0.0
27,1.7840080261230469,30.113163,90.410973,22.836821,0.0,55.515114,-9.749409,25.884205,31.346907,30.071533,90.379257,22.924168,0.0,4.39753,-0.754521,43.409527,45.219593,3.0,1.0,111.0,0.0,1.0,-79005.0,-26781.0,11880.0,-77676.0,25556.0,13605.0,-0.943298,-0.303094,0.135362,-0.331804,0.872935,-0.357618,-0.00977,-0.382254,-0.924006,-0.930559,0.209183,0.300505,0.319879,0.065129,0.945217,0.178152,0.975705,-0.127519,-0.943298,-0.303094,0.135362,-0.331804,0.872935,-0.357618,-0.00977,-0.382254,-0.924006,-0.930559,0.209183,0.300505,0.319879,0.065129,0.945217,0.178152,0.975705,-0.127519,-79005.0,-26781.0,11880.0,-77676.0,25556.0,13605.0,-4442558.0,-5211.0,-4203017.0,0.0,108.0,-3535.0,-1768.0,-4202.0,-20269.0,8471.0,2802.0,0.0,-156.0,1051.0,569.0,350.0,47.0,164.0,-45.0,0.0,975.0,-875.0,582.0,-517.0,-48.0,-162.0,45.0,0.0,-368.0,723.0,-90.0,396.0,-0.012955,-0.044464,0.012206,0.0,0.035691,-0.032031,-0.021314,-0.018949,-0.013229,-0.044101,0.012265,0.0,-0.013485,0.02647,0.0033,0.014526,4101.300293,11519.19043,51378.570312,0.0,-17364.240234,-17751.419922,17852.671875,-17338.050781,4095.630127,11514.599609,51565.863281,0.0,17751.871094,17721.359375,-17341.201172,18138.150391,0.0,0.0,0.0,0.0,0.0,0.0,0.0,0.0,0.0,0.0,0.0,0.0,0.0,0.0,0.0,0.0,0.0,0.0,0.0,0.0,0.0,0.0,0.0,0.0,0.0,0.0,0.0,0.0,0.0,0.0,0.0,0.0,4101.32666,11519.095703,51378.632812,0.0,-17364.332031,-17751.416016,17852.451172,-17338.279297,4095.577637,11514.568359,51565.945312,0.0,17751.871094,17721.357422,-17341.427734,18137.929688,30.113354,90.410164,22.836857,0.0,55.498158,-9.748807,25.859434,31.321754,30.071148,90.379051,22.92421,0.0,4.39777,-0.754911,43.384396,45.194881,0.998,1.546,4396988.0,-122780.0,3632144.0,0.0,193044.0,193703.0,-196595.0,188443.0,-65776.0,-119469.0,-570152.0,0.0,-197399.0,-195853.0,192111.0,-201185.0,0.0,0.0,0.0,0.0,0.0,0.0,0.0,0.0,0.0,0.0,0.0,0.0,0.0,0.0,0.0,0.0,0.0,0.0,0.0,0.0,0.0,0.0,0.0,0.0
28,1.8479979038238525,30.113163,90.410973,22.836821,0.0,55.515114,-9.749409,25.884205,31.346907,30.071533,90.379257,22.924168,0.0,4.39753,-0.754521,43.409527,45.219593,3.0,1.0,111.0,0.0,1.0,-79005.0,-26781.0,11880.0,-77676.0,25556.0,13605.0,-0.943298,-0.303094,0.135362,-0.331804,0.872935,-0.357618,-0.00977,-0.382254,-0.924006,-0.930559,0.209183,0.300505,0.319879,0.065129,0.945217,0.178152,0.975705,-0.127519,-0.943298,-0.303094,0.135362,-0.331804,0.872935,-0.357618,-0.00977,-0.382254,-0.924006,-0.930559,0.209183,0.300505,0.319879,0.065129,0.945217,0.178152,0.975705,-0.127519,-79005.0,-26781.0,11880.0,-77676.0,25556.0,13605.0,-4442558.0,-5211.0,-4203017.0,0.0,108.0,-3535.0,-1768.0,-4202.0,-20269.0,8471.0,2802.0,0.0,-156.0,1051.0,569.0,350.0,47.0,164.0,-45.0,0.0,975.0,-875.0,582.0,-518.0,-48.0,-162.0,45.0,0.0,-368.0,723.0,-89.0,396.0,-0.012955,-0.044464,0.012206,0.0,0.035686,-0.03203,-0.021326,-0.018962,-0.013229,-0.044101,0.012265,0.0,-0.013485,0.02647,0.003287,0.014514,4101.300293,11519.19043,51378.570312,0.0,-17364.240234,-17751.419922,17852.671875,-17338.050781,4095.630127,11514.599609,51565.863281,0.0,17751.871094,17721.359375,-17341.201172,18138.150391,0.0,0.0,0.0,0.0,0.0,0.0,0.0,0.0,0.0,0.0,0.0,0.0,0.0,0.0,0.0,0.0,0.0,0.0,0.0,0.0,0.0,0.0,0.0,0.0,0.0,0.0,0.0,0.0,0.0,0.0,0.0,0.0,4101.32666,11519.095703,51378.632812,0.0,-17364.332031,-17751.416016,17852.451172,-17338.279297,4095.577637,11514.568359,51565.945312,0.0,17751.871094,17721.357422,-17341.427734,18137.929688,30.113354,90.410164,22.836857,0.0,55.498158,-9.748807,25.859434,31.321754,30.071148,90.379051,22.92421,0.0,4.39777,-0.754911,43.384396,45.194881,0.998,1.546,4396988.0,-122780.0,3632144.0,0.0,193044.0,193703.0,-196595.0,188443.0,-65776.0,-119469.0,-570152.0,0.0,-197399.0,-195853.0,192111.0,-201185.0,0.0,0.0,0.0,0.0,0.0,0.0,0.0,0.0,0.0,0.0,0.0,0.0,0.0,0.0,0.0,0.0,0.0,0.0,0.0,0.0,0.0,0.0,0.0,0.0
29,1.915954828262329,30.113163,90.410973,22.836821,0.0,55.515114,-9.749409,25.884205,31.346907,30.071533,90.379257,22.924168,0.0,4.39753,-0.754521,43.409527,45.219593,3.0,1.0,111.0,0.0,1.0,-79005.0,-26781.0,11880.0,-77676.0,25556.0,13605.0,-0.943298,-0.303094,0.135362,-0.331804,0.872935,-0.357618,-0.00977,-0.382254,-0.924006,-0.930559,0.209183,0.300505,0.319879,0.065129,0.945217,0.178152,0.975705,-0.127519,-0.943298,-0.303094,0.135362,-0.331804,0.872935,-0.357618,-0.00977,-0.382254,-0.924006,-0.930559,0.209183,0.300505,0.319879,0.065129,0.945217,0.178152,0.975705,-0.127519,-79005.0,-26781.0,11880.0,-77676.0,25556.0,13605.0,-4442558.0,-5211.0,-4203017.0,0.0,108.0,-3535.0,-1768.0,-4202.0,-20269.0,8471.0,2802.0,0.0,-156.0,1051.0,569.0,350.0,47.0,164.0,-45.0,0.0,975.0,-875.0,583.0,-518.0,-48.0,-162.0,45.0,0.0,-368.0,723.0,-89.0,396.0,-0.012955,-0.044464,0.012206,0.0,0.03568,-0.03203,-0.021339,-0.018975,-0.013229,-0.044101,0.012265,0.0,-0.013485,0.02647,0.003273,0.014501,4101.300293,11519.19043,51378.570312,0.0,-17364.240234,-17751.419922,17852.671875,-17338.050781,4095.630127,11514.599609,51565.863281,0.0,17751.871094,17721.359375,-17341.201172,18138.150391,0.0,0.0,0.0,0.0,0.0,0.0,0.0,0.0,0.0,0.0,0.0,0.0,0.0,0.0,0.0,0.0,0.0,0.0,0.0,0.0,0.0,0.0,0.0,0.0,0.0,0.0,0.0,0.0,0.0,0.0,0.0,0.0,4101.32666,11519.095703,51378.632812,0.0,-17364.332031,-17751.416016,17852.451172,-17338.279297,4095.577637,11514.568359,51565.945312,0.0,17751.871094,17721.357422,-17341.427734,18137.929688,30.113354,90.410164,22.836857,0.0,55.498158,-9.748807,25.859434,31.321754,30.071148,90.379051,22.92421,0.0,4.39777,-0.754911,43.384396,45.194881,0.998,1.546,4396988.0,-122780.0,3632144.0,0.0,193044.0,193703.0,-196595.0,188443.0,-65776.0,-119469.0,-570152.0,0.0,-197399.0,-195853.0,192111.0,-201185.0,0.0,0.0,0.0,0.0,0.0,0.0,0.0,0.0,0.0,0.0,0.0,0.0,0.0,0.0,0.0,0.0,0.0,0.0,0.0,0.0,0.0,0.0,0.0,0.0
30,4.767009019851685,30.113163,90.410973,22.836821,0.0,55.531967,-9.749409,25.884205,31.346907,30.071533,90.379257,22.924168,0.0,43.56588,-0.103876,29.502131,29.64086,3.0,1.0,111.0,0.0,1.0,-79005.0,-26781.0,11880.0,-77718.0,25412.0,13639.0,-0.943315,-0.303087,0.135262,-0.331755,0.873055,-0.35737,-0.009777,-0.381986,-0.924116,-0.937031,-0.03012,0.347945,0.307089,-0.545568,0.779777,0.166341,0.837525,0.520463,-0.943315,-0.303087,0.135262,-0.331755,0.873055,-0.35737,-0.009777,-0.381986,-0.924116,-0.937031,-0.03012,0.347945,0.307089,-0.545568,0.779777,0.166341,0.837525,0.520463,-79005.0,-26781.0,11880.0,-77718.0,25412.0,13639.0,-4442558.0,-5211.0,-4203017.0,0.0,109.0,-3535.0,-1768.0,-4202.0,-20269.0,8471.0,2802.0,0.0,2192.0,1116.0,1926.0,-1239.0,47.0,164.0,-45.0,0.0,959.0,-874.0,598.0,-534.0,-48.0,-162.0,45.0,0.0,739.0,827.0,845.0,-978.0,-0.012955,-0.044464,0.012206,0.0,0.035126,-0.032013,-0.021887,-0.019544,-0.013229,-0.044101,0.012265,0.0,0.027072,0.030294,-0.030932,-0.035811,4101.300293,11519.19043,51378.570312,0.0,-17364.150391,-17751.419922,17852.671875,-17338.050781,4095.630127,11514.599609,51565.863281,0.0,17963.189453,17727.210938,-17463.330078,17995.140625,0.0,0.0,0.0,0.0,0.0,0.0,0.0,0.0,0.0,0.0,0.0,0.0,89.174942,0.0,-89.174942,-89.174942,0.0,0.0,0.0,0.0,0.0,0.0,0.0,0.0,0.0,0.0,0.0,0.0,16.528643,0.0,-9.917186,-9.917186,4101.32666,11519.095703,51378.632812,0.0,-17364.332031,-17751.416016,17852.451172,-17338.279297,4095.577637,11514.568359,51565.945312,0.0,17970.767578,17728.224609,-17471.197266,17985.626953,30.113354,90.410164,22.836857,0.0,55.498158,-9.748807,25.859434,31.321754,30.071148,90.379051,22.92421,0.0,44.97036,0.008954,28.570663,28.639191,0.998,1.032,4396988.0,-122780.0,3632144.0,0.0,193044.0,193703.0,-196595.0,188443.0,-65776.0,-119469.0,-570152.0,0.0,-197399.0,-195853.0,192111.0,-201185.0,0.0,0.0,0.0,0.0,0.0,0.0,0.0,0.0,0.0,-0.000455,0.000258,-0.461566,0.0,0.0,0.0,0.0,0.0,0.0,0.0,0.0,0.0,-0.000455,0.000258,-0.461566
31,4.837033987045288,30.113163,90.410973,22.836821,0.0,55.531967,-9.749409,25.884205,31.346907,30.071533,90.379257,22.924168,0.0,43.982983,-0.083847,29.301939,29.470613,3.0,1.0,111.0,0.0,1.0,-79005.0,-26781.0,11880.0,-77720.0,25409.0,13637.0,-0.943315,-0.303087,0.135262,-0.331755,0.873055,-0.35737,-0.009777,-0.381986,-0.924116,-0.937164,-0.032394,0.347381,0.30666,-0.551314,0.775895,0.166381,0.833669,0.526606,-0.943315,-0.303087,0.135262,-0.331755,0.873055,-0.35737,-0.009777,-0.381986,-0.924116,-0.937164,-0.032394,0.347381,0.30666,-0.551314,0.775895,0.166381,0.833669,0.526606,-79005.0,-26781.0,11880.0,-77720.0,25409.0,13637.0,-4442558.0,-5211.0,-4203017.0,0.0,109.0,-3535.0,-1768.0,-4202.0,-20269.0,8471.0,2802.0,0.0,2217.0,1118.0,1945.0,-1257.0,47.0,164.0,-45.0,0.0,959.0,-874.0,598.0,-534.0,-48.0,-162.0,45.0,0.0,703.0,825.0,818.0,-956.0,-0.012955,-0.044464,0.012206,0.0,0.035115,-0.032013,-0.021901,-0.019558,-0.013229,-0.044101,0.012265,0.0,0.025726,0.030197,-0.029936,-0.035,4101.300293,11519.19043,51378.570312,0.0,-17364.150391,-17751.419922,17852.671875,-17338.050781,4095.630127,11514.599609,51565.863281,0.0,17965.441406,17727.390625,-17465.039062,17993.519531,0.0,0.0,0.0,0.0,0.0,0.0,0.0,0.0,0.0,0.0,0.0,0.0,0.0,0.0,0.0,0.0,0.0,0.0,0.0,0.0,0.0,0.0,0.0,0.0,0.0,0.0,0.0,0.0,0.0,0.0,0.0,0.0,4101.32666,11519.095703,51378.632812,0.0,-17364.332031,-17751.416016,17852.451172,-17338.279297,4095.577637,11514.568359,51565.945312,0.0,17970.929688,17728.230469,-17471.294922,17985.513672,30.113354,90.410164,22.836857,0.0,55.498158,-9.748807,25.859434,31.321754,30.071148,90.379051,22.92421,0.0,45.000351,0.009518,28.559713,28.626955,0.998,1.025,4396988.0,-122780.0,3632144.0,0.0,193044.0,193703.0,-196595.0,188443.0,-65776.0,-119469.0,-570152.0,0.0,-197399.0,-195853.0,192111.0,-201185.0,0.0,0.0,0.0,0.0,0.0,0.0,0.0,0.0,0.0,0.0,0.0,0.0,0.0,0.0,0.0,0.0,0.0,0.0,0.0,0.0,0.0,0.0,0.0,0.0
32,4.901010990142822,30.113163,90.410973,22.836821,0.0,55.531967,-9.749409,25.884205,31.346907,30.071533,90.379257,22.924168,0.0,44.083126,-0.063818,29.251865,29.4606,3.0,1.0,111.0,0.0,1.0,-79005.0,-26781.0,11880.0,-77721.0,25405.0,13634.0,-0.943315,-0.303087,0.135262,-0.331755,0.873055,-0.35737,-0.009777,-0.381986,-0.924116,-0.937298,-0.032671,0.346994,0.306192,-0.552776,0.775038,0.166489,0.832689,0.52812,-0.943315,-0.303087,0.135262,-0.331755,0.873055,-0.35737,-0.009777,-0.381986,-0.924116,-0.937298,-0.032671,0.346994,0.306192,-0.552776,0.775038,0.166489,0.832689,0.52812,-79005.0,-26781.0,11880.0,-77721.0,25405.0,13634.0,-4442558.0,-5211.0,-4203017.0,0.0,109.0,-3535.0,-1768.0,-4202.0,-20269.0,8471.0,2802.0,0.0,2223.0,1120.0,1949.0,-1259.0,47.0,164.0,-45.0,0.0,959.0,-874.0,598.0,-534.0,-48.0,-162.0,45.0,0.0,687.0,822.0,818.0,-964.0,-0.012955,-0.044464,0.012206,0.0,0.035105,-0.032012,-0.021913,-0.019571,-0.013229,-0.044101,0.012265,0.0,0.025168,0.030081,-0.02996,-0.035287,4101.300293,11519.19043,51378.570312,0.0,-17364.150391,-17751.419922,17852.671875,-17338.050781,4095.630127,11514.599609,51565.863281,0.0,17965.980469,17727.570312,-17465.400391,17993.339844,0.0,0.0,0.0,0.0,0.0,0.0,0.0,0.0,0.0,0.0,0.0,0.0,0.0,0.0,0.0,0.0,0.0,0.0,0.0,0.0,0.0,0.0,0.0,0.0,0.0,0.0,0.0,0.0,0.0,0.0,0.0,0.0,4101.32666,11519.095703,51378.632812,0.0,-17364.332031,-17751.416016,17852.451172,-17338.279297,4095.577637,11514.568359,51565.945312,0.0,17970.929688,17728.230469,-17471.294922,17985.513672,30.113354,90.410164,22.836857,0.0,55.498158,-9.748807,25.859434,31.321754,30.071148,90.379051,22.92421,0.0,45.000351,0.009518,28.559713,28.626955,0.998,1.024,4396988.0,-122780.0,3632144.0,0.0,193044.0,193703.0,-196595.0,188443.0,-65776.0,-119469.0,-570152.0,0.0,-197399.0,-195853.0,192111.0,-201185.0,0.0,0.0,0.0,0.0,0.0,0.0,0.0,0.0,0.0,0.0,0.0,0.0,0.0,0.0,0.0,0.0,0.0,0.0,0.0,0.0,0.0,0.0,0.0,0.0
33,4.966008901596069,30.113163,90.410973,22.836821,0.0,55.531967,-9.749409,25.884205,31.346907,30.071533,90.379257,22.924168,0.0,44.149891,-0.053901,29.196739,29.44553,3.0,1.0,111.0,0.0,1.0,-79005.0,-26781.0,11880.0,-77722.0,25403.0,13633.0,-0.943315,-0.303087,0.135262,-0.331755,0.873055,-0.35737,-0.009777,-0.381986,-0.924116,-0.93737,-0.032747,0.346791,0.305862,-0.553786,0.774447,0.166688,0.832015,0.529119,-0.943315,-0.303087,0.135262,-0.331755,0.873055,-0.35737,-0.009777,-0.381986,-0.924116,-0.93737,-0.032747,0.346791,0.305862,-0.553786,0.774447,0.166688,0.832015,0.529119,-79005.0,-26781.0,11880.0,-77722.0,25403.0,13633.0,-4442558.0,-5211.0,-4203017.0,0.0,109.0,-3535.0,-1768.0,-4202.0,-20269.0,8471.0,2802.0,0.0,2227.0,1121.0,1954.0,-1261.0,47.0,164.0,-45.0,0.0,959.0,-874.0,599.0,-535.0,-48.0,-162.0,45.0,0.0,679.0,820.0,816.0,-972.0,-0.012955,-0.044464,0.012206,0.0,0.035095,-0.032012,-0.021925,-0.019584,-0.013229,-0.044101,0.012265,0.0,0.024871,0.03004,-0.02989,-0.035569,4101.300293,11519.19043,51378.570312,0.0,-17364.150391,-17751.419922,17852.671875,-17338.050781,4095.630127,11514.599609,51565.863281,0.0,17966.341797,17727.660156,-17465.851562,17993.160156,0.0,0.0,0.0,0.0,0.0,0.0,0.0,0.0,0.0,0.0,0.0,0.0,0.0,0.0,0.0,0.0,0.0,0.0,0.0,0.0,0.0,0.0,0.0,0.0,0.0,0.0,0.0,0.0,0.0,0.0,0.0,0.0,4101.32666,11519.095703,51378.632812,0.0,-17364.332031,-17751.416016,17852.451172,-17338.279297,4095.577637,11514.568359,51565.945312,0.0,17970.929688,17728.230469,-17471.294922,17985.513672,30.113354,90.410164,22.836857,0.0,55.498158,-9.748807,25.859434,31.321754,30.071148,90.379051,22.92421,0.0,45.000351,0.009518,28.559713,28.626955,0.998,1.023,4396988.0,-122780.0,3632144.0,0.0,193044.0,193703.0,-196595.0,188443.0,-65776.0,-119469.0,-570152.0,0.0,-197399.0,-195853.0,192111.0,-201185.0,0.0,0.0,0.0,0.0,0.0,0.0,0.0,0.0,0.0,0.0,0.0,0.0,0.0,0.0,0.0,0.0,0.0,0.0,0.0,0.0,0.0,0.0,0.0,0.0
34,5.029949903488159,30.113163,90.410973,22.836821,0.0,55.531967,-9.749409,25.884205,31.346907,30.071533,90.379257,22.924168,0.0,44.199799,-0.043789,29.131792,29.420641,3.0,1.0,111.0,0.0,1.0,-79005.0,-26781.0,11880.0,-77723.0,25402.0,13632.0,-0.943315,-0.303087,0.135262,-0.331755,0.873055,-0.35737,-0.009777,-0.381986,-0.924116,-0.937444,-0.03272,0.346596,0.30553,-0.554568,0.77402,0.166885,0.831495,0.529873,-0.943315,-0.303087,0.135262,-0.331755,0.873055,-0.35737,-0.009777,-0.381986,-0.924116,-0.937441,-0.032801,0.346596,0.305578,-0.554541,0.77402,0.166813,0.83151,0.529873,-79005.0,-26781.0,11880.0,-77723.0,25402.0,13632.0,-4442558.0,-5211.0,-4203017.0,0.0,109.0,-3535.0,-1768.0,-4202.0,-20269.0,8471.0,2802.0,0.0,2230.0,1122.0,1960.0,-1264.0,47.0,164.0,-45.0,0.0,958.0,-874.0,599.0,-535.0,-48.0,-162.0,45.0,0.0,674.0,819.0,811.0,-977.0,-0.012955,-0.044464,0.012206,0.0,0.035084,-0.032012,-0.021938,-0.019597,-0.013229,-0.044101,0.012265,0.0,0.024696,0.029992,-0.029709,-0.035753,4101.300293,11519.19043,51378.570312,0.0,-17364.150391,-17751.419922,17852.671875,-17338.050781,4095.630127,11514.599609,51565.863281,0.0,17966.611328,17727.75,-17466.390625,17992.890625,0.0,0.0,0.0,0.0,0.0,0.0,0.0,0.0,0.0,0.0,0.0,0.0,0.0,0.0,0.0,0.0,0.0,0.0,0.0,0.0,0.0,0.0,0.0,0.0,0.0,0.0,0.0,0.0,0.0,0.0,0.0,0.0,4101.32666,11519.095703,51378.632812,0.0,-17364.332031,-17751.416016,17852.451172,-17338.279297,4095.577637,11514.568359,51565.945312,0.0,17970.929688,17728.230469,-17471.294922,17985.513672,30.113354,90.410164,22.836857,0.0,55.498158,-9.748807,25.859434,31.321754,30.071148,90.379051,22.92421,0.0,45.000351,0.009518,28.559713,28.626955,0.998,1.022,4396988.0,-122780.0,3632144.0,0.0,193044.0,193703.0,-196595.0,188443.0,-65776.0,-119469.0,-570152.0,0.0,-197399.0,-195853.0,192111.0,-201185.0,0.0,0.0,0.0,0.0,0.0,0.0,0.0,0.0,0.0,0.0,0.0,0.0,0.0,0.0,0.0,0.0,0.0,0.0,0.0,0.0,0.0,0.0,0.0,0.0
35,5.097020864486694,30.113163,90.410973,22.836821,0.0,55.531967,-9.749409,25.884205,31.346907,30.071533,90.379257,22.924168,0.0,44.24971,-0.033872,29.036606,29.405569,3.0,1.0,111.0,0.0,1.0,-79005.0,-26781.0,11880.0,-77724.0,25400.0,13631.0,-0.943315,-0.303087,0.135262,-0.331755,0.873055,-0.35737,-0.009777,-0.381986,-0.924116,-0.937527,-0.032366,0.346403,0.305006,-0.555455,0.77359,0.167373,0.830917,0.530626,-0.943315,-0.303087,0.135262,-0.331755,0.873055,-0.35737,-0.009777,-0.381986,-0.924116,-0.937527,-0.032366,0.346403,0.305006,-0.555455,0.77359,0.167373,0.830917,0.530626,-79005.0,-26781.0,11880.0,-77724.0,25400.0,13631.0,-4442558.0,-5211.0,-4203017.0,0.0,109.0,-3535.0,-1768.0,-4202.0,-20269.0,8471.0,2802.0,0.0,2233.0,1123.0,1969.0,-1266.0,47.0,164.0,-45.0,0.0,958.0,-874.0,599.0,-535.0,-48.0,-162.0,45.0,0.0,670.0,818.0,799.0,-984.0,-0.012955,-0.044464,0.012206,0.0,0.035074,-0.032011,-0.021951,-0.01961,-0.013229,-0.044101,0.012265,0.0,0.024518,0.029939,-0.029261,-0.036022,4101.300293,11519.19043,51378.570312,0.0,-17364.150391,-17751.419922,17852.671875,-17338.050781,4095.630127,11514.599609,51565.863281,0.0,17966.878906,17727.839844,-17467.201172,17992.710938,0.0,0.0,0.0,0.0,0.0,0.0,0.0,0.0,0.0,0.0,0.0,0.0,0.0,0.0,0.0,0.0,0.0,0.0,0.0,0.0,0.0,0.0,0.0,0.0,0.0,0.0,0.0,0.0,0.0,0.0,0.0,0.0,4101.32666,11519.095703,51378.632812,0.0,-17364.332031,-17751.416016,17852.451172,-17338.279297,4095.577637,11514.568359,51565.945312,0.0,17970.929688,17728.230469,-17471.294922,17985.513672,30.113354,90.410164,22.836857,0.0,55.498158,-9.748807,25.859434,31.321754,30.071148,90.379051,22.92421,0.0,45.000351,0.009518,28.559713,28.626955,0.998,1.02,4396988.0,-122780.0,3632144.0,0.0,193044.0,193703.0,-196595.0,188443.0,-65776.0,-119469.0,-570152.0,0.0,-197399.0,-195853.0,192111.0,-201185.0,0.0,0.0,0.0,0.0,0.0,0.0,0.0,0.0,0.0,0.0,0.0,0.0,0.0,0.0,0.0,0.0,0.0,0.0,0.0,0.0,0.0,0.0,0.0,0.0
36,5.1620399951934814,30.113163,90.410973,22.836821,0.0,55.531967,-9.749409,25.884205,31.346907,30.071533,90.379257,22.924168,0.0,44.283092,-0.023761,28.991493,29.370567,3.0,1.0,111.0,0.0,1.0,-79005.0,-26781.0,11880.0,-77725.0,25398.0,13629.0,-0.943315,-0.303087,0.135262,-0.331755,0.873055,-0.35737,-0.009777,-0.381986,-0.924116,-0.937592,-0.032484,0.346217,0.304819,-0.555932,0.773321,0.167352,0.830593,0.531139,-0.943315,-0.303087,0.135262,-0.331755,0.873055,-0.35737,-0.009777,-0.381986,-0.924116,-0.937592,-0.032484,0.346217,0.304819,-0.555932,0.773321,0.167352,0.830593,0.531139,-79005.0,-26781.0,11880.0,-77725.0,25398.0,13629.0,-4442558.0,-5211.0,-4203017.0,0.0,109.0,-3535.0,-1768.0,-4202.0,-20269.0,8471.0,2802.0,0.0,2235.0,1124.0,1973.0,-1270.0,47.0,164.0,-45.0,0.0,958.0,-874.0,600.0,-536.0,-48.0,-162.0,45.0,0.0,668.0,816.0,797.0,-986.0,-0.012955,-0.044464,0.012206,0.0,0.035064,-0.032011,-0.021963,-0.019623,-0.013229,-0.044101,0.012265,0.0,0.02446,0.029878,-0.029171,-0.036105,4101.300293,11519.19043,51378.570312,0.0,-17364.150391,-17751.419922,17852.671875,-17338.050781,4095.630127,11514.599609,51565.863281,0.0,17967.060547,17727.931641,-17467.560547,17992.349609,0.0,0.0,0.0,0.0,0.0,0.0,0.0,0.0,0.0,0.0,0.0,0.0,0.0,0.0,0.0,0.0,0.0,0.0,0.0,0.0,0.0,0.0,0.0,0.0,0.0,0.0,0.0,0.0,0.0,0.0,0.0,0.0,4101.32666,11519.095703,51378.632812,0.0,-17364.332031,-17751.416016,17852.451172,-17338.279297,4095.577637,11514.568359,51565.945312,0.0,17970.929688,17728.230469,-17471.294922,17985.513672,30.113354,90.410164,22.836857,0.0,55.498158,-9.748807,25.859434,31.321754,30.071148,90.379051,22.92421,0.0,45.000351,0.009518,28.559713,28.626955,0.998,1.018,4396988.0,-122780.0,3632144.0,0.0,193044.0,193703.0,-196595.0,188443.0,-65776.0,-119469.0,-570152.0,0.0,-197399.0,-195853.0,192111.0,-201185.0,0.0,0.0,0.0,0.0,0.0,0.0,0.0,0.0,0.0,0.0,0.0,0.0,0.0,0.0,0.0,0.0,0.0,0.0,0.0,0.0,0.0,0.0,0.0,0.0
37,5.230051040649414,30.113163,90.410973,22.836821,0.0,55.531967,-9.749409,25.874092,31.346907,30.071533,90.379257,22.924168,0.0,44.316475,-0.013843,28.956587,29.345579,3.0,1.0,111.0,0.0,1.0,-79005.0,-26781.0,11880.0,-77725.0,25396.0,13628.0,-0.943342,-0.303003,0.135262,-0.331678,0.873084,-0.35737,-0.00981,-0.381985,-0.924116,-0.937655,-0.032604,0.346033,0.304635,-0.556408,0.773051,0.167331,0.830269,0.531652,-0.943342,-0.303003,0.135262,-0.331678,0.873084,-0.35737,-0.00981,-0.381985,-0.924116,-0.937655,-0.032604,0.346033,0.304635,-0.556408,0.773051,0.167331,0.830269,0.531652,-79005.0,-26781.0,11880.0,-77725.0,25396.0,13628.0,-4442558.0,-5211.0,-4203017.0,0.0,109.0,-3535.0,-1767.0,-4202.0,-20269.0,8471.0,2802.0,0.0,2237.0,1125.0,1976.0,-1273.0,47.0,164.0,-45.0,0.0,957.0,-874.0,598.0,-536.0,-48.0,-162.0,45.0,0.0,666.0,814.0,796.0,-991.0,-0.012955,-0.044464,0.012206,0.0,0.035053,-0.03201,-0.021895,-0.019637,-0.013229,-0.044101,0.012265,0.0,0.024401,0.029814,-0.029152,-0.036268,4101.300293,11519.19043,51378.570312,0.0,-17364.150391,-17751.419922,17852.580078,-17338.050781,4095.630127,11514.599609,51565.863281,0.0,17967.240234,17728.019531,-17467.830078,17992.082031,0.0,0.0,0.0,0.0,0.0,0.0,0.0,0.0,0.0,0.0,0.0,0.0,0.0,0.0,0.0,0.0,0.0,0.0,0.0,0.0,0.0,0.0,0.0,0.0,0.0,0.0,0.0,0.0,0.0,0.0,0.0,0.0,4101.32666,11519.095703,51378.632812,0.0,-17364.332031,-17751.416016,17852.451172,-17338.279297,4095.577637,11514.568359,51565.945312,0.0,17970.929688,17728.230469,-17471.294922,17985.513672,30.113354,90.410164,22.836857,0.0,55.498158,-9.748807,25.859434,31.321754,30.071148,90.379051,22.92421,0.0,45.000351,0.009518,28.559713,28.626955,0.998,1.017,4396988.0,-122780.0,3632144.0,0.0,193044.0,193703.0,-196595.0,188443.0,-65776.0,-119469.0,-570152.0,0.0,-197399.0,-195853.0,192111.0,-201185.0,0.0,0.0,0.0,0.0,0.0,0.0,0.0,0.0,0.0,0.0,0.0,0.0,0.0,0.0,0.0,0.0,0.0,0.0,0.0,0.0,0.0,0.0,0.0,0.0
38,5.294003009796143,30.113163,90.410973,22.836821,0.0,55.531967,-9.749409,25.864174,31.346907,30.071533,90.379257,22.924168,0.0,44.333328,-0.013843,28.936558,29.295412,3.0,1.0,111.0,0.0,1.0,-79005.0,-26781.0,11880.0,-77725.0,25396.0,13628.0,-0.943368,-0.302922,0.135262,-0.331603,0.873113,-0.35737,-0.009843,-0.381984,-0.924116,-0.937647,-0.032953,0.346023,0.304781,-0.556556,0.772887,0.167112,0.830157,0.531896,-0.943368,-0.302922,0.135262,-0.331603,0.873113,-0.35737,-0.009843,-0.381984,-0.924116,-0.937647,-0.032953,0.346023,0.304781,-0.556556,0.772887,0.167112,0.830157,0.531896,-79005.0,-26781.0,11880.0,-77725.0,25396.0,13628.0,-4442558.0,-5211.0,-4203017.0,0.0,109.0,-3535.0,-1766.0,-4202.0,-20269.0,8471.0,2802.0,0.0,2238.0,1125.0,1978.0,-1278.0,47.0,164.0,-45.0,0.0,957.0,-874.0,596.0,-536.0,-48.0,-162.0,45.0,0.0,668.0,815.0,797.0,-990.0,-0.012955,-0.044464,0.012206,0.0,0.035043,-0.03201,-0.021821,-0.01965,-0.013229,-0.044101,0.012265,0.0,0.024461,0.029826,-0.029183,-0.036228,4101.300293,11519.19043,51378.570312,0.0,-17364.150391,-17751.419922,17852.490234,-17338.050781,4095.630127,11514.599609,51565.863281,0.0,17967.330078,17728.019531,-17468.009766,17991.630859,0.0,0.0,0.0,0.0,0.0,0.0,0.0,0.0,0.0,0.0,0.0,0.0,0.0,0.0,0.0,0.0,0.0,0.0,0.0,0.0,0.0,0.0,0.0,0.0,0.0,0.0,0.0,0.0,0.0,0.0,0.0,0.0,4101.32666,11519.095703,51378.632812,0.0,-17364.332031,-17751.416016,17852.451172,-17338.279297,4095.577637,11514.568359,51565.945312,0.0,17970.929688,17728.230469,-17471.294922,17985.513672,30.113354,90.410164,22.836857,0.0,55.498158,-9.748807,25.859434,31.321754,30.071148,90.379051,22.92421,0.0,45.000351,0.009518,28.559713,28.626955,0.998,1.016,4396988.0,-122780.0,3632144.0,0.0,193044.0,193703.0,-196595.0,188443.0,-65776.0,-119469.0,-570152.0,0.0,-197399.0,-195853.0,192111.0,-201185.0,0.0,0.0,0.0,0.0,0.0,0.0,0.0,0.0,0.0,0.0,0.0,0.0,0.0,0.0,0.0,0.0,0.0,0.0,0.0,0.0,0.0,0.0,0.0,0.0
39,5.36100697517395,30.113163,90.410973,22.836821,0.0,55.531967,-9.749409,25.864174,31.346907,30.071533,90.379257,22.924168,0.0,44.366707,-0.003732,28.881527,29.230463,3.0,1.0,111.0,0.0,1.0,-79005.0,-26781.0,11880.0,-77726.0,25395.0,13627.0,-0.943368,-0.302922,0.135262,-0.331603,0.873113,-0.35737,-0.009843,-0.381984,-0.924116,-0.937706,-0.033235,0.345836,0.304691,-0.556979,0.772617,0.166946,0.829861,0.532409,-0.943368,-0.302922,0.135262,-0.331603,0.873113,-0.35737,-0.009843,-0.381984,-0.924116,-0.937706,-0.033235,0.345836,0.304691,-0.556979,0.772617,0.166946,0.829861,0.532409,-79005.0,-26781.0,11880.0,-77726.0,25395.0,13627.0,-4442558.0,-5211.0,-4203017.0,0.0,109.0,-3535.0,-1766.0,-4202.0,-20269.0,8471.0,2802.0,0.0,2240.0,1126.0,1983.0,-1285.0,47.0,164.0,-45.0,0.0,957.0,-874.0,596.0,-537.0,-48.0,-162.0,45.0,0.0,666.0,813.0,791.0,-984.0,-0.012955,-0.044464,0.012206,0.0,0.035032,-0.03201,-0.021823,-0.019663,-0.013229,-0.044101,0.012265,0.0,0.024382,0.029755,-0.028969,-0.036018,4101.300293,11519.19043,51378.570312,0.0,-17364.150391,-17751.419922,17852.490234,-17338.050781,4095.630127,11514.599609,51565.863281,0.0,17967.511719,17728.111328,-17468.458984,17991.0,0.0,0.0,0.0,0.0,0.0,0.0,0.0,0.0,0.0,0.0,0.0,0.0,0.0,0.0,0.0,0.0,0.0,0.0,0.0,0.0,0.0,0.0,0.0,0.0,0.0,0.0,0.0,0.0,0.0,0.0,0.0,0.0,4101.32666,11519.095703,51378.632812,0.0,-17364.332031,-17751.416016,17852.451172,-17338.279297,4095.577637,11514.568359,51565.945312,0.0,17970.929688,17728.230469,-17471.294922,17985.513672,30.113354,90.410164,22.836857,0.0,55.498158,-9.748807,25.859434,31.321754,30.071148,90.379051,22.92421,0.0,45.000351,0.009518,28.559713,28.626955,0.998,1.014,4396988.0,-122780.0,3632144.0,0.0,193044.0,193703.0,-196595.0,188443.0,-65776.0,-119469.0,-570152.0,0.0,-197399.0,-195853.0,192111.0,-201185.0,0.0,0.0,0.0,0.0,0.0,0.0,0.0,0.0,0.0,0.0,0.0,0.0,0.0,0.0,0.0,0.0,0.0,0.0,0.0,0.0,0.0,0.0,0.0,0.0
40,5.426005840301514,30.113163,90.410973,22.836821,0.0,55.531967,-9.749409,25.854063,31.346907,30.071533,90.379257,22.924168,0.0,44.400089,-0.003732,28.8615,29.100372,3.0,1.0,111.0,0.0,1.0,-79005.0,-26781.0,11880.0,-77726.0,25395.0,13627.0,-0.943395,-0.302838,0.135262,-0.331526,0.873142,-0.35737,-0.009877,-0.381984,-0.924116,-0.937674,-0.034337,0.345815,0.305225,-0.557136,0.772293,0.166148,0.829711,0.532893,-0.943395,-0.302838,0.135262,-0.331526,0.873142,-0.35737,-0.009877,-0.381984,-0.924116,-0.937674,-0.034337,0.345815,0.305225,-0.557136,0.772293,0.166148,0.829711,0.532893,-79005.0,-26781.0,11880.0,-77726.0,25395.0,13627.0,-4442558.0,-5211.0,-4203017.0,0.0,109.0,-3535.0,-1765.0,-4202.0,-20269.0,8471.0,2802.0,0.0,2242.0,1126.0,1985.0,-1298.0,47.0,164.0,-45.0,0.0,957.0,-874.0,594.0,-537.0,-48.0,-162.0,45.0,0.0,663.0,813.0,791.0,-964.0,-0.012955,-0.044464,0.012206,0.0,0.035022,-0.032009,-0.021743,-0.019676,-0.013229,-0.044101,0.012265,0.0,0.024289,0.029762,-0.028966,-0.035278,4101.300293,11519.19043,51378.570312,0.0,-17364.150391,-17751.419922,17852.400391,-17338.050781,4095.630127,11514.599609,51565.863281,0.0,17967.691406,17728.111328,-17468.640625,17989.830078,0.0,0.0,0.0,0.0,0.0,0.0,0.0,0.0,0.0,0.0,0.0,0.0,0.0,0.0,0.0,0.0,0.0,0.0,0.0,0.0,0.0,0.0,0.0,0.0,0.0,0.0,0.0,0.0,0.0,0.0,0.0,0.0,4101.32666,11519.095703,51378.632812,0.0,-17364.332031,-17751.416016,17852.451172,-17338.279297,4095.577637,11514.568359,51565.945312,0.0,17970.929688,17728.230469,-17471.294922,17985.513672,30.113354,90.410164,22.836857,0.0,55.498158,-9.748807,25.859434,31.321754,30.071148,90.379051,22.92421,0.0,45.000351,0.009518,28.559713,28.626955,0.998,1.011,4396988.0,-122780.0,3632144.0,0.0,193044.0,193703.0,-196595.0,188443.0,-65776.0,-119469.0,-570152.0,0.0,-197399.0,-195853.0,192111.0,-201185.0,0.0,0.0,0.0,0.0,0.0,0.0,0.0,0.0,0.0,0.0,0.0,0.0,0.0,0.0,0.0,0.0,0.0,0.0,0.0,0.0,0.0,0.0,0.0,0.0
41,5.4940290451049805,30.113163,90.410973,22.836821,0.0,55.531967,-9.749409,25.854063,31.346907,30.071533,90.379257,22.924168,0.0,44.416618,0.006185,28.836512,29.065273,3.0,1.0,111.0,0.0,1.0,-79005.0,-26781.0,11880.0,-77727.0,25393.0,13626.0,-0.943395,-0.302838,0.135262,-0.331526,0.873142,-0.35737,-0.009877,-0.381984,-0.924116,-0.937731,-0.03452,0.345643,0.30514,-0.557332,0.772186,0.165982,0.829572,0.533161,-0.943395,-0.302838,0.135262,-0.331526,0.873142,-0.35737,-0.009877,-0.381984,-0.924116,-0.937731,-0.03452,0.345643,0.30514,-0.557332,0.772186,0.165982,0.829572,0.533161,-79005.0,-26781.0,11880.0,-77727.0,25393.0,13626.0,-4442558.0,-5211.0,-4203017.0,0.0,109.0,-3535.0,-1765.0,-4202.0,-20269.0,8471.0,2802.0,0.0,2243.0,1127.0,1987.0,-1302.0,47.0,164.0,-45.0,0.0,956.0,-874.0,594.0,-538.0,-48.0,-162.0,45.0,0.0,665.0,811.0,791.0,-962.0,-0.012955,-0.044464,0.012206,0.0,0.035011,-0.032009,-0.02174,-0.01969,-0.013229,-0.044101,0.012265,0.0,0.024339,0.029686,-0.02896,-0.035203,4101.300293,11519.19043,51378.570312,0.0,-17364.150391,-17751.419922,17852.400391,-17338.050781,4095.630127,11514.599609,51565.863281,0.0,17967.779297,17728.201172,-17468.820312,17989.470703,0.0,0.0,0.0,0.0,0.0,0.0,0.0,0.0,0.0,0.0,0.0,0.0,0.0,0.0,0.0,0.0,0.0,0.0,0.0,0.0,0.0,0.0,0.0,0.0,0.0,0.0,0.0,0.0,0.0,0.0,0.0,0.0,4101.32666,11519.095703,51378.632812,0.0,-17364.332031,-17751.416016,17852.451172,-17338.279297,4095.577637,11514.568359,51565.945312,0.0,17970.929688,17728.230469,-17471.294922,17985.513672,30.113354,90.410164,22.836857,0.0,55.498158,-9.748807,25.859434,31.321754,30.071148,90.379051,22.92421,0.0,45.000351,0.009518,28.559713,28.626955,0.998,1.01,4396988.0,-122780.0,3632144.0,0.0,193044.0,193703.0,-196595.0,188443.0,-65776.0,-119469.0,-570152.0,0.0,-197399.0,-195853.0,192111.0,-201185.0,0.0,0.0,0.0,0.0,0.0,0.0,0.0,0.0,0.0,0.0,0.0,0.0,0.0,0.0,0.0,0.0,0.0,0.0,0.0,0.0,0.0,0.0,0.0,0.0
42,5.561002016067505,30.113163,90.410973,22.836821,0.0,55.531967,-9.749409,25.854063,31.346907,30.071533,90.379257,22.924168,0.0,44.433472,0.006185,28.826401,29.045246,3.0,1.0,111.0,0.0,1.0,-79005.0,-26781.0,11880.0,-77727.0,25393.0,13626.0,-0.943395,-0.302838,0.135262,-0.331526,0.873142,-0.35737,-0.009877,-0.381984,-0.924116,-0.937728,-0.034702,0.345632,0.305188,-0.557532,0.772022,0.16591,0.829429,0.533405,-0.943395,-0.302838,0.135262,-0.331526,0.873142,-0.35737,-0.009877,-0.381984,-0.924116,-0.937728,-0.034702,0.345632,0.305188,-0.557532,0.772022,0.16591,0.829429,0.533405,-79005.0,-26781.0,11880.0,-77727.0,25393.0,13626.0,-4442558.0,-5211.0,-4203017.0,0.0,109.0,-3535.0,-1765.0,-4202.0,-20269.0,8471.0,2802.0,0.0,2244.0,1127.0,1988.0,-1304.0,47.0,164.0,-45.0,0.0,956.0,-874.0,594.0,-538.0,-48.0,-162.0,45.0,0.0,666.0,811.0,793.0,-963.0,-0.012955,-0.044464,0.012206,0.0,0.035001,-0.032008,-0.021737,-0.019703,-0.013229,-0.044101,0.012265,0.0,0.024377,0.029688,-0.029022,-0.035271,4101.300293,11519.19043,51378.570312,0.0,-17364.150391,-17751.419922,17852.400391,-17338.050781,4095.630127,11514.599609,51565.863281,0.0,17967.871094,17728.201172,-17468.910156,17989.291016,0.0,0.0,0.0,0.0,0.0,0.0,0.0,0.0,0.0,0.0,0.0,0.0,0.0,0.0,0.0,0.0,0.0,0.0,0.0,0.0,0.0,0.0,0.0,0.0,0.0,0.0,0.0,0.0,0.0,0.0,0.0,0.0,4101.32666,11519.095703,51378.632812,0.0,-17364.332031,-17751.416016,17852.451172,-17338.279297,4095.577637,11514.568359,51565.945312,0.0,17970.929688,17728.230469,-17471.294922,17985.513672,30.113354,90.410164,22.836857,0.0,55.498158,-9.748807,25.859434,31.321754,30.071148,90.379051,22.92421,0.0,45.000351,0.009518,28.559713,28.626955,0.998,1.01,4396988.0,-122780.0,3632144.0,0.0,193044.0,193703.0,-196595.0,188443.0,-65776.0,-119469.0,-570152.0,0.0,-197399.0,-195853.0,192111.0,-201185.0,0.0,0.0,0.0,0.0,0.0,0.0,0.0,0.0,0.0,0.0,0.0,0.0,0.0,0.0,0.0,0.0,0.0,0.0,0.0,0.0,0.0,0.0,0.0,0.0
43,5.62603497505188,30.113163,90.410973,22.836821,0.0,55.531967,-9.749409,25.854063,31.346907,30.071533,90.379257,22.924168,0.0,44.450001,0.006185,28.816483,29.035133,3.0,1.0,111.0,0.0,1.0,-79005.0,-26781.0,11880.0,-77727.0,25393.0,13626.0,-0.943395,-0.302838,0.135262,-0.331526,0.873142,-0.35737,-0.009877,-0.381984,-0.924116,-0.937728,-0.034804,0.345621,0.305188,-0.557755,0.771861,0.165908,0.829276,0.533644,-0.943395,-0.302838,0.135262,-0.331526,0.873142,-0.35737,-0.009877,-0.381984,-0.924116,-0.937728,-0.034804,0.345621,0.305188,-0.557755,0.771861,0.165908,0.829276,0.533644,-79005.0,-26781.0,11880.0,-77727.0,25393.0,13626.0,-4442558.0,-5211.0,-4203017.0,0.0,109.0,-3535.0,-1765.0,-4202.0,-20269.0,8471.0,2802.0,0.0,2245.0,1127.0,1989.0,-1305.0,47.0,164.0,-45.0,0.0,956.0,-874.0,593.0,-538.0,-48.0,-162.0,45.0,0.0,667.0,811.0,794.0,-967.0,-0.012955,-0.044464,0.012206,0.0,0.03499,-0.032008,-0.021734,-0.019716,-0.013229,-0.044101,0.012265,0.0,0.024407,0.02969,-0.029075,-0.035404,4101.300293,11519.19043,51378.570312,0.0,-17364.150391,-17751.419922,17852.400391,-17338.050781,4095.630127,11514.599609,51565.863281,0.0,17967.960938,17728.201172,-17469.0,17989.199219,0.0,0.0,0.0,0.0,0.0,0.0,0.0,0.0,0.0,0.0,0.0,0.0,0.0,0.0,0.0,0.0,0.0,0.0,0.0,0.0,0.0,0.0,0.0,0.0,0.0,0.0,0.0,0.0,0.0,0.0,0.0,0.0,4101.32666,11519.095703,51378.632812,0.0,-17364.332031,-17751.416016,17852.451172,-17338.279297,4095.577637,11514.568359,51565.945312,0.0,17970.929688,17728.230469,-17471.294922,17985.513672,30.113354,90.410164,22.836857,0.0,55.498158,-9.748807,25.859434,31.321754,30.071148,90.379051,22.92421,0.0,45.000351,0.009518,28.559713,28.626955,0.998,1.009,4396988.0,-122780.0,3632144.0,0.0,193044.0,193703.0,-196595.0,188443.0,-65776.0,-119469.0,-570152.0,0.0,-197399.0,-195853.0,192111.0,-201185.0,0.0,0.0,0.0,0.0,0.0,0.0,0.0,0.0,0.0,0.0,0.0,0.0,0.0,0.0,0.0,0.0,0.0,0.0,0.0,0.0,0.0,0.0,0.0,0.0
44,5.694001913070679,30.113163,90.410973,22.836821,0.0,55.531967,-9.749409,25.854063,31.346907,30.071533,90.379257,22.924168,0.0,44.46685,0.016297,28.791399,29.020353,3.0,1.0,111.0,0.0,1.0,-79005.0,-26781.0,11880.0,-77728.0,25391.0,13625.0,-0.943395,-0.302838,0.135262,-0.331526,0.873142,-0.35737,-0.009877,-0.381984,-0.924116,-0.937793,-0.034821,0.345445,0.305002,-0.558009,0.771751,0.165888,0.829104,0.533917,-0.943395,-0.302838,0.135262,-0.331526,0.873142,-0.35737,-0.009877,-0.381984,-0.924116,-0.937793,-0.034821,0.345445,0.305002,-0.558009,0.771751,0.165888,0.829104,0.533917,-79005.0,-26781.0,11880.0,-77728.0,25391.0,13625.0,-4442558.0,-5211.0,-4203017.0,0.0,109.0,-3535.0,-1765.0,-4202.0,-20269.0,8471.0,2802.0,0.0,2246.0,1128.0,1991.0,-1307.0,47.0,164.0,-45.0,0.0,955.0,-874.0,593.0,-539.0,-48.0,-162.0,45.0,0.0,667.0,809.0,793.0,-969.0,-0.012955,-0.044464,0.012206,0.0,0.03498,-0.032008,-0.021731,-0.01973,-0.013229,-0.044101,0.012265,0.0,0.024437,0.029607,-0.029049,-0.035462,4101.300293,11519.19043,51378.570312,0.0,-17364.150391,-17751.419922,17852.400391,-17338.050781,4095.630127,11514.599609,51565.863281,0.0,17968.050781,17728.291016,-17469.179688,17989.021484,0.0,0.0,0.0,0.0,0.0,0.0,0.0,0.0,0.0,0.0,0.0,0.0,0.0,0.0,0.0,0.0,0.0,0.0,0.0,0.0,0.0,0.0,0.0,0.0,0.0,0.0,0.0,0.0,0.0,0.0,0.0,0.0,4101.32666,11519.095703,51378.632812,0.0,-17364.332031,-17751.416016,17852.451172,-17338.279297,4095.577637,11514.568359,51565.945312,0.0,17970.929688,17728.230469,-17471.294922,17985.513672,30.113354,90.410164,22.836857,0.0,55.498158,-9.748807,25.859434,31.321754,30.071148,90.379051,22.92421,0.0,45.000351,0.009518,28.559713,28.626955,0.998,1.009,4396988.0,-122780.0,3632144.0,0.0,193044.0,193703.0,-196595.0,188443.0,-65776.0,-119469.0,-570152.0,0.0,-197399.0,-195853.0,192111.0,-201185.0,0.0,0.0,0.0,0.0,0.0,0.0,0.0,0.0,0.0,0.0,0.0,0.0,0.0,0.0,0.0,0.0,0.0,0.0,0.0,0.0,0.0,0.0,0.0,0.0
45,5.760037899017334,30.113163,90.410973,22.836821,0.0,55.531967,-9.749409,25.854063,31.346907,30.071533,90.379257,22.924168,0.0,44.483379,0.016297,28.781286,29.010242,3.0,1.0,111.0,0.0,1.0,-79005.0,-26781.0,11880.0,-77728.0,25391.0,13625.0,-0.943395,-0.302838,0.135262,-0.331526,0.873142,-0.35737,-0.009877,-0.381984,-0.924116,-0.937793,-0.034921,0.345435,0.305001,-0.558231,0.771591,0.165888,0.82895,0.534156,-0.943395,-0.302838,0.135262,-0.331526,0.873142,-0.35737,-0.009877,-0.381984,-0.924116,-0.937793,-0.034921,0.345435,0.305001,-0.558231,0.771591,0.165888,0.82895,0.534156,-79005.0,-26781.0,11880.0,-77728.0,25391.0,13625.0,-4442558.0,-5211.0,-4203017.0,0.0,109.0,-3535.0,-1765.0,-4202.0,-20269.0,8471.0,2802.0,0.0,2247.0,1128.0,1992.0,-1308.0,47.0,164.0,-45.0,0.0,955.0,-874.0,593.0,-539.0,-48.0,-162.0,45.0,0.0,668.0,809.0,794.0,-972.0,-0.012955,-0.044464,0.012206,0.0,0.034969,-0.032007,-0.021728,-0.019743,-0.013229,-0.044101,0.012265,0.0,0.024458,0.029604,-0.029089,-0.035582,4101.300293,11519.19043,51378.570312,0.0,-17364.150391,-17751.419922,17852.400391,-17338.050781,4095.630127,11514.599609,51565.863281,0.0,17968.140625,17728.291016,-17469.271484,17988.929688,0.0,0.0,0.0,0.0,0.0,0.0,0.0,0.0,0.0,0.0,0.0,0.0,0.0,0.0,0.0,0.0,0.0,0.0,0.0,0.0,0.0,0.0,0.0,0.0,0.0,0.0,0.0,0.0,0.0,0.0,0.0,0.0,4101.32666,11519.095703,51378.632812,0.0,-17364.332031,-17751.416016,17852.451172,-17338.279297,4095.577637,11514.568359,51565.945312,0.0,17970.929688,17728.230469,-17471.294922,17985.513672,30.113354,90.410164,22.836857,0.0,55.498158,-9.748807,25.859434,31.321754,30.071148,90.379051,22.92421,0.0,45.000351,0.009518,28.559713,28.626955,0.998,1.008,4396988.0,-122780.0,3632144.0,0.0,193044.0,193703.0,-196595.0,188443.0,-65776.0,-119469.0,-570152.0,0.0,-197399.0,-195853.0,192111.0,-201185.0,0.0,0.0,0.0,0.0,0.0,0.0,0.0,0.0,0.0,0.0,0.0,0.0,0.0,0.0,0.0,0.0,0.0,0.0,0.0,0.0,0.0,0.0,0.0,0.0
46,5.826009035110474,30.113163,90.410973,22.836821,0.0,55.531967,-9.749409,25.854063,31.346907,30.071533,90.379257,22.924168,0.0,44.516762,0.016297,28.77137,28.990215,3.0,1.0,111.0,0.0,1.0,-79005.0,-26781.0,11880.0,-77728.0,25391.0,13625.0,-0.943395,-0.302838,0.135262,-0.331526,0.873142,-0.35737,-0.009877,-0.381984,-0.924116,-0.93779,-0.035205,0.345413,0.30505,-0.558654,0.771266,0.165814,0.828653,0.534639,-0.943395,-0.302838,0.135262,-0.331526,0.873142,-0.35737,-0.009877,-0.381984,-0.924116,-0.93779,-0.035205,0.345413,0.30505,-0.558654,0.771266,0.165814,0.828653,0.534639,-79005.0,-26781.0,11880.0,-77728.0,25391.0,13625.0,-4442558.0,-5211.0,-4203017.0,0.0,109.0,-3535.0,-1765.0,-4202.0,-20269.0,8471.0,2802.0,0.0,2249.0,1128.0,1993.0,-1310.0,47.0,164.0,-45.0,0.0,955.0,-874.0,593.0,-539.0,-48.0,-162.0,45.0,0.0,664.0,808.0,795.0,-973.0,-0.012955,-0.044464,0.012206,0.0,0.034959,-0.032007,-0.021725,-0.019756,-0.013229,-0.044101,0.012265,0.0,0.02433,0.0296,-0.029125,-0.035616,4101.300293,11519.19043,51378.570312,0.0,-17364.150391,-17751.419922,17852.400391,-17338.050781,4095.630127,11514.599609,51565.863281,0.0,17968.320312,17728.291016,-17469.361328,17988.75,0.0,0.0,0.0,0.0,0.0,0.0,0.0,0.0,0.0,0.0,0.0,0.0,0.0,0.0,0.0,0.0,0.0,0.0,0.0,0.0,0.0,0.0,0.0,0.0,0.0,0.0,0.0,0.0,0.0,0.0,0.0,0.0,4101.32666,11519.095703,51378.632812,0.0,-17364.332031,-17751.416016,17852.451172,-17338.279297,4095.577637,11514.568359,51565.945312,0.0,17970.929688,17728.230469,-17471.294922,17985.513672,30.113354,90.410164,22.836857,0.0,55.498158,-9.748807,25.859434,31.321754,30.071148,90.379051,22.92421,0.0,45.000351,0.009518,28.559713,28.626955,0.998,1.008,4396988.0,-122780.0,3632144.0,0.0,193044.0,193703.0,-196595.0,188443.0,-65776.0,-119469.0,-570152.0,0.0,-197399.0,-195853.0,192111.0,-201185.0,0.0,0.0,0.0,0.0,0.0,0.0,0.0,0.0,0.0,0.0,0.0,0.0,0.0,0.0,0.0,0.0,0.0,0.0,0.0,0.0,0.0,0.0,0.0,0.0
47,5.893007040023804,30.113163,90.410973,22.836821,0.0,55.531967,-9.749409,25.854063,31.346907,30.071533,90.379257,22.924168,0.0,44.533291,0.016297,28.761257,28.980297,3.0,1.0,111.0,0.0,1.0,-79005.0,-26781.0,11880.0,-77728.0,25391.0,13625.0,-0.943395,-0.302838,0.135262,-0.331526,0.873142,-0.35737,-0.009877,-0.381984,-0.924116,-0.93779,-0.035303,0.345402,0.305048,-0.558877,0.771105,0.165815,0.828499,0.534879,-0.943395,-0.302838,0.135262,-0.331526,0.873142,-0.35737,-0.009877,-0.381984,-0.924116,-0.93779,-0.035303,0.345402,0.305048,-0.558877,0.771105,0.165815,0.828499,0.534879,-79005.0,-26781.0,11880.0,-77728.0,25391.0,13625.0,-4442558.0,-5211.0,-4203017.0,0.0,109.0,-3535.0,-1765.0,-4202.0,-20269.0,8471.0,2802.0,0.0,2250.0,1128.0,1994.0,-1311.0,47.0,164.0,-45.0,0.0,955.0,-874.0,593.0,-540.0,-48.0,-162.0,45.0,0.0,665.0,808.0,796.0,-976.0,-0.012955,-0.044464,0.012206,0.0,0.034948,-0.032006,-0.021722,-0.019769,-0.013229,-0.044101,0.012265,0.0,0.024341,0.029597,-0.029155,-0.035725,4101.300293,11519.19043,51378.570312,0.0,-17364.150391,-17751.419922,17852.400391,-17338.050781,4095.630127,11514.599609,51565.863281,0.0,17968.410156,17728.291016,-17469.451172,17988.660156,0.0,0.0,0.0,0.0,0.0,0.0,0.0,0.0,0.0,0.0,0.0,0.0,0.0,0.0,0.0,0.0,0.0,0.0,0.0,0.0,0.0,0.0,0.0,0.0,0.0,0.0,0.0,0.0,0.0,0.0,0.0,0.0,4101.32666,11519.095703,51378.632812,0.0,-17364.332031,-17751.416016,17852.451172,-17338.279297,4095.577637,11514.568359,51565.945312,0.0,17970.929688,17728.230469,-17471.294922,17985.513672,30.113354,90.410164,22.836857,0.0,55.498158,-9.748807,25.859434,31.321754,30.071148,90.379051,22.92421,0.0,45.000351,0.009518,28.559713,28.626955,0.998,1.007,4396988.0,-122780.0,3632144.0,0.0,193044.0,193703.0,-196595.0,188443.0,-65776.0,-119469.0,-570152.0,0.0,-197399.0,-195853.0,192111.0,-201185.0,0.0,0.0,0.0,0.0,0.0,0.0,0.0,0.0,0.0,0.0,0.0,0.0,0.0,0.0,0.0,0.0,0.0,0.0,0.0,0.0,0.0,0.0,0.0,0.0
48,5.960042953491211,30.113163,90.410973,22.836821,0.0,55.531967,-9.749409,25.854063,31.346907,30.071533,90.379257,22.924168,0.0,44.550144,0.016297,28.741423,28.970186,3.0,1.0,111.0,0.0,1.0,-79005.0,-26781.0,11880.0,-77728.0,25391.0,13625.0,-0.943395,-0.302838,0.135262,-0.331526,0.873142,-0.35737,-0.009877,-0.381984,-0.924116,-0.937794,-0.035325,0.345391,0.305,-0.55913,0.77094,0.165885,0.828327,0.535122,-0.943395,-0.302838,0.135262,-0.331526,0.873142,-0.35737,-0.009877,-0.381984,-0.924116,-0.937794,-0.035325,0.345391,0.305,-0.55913,0.77094,0.165885,0.828327,0.535122,-79005.0,-26781.0,11880.0,-77728.0,25391.0,13625.0,-4442558.0,-5211.0,-4203017.0,0.0,109.0,-3535.0,-1765.0,-4202.0,-20269.0,8471.0,2802.0,0.0,2251.0,1128.0,1996.0,-1312.0,47.0,164.0,-45.0,0.0,954.0,-874.0,593.0,-540.0,-48.0,-162.0,45.0,0.0,665.0,808.0,795.0,-979.0,-0.012955,-0.044464,0.012206,0.0,0.034938,-0.032006,-0.021719,-0.019783,-0.013229,-0.044101,0.012265,0.0,0.024343,0.029593,-0.029101,-0.035826,4101.300293,11519.19043,51378.570312,0.0,-17364.150391,-17751.419922,17852.400391,-17338.050781,4095.630127,11514.599609,51565.863281,0.0,17968.5,17728.291016,-17469.628906,17988.570312,0.0,0.0,0.0,0.0,0.0,0.0,0.0,0.0,0.0,0.0,0.0,0.0,0.0,0.0,0.0,0.0,0.0,0.0,0.0,0.0,0.0,0.0,0.0,0.0,0.0,0.0,0.0,0.0,0.0,0.0,0.0,0.0,4101.32666,11519.095703,51378.632812,0.0,-17364.332031,-17751.416016,17852.451172,-17338.279297,4095.577637,11514.568359,51565.945312,0.0,17970.929688,17728.230469,-17471.294922,17985.513672,30.113354,90.410164,22.836857,0.0,55.498158,-9.748807,25.859434,31.321754,30.071148,90.379051,22.92421,0.0,45.000351,0.009518,28.559713,28.626955,0.998,1.007,4396988.0,-122780.0,3632144.0,0.0,193044.0,193703.0,-196595.0,188443.0,-65776.0,-119469.0,-570152.0,0.0,-197399.0,-195853.0,192111.0,-201185.0,0.0,0.0,0.0,0.0,0.0,0.0,0.0,0.0,0.0,0.0,0.0,0.0,0.0,0.0,0.0,0.0,0.0,0.0,0.0,0.0,0.0,0.0,0.0,0.0
49,6.025003910064697,30.113163,90.410973,22.836821,0.0,55.531967,-9.749409,25.854063,31.346907,30.071533,90.379257,22.924168,0.0,44.566669,0.016297,28.73131,28.950157,3.0,1.0,111.0,0.0,1.0,-79005.0,-26781.0,11880.0,-77728.0,25391.0,13625.0,-0.943395,-0.302838,0.135262,-0.331526,0.873142,-0.35737,-0.009877,-0.381984,-0.924116,-0.937791,-0.035506,0.345381,0.305048,-0.559325,0.770779,0.165813,0.828187,0.535361,-0.943395,-0.302838,0.135262,-0.331526,0.873142,-0.35737,-0.009877,-0.381984,-0.924116,-0.937791,-0.035506,0.345381,0.305048,-0.559325,0.770779,0.165813,0.828187,0.535361,-79005.0,-26781.0,11880.0,-77728.0,25391.0,13625.0,-4442558.0,-5211.0,-4203017.0,0.0,109.0,-3535.0,-1765.0,-4202.0,-20269.0,8471.0,2802.0,0.0,2252.0,1128.0,1997.0,-1314.0,47.0,164.0,-45.0,0.0,954.0,-874.0,593.0,-540.0,-48.0,-162.0,45.0,0.0,665.0,808.0,795.0,-979.0,-0.012955,-0.044464,0.012206,0.0,0.034927,-0.032006,-0.021716,-0.019796,-0.013229,-0.044101,0.012265,0.0,0.024339,0.02959,-0.029115,-0.035837,4101.300293,11519.19043,51378.570312,0.0,-17364.150391,-17751.419922,17852.400391,-17338.050781,4095.630127,11514.599609,51565.863281,0.0,17968.589844,17728.291016,-17469.720703,17988.390625,0.0,0.0,0.0,0.0,0.0,0.0,0.0,0.0,0.0,0.0,0.0,0.0,0.0,0.0,0.0,0.0,0.0,0.0,0.0,0.0,0.0,0.0,0.0,0.0,0.0,0.0,0.0,0.0,0.0,0.0,0.0,0.0,4101.32666,11519.095703,51378.632812,0.0,-17364.332031,-17751.416016,17852.451172,-17338.279297,4095.577637,11514.568359,51565.945312,0.0,17970.929688,17728.230469,-17471.294922,17985.513672,30.113354,90.410164,22.836857,0.0,55.498158,-9.748807,25.859434,31.321754,30.071148,90.379051,22.92421,0.0,45.000351,0.009518,28.559713,28.626955,0.998,1.006,4396988.0,-122780.0,3632144.0,0.0,193044.0,193703.0,-196595.0,188443.0,-65776.0,-119469.0,-570152.0,0.0,-197399.0,-195853.0,192111.0,-201185.0,0.0,0.0,0.0,0.0,0.0,0.0,0.0,0.0,0.0,0.0,0.0,0.0,0.0,0.0,0.0,0.0,0.0,0.0,0.0,0.0,0.0,0.0,0.0,0.0
50,6.090044021606445,30.113163,90.410973,22.836821,0.0,55.531967,-9.749409,25.854063,31.346907,30.071533,90.379257,22.924168,0.0,44.583523,0.016297,28.721395,28.940239,3.0,1.0,111.0,0.0,1.0,-79005.0,-26781.0,11880.0,-77728.0,25391.0,13625.0,-0.943395,-0.302838,0.135262,-0.331526,0.873142,-0.35737,-0.009877,-0.381984,-0.924116,-0.937791,-0.035608,0.34537,0.305048,-0.559552,0.770615,0.165812,0.82803,0.535605,-0.943395,-0.302838,0.135262,-0.331526,0.873142,-0.35737,-0.009877,-0.381984,-0.924116,-0.937791,-0.035608,0.34537,0.305048,-0.559552,0.770615,0.165812,0.82803,0.535605,-79005.0,-26781.0,11880.0,-77728.0,25391.0,13625.0,-4442558.0,-5211.0,-4203017.0,0.0,109.0,-3535.0,-1765.0,-4202.0,-20269.0,8471.0,2802.0,0.0,2253.0,1128.0,1998.0,-1315.0,47.0,164.0,-45.0,0.0,954.0,-874.0,593.0,-541.0,-48.0,-162.0,45.0,0.0,664.0,808.0,795.0,-981.0,-0.012955,-0.044464,0.012206,0.0,0.034917,-0.032005,-0.021714,-0.019809,-0.013229,-0.044101,0.012265,0.0,0.024327,0.029586,-0.029125,-0.035921,4101.300293,11519.19043,51378.570312,0.0,-17364.150391,-17751.419922,17852.400391,-17338.050781,4095.630127,11514.599609,51565.863281,0.0,17968.681641,17728.291016,-17469.810547,17988.300781,0.0,0.0,0.0,0.0,0.0,0.0,0.0,0.0,0.0,0.0,0.0,0.0,0.0,0.0,0.0,0.0,0.0,0.0,0.0,0.0,0.0,0.0,0.0,0.0,0.0,0.0,0.0,0.0,0.0,0.0,0.0,0.0,4101.32666,11519.095703,51378.632812,0.0,-17364.332031,-17751.416016,17852.451172,-17338.279297,4095.577637,11514.568359,51565.945312,0.0,17970.929688,17728.230469,-17471.294922,17985.513672,30.113354,90.410164,22.836857,0.0,55.498158,-9.748807,25.859434,31.321754,30.071148,90.379051,22.92421,0.0,45.000351,0.009518,28.559713,28.626955,0.998,1.006,4396988.0,-122780.0,3632144.0,0.0,193044.0,193703.0,-196595.0,188443.0,-65776.0,-119469.0,-570152.0,0.0,-197399.0,-195853.0,192111.0,-201185.0,0.0,0.0,0.0,0.0,0.0,0.0,0.0,0.0,0.0,0.0,0.0,0.0,0.0,0.0,0.0,0.0,0.0,0.0,0.0,0.0,0.0,0.0,0.0,0.0
