MHC-RobotSimulators-Research/Data_Analysis_MotionReplication/mai_plotter/raven_data/rightarm_p5_phys3.csv
,time,jpos0,jpos1,jpos2,jpos3,jpos4,jpos5,jpos6,jpos7,jpos8,jpos9,jpos10,jpos11,jpos12,jpos13,jpos14,jpos15,runlevel,sublevel,last_seq,type0,type1,pos0,pos1,pos2,pos3,pos4,pos5,ori0,ori1,ori2,ori3,ori4,ori5,ori6,ori7,ori8,ori9,ori10,ori11,ori12,ori13,ori14,ori15,ori16,ori17,ori_d0,ori_d1,ori_d2,ori_d3,ori_d4,ori_d5,ori_d6,ori_d7,ori_d8,ori_d9,ori_d10,ori_d11,ori_d12,ori_d13,ori_d14,ori_d15,ori_d16,ori_d17,pos_d0,pos_d1,pos_d2,pos_d3,pos_d4,pos_d5,encVals0,encVals1,encVals2,encVals3,encVals4,encVals5,encVals6,encVals7,encVals8,encVals9,encVals10,encVals11,encVals12,encVals13,encVals14,encVals15,dac_vals0,dac_vals1,dac_vals2,dac_vals3,dac_vals4,dac_vals5,dac_vals6,dac_vals7,dac_vals8,dac_vals9,dac_vals10,dac_vals11,dac_vals12,dac_vals13,dac_vals14,dac_vals15,Tau0,Tau1,Tau2,Tau3,Tau4,Tau5,Tau6,Tau7,Tau8,Tau9,Tau10,Tau11,Tau12,Tau13,Tau14,Tau15,mpos0,mpos1,mpos2,mpos3,mpos4,mpos5,mpos6,mpos7,mpos8,mpos9,mpos10,mpos11,mpos12,mpos13,mpos14,mpos15,mvel0,mvel1,mvel2,mvel3,mvel4,mvel5,mvel6,mvel7,mvel8,mvel9,mvel10,mvel11,mvel12,mvel13,mvel14,mvel15,jvel0,jvel1,jvel2,jvel3,jvel4,jvel5,jvel6,jvel7,jvel8,jvel9,jvel10,jvel11,jvel12,jvel13,jvel14,jvel15,mpos_d0,mpos_d1,mpos_d2,mpos_d3,mpos_d4,mpos_d5,mpos_d6,mpos_d7,mpos_d8,mpos_d9,mpos_d10,mpos_d11,mpos_d12,mpos_d13,mpos_d14,mpos_d15,jpos_d0,jpos_d1,jpos_d2,jpos_d3,jpos_d4,jpos_d5,jpos_d6,jpos_d7,jpos_d8,jpos_d9,jpos_d10,jpos_d11,jpos_d12,jpos_d13,jpos_d14,jpos_d15,grasp_d0,grasp_d1,encoffsets0,encoffsets1,encoffsets2,encoffsets3,encoffsets4,encoffsets5,encoffsets6,encoffsets7,encoffsets8,encoffsets9,encoffsets10,encoffsets11,encoffsets12,encoffsets13,encoffsets14,encoffsets15,jac_vel0,jac_vel1,jac_vel2,jac_vel3,jac_vel4,jac_vel5,jac_vel6,jac_vel7,jac_vel8,jac_vel9,jac_vel10,jac_vel11,jac_f0,jac_f1,jac_f2,jac_f3,jac_f4,jac_f5,jac_f6,jac_f7,jac_f8,jac_f9,jac_f10,jac_f11
0,0.0,30.080782,90.650452,22.909355,0.0,4.752281,-0.281295,43.180187,46.319702,30.16206,90.797127,22.850916,0.0,0.800262,-1.821797,31.848776,26.383192,3.0,1.0,111.0,0.0,1.0,-77881.0,-25589.0,13951.0,-78658.0,26366.0,14228.0,-0.941743,-0.214871,0.258747,-0.305514,0.224815,-0.925267,0.140643,-0.950415,-0.277364,-0.935843,0.172074,0.307554,0.332184,0.139255,0.932878,0.117695,0.975192,-0.187481,-0.941743,-0.214871,0.258747,-0.305514,0.224815,-0.925267,0.140643,-0.950415,-0.277364,-0.936016,0.172034,0.307049,0.331363,0.136692,0.933549,0.118631,0.975561,-0.184952,-77881.0,-25589.0,13951.0,-78663.0,26352.0,14230.0,-4453035.0,-2143598.0,-1730.0,0.0,-4194876.0,-2098075.0,-1912.0,-447.0,-4457240.0,-2227943.0,-6292661.0,0.0,-4194580.0,-2244772.0,-4456252.0,-1843.0,48.0,165.0,-45.0,0.0,166.0,642.0,60.0,218.0,-51.0,-169.0,44.0,0.0,-133.0,-295.0,669.0,-779.0,-0.013042,-0.04468,0.012181,0.0,0.006083,0.023512,-0.002196,0.007983,-0.013853,-0.045777,0.011913,0.0,-0.004901,-0.010798,-0.024483,-0.028527,4096.890137,11547.720703,51538.769531,0.0,-17693.191406,-17721.359375,18105.839844,-17301.060547,4107.959961,11566.980469,51416.550781,0.0,17681.130859,17660.431641,-17398.621094,17922.240234,0.0,0.0,0.0,0.0,0.0,0.0,0.0,0.0,0.0,0.0,0.0,0.0,0.0,0.0,0.0,0.0,0.0,0.0,0.0,0.0,0.0,0.0,0.0,0.0,0.0,0.0,0.0,0.0,0.0,0.0,0.0,0.0,4096.903809,11547.68457,51538.828125,0.0,-17693.193359,-17721.357422,18105.824219,-17301.080078,4107.900879,11566.793945,51416.511719,0.0,17681.882812,17661.0,-17398.535156,17922.494141,30.080883,90.650146,22.909382,0.0,4.75203,-0.281178,43.178463,46.317547,30.161627,90.795647,22.850912,0.0,0.940067,-1.758663,31.826721,26.443087,1.562,1.017,4407514.0,2015290.0,-570923.0,0.0,-3998285.0,-1901171.0,-199264.0,191787.0,-4502884.0,-2356465.0,-6863956.0,0.0,-4391037.0,-2440999.0,4649570.0,-200979.0,0.0,0.0,0.0,0.0,0.0,0.0,0.0,0.0,0.0,0.0,0.0,0.0,0.0,0.0,0.0,0.0,0.0,0.0,0.0,0.0,0.0,0.0,0.0,0.0
1,0.08692216873168945,30.080782,90.650452,22.909355,0.0,4.752281,-0.281295,43.180187,46.319702,30.16206,90.797127,22.850916,0.0,0.800262,-1.821797,31.848776,26.383192,3.0,1.0,111.0,0.0,1.0,-77881.0,-25589.0,13951.0,-78658.0,26366.0,14228.0,-0.941743,-0.214871,0.258747,-0.305514,0.224815,-0.925267,0.140643,-0.950415,-0.277364,-0.935843,0.172074,0.307554,0.332184,0.139255,0.932878,0.117695,0.975192,-0.187481,-0.941743,-0.214871,0.258747,-0.305514,0.224815,-0.925267,0.140643,-0.950415,-0.277364,-0.935843,0.172074,0.307554,0.332184,0.139255,0.932878,0.117695,0.975192,-0.187481,-77881.0,-25589.0,13951.0,-78658.0,26366.0,14228.0,-4453035.0,-2143598.0,-1730.0,0.0,-4194876.0,-2098075.0,-1912.0,-447.0,-4457240.0,-2227943.0,-6292661.0,0.0,-4194580.0,-2244772.0,-4456252.0,-1843.0,48.0,165.0,-45.0,0.0,166.0,642.0,60.0,218.0,-51.0,-169.0,44.0,0.0,-132.0,-293.0,668.0,-779.0,-0.013042,-0.04468,0.012181,0.0,0.006083,0.023513,-0.002197,0.007982,-0.013853,-0.045777,0.011913,0.0,-0.004844,-0.010755,-0.024476,-0.028508,4096.890137,11547.720703,51538.769531,0.0,-17693.191406,-17721.359375,18105.839844,-17301.060547,4107.959961,11566.980469,51416.550781,0.0,17681.130859,17660.431641,-17398.621094,17922.240234,0.0,0.0,0.0,0.0,0.0,0.0,0.0,0.0,0.0,0.0,0.0,0.0,0.0,0.0,0.0,0.0,0.0,0.0,0.0,0.0,0.0,0.0,0.0,0.0,0.0,0.0,0.0,0.0,0.0,0.0,0.0,0.0,4096.903809,11547.68457,51538.828125,0.0,-17693.193359,-17721.357422,18105.824219,-17301.080078,4107.900879,11566.793945,51416.511719,0.0,17681.882812,17661.0,-17398.535156,17922.494141,30.080883,90.650146,22.909382,0.0,4.75203,-0.281178,43.178463,46.317547,30.161627,90.795647,22.850912,0.0,0.940067,-1.758663,31.826721,26.443087,1.562,1.016,4407514.0,2015290.0,-570923.0,0.0,-3998285.0,-1901171.0,-199264.0,191787.0,-4502884.0,-2356465.0,-6863956.0,0.0,-4391037.0,-2440999.0,4649570.0,-200979.0,0.0,0.0,0.0,0.0,0.0,0.0,0.0,0.0,0.0,0.0,0.0,0.0,0.0,0.0,0.0,0.0,0.0,0.0,0.0,0.0,0.0,0.0,0.0,0.0
2,0.1518871784210205,30.080782,90.650452,22.909355,0.0,4.752281,-0.281295,43.180187,46.319702,30.16206,90.797127,22.850916,0.0,0.800262,-1.821797,31.848776,26.383192,3.0,1.0,111.0,0.0,1.0,-77881.0,-25589.0,13951.0,-78658.0,26366.0,14228.0,-0.941743,-0.214871,0.258747,-0.305514,0.224815,-0.925267,0.140643,-0.950415,-0.277364,-0.935843,0.172074,0.307554,0.332184,0.139255,0.932878,0.117695,0.975192,-0.187481,-0.941743,-0.214871,0.258747,-0.305514,0.224815,-0.925267,0.140643,-0.950415,-0.277364,-0.935843,0.172074,0.307554,0.332184,0.139255,0.932878,0.117695,0.975192,-0.187481,-77881.0,-25589.0,13951.0,-78658.0,26366.0,14228.0,-4453035.0,-2143598.0,-1730.0,0.0,-4194876.0,-2098075.0,-1912.0,-447.0,-4457240.0,-2227943.0,-6292661.0,0.0,-4194580.0,-2244772.0,-4456252.0,-1843.0,48.0,165.0,-45.0,0.0,166.0,642.0,60.0,218.0,-51.0,-169.0,44.0,0.0,-131.0,-293.0,668.0,-778.0,-0.013042,-0.04468,0.012181,0.0,0.006083,0.023513,-0.002198,0.007981,-0.013853,-0.045777,0.011913,0.0,-0.004802,-0.010723,-0.024471,-0.028493,4096.890137,11547.720703,51538.769531,0.0,-17693.191406,-17721.359375,18105.839844,-17301.060547,4107.959961,11566.980469,51416.550781,0.0,17681.130859,17660.431641,-17398.621094,17922.240234,0.0,0.0,0.0,0.0,0.0,0.0,0.0,0.0,0.0,0.0,0.0,0.0,0.0,0.0,0.0,0.0,0.0,0.0,0.0,0.0,0.0,0.0,0.0,0.0,0.0,0.0,0.0,0.0,0.0,0.0,0.0,0.0,4096.903809,11547.68457,51538.828125,0.0,-17693.193359,-17721.357422,18105.824219,-17301.080078,4107.900879,11566.793945,51416.511719,0.0,17681.882812,17661.0,-17398.535156,17922.494141,30.080883,90.650146,22.909382,0.0,4.75203,-0.281178,43.178463,46.317547,30.161627,90.795647,22.850912,0.0,0.940067,-1.758663,31.826721,26.443087,1.562,1.016,4407514.0,2015290.0,-570923.0,0.0,-3998285.0,-1901171.0,-199264.0,191787.0,-4502884.0,-2356465.0,-6863956.0,0.0,-4391037.0,-2440999.0,4649570.0,-200979.0,0.0,0.0,0.0,0.0,0.0,0.0,0.0,0.0,0.0,0.0,0.0,0.0,0.0,0.0,0.0,0.0,0.0,0.0,0.0,0.0,0.0,0.0,0.0,0.0
3,0.21882104873657227,30.080782,90.650452,22.909355,0.0,4.752281,-0.281295,43.180187,46.319702,30.16206,90.797127,22.850916,0.0,0.800262,-1.821797,31.848776,26.383192,3.0,1.0,111.0,0.0,1.0,-77881.0,-25589.0,13951.0,-78658.0,26366.0,14228.0,-0.941743,-0.214871,0.258747,-0.305514,0.224815,-0.925267,0.140643,-0.950415,-0.277364,-0.935843,0.172074,0.307554,0.332184,0.139255,0.932878,0.117695,0.975192,-0.187481,-0.941743,-0.214871,0.258747,-0.305514,0.224815,-0.925267,0.140643,-0.950415,-0.277364,-0.935843,0.172074,0.307554,0.332184,0.139255,0.932878,0.117695,0.975192,-0.187481,-77881.0,-25589.0,13951.0,-78658.0,26366.0,14228.0,-4453035.0,-2143598.0,-1730.0,0.0,-4194876.0,-2098075.0,-1912.0,-447.0,-4457240.0,-2227943.0,-6292661.0,0.0,-4194580.0,-2244772.0,-4456252.0,-1843.0,48.0,165.0,-45.0,0.0,166.0,642.0,60.0,218.0,-51.0,-169.0,44.0,0.0,-130.0,-292.0,668.0,-778.0,-0.013042,-0.04468,0.012181,0.0,0.006083,0.023513,-0.002199,0.00798,-0.013853,-0.045777,0.011913,0.0,-0.004757,-0.010689,-0.024466,-0.028478,4096.890137,11547.720703,51538.769531,0.0,-17693.191406,-17721.359375,18105.839844,-17301.060547,4107.959961,11566.980469,51416.550781,0.0,17681.130859,17660.431641,-17398.621094,17922.240234,0.0,0.0,0.0,0.0,0.0,0.0,0.0,0.0,0.0,0.0,0.0,0.0,0.0,0.0,0.0,0.0,0.0,0.0,0.0,0.0,0.0,0.0,0.0,0.0,0.0,0.0,0.0,0.0,0.0,0.0,0.0,0.0,4096.903809,11547.68457,51538.828125,0.0,-17693.193359,-17721.357422,18105.824219,-17301.080078,4107.900879,11566.793945,51416.511719,0.0,17681.882812,17661.0,-17398.535156,17922.494141,30.080883,90.650146,22.909382,0.0,4.75203,-0.281178,43.178463,46.317547,30.161627,90.795647,22.850912,0.0,0.940067,-1.758663,31.826721,26.443087,1.562,1.016,4407514.0,2015290.0,-570923.0,0.0,-3998285.0,-1901171.0,-199264.0,191787.0,-4502884.0,-2356465.0,-6863956.0,0.0,-4391037.0,-2440999.0,4649570.0,-200979.0,0.0,0.0,0.0,0.0,0.0,0.0,0.0,0.0,0.0,0.0,0.0,0.0,0.0,0.0,0.0,0.0,0.0,0.0,0.0,0.0,0.0,0.0,0.0,0.0
4,0.2830171585083008,30.080782,90.650452,22.909355,0.0,4.752281,-0.281295,43.180187,46.319702,30.16206,90.797127,22.850916,0.0,0.800262,-1.821797,31.848776,26.383192,3.0,1.0,111.0,0.0,1.0,-77881.0,-25589.0,13951.0,-78658.0,26366.0,14228.0,-0.941743,-0.214871,0.258747,-0.305514,0.224815,-0.925267,0.140643,-0.950415,-0.277364,-0.935843,0.172074,0.307554,0.332184,0.139255,0.932878,0.117695,0.975192,-0.187481,-0.941743,-0.214871,0.258747,-0.305514,0.224815,-0.925267,0.140643,-0.950415,-0.277364,-0.935843,0.172074,0.307554,0.332184,0.139255,0.932878,0.117695,0.975192,-0.187481,-77881.0,-25589.0,13951.0,-78658.0,26366.0,14228.0,-4453035.0,-2143598.0,-1730.0,0.0,-4194876.0,-2098075.0,-1912.0,-447.0,-4457240.0,-2227943.0,-6292661.0,0.0,-4194580.0,-2244772.0,-4456252.0,-1843.0,48.0,165.0,-45.0,0.0,166.0,642.0,60.0,218.0,-51.0,-169.0,44.0,0.0,-128.0,-291.0,668.0,-777.0,-0.013042,-0.04468,0.012181,0.0,0.006083,0.023513,-0.0022,0.007979,-0.013853,-0.045777,0.011913,0.0,-0.004715,-0.010658,-0.024461,-0.028464,4096.890137,11547.720703,51538.769531,0.0,-17693.191406,-17721.359375,18105.839844,-17301.060547,4107.959961,11566.980469,51416.550781,0.0,17681.130859,17660.431641,-17398.621094,17922.240234,0.0,0.0,0.0,0.0,0.0,0.0,0.0,0.0,0.0,0.0,0.0,0.0,0.0,0.0,0.0,0.0,0.0,0.0,0.0,0.0,0.0,0.0,0.0,0.0,0.0,0.0,0.0,0.0,0.0,0.0,0.0,0.0,4096.903809,11547.68457,51538.828125,0.0,-17693.193359,-17721.357422,18105.824219,-17301.080078,4107.900879,11566.793945,51416.511719,0.0,17681.882812,17661.0,-17398.535156,17922.494141,30.080883,90.650146,22.909382,0.0,4.75203,-0.281178,43.178463,46.317547,30.161627,90.795647,22.850912,0.0,0.940067,-1.758663,31.826721,26.443087,1.562,1.016,4407514.0,2015290.0,-570923.0,0.0,-3998285.0,-1901171.0,-199264.0,191787.0,-4502884.0,-2356465.0,-6863956.0,0.0,-4391037.0,-2440999.0,4649570.0,-200979.0,0.0,0.0,0.0,0.0,0.0,0.0,0.0,0.0,0.0,0.0,0.0,0.0,0.0,0.0,0.0,0.0,0.0,0.0,0.0,0.0,0.0,0.0,0.0,0.0
5,0.3490259647369385,30.080782,90.650452,22.909355,0.0,4.752281,-0.281295,43.180187,46.319702,30.16206,90.797127,22.850916,0.0,0.800262,-1.821797,31.848776,26.383192,3.0,1.0,111.0,0.0,1.0,-77881.0,-25589.0,13951.0,-78658.0,26366.0,14228.0,-0.941743,-0.214871,0.258747,-0.305514,0.224815,-0.925267,0.140643,-0.950415,-0.277364,-0.935843,0.172074,0.307554,0.332184,0.139255,0.932878,0.117695,0.975192,-0.187481,-0.941743,-0.214871,0.258747,-0.305514,0.224815,-0.925267,0.140643,-0.950415,-0.277364,-0.935843,0.172074,0.307554,0.332184,0.139255,0.932878,0.117695,0.975192,-0.187481,-77881.0,-25589.0,13951.0,-78658.0,26366.0,14228.0,-4453035.0,-2143598.0,-1730.0,0.0,-4194876.0,-2098075.0,-1912.0,-447.0,-4457240.0,-2227943.0,-6292661.0,0.0,-4194580.0,-2244772.0,-4456252.0,-1843.0,48.0,165.0,-45.0,0.0,166.0,642.0,60.0,218.0,-51.0,-169.0,44.0,0.0,-127.0,-290.0,668.0,-777.0,-0.013042,-0.04468,0.012181,0.0,0.006083,0.023513,-0.002201,0.007977,-0.013853,-0.045777,0.011913,0.0,-0.004672,-0.010625,-0.024457,-0.028449,4096.890137,11547.720703,51538.769531,0.0,-17693.191406,-17721.359375,18105.839844,-17301.060547,4107.959961,11566.980469,51416.550781,0.0,17681.130859,17660.431641,-17398.621094,17922.240234,0.0,0.0,0.0,0.0,0.0,0.0,0.0,0.0,0.0,0.0,0.0,0.0,0.0,0.0,0.0,0.0,0.0,0.0,0.0,0.0,0.0,0.0,0.0,0.0,0.0,0.0,0.0,0.0,0.0,0.0,0.0,0.0,4096.903809,11547.68457,51538.828125,0.0,-17693.193359,-17721.357422,18105.824219,-17301.080078,4107.900879,11566.793945,51416.511719,0.0,17681.882812,17661.0,-17398.535156,17922.494141,30.080883,90.650146,22.909382,0.0,4.75203,-0.281178,43.178463,46.317547,30.161627,90.795647,22.850912,0.0,0.940067,-1.758663,31.826721,26.443087,1.562,1.016,4407514.0,2015290.0,-570923.0,0.0,-3998285.0,-1901171.0,-199264.0,191787.0,-4502884.0,-2356465.0,-6863956.0,0.0,-4391037.0,-2440999.0,4649570.0,-200979.0,0.0,0.0,0.0,0.0,0.0,0.0,0.0,0.0,0.0,0.0,0.0,0.0,0.0,0.0,0.0,0.0,0.0,0.0,0.0,0.0,0.0,0.0,0.0,0.0
6,0.41301894187927246,30.080782,90.650452,22.909355,0.0,4.752281,-0.281295,43.180187,46.319702,30.16206,90.797127,22.850916,0.0,0.800262,-1.821797,31.848776,26.383192,3.0,1.0,111.0,0.0,1.0,-77881.0,-25589.0,13951.0,-78658.0,26366.0,14228.0,-0.941743,-0.214871,0.258747,-0.305514,0.224815,-0.925267,0.140643,-0.950415,-0.277364,-0.935843,0.172074,0.307554,0.332184,0.139255,0.932878,0.117695,0.975192,-0.187481,-0.941743,-0.214871,0.258747,-0.305514,0.224815,-0.925267,0.140643,-0.950415,-0.277364,-0.935843,0.172074,0.307554,0.332184,0.139255,0.932878,0.117695,0.975192,-0.187481,-77881.0,-25589.0,13951.0,-78658.0,26366.0,14228.0,-4453035.0,-2143598.0,-1730.0,0.0,-4194876.0,-2098075.0,-1912.0,-447.0,-4457240.0,-2227943.0,-6292661.0,0.0,-4194580.0,-2244772.0,-4456252.0,-1843.0,48.0,165.0,-45.0,0.0,166.0,642.0,60.0,217.0,-51.0,-169.0,44.0,0.0,-126.0,-289.0,668.0,-777.0,-0.013042,-0.04468,0.012181,0.0,0.006082,0.023513,-0.002202,0.007976,-0.013853,-0.045777,0.011913,0.0,-0.00463,-0.010593,-0.024452,-0.028435,4096.890137,11547.720703,51538.769531,0.0,-17693.191406,-17721.359375,18105.839844,-17301.060547,4107.959961,11566.980469,51416.550781,0.0,17681.130859,17660.431641,-17398.621094,17922.240234,0.0,0.0,0.0,0.0,0.0,0.0,0.0,0.0,0.0,0.0,0.0,0.0,0.0,0.0,0.0,0.0,0.0,0.0,0.0,0.0,0.0,0.0,0.0,0.0,0.0,0.0,0.0,0.0,0.0,0.0,0.0,0.0,4096.903809,11547.68457,51538.828125,0.0,-17693.193359,-17721.357422,18105.824219,-17301.080078,4107.900879,11566.793945,51416.511719,0.0,17681.882812,17661.0,-17398.535156,17922.494141,30.080883,90.650146,22.909382,0.0,4.75203,-0.281178,43.178463,46.317547,30.161627,90.795647,22.850912,0.0,0.940067,-1.758663,31.826721,26.443087,1.562,1.016,4407514.0,2015290.0,-570923.0,0.0,-3998285.0,-1901171.0,-199264.0,191787.0,-4502884.0,-2356465.0,-6863956.0,0.0,-4391037.0,-2440999.0,4649570.0,-200979.0,0.0,0.0,0.0,0.0,0.0,0.0,0.0,0.0,0.0,0.0,0.0,0.0,0.0,0.0,0.0,0.0,0.0,0.0,0.0,0.0,0.0,0.0,0.0,0.0
7,0.48003506660461426,30.080782,90.650452,22.909355,0.0,4.752281,-0.281295,43.180187,46.319702,30.16206,90.797127,22.850916,0.0,0.800262,-1.821797,31.848776,26.383192,3.0,1.0,111.0,0.0,1.0,-77881.0,-25589.0,13951.0,-78658.0,26366.0,14228.0,-0.941743,-0.214871,0.258747,-0.305514,0.224815,-0.925267,0.140643,-0.950415,-0.277364,-0.935843,0.172074,0.307554,0.332184,0.139255,0.932878,0.117695,0.975192,-0.187481,-0.941743,-0.214871,0.258747,-0.305514,0.224815,-0.925267,0.140643,-0.950415,-0.277364,-0.935843,0.172074,0.307554,0.332184,0.139255,0.932878,0.117695,0.975192,-0.187481,-77881.0,-25589.0,13951.0,-78658.0,26366.0,14228.0,-4453035.0,-2143598.0,-1730.0,0.0,-4194876.0,-2098075.0,-1912.0,-447.0,-4457240.0,-2227943.0,-6292661.0,0.0,-4194580.0,-2244772.0,-4456252.0,-1843.0,48.0,165.0,-45.0,0.0,166.0,642.0,60.0,217.0,-51.0,-169.0,44.0,0.0,-125.0,-288.0,668.0,-776.0,-0.013042,-0.04468,0.012181,0.0,0.006082,0.023513,-0.002203,0.007975,-0.013853,-0.045777,0.011913,0.0,-0.004586,-0.01056,-0.024447,-0.02842,4096.890137,11547.720703,51538.769531,0.0,-17693.191406,-17721.359375,18105.839844,-17301.060547,4107.959961,11566.980469,51416.550781,0.0,17681.130859,17660.431641,-17398.621094,17922.240234,0.0,0.0,0.0,0.0,0.0,0.0,0.0,0.0,0.0,0.0,0.0,0.0,0.0,0.0,0.0,0.0,0.0,0.0,0.0,0.0,0.0,0.0,0.0,0.0,0.0,0.0,0.0,0.0,0.0,0.0,0.0,0.0,4096.903809,11547.68457,51538.828125,0.0,-17693.193359,-17721.357422,18105.824219,-17301.080078,4107.900879,11566.793945,51416.511719,0.0,17681.882812,17661.0,-17398.535156,17922.494141,30.080883,90.650146,22.909382,0.0,4.75203,-0.281178,43.178463,46.317547,30.161627,90.795647,22.850912,0.0,0.940067,-1.758663,31.826721,26.443087,1.562,1.016,4407514.0,2015290.0,-570923.0,0.0,-3998285.0,-1901171.0,-199264.0,191787.0,-4502884.0,-2356465.0,-6863956.0,0.0,-4391037.0,-2440999.0,4649570.0,-200979.0,0.0,0.0,0.0,0.0,0.0,0.0,0.0,0.0,0.0,0.0,0.0,0.0,0.0,0.0,0.0,0.0,0.0,0.0,0.0,0.0,0.0,0.0,0.0,0.0
8,0.5440051555633545,30.080782,90.650452,22.909355,0.0,4.752281,-0.281295,43.180187,46.319702,30.16206,90.797127,22.850916,0.0,0.800262,-1.821797,31.848776,26.383192,3.0,1.0,111.0,0.0,1.0,-77881.0,-25589.0,13951.0,-78658.0,26366.0,14228.0,-0.941743,-0.214871,0.258747,-0.305514,0.224815,-0.925267,0.140643,-0.950415,-0.277364,-0.935843,0.172074,0.307554,0.332184,0.139255,0.932878,0.117695,0.975192,-0.187481,-0.941743,-0.214871,0.258747,-0.305514,0.224815,-0.925267,0.140643,-0.950415,-0.277364,-0.935843,0.172074,0.307554,0.332184,0.139255,0.932878,0.117695,0.975192,-0.187481,-77881.0,-25589.0,13951.0,-78658.0,26366.0,14228.0,-4453035.0,-2143598.0,-1730.0,0.0,-4194876.0,-2098075.0,-1912.0,-447.0,-4457240.0,-2227943.0,-6292661.0,0.0,-4194580.0,-2244772.0,-4456252.0,-1843.0,48.0,165.0,-45.0,0.0,166.0,642.0,60.0,217.0,-51.0,-169.0,44.0,0.0,-124.0,-287.0,667.0,-776.0,-0.013042,-0.04468,0.012181,0.0,0.006082,0.023513,-0.002204,0.007974,-0.013853,-0.045777,0.011913,0.0,-0.004544,-0.010528,-0.024442,-0.028405,4096.890137,11547.720703,51538.769531,0.0,-17693.191406,-17721.359375,18105.839844,-17301.060547,4107.959961,11566.980469,51416.550781,0.0,17681.130859,17660.431641,-17398.621094,17922.240234,0.0,0.0,0.0,0.0,0.0,0.0,0.0,0.0,0.0,0.0,0.0,0.0,0.0,0.0,0.0,0.0,0.0,0.0,0.0,0.0,0.0,0.0,0.0,0.0,0.0,0.0,0.0,0.0,0.0,0.0,0.0,0.0,4096.903809,11547.68457,51538.828125,0.0,-17693.193359,-17721.357422,18105.824219,-17301.080078,4107.900879,11566.793945,51416.511719,0.0,17681.882812,17661.0,-17398.535156,17922.494141,30.080883,90.650146,22.909382,0.0,4.75203,-0.281178,43.178463,46.317547,30.161627,90.795647,22.850912,0.0,0.940067,-1.758663,31.826721,26.443087,1.562,1.016,4407514.0,2015290.0,-570923.0,0.0,-3998285.0,-1901171.0,-199264.0,191787.0,-4502884.0,-2356465.0,-6863956.0,0.0,-4391037.0,-2440999.0,4649570.0,-200979.0,0.0,0.0,0.0,0.0,0.0,0.0,0.0,0.0,0.0,0.0,0.0,0.0,0.0,0.0,0.0,0.0,0.0,0.0,0.0,0.0,0.0,0.0,0.0,0.0
9,0.6130211353302002,30.080782,90.650452,22.909355,0.0,4.752281,-0.281295,43.180187,46.319702,30.16206,90.797127,22.850916,0.0,0.800262,-1.821797,31.848776,26.383192,3.0,1.0,111.0,0.0,1.0,-77881.0,-25589.0,13951.0,-78658.0,26366.0,14228.0,-0.941743,-0.214871,0.258747,-0.305514,0.224815,-0.925267,0.140643,-0.950415,-0.277364,-0.935843,0.172074,0.307554,0.332184,0.139255,0.932878,0.117695,0.975192,-0.187481,-0.941743,-0.214871,0.258747,-0.305514,0.224815,-0.925267,0.140643,-0.950415,-0.277364,-0.935843,0.172074,0.307554,0.332184,0.139255,0.932878,0.117695,0.975192,-0.187481,-77881.0,-25589.0,13951.0,-78658.0,26366.0,14228.0,-4453035.0,-2143598.0,-1730.0,0.0,-4194876.0,-2098075.0,-1912.0,-447.0,-4457240.0,-2227943.0,-6292661.0,0.0,-4194580.0,-2244772.0,-4456252.0,-1843.0,48.0,165.0,-45.0,0.0,166.0,642.0,60.0,217.0,-51.0,-169.0,44.0,0.0,-122.0,-286.0,667.0,-775.0,-0.013042,-0.04468,0.012181,0.0,0.006082,0.023513,-0.002205,0.007973,-0.013853,-0.045777,0.011913,0.0,-0.004498,-0.010494,-0.024437,-0.02839,4096.890137,11547.720703,51538.769531,0.0,-17693.191406,-17721.359375,18105.839844,-17301.060547,4107.959961,11566.980469,51416.550781,0.0,17681.130859,17660.431641,-17398.621094,17922.240234,0.0,0.0,0.0,0.0,0.0,0.0,0.0,0.0,0.0,0.0,0.0,0.0,0.0,0.0,0.0,0.0,0.0,0.0,0.0,0.0,0.0,0.0,0.0,0.0,0.0,0.0,0.0,0.0,0.0,0.0,0.0,0.0,4096.903809,11547.68457,51538.828125,0.0,-17693.193359,-17721.357422,18105.824219,-17301.080078,4107.900879,11566.793945,51416.511719,0.0,17681.882812,17661.0,-17398.535156,17922.494141,30.080883,90.650146,22.909382,0.0,4.75203,-0.281178,43.178463,46.317547,30.161627,90.795647,22.850912,0.0,0.940067,-1.758663,31.826721,26.443087,1.562,1.016,4407514.0,2015290.0,-570923.0,0.0,-3998285.0,-1901171.0,-199264.0,191787.0,-4502884.0,-2356465.0,-6863956.0,0.0,-4391037.0,-2440999.0,4649570.0,-200979.0,0.0,0.0,0.0,0.0,0.0,0.0,0.0,0.0,0.0,0.0,0.0,0.0,0.0,0.0,0.0,0.0,0.0,0.0,0.0,0.0,0.0,0.0,0.0,0.0
10,0.6830451488494873,30.080782,90.650452,22.909355,0.0,4.752281,-0.281295,43.180187,46.319702,30.16206,90.797127,22.850916,0.0,0.800262,-1.821797,31.848776,26.383192,3.0,1.0,111.0,0.0,1.0,-77881.0,-25589.0,13951.0,-78658.0,26366.0,14228.0,-0.941743,-0.214871,0.258747,-0.305514,0.224815,-0.925267,0.140643,-0.950415,-0.277364,-0.935843,0.172074,0.307554,0.332184,0.139255,0.932878,0.117695,0.975192,-0.187481,-0.941743,-0.214871,0.258747,-0.305514,0.224815,-0.925267,0.140643,-0.950415,-0.277364,-0.935843,0.172074,0.307554,0.332184,0.139255,0.932878,0.117695,0.975192,-0.187481,-77881.0,-25589.0,13951.0,-78658.0,26366.0,14228.0,-4453035.0,-2143598.0,-1730.0,0.0,-4194876.0,-2098075.0,-1912.0,-447.0,-4457240.0,-2227943.0,-6292661.0,0.0,-4194580.0,-2244772.0,-4456252.0,-1843.0,48.0,165.0,-45.0,0.0,166.0,642.0,60.0,217.0,-51.0,-169.0,44.0,0.0,-121.0,-285.0,667.0,-775.0,-0.013042,-0.04468,0.012181,0.0,0.006082,0.023513,-0.002206,0.007972,-0.013853,-0.045777,0.011913,0.0,-0.004452,-0.010459,-0.024432,-0.028374,4096.890137,11547.720703,51538.769531,0.0,-17693.191406,-17721.359375,18105.839844,-17301.060547,4107.959961,11566.980469,51416.550781,0.0,17681.130859,17660.431641,-17398.621094,17922.240234,0.0,0.0,0.0,0.0,0.0,0.0,0.0,0.0,0.0,0.0,0.0,0.0,0.0,0.0,0.0,0.0,0.0,0.0,0.0,0.0,0.0,0.0,0.0,0.0,0.0,0.0,0.0,0.0,0.0,0.0,0.0,0.0,4096.903809,11547.68457,51538.828125,0.0,-17693.193359,-17721.357422,18105.824219,-17301.080078,4107.900879,11566.793945,51416.511719,0.0,17681.882812,17661.0,-17398.535156,17922.494141,30.080883,90.650146,22.909382,0.0,4.75203,-0.281178,43.178463,46.317547,30.161627,90.795647,22.850912,0.0,0.940067,-1.758663,31.826721,26.443087,1.562,1.016,4407514.0,2015290.0,-570923.0,0.0,-3998285.0,-1901171.0,-199264.0,191787.0,-4502884.0,-2356465.0,-6863956.0,0.0,-4391037.0,-2440999.0,4649570.0,-200979.0,0.0,0.0,0.0,0.0,0.0,0.0,0.0,0.0,0.0,0.0,0.0,0.0,0.0,0.0,0.0,0.0,0.0,0.0,0.0,0.0,0.0,0.0,0.0,0.0
11,0.7539169788360596,30.080782,90.650452,22.909355,0.0,4.752281,-0.281295,43.180187,46.319702,30.16206,90.797127,22.850916,0.0,0.800262,-1.821797,31.848776,26.383192,3.0,1.0,111.0,0.0,1.0,-77881.0,-25589.0,13951.0,-78658.0,26366.0,14228.0,-0.941743,-0.214871,0.258747,-0.305514,0.224815,-0.925267,0.140643,-0.950415,-0.277364,-0.935843,0.172074,0.307554,0.332184,0.139255,0.932878,0.117695,0.975192,-0.187481,-0.941743,-0.214871,0.258747,-0.305514,0.224815,-0.925267,0.140643,-0.950415,-0.277364,-0.935843,0.172074,0.307554,0.332184,0.139255,0.932878,0.117695,0.975192,-0.187481,-77881.0,-25589.0,13951.0,-78658.0,26366.0,14228.0,-4453035.0,-2143598.0,-1730.0,0.0,-4194876.0,-2098075.0,-1912.0,-447.0,-4457240.0,-2227943.0,-6292661.0,0.0,-4194580.0,-2244772.0,-4456252.0,-1843.0,48.0,165.0,-45.0,0.0,166.0,642.0,60.0,217.0,-51.0,-169.0,44.0,0.0,-120.0,-284.0,667.0,-774.0,-0.013042,-0.04468,0.012181,0.0,0.006082,0.023514,-0.002207,0.007971,-0.013853,-0.045777,0.011913,0.0,-0.004406,-0.010424,-0.024426,-0.028358,4096.890137,11547.720703,51538.769531,0.0,-17693.191406,-17721.359375,18105.839844,-17301.060547,4107.959961,11566.980469,51416.550781,0.0,17681.130859,17660.431641,-17398.621094,17922.240234,0.0,0.0,0.0,0.0,0.0,0.0,0.0,0.0,0.0,0.0,0.0,0.0,0.0,0.0,0.0,0.0,0.0,0.0,0.0,0.0,0.0,0.0,0.0,0.0,0.0,0.0,0.0,0.0,0.0,0.0,0.0,0.0,4096.903809,11547.68457,51538.828125,0.0,-17693.193359,-17721.357422,18105.824219,-17301.080078,4107.900879,11566.793945,51416.511719,0.0,17681.882812,17661.0,-17398.535156,17922.494141,30.080883,90.650146,22.909382,0.0,4.75203,-0.281178,43.178463,46.317547,30.161627,90.795647,22.850912,0.0,0.940067,-1.758663,31.826721,26.443087,1.562,1.016,4407514.0,2015290.0,-570923.0,0.0,-3998285.0,-1901171.0,-199264.0,191787.0,-4502884.0,-2356465.0,-6863956.0,0.0,-4391037.0,-2440999.0,4649570.0,-200979.0,0.0,0.0,0.0,0.0,0.0,0.0,0.0,0.0,0.0,0.0,0.0,0.0,0.0,0.0,0.0,0.0,0.0,0.0,0.0,0.0,0.0,0.0,0.0,0.0
12,0.8209130764007568,30.080782,90.650452,22.909355,0.0,4.752281,-0.281295,43.180187,46.319702,30.16206,90.797127,22.850916,0.0,0.800262,-1.821797,31.848776,26.383192,3.0,1.0,111.0,0.0,1.0,-77881.0,-25589.0,13951.0,-78658.0,26366.0,14228.0,-0.941743,-0.214871,0.258747,-0.305514,0.224815,-0.925267,0.140643,-0.950415,-0.277364,-0.935843,0.172074,0.307554,0.332184,0.139255,0.932878,0.117695,0.975192,-0.187481,-0.941743,-0.214871,0.258747,-0.305514,0.224815,-0.925267,0.140643,-0.950415,-0.277364,-0.935843,0.172074,0.307554,0.332184,0.139255,0.932878,0.117695,0.975192,-0.187481,-77881.0,-25589.0,13951.0,-78658.0,26366.0,14228.0,-4453035.0,-2143598.0,-1730.0,0.0,-4194876.0,-2098075.0,-1912.0,-447.0,-4457240.0,-2227943.0,-6292661.0,0.0,-4194580.0,-2244772.0,-4456252.0,-1843.0,48.0,165.0,-45.0,0.0,166.0,642.0,60.0,217.0,-51.0,-169.0,44.0,0.0,-119.0,-283.0,667.0,-774.0,-0.013042,-0.04468,0.012181,0.0,0.006082,0.023514,-0.002207,0.007969,-0.013853,-0.045777,0.011913,0.0,-0.004362,-0.010391,-0.024421,-0.028343,4096.890137,11547.720703,51538.769531,0.0,-17693.191406,-17721.359375,18105.839844,-17301.060547,4107.959961,11566.980469,51416.550781,0.0,17681.130859,17660.431641,-17398.621094,17922.240234,0.0,0.0,0.0,0.0,0.0,0.0,0.0,0.0,0.0,0.0,0.0,0.0,0.0,0.0,0.0,0.0,0.0,0.0,0.0,0.0,0.0,0.0,0.0,0.0,0.0,0.0,0.0,0.0,0.0,0.0,0.0,0.0,4096.903809,11547.68457,51538.828125,0.0,-17693.193359,-17721.357422,18105.824219,-17301.080078,4107.900879,11566.793945,51416.511719,0.0,17681.882812,17661.0,-17398.535156,17922.494141,30.080883,90.650146,22.909382,0.0,4.75203,-0.281178,43.178463,46.317547,30.161627,90.795647,22.850912,0.0,0.940067,-1.758663,31.826721,26.443087,1.562,1.016,4407514.0,2015290.0,-570923.0,0.0,-3998285.0,-1901171.0,-199264.0,191787.0,-4502884.0,-2356465.0,-6863956.0,0.0,-4391037.0,-2440999.0,4649570.0,-200979.0,0.0,0.0,0.0,0.0,0.0,0.0,0.0,0.0,0.0,0.0,0.0,0.0,0.0,0.0,0.0,0.0,0.0,0.0,0.0,0.0,0.0,0.0,0.0,0.0
13,0.8849160671234131,30.080782,90.650452,22.909355,0.0,4.752281,-0.281295,43.180187,46.319702,30.16206,90.797127,22.850916,0.0,0.800262,-1.821797,31.848776,26.383192,3.0,1.0,111.0,0.0,1.0,-77881.0,-25589.0,13951.0,-78658.0,26366.0,14228.0,-0.941743,-0.214871,0.258747,-0.305514,0.224815,-0.925267,0.140643,-0.950415,-0.277364,-0.935843,0.172074,0.307554,0.332184,0.139255,0.932878,0.117695,0.975192,-0.187481,-0.941743,-0.214871,0.258747,-0.305514,0.224815,-0.925267,0.140643,-0.950415,-0.277364,-0.935843,0.172074,0.307554,0.332184,0.139255,0.932878,0.117695,0.975192,-0.187481,-77881.0,-25589.0,13951.0,-78658.0,26366.0,14228.0,-4453035.0,-2143598.0,-1730.0,0.0,-4194876.0,-2098075.0,-1912.0,-447.0,-4457240.0,-2227943.0,-6292661.0,0.0,-4194580.0,-2244772.0,-4456252.0,-1843.0,48.0,165.0,-45.0,0.0,166.0,642.0,60.0,217.0,-51.0,-169.0,44.0,0.0,-118.0,-283.0,667.0,-774.0,-0.013042,-0.04468,0.012181,0.0,0.006082,0.023514,-0.002208,0.007968,-0.013853,-0.045777,0.011913,0.0,-0.00432,-0.010359,-0.024417,-0.028329,4096.890137,11547.720703,51538.769531,0.0,-17693.191406,-17721.359375,18105.839844,-17301.060547,4107.959961,11566.980469,51416.550781,0.0,17681.130859,17660.431641,-17398.621094,17922.240234,0.0,0.0,0.0,0.0,0.0,0.0,0.0,0.0,0.0,0.0,0.0,0.0,0.0,0.0,0.0,0.0,0.0,0.0,0.0,0.0,0.0,0.0,0.0,0.0,0.0,0.0,0.0,0.0,0.0,0.0,0.0,0.0,4096.903809,11547.68457,51538.828125,0.0,-17693.193359,-17721.357422,18105.824219,-17301.080078,4107.900879,11566.793945,51416.511719,0.0,17681.882812,17661.0,-17398.535156,17922.494141,30.080883,90.650146,22.909382,0.0,4.75203,-0.281178,43.178463,46.317547,30.161627,90.795647,22.850912,0.0,0.940067,-1.758663,31.826721,26.443087,1.562,1.016,4407514.0,2015290.0,-570923.0,0.0,-3998285.0,-1901171.0,-199264.0,191787.0,-4502884.0,-2356465.0,-6863956.0,0.0,-4391037.0,-2440999.0,4649570.0,-200979.0,0.0,0.0,0.0,0.0,0.0,0.0,0.0,0.0,0.0,0.0,0.0,0.0,0.0,0.0,0.0,0.0,0.0,0.0,0.0,0.0,0.0,0.0,0.0,0.0
14,0.9619131088256836,30.080782,90.650452,22.909355,0.0,4.752281,-0.281295,43.180187,46.319702,30.16206,90.797127,22.850916,0.0,0.800262,-1.821797,31.848776,26.383192,3.0,1.0,111.0,0.0,1.0,-77881.0,-25589.0,13951.0,-78658.0,26366.0,14228.0,-0.941743,-0.214871,0.258747,-0.305514,0.224815,-0.925267,0.140643,-0.950415,-0.277364,-0.935843,0.172074,0.307554,0.332184,0.139255,0.932878,0.117695,0.975192,-0.187481,-0.941743,-0.214871,0.258747,-0.305514,0.224815,-0.925267,0.140643,-0.950415,-0.277364,-0.935843,0.172074,0.307554,0.332184,0.139255,0.932878,0.117695,0.975192,-0.187481,-77881.0,-25589.0,13951.0,-78658.0,26366.0,14228.0,-4453035.0,-2143598.0,-1730.0,0.0,-4194876.0,-2098075.0,-1912.0,-447.0,-4457240.0,-2227943.0,-6292661.0,0.0,-4194580.0,-2244772.0,-4456252.0,-1843.0,48.0,165.0,-45.0,0.0,166.0,642.0,60.0,217.0,-51.0,-169.0,44.0,0.0,-116.0,-282.0,667.0,-773.0,-0.013042,-0.04468,0.012181,0.0,0.006082,0.023514,-0.002209,0.007967,-0.013853,-0.045777,0.011913,0.0,-0.004269,-0.010321,-0.024411,-0.028312,4096.890137,11547.720703,51538.769531,0.0,-17693.191406,-17721.359375,18105.839844,-17301.060547,4107.959961,11566.980469,51416.550781,0.0,17681.130859,17660.431641,-17398.621094,17922.240234,0.0,0.0,0.0,0.0,0.0,0.0,0.0,0.0,0.0,0.0,0.0,0.0,0.0,0.0,0.0,0.0,0.0,0.0,0.0,0.0,0.0,0.0,0.0,0.0,0.0,0.0,0.0,0.0,0.0,0.0,0.0,0.0,4096.903809,11547.68457,51538.828125,0.0,-17693.193359,-17721.357422,18105.824219,-17301.080078,4107.900879,11566.793945,51416.511719,0.0,17681.882812,17661.0,-17398.535156,17922.494141,30.080883,90.650146,22.909382,0.0,4.75203,-0.281178,43.178463,46.317547,30.161627,90.795647,22.850912,0.0,0.940067,-1.758663,31.826721,26.443087,1.562,1.016,4407514.0,2015290.0,-570923.0,0.0,-3998285.0,-1901171.0,-199264.0,191787.0,-4502884.0,-2356465.0,-6863956.0,0.0,-4391037.0,-2440999.0,4649570.0,-200979.0,0.0,0.0,0.0,0.0,0.0,0.0,0.0,0.0,0.0,0.0,0.0,0.0,0.0,0.0,0.0,0.0,0.0,0.0,0.0,0.0,0.0,0.0,0.0,0.0
15,1.0259051322937012,30.080782,90.650452,22.909355,0.0,4.752281,-0.281295,43.180187,46.319702,30.16206,90.797127,22.850916,0.0,0.800262,-1.821797,31.848776,26.383192,3.0,1.0,111.0,0.0,1.0,-77881.0,-25589.0,13951.0,-78658.0,26366.0,14228.0,-0.941743,-0.214871,0.258747,-0.305514,0.224815,-0.925267,0.140643,-0.950415,-0.277364,-0.935843,0.172074,0.307554,0.332184,0.139255,0.932878,0.117695,0.975192,-0.187481,-0.941743,-0.214871,0.258747,-0.305514,0.224815,-0.925267,0.140643,-0.950415,-0.277364,-0.935843,0.172074,0.307554,0.332184,0.139255,0.932878,0.117695,0.975192,-0.187481,-77881.0,-25589.0,13951.0,-78658.0,26366.0,14228.0,-4453035.0,-2143598.0,-1730.0,0.0,-4194876.0,-2098075.0,-1912.0,-447.0,-4457240.0,-2227943.0,-6292661.0,0.0,-4194580.0,-2244772.0,-4456252.0,-1843.0,48.0,165.0,-45.0,0.0,166.0,642.0,60.0,217.0,-51.0,-169.0,44.0,0.0,-115.0,-281.0,666.0,-773.0,-0.013042,-0.04468,0.012181,0.0,0.006082,0.023514,-0.00221,0.007966,-0.013853,-0.045777,0.011913,0.0,-0.004227,-0.010289,-0.024406,-0.028298,4096.890137,11547.720703,51538.769531,0.0,-17693.191406,-17721.359375,18105.839844,-17301.060547,4107.959961,11566.980469,51416.550781,0.0,17681.130859,17660.431641,-17398.621094,17922.240234,0.0,0.0,0.0,0.0,0.0,0.0,0.0,0.0,0.0,0.0,0.0,0.0,0.0,0.0,0.0,0.0,0.0,0.0,0.0,0.0,0.0,0.0,0.0,0.0,0.0,0.0,0.0,0.0,0.0,0.0,0.0,0.0,4096.903809,11547.68457,51538.828125,0.0,-17693.193359,-17721.357422,18105.824219,-17301.080078,4107.900879,11566.793945,51416.511719,0.0,17681.882812,17661.0,-17398.535156,17922.494141,30.080883,90.650146,22.909382,0.0,4.75203,-0.281178,43.178463,46.317547,30.161627,90.795647,22.850912,0.0,0.940067,-1.758663,31.826721,26.443087,1.562,1.016,4407514.0,2015290.0,-570923.0,0.0,-3998285.0,-1901171.0,-199264.0,191787.0,-4502884.0,-2356465.0,-6863956.0,0.0,-4391037.0,-2440999.0,4649570.0,-200979.0,0.0,0.0,0.0,0.0,0.0,0.0,0.0,0.0,0.0,0.0,0.0,0.0,0.0,0.0,0.0,0.0,0.0,0.0,0.0,0.0,0.0,0.0,0.0,0.0
16,1.0919289588928223,30.080782,90.650452,22.909355,0.0,4.752281,-0.281295,43.180187,46.319702,30.16206,90.797127,22.850916,0.0,0.800262,-1.821797,31.848776,26.383192,3.0,1.0,111.0,0.0,1.0,-77881.0,-25589.0,13951.0,-78658.0,26366.0,14228.0,-0.941743,-0.214871,0.258747,-0.305514,0.224815,-0.925267,0.140643,-0.950415,-0.277364,-0.935843,0.172074,0.307554,0.332184,0.139255,0.932878,0.117695,0.975192,-0.187481,-0.941743,-0.214871,0.258747,-0.305514,0.224815,-0.925267,0.140643,-0.950415,-0.277364,-0.935843,0.172074,0.307554,0.332184,0.139255,0.932878,0.117695,0.975192,-0.187481,-77881.0,-25589.0,13951.0,-78658.0,26366.0,14228.0,-4453035.0,-2143598.0,-1730.0,0.0,-4194876.0,-2098075.0,-1912.0,-447.0,-4457240.0,-2227943.0,-6292661.0,0.0,-4194580.0,-2244772.0,-4456252.0,-1843.0,48.0,165.0,-45.0,0.0,166.0,642.0,60.0,217.0,-51.0,-169.0,44.0,0.0,-114.0,-280.0,666.0,-772.0,-0.013042,-0.04468,0.012181,0.0,0.006081,0.023514,-0.002211,0.007965,-0.013853,-0.045777,0.011913,0.0,-0.004183,-0.010256,-0.024401,-0.028283,4096.890137,11547.720703,51538.769531,0.0,-17693.191406,-17721.359375,18105.839844,-17301.060547,4107.959961,11566.980469,51416.550781,0.0,17681.130859,17660.431641,-17398.621094,17922.240234,0.0,0.0,0.0,0.0,0.0,0.0,0.0,0.0,0.0,0.0,0.0,0.0,0.0,0.0,0.0,0.0,0.0,0.0,0.0,0.0,0.0,0.0,0.0,0.0,0.0,0.0,0.0,0.0,0.0,0.0,0.0,0.0,4096.903809,11547.68457,51538.828125,0.0,-17693.193359,-17721.357422,18105.824219,-17301.080078,4107.900879,11566.793945,51416.511719,0.0,17681.882812,17661.0,-17398.535156,17922.494141,30.080883,90.650146,22.909382,0.0,4.75203,-0.281178,43.178463,46.317547,30.161627,90.795647,22.850912,0.0,0.940067,-1.758663,31.826721,26.443087,1.562,1.016,4407514.0,2015290.0,-570923.0,0.0,-3998285.0,-1901171.0,-199264.0,191787.0,-4502884.0,-2356465.0,-6863956.0,0.0,-4391037.0,-2440999.0,4649570.0,-200979.0,0.0,0.0,0.0,0.0,0.0,0.0,0.0,0.0,0.0,0.0,0.0,0.0,0.0,0.0,0.0,0.0,0.0,0.0,0.0,0.0,0.0,0.0,0.0,0.0
17,1.1599230766296387,30.080782,90.650452,22.909355,0.0,4.752281,-0.281295,43.180187,46.319702,30.16206,90.797127,22.850916,0.0,0.800262,-1.821797,31.848776,26.383192,3.0,1.0,111.0,0.0,1.0,-77881.0,-25589.0,13951.0,-78658.0,26366.0,14228.0,-0.941743,-0.214871,0.258747,-0.305514,0.224815,-0.925267,0.140643,-0.950415,-0.277364,-0.935843,0.172074,0.307554,0.332184,0.139255,0.932878,0.117695,0.975192,-0.187481,-0.941743,-0.214871,0.258747,-0.305514,0.224815,-0.925267,0.140643,-0.950415,-0.277364,-0.935843,0.172074,0.307554,0.332184,0.139255,0.932878,0.117695,0.975192,-0.187481,-77881.0,-25589.0,13951.0,-78658.0,26366.0,14228.0,-4453035.0,-2143598.0,-1730.0,0.0,-4194876.0,-2098075.0,-1912.0,-447.0,-4457240.0,-2227943.0,-6292661.0,0.0,-4194580.0,-2244772.0,-4456252.0,-1843.0,48.0,165.0,-45.0,0.0,166.0,642.0,60.0,217.0,-51.0,-169.0,44.0,0.0,-113.0,-279.0,666.0,-772.0,-0.013042,-0.04468,0.012181,0.0,0.006081,0.023514,-0.002212,0.007964,-0.013853,-0.045777,0.011913,0.0,-0.004139,-0.010222,-0.024396,-0.028268,4096.890137,11547.720703,51538.769531,0.0,-17693.191406,-17721.359375,18105.839844,-17301.060547,4107.959961,11566.980469,51416.550781,0.0,17681.130859,17660.431641,-17398.621094,17922.240234,0.0,0.0,0.0,0.0,0.0,0.0,0.0,0.0,0.0,0.0,0.0,0.0,0.0,0.0,0.0,0.0,0.0,0.0,0.0,0.0,0.0,0.0,0.0,0.0,0.0,0.0,0.0,0.0,0.0,0.0,0.0,0.0,4096.903809,11547.68457,51538.828125,0.0,-17693.193359,-17721.357422,18105.824219,-17301.080078,4107.900879,11566.793945,51416.511719,0.0,17681.882812,17661.0,-17398.535156,17922.494141,30.080883,90.650146,22.909382,0.0,4.75203,-0.281178,43.178463,46.317547,30.161627,90.795647,22.850912,0.0,0.940067,-1.758663,31.826721,26.443087,1.562,1.016,4407514.0,2015290.0,-570923.0,0.0,-3998285.0,-1901171.0,-199264.0,191787.0,-4502884.0,-2356465.0,-6863956.0,0.0,-4391037.0,-2440999.0,4649570.0,-200979.0,0.0,0.0,0.0,0.0,0.0,0.0,0.0,0.0,0.0,0.0,0.0,0.0,0.0,0.0,0.0,0.0,0.0,0.0,0.0,0.0,0.0,0.0,0.0,0.0
18,1.2278950214385986,30.080782,90.650452,22.909355,0.0,4.752281,-0.281295,43.180187,46.319702,30.16206,90.797127,22.850916,0.0,0.800262,-1.821797,31.848776,26.383192,3.0,1.0,111.0,0.0,1.0,-77881.0,-25589.0,13951.0,-78658.0,26366.0,14228.0,-0.941743,-0.214871,0.258747,-0.305514,0.224815,-0.925267,0.140643,-0.950415,-0.277364,-0.935843,0.172074,0.307554,0.332184,0.139255,0.932878,0.117695,0.975192,-0.187481,-0.941743,-0.214871,0.258747,-0.305514,0.224815,-0.925267,0.140643,-0.950415,-0.277364,-0.935843,0.172074,0.307554,0.332184,0.139255,0.932878,0.117695,0.975192,-0.187481,-77881.0,-25589.0,13951.0,-78658.0,26366.0,14228.0,-4453035.0,-2143598.0,-1730.0,0.0,-4194876.0,-2098075.0,-1912.0,-447.0,-4457240.0,-2227943.0,-6292661.0,0.0,-4194580.0,-2244772.0,-4456252.0,-1843.0,48.0,165.0,-45.0,0.0,166.0,642.0,60.0,217.0,-51.0,-169.0,44.0,0.0,-111.0,-278.0,666.0,-772.0,-0.013042,-0.04468,0.012181,0.0,0.006081,0.023514,-0.002213,0.007962,-0.013853,-0.045777,0.011913,0.0,-0.004094,-0.010189,-0.024391,-0.028253,4096.890137,11547.720703,51538.769531,0.0,-17693.191406,-17721.359375,18105.839844,-17301.060547,4107.959961,11566.980469,51416.550781,0.0,17681.130859,17660.431641,-17398.621094,17922.240234,0.0,0.0,0.0,0.0,0.0,0.0,0.0,0.0,0.0,0.0,0.0,0.0,0.0,0.0,0.0,0.0,0.0,0.0,0.0,0.0,0.0,0.0,0.0,0.0,0.0,0.0,0.0,0.0,0.0,0.0,0.0,0.0,4096.903809,11547.68457,51538.828125,0.0,-17693.193359,-17721.357422,18105.824219,-17301.080078,4107.900879,11566.793945,51416.511719,0.0,17681.882812,17661.0,-17398.535156,17922.494141,30.080883,90.650146,22.909382,0.0,4.75203,-0.281178,43.178463,46.317547,30.161627,90.795647,22.850912,0.0,0.940067,-1.758663,31.826721,26.443087,1.562,1.016,4407514.0,2015290.0,-570923.0,0.0,-3998285.0,-1901171.0,-199264.0,191787.0,-4502884.0,-2356465.0,-6863956.0,0.0,-4391037.0,-2440999.0,4649570.0,-200979.0,0.0,0.0,0.0,0.0,0.0,0.0,0.0,0.0,0.0,0.0,0.0,0.0,0.0,0.0,0.0,0.0,0.0,0.0,0.0,0.0,0.0,0.0,0.0,0.0
19,1.302915096282959,30.080782,90.650452,22.909355,0.0,4.752281,-0.281295,43.180187,46.319702,30.16206,90.797127,22.850916,0.0,0.800262,-1.821797,31.848776,26.383192,3.0,1.0,111.0,0.0,1.0,-77881.0,-25589.0,13951.0,-78658.0,26366.0,14228.0,-0.941743,-0.214871,0.258747,-0.305514,0.224815,-0.925267,0.140643,-0.950415,-0.277364,-0.935843,0.172074,0.307554,0.332184,0.139255,0.932878,0.117695,0.975192,-0.187481,-0.941743,-0.214871,0.258747,-0.305514,0.224815,-0.925267,0.140643,-0.950415,-0.277364,-0.935843,0.172074,0.307554,0.332184,0.139255,0.932878,0.117695,0.975192,-0.187481,-77881.0,-25589.0,13951.0,-78658.0,26366.0,14228.0,-4453035.0,-2143598.0,-1730.0,0.0,-4194876.0,-2098075.0,-1912.0,-447.0,-4457240.0,-2227943.0,-6292661.0,0.0,-4194580.0,-2244772.0,-4456252.0,-1843.0,48.0,165.0,-45.0,0.0,166.0,642.0,60.0,217.0,-51.0,-169.0,44.0,0.0,-110.0,-277.0,666.0,-771.0,-0.013042,-0.04468,0.012181,0.0,0.006081,0.023514,-0.002214,0.007961,-0.013853,-0.045777,0.011913,0.0,-0.004045,-0.010152,-0.024385,-0.028236,4096.890137,11547.720703,51538.769531,0.0,-17693.191406,-17721.359375,18105.839844,-17301.060547,4107.959961,11566.980469,51416.550781,0.0,17681.130859,17660.431641,-17398.621094,17922.240234,0.0,0.0,0.0,0.0,0.0,0.0,0.0,0.0,0.0,0.0,0.0,0.0,0.0,0.0,0.0,0.0,0.0,0.0,0.0,0.0,0.0,0.0,0.0,0.0,0.0,0.0,0.0,0.0,0.0,0.0,0.0,0.0,4096.903809,11547.68457,51538.828125,0.0,-17693.193359,-17721.357422,18105.824219,-17301.080078,4107.900879,11566.793945,51416.511719,0.0,17681.882812,17661.0,-17398.535156,17922.494141,30.080883,90.650146,22.909382,0.0,4.75203,-0.281178,43.178463,46.317547,30.161627,90.795647,22.850912,0.0,0.940067,-1.758663,31.826721,26.443087,1.562,1.016,4407514.0,2015290.0,-570923.0,0.0,-3998285.0,-1901171.0,-199264.0,191787.0,-4502884.0,-2356465.0,-6863956.0,0.0,-4391037.0,-2440999.0,4649570.0,-200979.0,0.0,0.0,0.0,0.0,0.0,0.0,0.0,0.0,0.0,0.0,0.0,0.0,0.0,0.0,0.0,0.0,0.0,0.0,0.0,0.0,0.0,0.0,0.0,0.0
20,1.366914987564087,30.080782,90.650452,22.909355,0.0,4.752281,-0.281295,43.180187,46.319702,30.16206,90.797127,22.850916,0.0,0.800262,-1.821797,31.848776,26.383192,3.0,1.0,111.0,0.0,1.0,-77881.0,-25589.0,13951.0,-78658.0,26366.0,14228.0,-0.941743,-0.214871,0.258747,-0.305514,0.224815,-0.925267,0.140643,-0.950415,-0.277364,-0.935843,0.172074,0.307554,0.332184,0.139255,0.932878,0.117695,0.975192,-0.187481,-0.941743,-0.214871,0.258747,-0.305514,0.224815,-0.925267,0.140643,-0.950415,-0.277364,-0.935843,0.172074,0.307554,0.332184,0.139255,0.932878,0.117695,0.975192,-0.187481,-77881.0,-25589.0,13951.0,-78658.0,26366.0,14228.0,-4453035.0,-2143598.0,-1730.0,0.0,-4194876.0,-2098075.0,-1912.0,-447.0,-4457240.0,-2227943.0,-6292661.0,0.0,-4194580.0,-2244772.0,-4456252.0,-1843.0,48.0,165.0,-45.0,0.0,166.0,642.0,60.0,217.0,-51.0,-169.0,44.0,0.0,-109.0,-276.0,666.0,-771.0,-0.013042,-0.04468,0.012181,0.0,0.006081,0.023514,-0.002215,0.00796,-0.013853,-0.045777,0.011913,0.0,-0.004003,-0.01012,-0.024381,-0.028221,4096.890137,11547.720703,51538.769531,0.0,-17693.191406,-17721.359375,18105.839844,-17301.060547,4107.959961,11566.980469,51416.550781,0.0,17681.130859,17660.431641,-17398.621094,17922.240234,0.0,0.0,0.0,0.0,0.0,0.0,0.0,0.0,0.0,0.0,0.0,0.0,0.0,0.0,0.0,0.0,0.0,0.0,0.0,0.0,0.0,0.0,0.0,0.0,0.0,0.0,0.0,0.0,0.0,0.0,0.0,0.0,4096.903809,11547.68457,51538.828125,0.0,-17693.193359,-17721.357422,18105.824219,-17301.080078,4107.900879,11566.793945,51416.511719,0.0,17681.882812,17661.0,-17398.535156,17922.494141,30.080883,90.650146,22.909382,0.0,4.75203,-0.281178,43.178463,46.317547,30.161627,90.795647,22.850912,0.0,0.940067,-1.758663,31.826721,26.443087,1.562,1.016,4407514.0,2015290.0,-570923.0,0.0,-3998285.0,-1901171.0,-199264.0,191787.0,-4502884.0,-2356465.0,-6863956.0,0.0,-4391037.0,-2440999.0,4649570.0,-200979.0,0.0,0.0,0.0,0.0,0.0,0.0,0.0,0.0,0.0,0.0,0.0,0.0,0.0,0.0,0.0,0.0,0.0,0.0,0.0,0.0,0.0,0.0,0.0,0.0
21,1.4379141330718994,30.080782,90.650452,22.909355,0.0,4.752281,-0.281295,43.180187,46.319702,30.16206,90.797127,22.850916,0.0,0.800262,-1.821797,31.848776,26.383192,3.0,1.0,111.0,0.0,1.0,-77881.0,-25589.0,13951.0,-78658.0,26366.0,14228.0,-0.941743,-0.214871,0.258747,-0.305514,0.224815,-0.925267,0.140643,-0.950415,-0.277364,-0.935843,0.172074,0.307554,0.332184,0.139255,0.932878,0.117695,0.975192,-0.187481,-0.941743,-0.214871,0.258747,-0.305514,0.224815,-0.925267,0.140643,-0.950415,-0.277364,-0.935843,0.172074,0.307554,0.332184,0.139255,0.932878,0.117695,0.975192,-0.187481,-77881.0,-25589.0,13951.0,-78658.0,26366.0,14228.0,-4453035.0,-2143598.0,-1730.0,0.0,-4194876.0,-2098075.0,-1912.0,-447.0,-4457240.0,-2227943.0,-6292661.0,0.0,-4194580.0,-2244772.0,-4456252.0,-1843.0,48.0,165.0,-45.0,0.0,166.0,642.0,60.0,217.0,-51.0,-169.0,44.0,0.0,-108.0,-275.0,666.0,-770.0,-0.013042,-0.04468,0.012181,0.0,0.006081,0.023515,-0.002216,0.007959,-0.013853,-0.045777,0.011913,0.0,-0.003956,-0.010085,-0.024375,-0.028206,4096.890137,11547.720703,51538.769531,0.0,-17693.191406,-17721.359375,18105.839844,-17301.060547,4107.959961,11566.980469,51416.550781,0.0,17681.130859,17660.431641,-17398.621094,17922.240234,0.0,0.0,0.0,0.0,0.0,0.0,0.0,0.0,0.0,0.0,0.0,0.0,0.0,0.0,0.0,0.0,0.0,0.0,0.0,0.0,0.0,0.0,0.0,0.0,0.0,0.0,0.0,0.0,0.0,0.0,0.0,0.0,4096.903809,11547.68457,51538.828125,0.0,-17693.193359,-17721.357422,18105.824219,-17301.080078,4107.900879,11566.793945,51416.511719,0.0,17681.882812,17661.0,-17398.535156,17922.494141,30.080883,90.650146,22.909382,0.0,4.75203,-0.281178,43.178463,46.317547,30.161627,90.795647,22.850912,0.0,0.940067,-1.758663,31.826721,26.443087,1.562,1.016,4407514.0,2015290.0,-570923.0,0.0,-3998285.0,-1901171.0,-199264.0,191787.0,-4502884.0,-2356465.0,-6863956.0,0.0,-4391037.0,-2440999.0,4649570.0,-200979.0,0.0,0.0,0.0,0.0,0.0,0.0,0.0,0.0,0.0,0.0,0.0,0.0,0.0,0.0,0.0,0.0,0.0,0.0,0.0,0.0,0.0,0.0,0.0,0.0
22,1.5029480457305908,30.080782,90.650452,22.909355,0.0,4.752281,-0.281295,43.180187,46.319702,30.16206,90.797127,22.850916,0.0,0.800262,-1.821797,31.848776,26.383192,3.0,1.0,111.0,0.0,1.0,-77881.0,-25589.0,13951.0,-78658.0,26366.0,14228.0,-0.941743,-0.214871,0.258747,-0.305514,0.224815,-0.925267,0.140643,-0.950415,-0.277364,-0.935843,0.172074,0.307554,0.332184,0.139255,0.932878,0.117695,0.975192,-0.187481,-0.941743,-0.214871,0.258747,-0.305514,0.224815,-0.925267,0.140643,-0.950415,-0.277364,-0.935843,0.172074,0.307554,0.332184,0.139255,0.932878,0.117695,0.975192,-0.187481,-77881.0,-25589.0,13951.0,-78658.0,26366.0,14228.0,-4453035.0,-2143598.0,-1730.0,0.0,-4194876.0,-2098075.0,-1912.0,-447.0,-4457240.0,-2227943.0,-6292661.0,0.0,-4194580.0,-2244772.0,-4456252.0,-1843.0,48.0,165.0,-45.0,0.0,166.0,642.0,60.0,217.0,-51.0,-169.0,44.0,0.0,-106.0,-274.0,666.0,-770.0,-0.013042,-0.04468,0.012181,0.0,0.006081,0.023515,-0.002217,0.007958,-0.013853,-0.045777,0.011913,0.0,-0.003913,-0.010052,-0.024371,-0.028191,4096.890137,11547.720703,51538.769531,0.0,-17693.191406,-17721.359375,18105.839844,-17301.060547,4107.959961,11566.980469,51416.550781,0.0,17681.130859,17660.431641,-17398.621094,17922.240234,0.0,0.0,0.0,0.0,0.0,0.0,0.0,0.0,0.0,0.0,0.0,0.0,0.0,0.0,0.0,0.0,0.0,0.0,0.0,0.0,0.0,0.0,0.0,0.0,0.0,0.0,0.0,0.0,0.0,0.0,0.0,0.0,4096.903809,11547.68457,51538.828125,0.0,-17693.193359,-17721.357422,18105.824219,-17301.080078,4107.900879,11566.793945,51416.511719,0.0,17681.882812,17661.0,-17398.535156,17922.494141,30.080883,90.650146,22.909382,0.0,4.75203,-0.281178,43.178463,46.317547,30.161627,90.795647,22.850912,0.0,0.940067,-1.758663,31.826721,26.443087,1.562,1.016,4407514.0,2015290.0,-570923.0,0.0,-3998285.0,-1901171.0,-199264.0,191787.0,-4502884.0,-2356465.0,-6863956.0,0.0,-4391037.0,-2440999.0,4649570.0,-200979.0,0.0,0.0,0.0,0.0,0.0,0.0,0.0,0.0,0.0,0.0,0.0,0.0,0.0,0.0,0.0,0.0,0.0,0.0,0.0,0.0,0.0,0.0,0.0,0.0
23,1.5729460716247559,30.080782,90.650452,22.909355,0.0,4.752281,-0.281295,43.180187,46.319702,30.16206,90.797127,22.850916,0.0,0.800262,-1.821797,31.848776,26.383192,3.0,1.0,111.0,0.0,1.0,-77881.0,-25589.0,13951.0,-78658.0,26366.0,14228.0,-0.941743,-0.214871,0.258747,-0.305514,0.224815,-0.925267,0.140643,-0.950415,-0.277364,-0.935843,0.172074,0.307554,0.332184,0.139255,0.932878,0.117695,0.975192,-0.187481,-0.941743,-0.214871,0.258747,-0.305514,0.224815,-0.925267,0.140643,-0.950415,-0.277364,-0.935843,0.172074,0.307554,0.332184,0.139255,0.932878,0.117695,0.975192,-0.187481,-77881.0,-25589.0,13951.0,-78658.0,26366.0,14228.0,-4453035.0,-2143598.0,-1730.0,0.0,-4194876.0,-2098075.0,-1912.0,-447.0,-4457240.0,-2227943.0,-6292661.0,0.0,-4194580.0,-2244772.0,-4456252.0,-1843.0,48.0,165.0,-45.0,0.0,166.0,642.0,60.0,217.0,-51.0,-169.0,44.0,0.0,-105.0,-273.0,665.0,-769.0,-0.013042,-0.04468,0.012181,0.0,0.006081,0.023515,-0.002218,0.007956,-0.013853,-0.045777,0.011913,0.0,-0.003867,-0.010018,-0.024365,-0.028175,4096.890137,11547.720703,51538.769531,0.0,-17693.191406,-17721.359375,18105.839844,-17301.060547,4107.959961,11566.980469,51416.550781,0.0,17681.130859,17660.431641,-17398.621094,17922.240234,0.0,0.0,0.0,0.0,0.0,0.0,0.0,0.0,0.0,0.0,0.0,0.0,0.0,0.0,0.0,0.0,0.0,0.0,0.0,0.0,0.0,0.0,0.0,0.0,0.0,0.0,0.0,0.0,0.0,0.0,0.0,0.0,4096.903809,11547.68457,51538.828125,0.0,-17693.193359,-17721.357422,18105.824219,-17301.080078,4107.900879,11566.793945,51416.511719,0.0,17681.882812,17661.0,-17398.535156,17922.494141,30.080883,90.650146,22.909382,0.0,4.75203,-0.281178,43.178463,46.317547,30.161627,90.795647,22.850912,0.0,0.940067,-1.758663,31.826721,26.443087,1.562,1.016,4407514.0,2015290.0,-570923.0,0.0,-3998285.0,-1901171.0,-199264.0,191787.0,-4502884.0,-2356465.0,-6863956.0,0.0,-4391037.0,-2440999.0,4649570.0,-200979.0,0.0,0.0,0.0,0.0,0.0,0.0,0.0,0.0,0.0,0.0,0.0,0.0,0.0,0.0,0.0,0.0,0.0,0.0,0.0,0.0,0.0,0.0,0.0,0.0
24,1.6369450092315674,30.080782,90.650452,22.909355,0.0,4.752281,-0.281295,43.180187,46.319702,30.16206,90.797127,22.850916,0.0,0.800262,-1.821797,31.848776,26.383192,3.0,1.0,111.0,0.0,1.0,-77881.0,-25589.0,13951.0,-78658.0,26366.0,14228.0,-0.941743,-0.214871,0.258747,-0.305514,0.224815,-0.925267,0.140643,-0.950415,-0.277364,-0.935843,0.172074,0.307554,0.332184,0.139255,0.932878,0.117695,0.975192,-0.187481,-0.941743,-0.214871,0.258747,-0.305514,0.224815,-0.925267,0.140643,-0.950415,-0.277364,-0.935843,0.172074,0.307554,0.332184,0.139255,0.932878,0.117695,0.975192,-0.187481,-77881.0,-25589.0,13951.0,-78658.0,26366.0,14228.0,-4453035.0,-2143598.0,-1730.0,0.0,-4194876.0,-2098075.0,-1912.0,-447.0,-4457240.0,-2227943.0,-6292661.0,0.0,-4194580.0,-2244772.0,-4456252.0,-1843.0,48.0,165.0,-45.0,0.0,166.0,642.0,60.0,217.0,-51.0,-169.0,44.0,0.0,-104.0,-272.0,665.0,-769.0,-0.013042,-0.04468,0.012181,0.0,0.006081,0.023515,-0.002219,0.007955,-0.013853,-0.045777,0.011913,0.0,-0.003825,-0.009986,-0.024361,-0.028161,4096.890137,11547.720703,51538.769531,0.0,-17693.191406,-17721.359375,18105.839844,-17301.060547,4107.959961,11566.980469,51416.550781,0.0,17681.130859,17660.431641,-17398.621094,17922.240234,0.0,0.0,0.0,0.0,0.0,0.0,0.0,0.0,0.0,0.0,0.0,0.0,0.0,0.0,0.0,0.0,0.0,0.0,0.0,0.0,0.0,0.0,0.0,0.0,0.0,0.0,0.0,0.0,0.0,0.0,0.0,0.0,4096.903809,11547.68457,51538.828125,0.0,-17693.193359,-17721.357422,18105.824219,-17301.080078,4107.900879,11566.793945,51416.511719,0.0,17681.882812,17661.0,-17398.535156,17922.494141,30.080883,90.650146,22.909382,0.0,4.75203,-0.281178,43.178463,46.317547,30.161627,90.795647,22.850912,0.0,0.940067,-1.758663,31.826721,26.443087,1.562,1.016,4407514.0,2015290.0,-570923.0,0.0,-3998285.0,-1901171.0,-199264.0,191787.0,-4502884.0,-2356465.0,-6863956.0,0.0,-4391037.0,-2440999.0,4649570.0,-200979.0,0.0,0.0,0.0,0.0,0.0,0.0,0.0,0.0,0.0,0.0,0.0,0.0,0.0,0.0,0.0,0.0,0.0,0.0,0.0,0.0,0.0,0.0,0.0,0.0
25,1.7029180526733398,30.080782,90.650452,22.909355,0.0,4.752281,-0.281295,43.180187,46.319702,30.16206,90.797127,22.850916,0.0,0.800262,-1.821797,31.848776,26.383192,3.0,1.0,111.0,0.0,1.0,-77881.0,-25589.0,13951.0,-78658.0,26366.0,14228.0,-0.941743,-0.214871,0.258747,-0.305514,0.224815,-0.925267,0.140643,-0.950415,-0.277364,-0.935843,0.172074,0.307554,0.332184,0.139255,0.932878,0.117695,0.975192,-0.187481,-0.941743,-0.214871,0.258747,-0.305514,0.224815,-0.925267,0.140643,-0.950415,-0.277364,-0.935843,0.172074,0.307554,0.332184,0.139255,0.932878,0.117695,0.975192,-0.187481,-77881.0,-25589.0,13951.0,-78658.0,26366.0,14228.0,-4453035.0,-2143598.0,-1730.0,0.0,-4194876.0,-2098075.0,-1912.0,-447.0,-4457240.0,-2227943.0,-6292661.0,0.0,-4194580.0,-2244772.0,-4456252.0,-1843.0,48.0,165.0,-45.0,0.0,166.0,642.0,60.0,217.0,-51.0,-169.0,44.0,0.0,-103.0,-272.0,665.0,-769.0,-0.013042,-0.04468,0.012181,0.0,0.006081,0.023515,-0.00222,0.007954,-0.013853,-0.045777,0.011913,0.0,-0.003782,-0.009953,-0.024356,-0.028146,4096.890137,11547.720703,51538.769531,0.0,-17693.191406,-17721.359375,18105.839844,-17301.060547,4107.959961,11566.980469,51416.550781,0.0,17681.130859,17660.431641,-17398.621094,17922.240234,0.0,0.0,0.0,0.0,0.0,0.0,0.0,0.0,0.0,0.0,0.0,0.0,0.0,0.0,0.0,0.0,0.0,0.0,0.0,0.0,0.0,0.0,0.0,0.0,0.0,0.0,0.0,0.0,0.0,0.0,0.0,0.0,4096.903809,11547.68457,51538.828125,0.0,-17693.193359,-17721.357422,18105.824219,-17301.080078,4107.900879,11566.793945,51416.511719,0.0,17681.882812,17661.0,-17398.535156,17922.494141,30.080883,90.650146,22.909382,0.0,4.75203,-0.281178,43.178463,46.317547,30.161627,90.795647,22.850912,0.0,0.940067,-1.758663,31.826721,26.443087,1.562,1.016,4407514.0,2015290.0,-570923.0,0.0,-3998285.0,-1901171.0,-199264.0,191787.0,-4502884.0,-2356465.0,-6863956.0,0.0,-4391037.0,-2440999.0,4649570.0,-200979.0,0.0,0.0,0.0,0.0,0.0,0.0,0.0,0.0,0.0,0.0,0.0,0.0,0.0,0.0,0.0,0.0,0.0,0.0,0.0,0.0,0.0,0.0,0.0,0.0
26,1.7699110507965088,30.080782,90.650452,22.909355,0.0,4.752281,-0.281295,43.180187,46.319702,30.16206,90.797127,22.850916,0.0,0.800262,-1.821797,31.848776,26.383192,3.0,1.0,111.0,0.0,1.0,-77881.0,-25589.0,13951.0,-78658.0,26366.0,14228.0,-0.941743,-0.214871,0.258747,-0.305514,0.224815,-0.925267,0.140643,-0.950415,-0.277364,-0.935843,0.172074,0.307554,0.332184,0.139255,0.932878,0.117695,0.975192,-0.187481,-0.941743,-0.214871,0.258747,-0.305514,0.224815,-0.925267,0.140643,-0.950415,-0.277364,-0.935843,0.172074,0.307554,0.332184,0.139255,0.932878,0.117695,0.975192,-0.187481,-77881.0,-25589.0,13951.0,-78658.0,26366.0,14228.0,-4453035.0,-2143598.0,-1730.0,0.0,-4194876.0,-2098075.0,-1912.0,-447.0,-4457240.0,-2227943.0,-6292661.0,0.0,-4194580.0,-2244772.0,-4456252.0,-1843.0,48.0,165.0,-45.0,0.0,166.0,642.0,60.0,217.0,-51.0,-169.0,44.0,0.0,-102.0,-271.0,665.0,-768.0,-0.013042,-0.04468,0.012181,0.0,0.00608,0.023515,-0.002221,0.007953,-0.013853,-0.045777,0.011913,0.0,-0.003738,-0.00992,-0.024351,-0.028131,4096.890137,11547.720703,51538.769531,0.0,-17693.191406,-17721.359375,18105.839844,-17301.060547,4107.959961,11566.980469,51416.550781,0.0,17681.130859,17660.431641,-17398.621094,17922.240234,0.0,0.0,0.0,0.0,0.0,0.0,0.0,0.0,0.0,0.0,0.0,0.0,0.0,0.0,0.0,0.0,0.0,0.0,0.0,0.0,0.0,0.0,0.0,0.0,0.0,0.0,0.0,0.0,0.0,0.0,0.0,0.0,4096.903809,11547.68457,51538.828125,0.0,-17693.193359,-17721.357422,18105.824219,-17301.080078,4107.900879,11566.793945,51416.511719,0.0,17681.882812,17661.0,-17398.535156,17922.494141,30.080883,90.650146,22.909382,0.0,4.75203,-0.281178,43.178463,46.317547,30.161627,90.795647,22.850912,0.0,0.940067,-1.758663,31.826721,26.443087,1.562,1.016,4407514.0,2015290.0,-570923.0,0.0,-3998285.0,-1901171.0,-199264.0,191787.0,-4502884.0,-2356465.0,-6863956.0,0.0,-4391037.0,-2440999.0,4649570.0,-200979.0,0.0,0.0,0.0,0.0,0.0,0.0,0.0,0.0,0.0,0.0,0.0,0.0,0.0,0.0,0.0,0.0,0.0,0.0,0.0,0.0,0.0,0.0,0.0,0.0
27,1.8349120616912842,30.080782,90.650452,22.909355,0.0,4.752281,-0.281295,43.180187,46.319702,30.16206,90.797127,22.850916,0.0,0.800262,-1.821797,31.848776,26.383192,3.0,1.0,111.0,0.0,1.0,-77881.0,-25589.0,13951.0,-78658.0,26366.0,14228.0,-0.941743,-0.214871,0.258747,-0.305514,0.224815,-0.925267,0.140643,-0.950415,-0.277364,-0.935843,0.172074,0.307554,0.332184,0.139255,0.932878,0.117695,0.975192,-0.187481,-0.941743,-0.214871,0.258747,-0.305514,0.224815,-0.925267,0.140643,-0.950415,-0.277364,-0.935843,0.172074,0.307554,0.332184,0.139255,0.932878,0.117695,0.975192,-0.187481,-77881.0,-25589.0,13951.0,-78658.0,26366.0,14228.0,-4453035.0,-2143598.0,-1730.0,0.0,-4194876.0,-2098075.0,-1912.0,-447.0,-4457240.0,-2227943.0,-6292661.0,0.0,-4194580.0,-2244772.0,-4456252.0,-1843.0,48.0,165.0,-45.0,0.0,166.0,642.0,60.0,217.0,-51.0,-169.0,44.0,0.0,-100.0,-270.0,665.0,-768.0,-0.013042,-0.04468,0.012181,0.0,0.00608,0.023515,-0.002221,0.007952,-0.013853,-0.045777,0.011913,0.0,-0.003695,-0.009888,-0.024346,-0.028117,4096.890137,11547.720703,51538.769531,0.0,-17693.191406,-17721.359375,18105.839844,-17301.060547,4107.959961,11566.980469,51416.550781,0.0,17681.130859,17660.431641,-17398.621094,17922.240234,0.0,0.0,0.0,0.0,0.0,0.0,0.0,0.0,0.0,0.0,0.0,0.0,0.0,0.0,0.0,0.0,0.0,0.0,0.0,0.0,0.0,0.0,0.0,0.0,0.0,0.0,0.0,0.0,0.0,0.0,0.0,0.0,4096.903809,11547.68457,51538.828125,0.0,-17693.193359,-17721.357422,18105.824219,-17301.080078,4107.900879,11566.793945,51416.511719,0.0,17681.882812,17661.0,-17398.535156,17922.494141,30.080883,90.650146,22.909382,0.0,4.75203,-0.281178,43.178463,46.317547,30.161627,90.795647,22.850912,0.0,0.940067,-1.758663,31.826721,26.443087,1.562,1.016,4407514.0,2015290.0,-570923.0,0.0,-3998285.0,-1901171.0,-199264.0,191787.0,-4502884.0,-2356465.0,-6863956.0,0.0,-4391037.0,-2440999.0,4649570.0,-200979.0,0.0,0.0,0.0,0.0,0.0,0.0,0.0,0.0,0.0,0.0,0.0,0.0,0.0,0.0,0.0,0.0,0.0,0.0,0.0,0.0,0.0,0.0,0.0,0.0
28,1.90403413772583,30.080782,90.650452,22.909355,0.0,4.752281,-0.281295,43.180187,46.319702,30.16206,90.797127,22.850916,0.0,0.800262,-1.821797,31.848776,26.383192,3.0,1.0,111.0,0.0,1.0,-77881.0,-25589.0,13951.0,-78658.0,26366.0,14228.0,-0.941743,-0.214871,0.258747,-0.305514,0.224815,-0.925267,0.140643,-0.950415,-0.277364,-0.935843,0.172074,0.307554,0.332184,0.139255,0.932878,0.117695,0.975192,-0.187481,-0.941743,-0.214871,0.258747,-0.305514,0.224815,-0.925267,0.140643,-0.950415,-0.277364,-0.935843,0.172074,0.307554,0.332184,0.139255,0.932878,0.117695,0.975192,-0.187481,-77881.0,-25589.0,13951.0,-78658.0,26366.0,14228.0,-4453035.0,-2143598.0,-1730.0,0.0,-4194876.0,-2098075.0,-1912.0,-447.0,-4457240.0,-2227943.0,-6292661.0,0.0,-4194580.0,-2244772.0,-4456252.0,-1843.0,48.0,165.0,-45.0,0.0,166.0,642.0,60.0,217.0,-51.0,-169.0,44.0,0.0,-99.0,-269.0,665.0,-767.0,-0.013042,-0.04468,0.012181,0.0,0.00608,0.023515,-0.002222,0.007951,-0.013853,-0.045777,0.011913,0.0,-0.00365,-0.009853,-0.024341,-0.028101,4096.890137,11547.720703,51538.769531,0.0,-17693.191406,-17721.359375,18105.839844,-17301.060547,4107.959961,11566.980469,51416.550781,0.0,17681.130859,17660.431641,-17398.621094,17922.240234,0.0,0.0,0.0,0.0,0.0,0.0,0.0,0.0,0.0,0.0,0.0,0.0,0.0,0.0,0.0,0.0,0.0,0.0,0.0,0.0,0.0,0.0,0.0,0.0,0.0,0.0,0.0,0.0,0.0,0.0,0.0,0.0,4096.903809,11547.68457,51538.828125,0.0,-17693.193359,-17721.357422,18105.824219,-17301.080078,4107.900879,11566.793945,51416.511719,0.0,17681.882812,17661.0,-17398.535156,17922.494141,30.080883,90.650146,22.909382,0.0,4.75203,-0.281178,43.178463,46.317547,30.161627,90.795647,22.850912,0.0,0.940067,-1.758663,31.826721,26.443087,1.562,1.016,4407514.0,2015290.0,-570923.0,0.0,-3998285.0,-1901171.0,-199264.0,191787.0,-4502884.0,-2356465.0,-6863956.0,0.0,-4391037.0,-2440999.0,4649570.0,-200979.0,0.0,0.0,0.0,0.0,0.0,0.0,0.0,0.0,0.0,0.0,0.0,0.0,0.0,0.0,0.0,0.0,0.0,0.0,0.0,0.0,0.0,0.0,0.0,0.0
29,1.9680049419403076,30.080782,90.650452,22.909355,0.0,4.752281,-0.281295,43.180187,46.319702,30.16206,90.797127,22.850916,0.0,0.800262,-1.821797,31.848776,26.383192,3.0,1.0,111.0,0.0,1.0,-77881.0,-25589.0,13951.0,-78658.0,26366.0,14228.0,-0.941743,-0.214871,0.258747,-0.305514,0.224815,-0.925267,0.140643,-0.950415,-0.277364,-0.935843,0.172074,0.307554,0.332184,0.139255,0.932878,0.117695,0.975192,-0.187481,-0.941743,-0.214871,0.258747,-0.305514,0.224815,-0.925267,0.140643,-0.950415,-0.277364,-0.935843,0.172074,0.307554,0.332184,0.139255,0.932878,0.117695,0.975192,-0.187481,-77881.0,-25589.0,13951.0,-78658.0,26366.0,14228.0,-4453035.0,-2143598.0,-1730.0,0.0,-4194876.0,-2098075.0,-1912.0,-447.0,-4457240.0,-2227943.0,-6292661.0,0.0,-4194580.0,-2244772.0,-4456252.0,-1843.0,48.0,165.0,-45.0,0.0,166.0,642.0,60.0,217.0,-51.0,-169.0,44.0,0.0,-98.0,-268.0,665.0,-767.0,-0.013042,-0.04468,0.012181,0.0,0.00608,0.023515,-0.002223,0.00795,-0.013853,-0.045777,0.011913,0.0,-0.003607,-0.009822,-0.024336,-0.028087,4096.890137,11547.720703,51538.769531,0.0,-17693.191406,-17721.359375,18105.839844,-17301.060547,4107.959961,11566.980469,51416.550781,0.0,17681.130859,17660.431641,-17398.621094,17922.240234,0.0,0.0,0.0,0.0,0.0,0.0,0.0,0.0,0.0,0.0,0.0,0.0,0.0,0.0,0.0,0.0,0.0,0.0,0.0,0.0,0.0,0.0,0.0,0.0,0.0,0.0,0.0,0.0,0.0,0.0,0.0,0.0,4096.903809,11547.68457,51538.828125,0.0,-17693.193359,-17721.357422,18105.824219,-17301.080078,4107.900879,11566.793945,51416.511719,0.0,17681.882812,17661.0,-17398.535156,17922.494141,30.080883,90.650146,22.909382,0.0,4.75203,-0.281178,43.178463,46.317547,30.161627,90.795647,22.850912,0.0,0.940067,-1.758663,31.826721,26.443087,1.562,1.016,4407514.0,2015290.0,-570923.0,0.0,-3998285.0,-1901171.0,-199264.0,191787.0,-4502884.0,-2356465.0,-6863956.0,0.0,-4391037.0,-2440999.0,4649570.0,-200979.0,0.0,0.0,0.0,0.0,0.0,0.0,0.0,0.0,0.0,0.0,0.0,0.0,0.0,0.0,0.0,0.0,0.0,0.0,0.0,0.0,0.0,0.0,0.0,0.0
30,2.034029006958008,30.080782,90.650452,22.909355,0.0,4.752281,-0.281295,43.180187,46.319702,30.16206,90.797127,22.850916,0.0,0.800262,-1.821797,31.848776,26.383192,3.0,1.0,111.0,0.0,1.0,-77881.0,-25589.0,13951.0,-78658.0,26366.0,14228.0,-0.941743,-0.214871,0.258747,-0.305514,0.224815,-0.925267,0.140643,-0.950415,-0.277364,-0.935843,0.172074,0.307554,0.332184,0.139255,0.932878,0.117695,0.975192,-0.187481,-0.941743,-0.214871,0.258747,-0.305514,0.224815,-0.925267,0.140643,-0.950415,-0.277364,-0.935843,0.172074,0.307554,0.332184,0.139255,0.932878,0.117695,0.975192,-0.187481,-77881.0,-25589.0,13951.0,-78658.0,26366.0,14228.0,-4453035.0,-2143598.0,-1730.0,0.0,-4194876.0,-2098075.0,-1912.0,-447.0,-4457240.0,-2227943.0,-6292661.0,0.0,-4194580.0,-2244772.0,-4456252.0,-1843.0,48.0,165.0,-45.0,0.0,166.0,642.0,60.0,217.0,-51.0,-169.0,44.0,0.0,-97.0,-267.0,664.0,-767.0,-0.013042,-0.04468,0.012181,0.0,0.00608,0.023515,-0.002224,0.007949,-0.013853,-0.045777,0.011913,0.0,-0.003564,-0.009789,-0.024331,-0.028072,4096.890137,11547.720703,51538.769531,0.0,-17693.191406,-17721.359375,18105.839844,-17301.060547,4107.959961,11566.980469,51416.550781,0.0,17681.130859,17660.431641,-17398.621094,17922.240234,0.0,0.0,0.0,0.0,0.0,0.0,0.0,0.0,0.0,0.0,0.0,0.0,0.0,0.0,0.0,0.0,0.0,0.0,0.0,0.0,0.0,0.0,0.0,0.0,0.0,0.0,0.0,0.0,0.0,0.0,0.0,0.0,4096.903809,11547.68457,51538.828125,0.0,-17693.193359,-17721.357422,18105.824219,-17301.080078,4107.900879,11566.793945,51416.511719,0.0,17681.882812,17661.0,-17398.535156,17922.494141,30.080883,90.650146,22.909382,0.0,4.75203,-0.281178,43.178463,46.317547,30.161627,90.795647,22.850912,0.0,0.940067,-1.758663,31.826721,26.443087,1.562,1.016,4407514.0,2015290.0,-570923.0,0.0,-3998285.0,-1901171.0,-199264.0,191787.0,-4502884.0,-2356465.0,-6863956.0,0.0,-4391037.0,-2440999.0,4649570.0,-200979.0,0.0,0.0,0.0,0.0,0.0,0.0,0.0,0.0,0.0,0.0,0.0,0.0,0.0,0.0,0.0,0.0,0.0,0.0,0.0,0.0,0.0,0.0,0.0,0.0
31,2.1000161170959473,30.080782,90.650452,22.909355,0.0,4.752281,-0.281295,43.180187,46.319702,30.16206,90.797127,22.850916,0.0,0.800262,-1.821797,31.848776,26.383192,3.0,1.0,111.0,0.0,1.0,-77881.0,-25589.0,13951.0,-78658.0,26366.0,14228.0,-0.941743,-0.214871,0.258747,-0.305514,0.224815,-0.925267,0.140643,-0.950415,-0.277364,-0.935843,0.172074,0.307554,0.332184,0.139255,0.932878,0.117695,0.975192,-0.187481,-0.941743,-0.214871,0.258747,-0.305514,0.224815,-0.925267,0.140643,-0.950415,-0.277364,-0.935843,0.172074,0.307554,0.332184,0.139255,0.932878,0.117695,0.975192,-0.187481,-77881.0,-25589.0,13951.0,-78658.0,26366.0,14228.0,-4453035.0,-2143598.0,-1730.0,0.0,-4194876.0,-2098075.0,-1912.0,-447.0,-4457240.0,-2227943.0,-6292661.0,0.0,-4194580.0,-2244772.0,-4456252.0,-1843.0,48.0,165.0,-45.0,0.0,166.0,642.0,60.0,217.0,-51.0,-169.0,44.0,0.0,-96.0,-266.0,664.0,-766.0,-0.013042,-0.04468,0.012181,0.0,0.00608,0.023516,-0.002225,0.007947,-0.013853,-0.045777,0.011913,0.0,-0.003521,-0.009756,-0.024326,-0.028058,4096.890137,11547.720703,51538.769531,0.0,-17693.191406,-17721.359375,18105.839844,-17301.060547,4107.959961,11566.980469,51416.550781,0.0,17681.130859,17660.431641,-17398.621094,17922.240234,0.0,0.0,0.0,0.0,0.0,0.0,0.0,0.0,0.0,0.0,0.0,0.0,0.0,0.0,0.0,0.0,0.0,0.0,0.0,0.0,0.0,0.0,0.0,0.0,0.0,0.0,0.0,0.0,0.0,0.0,0.0,0.0,4096.903809,11547.68457,51538.828125,0.0,-17693.193359,-17721.357422,18105.824219,-17301.080078,4107.900879,11566.793945,51416.511719,0.0,17681.882812,17661.0,-17398.535156,17922.494141,30.080883,90.650146,22.909382,0.0,4.75203,-0.281178,43.178463,46.317547,30.161627,90.795647,22.850912,0.0,0.940067,-1.758663,31.826721,26.443087,1.562,1.016,4407514.0,2015290.0,-570923.0,0.0,-3998285.0,-1901171.0,-199264.0,191787.0,-4502884.0,-2356465.0,-6863956.0,0.0,-4391037.0,-2440999.0,4649570.0,-200979.0,0.0,0.0,0.0,0.0,0.0,0.0,0.0,0.0,0.0,0.0,0.0,0.0,0.0,0.0,0.0,0.0,0.0,0.0,0.0,0.0,0.0,0.0,0.0,0.0
32,2.1640000343322754,30.080782,90.650452,22.909355,0.0,4.752281,-0.281295,43.180187,46.319702,30.16206,90.797127,22.850916,0.0,0.800262,-1.821797,31.848776,26.383192,3.0,1.0,111.0,0.0,1.0,-77881.0,-25589.0,13951.0,-78658.0,26366.0,14228.0,-0.941743,-0.214871,0.258747,-0.305514,0.224815,-0.925267,0.140643,-0.950415,-0.277364,-0.935843,0.172074,0.307554,0.332184,0.139255,0.932878,0.117695,0.975192,-0.187481,-0.941743,-0.214871,0.258747,-0.305514,0.224815,-0.925267,0.140643,-0.950415,-0.277364,-0.935843,0.172074,0.307554,0.332184,0.139255,0.932878,0.117695,0.975192,-0.187481,-77881.0,-25589.0,13951.0,-78658.0,26366.0,14228.0,-4453035.0,-2143598.0,-1730.0,0.0,-4194876.0,-2098075.0,-1912.0,-447.0,-4457240.0,-2227943.0,-6292661.0,0.0,-4194580.0,-2244772.0,-4456252.0,-1843.0,48.0,165.0,-45.0,0.0,166.0,642.0,60.0,217.0,-51.0,-169.0,44.0,0.0,-95.0,-265.0,664.0,-766.0,-0.013042,-0.04468,0.012181,0.0,0.00608,0.023516,-0.002226,0.007946,-0.013853,-0.045777,0.011913,0.0,-0.003479,-0.009724,-0.024321,-0.028043,4096.890137,11547.720703,51538.769531,0.0,-17693.191406,-17721.359375,18105.839844,-17301.060547,4107.959961,11566.980469,51416.550781,0.0,17681.130859,17660.431641,-17398.621094,17922.240234,0.0,0.0,0.0,0.0,0.0,0.0,0.0,0.0,0.0,0.0,0.0,0.0,0.0,0.0,0.0,0.0,0.0,0.0,0.0,0.0,0.0,0.0,0.0,0.0,0.0,0.0,0.0,0.0,0.0,0.0,0.0,0.0,4096.903809,11547.68457,51538.828125,0.0,-17693.193359,-17721.357422,18105.824219,-17301.080078,4107.900879,11566.793945,51416.511719,0.0,17681.882812,17661.0,-17398.535156,17922.494141,30.080883,90.650146,22.909382,0.0,4.75203,-0.281178,43.178463,46.317547,30.161627,90.795647,22.850912,0.0,0.940067,-1.758663,31.826721,26.443087,1.562,1.016,4407514.0,2015290.0,-570923.0,0.0,-3998285.0,-1901171.0,-199264.0,191787.0,-4502884.0,-2356465.0,-6863956.0,0.0,-4391037.0,-2440999.0,4649570.0,-200979.0,0.0,0.0,0.0,0.0,0.0,0.0,0.0,0.0,0.0,0.0,0.0,0.0,0.0,0.0,0.0,0.0,0.0,0.0,0.0,0.0,0.0,0.0,0.0,0.0
33,2.2370259761810303,30.080782,90.650452,22.909355,0.0,4.752281,-0.281295,43.180187,46.319702,30.16206,90.797127,22.850916,0.0,0.800262,-1.821797,31.848776,26.383192,3.0,1.0,111.0,0.0,1.0,-77881.0,-25589.0,13951.0,-78658.0,26366.0,14228.0,-0.941743,-0.214871,0.258747,-0.305514,0.224815,-0.925267,0.140643,-0.950415,-0.277364,-0.935843,0.172074,0.307554,0.332184,0.139255,0.932878,0.117695,0.975192,-0.187481,-0.941743,-0.214871,0.258747,-0.305514,0.224815,-0.925267,0.140643,-0.950415,-0.277364,-0.935843,0.172074,0.307554,0.332184,0.139255,0.932878,0.117695,0.975192,-0.187481,-77881.0,-25589.0,13951.0,-78658.0,26366.0,14228.0,-4453035.0,-2143598.0,-1730.0,0.0,-4194876.0,-2098075.0,-1912.0,-447.0,-4457240.0,-2227943.0,-6292661.0,0.0,-4194580.0,-2244772.0,-4456252.0,-1843.0,48.0,165.0,-45.0,0.0,166.0,642.0,60.0,217.0,-51.0,-169.0,44.0,0.0,-93.0,-264.0,664.0,-765.0,-0.013042,-0.04468,0.012181,0.0,0.00608,0.023516,-0.002227,0.007945,-0.013853,-0.045777,0.011913,0.0,-0.003431,-0.009688,-0.024316,-0.028027,4096.890137,11547.720703,51538.769531,0.0,-17693.191406,-17721.359375,18105.839844,-17301.060547,4107.959961,11566.980469,51416.550781,0.0,17681.130859,17660.431641,-17398.621094,17922.240234,0.0,0.0,0.0,0.0,0.0,0.0,0.0,0.0,0.0,0.0,0.0,0.0,0.0,0.0,0.0,0.0,0.0,0.0,0.0,0.0,0.0,0.0,0.0,0.0,0.0,0.0,0.0,0.0,0.0,0.0,0.0,0.0,4096.903809,11547.68457,51538.828125,0.0,-17693.193359,-17721.357422,18105.824219,-17301.080078,4107.900879,11566.793945,51416.511719,0.0,17681.882812,17661.0,-17398.535156,17922.494141,30.080883,90.650146,22.909382,0.0,4.75203,-0.281178,43.178463,46.317547,30.161627,90.795647,22.850912,0.0,0.940067,-1.758663,31.826721,26.443087,1.562,1.016,4407514.0,2015290.0,-570923.0,0.0,-3998285.0,-1901171.0,-199264.0,191787.0,-4502884.0,-2356465.0,-6863956.0,0.0,-4391037.0,-2440999.0,4649570.0,-200979.0,0.0,0.0,0.0,0.0,0.0,0.0,0.0,0.0,0.0,0.0,0.0,0.0,0.0,0.0,0.0,0.0,0.0,0.0,0.0,0.0,0.0,0.0,0.0,0.0
34,2.3019909858703613,30.080782,90.650452,22.909355,0.0,4.752281,-0.281295,43.180187,46.319702,30.16206,90.797127,22.850916,0.0,0.800262,-1.821797,31.848776,26.383192,3.0,1.0,111.0,0.0,1.0,-77881.0,-25589.0,13951.0,-78658.0,26366.0,14228.0,-0.941743,-0.214871,0.258747,-0.305514,0.224815,-0.925267,0.140643,-0.950415,-0.277364,-0.935843,0.172074,0.307554,0.332184,0.139255,0.932878,0.117695,0.975192,-0.187481,-0.941743,-0.214871,0.258747,-0.305514,0.224815,-0.925267,0.140643,-0.950415,-0.277364,-0.935843,0.172074,0.307554,0.332184,0.139255,0.932878,0.117695,0.975192,-0.187481,-77881.0,-25589.0,13951.0,-78658.0,26366.0,14228.0,-4453035.0,-2143598.0,-1730.0,0.0,-4194876.0,-2098075.0,-1912.0,-447.0,-4457240.0,-2227943.0,-6292661.0,0.0,-4194580.0,-2244772.0,-4456252.0,-1843.0,48.0,165.0,-45.0,0.0,166.0,642.0,60.0,217.0,-51.0,-169.0,44.0,0.0,-92.0,-263.0,664.0,-765.0,-0.013042,-0.04468,0.012181,0.0,0.00608,0.023516,-0.002228,0.007944,-0.013853,-0.045777,0.011913,0.0,-0.003388,-0.009656,-0.024311,-0.028012,4096.890137,11547.720703,51538.769531,0.0,-17693.191406,-17721.359375,18105.839844,-17301.060547,4107.959961,11566.980469,51416.550781,0.0,17681.130859,17660.431641,-17398.621094,17922.240234,0.0,0.0,0.0,0.0,0.0,0.0,0.0,0.0,0.0,0.0,0.0,0.0,0.0,0.0,0.0,0.0,0.0,0.0,0.0,0.0,0.0,0.0,0.0,0.0,0.0,0.0,0.0,0.0,0.0,0.0,0.0,0.0,4096.903809,11547.68457,51538.828125,0.0,-17693.193359,-17721.357422,18105.824219,-17301.080078,4107.900879,11566.793945,51416.511719,0.0,17681.882812,17661.0,-17398.535156,17922.494141,30.080883,90.650146,22.909382,0.0,4.75203,-0.281178,43.178463,46.317547,30.161627,90.795647,22.850912,0.0,0.940067,-1.758663,31.826721,26.443087,1.562,1.016,4407514.0,2015290.0,-570923.0,0.0,-3998285.0,-1901171.0,-199264.0,191787.0,-4502884.0,-2356465.0,-6863956.0,0.0,-4391037.0,-2440999.0,4649570.0,-200979.0,0.0,0.0,0.0,0.0,0.0,0.0,0.0,0.0,0.0,0.0,0.0,0.0,0.0,0.0,0.0,0.0,0.0,0.0,0.0,0.0,0.0,0.0,0.0,0.0
35,2.373990058898926,30.080782,90.650452,22.909355,0.0,4.752281,-0.281295,43.180187,46.319702,30.16206,90.797127,22.850916,0.0,0.800262,-1.821797,31.848776,26.383192,3.0,1.0,111.0,0.0,1.0,-77881.0,-25589.0,13951.0,-78658.0,26366.0,14228.0,-0.941743,-0.214871,0.258747,-0.305514,0.224815,-0.925267,0.140643,-0.950415,-0.277364,-0.935843,0.172074,0.307554,0.332184,0.139255,0.932878,0.117695,0.975192,-0.187481,-0.941743,-0.214871,0.258747,-0.305514,0.224815,-0.925267,0.140643,-0.950415,-0.277364,-0.935843,0.172074,0.307554,0.332184,0.139255,0.932878,0.117695,0.975192,-0.187481,-77881.0,-25589.0,13951.0,-78658.0,26366.0,14228.0,-4453035.0,-2143598.0,-1730.0,0.0,-4194876.0,-2098075.0,-1912.0,-447.0,-4457240.0,-2227943.0,-6292661.0,0.0,-4194580.0,-2244772.0,-4456252.0,-1843.0,48.0,165.0,-45.0,0.0,166.0,642.0,60.0,217.0,-51.0,-169.0,44.0,0.0,-91.0,-262.0,664.0,-765.0,-0.013042,-0.04468,0.012181,0.0,0.00608,0.023516,-0.002229,0.007943,-0.013853,-0.045777,0.011913,0.0,-0.003341,-0.00962,-0.024306,-0.027996,4096.890137,11547.720703,51538.769531,0.0,-17693.191406,-17721.359375,18105.839844,-17301.060547,4107.959961,11566.980469,51416.550781,0.0,17681.130859,17660.431641,-17398.621094,17922.240234,0.0,0.0,0.0,0.0,0.0,0.0,0.0,0.0,0.0,0.0,0.0,0.0,0.0,0.0,0.0,0.0,0.0,0.0,0.0,0.0,0.0,0.0,0.0,0.0,0.0,0.0,0.0,0.0,0.0,0.0,0.0,0.0,4096.903809,11547.68457,51538.828125,0.0,-17693.193359,-17721.357422,18105.824219,-17301.080078,4107.900879,11566.793945,51416.511719,0.0,17681.882812,17661.0,-17398.535156,17922.494141,30.080883,90.650146,22.909382,0.0,4.75203,-0.281178,43.178463,46.317547,30.161627,90.795647,22.850912,0.0,0.940067,-1.758663,31.826721,26.443087,1.562,1.016,4407514.0,2015290.0,-570923.0,0.0,-3998285.0,-1901171.0,-199264.0,191787.0,-4502884.0,-2356465.0,-6863956.0,0.0,-4391037.0,-2440999.0,4649570.0,-200979.0,0.0,0.0,0.0,0.0,0.0,0.0,0.0,0.0,0.0,0.0,0.0,0.0,0.0,0.0,0.0,0.0,0.0,0.0,0.0,0.0,0.0,0.0,0.0,0.0
36,2.4418931007385254,30.080782,90.650452,22.909355,0.0,4.752281,-0.281295,43.180187,46.319702,30.16206,90.797127,22.850916,0.0,0.800262,-1.821797,31.848776,26.383192,3.0,1.0,111.0,0.0,1.0,-77881.0,-25589.0,13951.0,-78658.0,26366.0,14228.0,-0.941743,-0.214871,0.258747,-0.305514,0.224815,-0.925267,0.140643,-0.950415,-0.277364,-0.935843,0.172074,0.307554,0.332184,0.139255,0.932878,0.117695,0.975192,-0.187481,-0.941743,-0.214871,0.258747,-0.305514,0.224815,-0.925267,0.140643,-0.950415,-0.277364,-0.935843,0.172074,0.307554,0.332184,0.139255,0.932878,0.117695,0.975192,-0.187481,-77881.0,-25589.0,13951.0,-78658.0,26366.0,14228.0,-4453035.0,-2143598.0,-1730.0,0.0,-4194876.0,-2098075.0,-1912.0,-447.0,-4457240.0,-2227943.0,-6292661.0,0.0,-4194580.0,-2244772.0,-4456252.0,-1843.0,48.0,165.0,-45.0,0.0,166.0,642.0,60.0,217.0,-51.0,-169.0,44.0,0.0,-90.0,-261.0,664.0,-764.0,-0.013042,-0.04468,0.012181,0.0,0.006079,0.023516,-0.00223,0.007942,-0.013853,-0.045777,0.011913,0.0,-0.003296,-0.009586,-0.024301,-0.027981,4096.890137,11547.720703,51538.769531,0.0,-17693.191406,-17721.359375,18105.839844,-17301.060547,4107.959961,11566.980469,51416.550781,0.0,17681.130859,17660.431641,-17398.621094,17922.240234,0.0,0.0,0.0,0.0,0.0,0.0,0.0,0.0,0.0,0.0,0.0,0.0,0.0,0.0,0.0,0.0,0.0,0.0,0.0,0.0,0.0,0.0,0.0,0.0,0.0,0.0,0.0,0.0,0.0,0.0,0.0,0.0,4096.903809,11547.68457,51538.828125,0.0,-17693.193359,-17721.357422,18105.824219,-17301.080078,4107.900879,11566.793945,51416.511719,0.0,17681.882812,17661.0,-17398.535156,17922.494141,30.080883,90.650146,22.909382,0.0,4.75203,-0.281178,43.178463,46.317547,30.161627,90.795647,22.850912,0.0,0.940067,-1.758663,31.826721,26.443087,1.562,1.016,4407514.0,2015290.0,-570923.0,0.0,-3998285.0,-1901171.0,-199264.0,191787.0,-4502884.0,-2356465.0,-6863956.0,0.0,-4391037.0,-2440999.0,4649570.0,-200979.0,0.0,0.0,0.0,0.0,0.0,0.0,0.0,0.0,0.0,0.0,0.0,0.0,0.0,0.0,0.0,0.0,0.0,0.0,0.0,0.0,0.0,0.0,0.0,0.0
37,2.505897045135498,30.080782,90.650452,22.909355,0.0,4.752281,-0.281295,43.180187,46.319702,30.16206,90.797127,22.850916,0.0,0.800262,-1.821797,31.848776,26.383192,3.0,1.0,111.0,0.0,1.0,-77881.0,-25589.0,13951.0,-78658.0,26366.0,14228.0,-0.941743,-0.214871,0.258747,-0.305514,0.224815,-0.925267,0.140643,-0.950415,-0.277364,-0.935843,0.172074,0.307554,0.332184,0.139255,0.932878,0.117695,0.975192,-0.187481,-0.941743,-0.214871,0.258747,-0.305514,0.224815,-0.925267,0.140643,-0.950415,-0.277364,-0.935843,0.172074,0.307554,0.332184,0.139255,0.932878,0.117695,0.975192,-0.187481,-77881.0,-25589.0,13951.0,-78658.0,26366.0,14228.0,-4453035.0,-2143598.0,-1730.0,0.0,-4194876.0,-2098075.0,-1912.0,-447.0,-4457240.0,-2227943.0,-6292661.0,0.0,-4194580.0,-2244772.0,-4456252.0,-1843.0,48.0,165.0,-45.0,0.0,166.0,642.0,60.0,217.0,-51.0,-169.0,44.0,0.0,-88.0,-261.0,663.0,-764.0,-0.013042,-0.04468,0.012181,0.0,0.006079,0.023516,-0.002231,0.00794,-0.013853,-0.045777,0.011913,0.0,-0.003254,-0.009555,-0.024296,-0.027967,4096.890137,11547.720703,51538.769531,0.0,-17693.191406,-17721.359375,18105.839844,-17301.060547,4107.959961,11566.980469,51416.550781,0.0,17681.130859,17660.431641,-17398.621094,17922.240234,0.0,0.0,0.0,0.0,0.0,0.0,0.0,0.0,0.0,0.0,0.0,0.0,0.0,0.0,0.0,0.0,0.0,0.0,0.0,0.0,0.0,0.0,0.0,0.0,0.0,0.0,0.0,0.0,0.0,0.0,0.0,0.0,4096.903809,11547.68457,51538.828125,0.0,-17693.193359,-17721.357422,18105.824219,-17301.080078,4107.900879,11566.793945,51416.511719,0.0,17681.882812,17661.0,-17398.535156,17922.494141,30.080883,90.650146,22.909382,0.0,4.75203,-0.281178,43.178463,46.317547,30.161627,90.795647,22.850912,0.0,0.940067,-1.758663,31.826721,26.443087,1.562,1.016,4407514.0,2015290.0,-570923.0,0.0,-3998285.0,-1901171.0,-199264.0,191787.0,-4502884.0,-2356465.0,-6863956.0,0.0,-4391037.0,-2440999.0,4649570.0,-200979.0,0.0,0.0,0.0,0.0,0.0,0.0,0.0,0.0,0.0,0.0,0.0,0.0,0.0,0.0,0.0,0.0,0.0,0.0,0.0,0.0,0.0,0.0,0.0,0.0
38,2.574892044067383,30.080782,90.650452,22.909355,0.0,4.752281,-0.281295,43.180187,46.319702,30.16206,90.797127,22.850916,0.0,0.800262,-1.821797,31.848776,26.383192,3.0,1.0,111.0,0.0,1.0,-77881.0,-25589.0,13951.0,-78658.0,26366.0,14228.0,-0.941743,-0.214871,0.258747,-0.305514,0.224815,-0.925267,0.140643,-0.950415,-0.277364,-0.935843,0.172074,0.307554,0.332184,0.139255,0.932878,0.117695,0.975192,-0.187481,-0.941743,-0.214871,0.258747,-0.305514,0.224815,-0.925267,0.140643,-0.950415,-0.277364,-0.935843,0.172074,0.307554,0.332184,0.139255,0.932878,0.117695,0.975192,-0.187481,-77881.0,-25589.0,13951.0,-78658.0,26366.0,14228.0,-4453035.0,-2143598.0,-1730.0,0.0,-4194876.0,-2098075.0,-1912.0,-447.0,-4457240.0,-2227943.0,-6292661.0,0.0,-4194580.0,-2244772.0,-4456252.0,-1843.0,48.0,165.0,-45.0,0.0,166.0,642.0,60.0,216.0,-51.0,-169.0,44.0,0.0,-87.0,-260.0,663.0,-763.0,-0.013042,-0.04468,0.012181,0.0,0.006079,0.023516,-0.002232,0.007939,-0.013853,-0.045777,0.011913,0.0,-0.003208,-0.00952,-0.024291,-0.027951,4096.890137,11547.720703,51538.769531,0.0,-17693.191406,-17721.359375,18105.839844,-17301.060547,4107.959961,11566.980469,51416.550781,0.0,17681.130859,17660.431641,-17398.621094,17922.240234,0.0,0.0,0.0,0.0,0.0,0.0,0.0,0.0,0.0,0.0,0.0,0.0,0.0,0.0,0.0,0.0,0.0,0.0,0.0,0.0,0.0,0.0,0.0,0.0,0.0,0.0,0.0,0.0,0.0,0.0,0.0,0.0,4096.903809,11547.68457,51538.828125,0.0,-17693.193359,-17721.357422,18105.824219,-17301.080078,4107.900879,11566.793945,51416.511719,0.0,17681.882812,17661.0,-17398.535156,17922.494141,30.080883,90.650146,22.909382,0.0,4.75203,-0.281178,43.178463,46.317547,30.161627,90.795647,22.850912,0.0,0.940067,-1.758663,31.826721,26.443087,1.562,1.016,4407514.0,2015290.0,-570923.0,0.0,-3998285.0,-1901171.0,-199264.0,191787.0,-4502884.0,-2356465.0,-6863956.0,0.0,-4391037.0,-2440999.0,4649570.0,-200979.0,0.0,0.0,0.0,0.0,0.0,0.0,0.0,0.0,0.0,0.0,0.0,0.0,0.0,0.0,0.0,0.0,0.0,0.0,0.0,0.0,0.0,0.0,0.0,0.0
39,2.644890069961548,30.080782,90.650452,22.909355,0.0,4.752281,-0.281295,43.180187,46.319702,30.16206,90.797127,22.850916,0.0,0.800262,-1.821797,31.848776,26.383192,3.0,1.0,111.0,0.0,1.0,-77881.0,-25589.0,13951.0,-78658.0,26366.0,14228.0,-0.941743,-0.214871,0.258747,-0.305514,0.224815,-0.925267,0.140643,-0.950415,-0.277364,-0.935843,0.172074,0.307554,0.332184,0.139255,0.932878,0.117695,0.975192,-0.187481,-0.941743,-0.214871,0.258747,-0.305514,0.224815,-0.925267,0.140643,-0.950415,-0.277364,-0.935843,0.172074,0.307554,0.332184,0.139255,0.932878,0.117695,0.975192,-0.187481,-77881.0,-25589.0,13951.0,-78658.0,26366.0,14228.0,-4453035.0,-2143598.0,-1730.0,0.0,-4194876.0,-2098075.0,-1912.0,-447.0,-4457240.0,-2227943.0,-6292661.0,0.0,-4194580.0,-2244772.0,-4456252.0,-1843.0,48.0,165.0,-45.0,0.0,166.0,642.0,61.0,216.0,-51.0,-169.0,44.0,0.0,-86.0,-259.0,663.0,-763.0,-0.013042,-0.04468,0.012181,0.0,0.006079,0.023516,-0.002233,0.007938,-0.013853,-0.045777,0.011913,0.0,-0.003162,-0.009486,-0.024285,-0.027936,4096.890137,11547.720703,51538.769531,0.0,-17693.191406,-17721.359375,18105.839844,-17301.060547,4107.959961,11566.980469,51416.550781,0.0,17681.130859,17660.431641,-17398.621094,17922.240234,0.0,0.0,0.0,0.0,0.0,0.0,0.0,0.0,0.0,0.0,0.0,0.0,0.0,0.0,0.0,0.0,0.0,0.0,0.0,0.0,0.0,0.0,0.0,0.0,0.0,0.0,0.0,0.0,0.0,0.0,0.0,0.0,4096.903809,11547.68457,51538.828125,0.0,-17693.193359,-17721.357422,18105.824219,-17301.080078,4107.900879,11566.793945,51416.511719,0.0,17681.882812,17661.0,-17398.535156,17922.494141,30.080883,90.650146,22.909382,0.0,4.75203,-0.281178,43.178463,46.317547,30.161627,90.795647,22.850912,0.0,0.940067,-1.758663,31.826721,26.443087,1.562,1.016,4407514.0,2015290.0,-570923.0,0.0,-3998285.0,-1901171.0,-199264.0,191787.0,-4502884.0,-2356465.0,-6863956.0,0.0,-4391037.0,-2440999.0,4649570.0,-200979.0,0.0,0.0,0.0,0.0,0.0,0.0,0.0,0.0,0.0,0.0,0.0,0.0,0.0,0.0,0.0,0.0,0.0,0.0,0.0,0.0,0.0,0.0,0.0,0.0
40,2.715970993041992,30.080782,90.650452,22.909355,0.0,4.752281,-0.281295,43.180187,46.319702,30.16206,90.797127,22.850916,0.0,0.800262,-1.821797,31.848776,26.383192,3.0,1.0,111.0,0.0,1.0,-77881.0,-25589.0,13951.0,-78658.0,26366.0,14228.0,-0.941743,-0.214871,0.258747,-0.305514,0.224815,-0.925267,0.140643,-0.950415,-0.277364,-0.935843,0.172074,0.307554,0.332184,0.139255,0.932878,0.117695,0.975192,-0.187481,-0.941743,-0.214871,0.258747,-0.305514,0.224815,-0.925267,0.140643,-0.950415,-0.277364,-0.935843,0.172074,0.307554,0.332184,0.139255,0.932878,0.117695,0.975192,-0.187481,-77881.0,-25589.0,13951.0,-78658.0,26366.0,14228.0,-4453035.0,-2143598.0,-1730.0,0.0,-4194876.0,-2098075.0,-1912.0,-447.0,-4457240.0,-2227943.0,-6292661.0,0.0,-4194580.0,-2244772.0,-4456252.0,-1843.0,48.0,165.0,-45.0,0.0,166.0,642.0,61.0,216.0,-51.0,-169.0,44.0,0.0,-85.0,-258.0,663.0,-763.0,-0.013042,-0.04468,0.012181,0.0,0.006079,0.023517,-0.002234,0.007937,-0.013853,-0.045777,0.011913,0.0,-0.003116,-0.00945,-0.02428,-0.02792,4096.890137,11547.720703,51538.769531,0.0,-17693.191406,-17721.359375,18105.839844,-17301.060547,4107.959961,11566.980469,51416.550781,0.0,17681.130859,17660.431641,-17398.621094,17922.240234,0.0,0.0,0.0,0.0,0.0,0.0,0.0,0.0,0.0,0.0,0.0,0.0,0.0,0.0,0.0,0.0,0.0,0.0,0.0,0.0,0.0,0.0,0.0,0.0,0.0,0.0,0.0,0.0,0.0,0.0,0.0,0.0,4096.903809,11547.68457,51538.828125,0.0,-17693.193359,-17721.357422,18105.824219,-17301.080078,4107.900879,11566.793945,51416.511719,0.0,17681.882812,17661.0,-17398.535156,17922.494141,30.080883,90.650146,22.909382,0.0,4.75203,-0.281178,43.178463,46.317547,30.161627,90.795647,22.850912,0.0,0.940067,-1.758663,31.826721,26.443087,1.562,1.016,4407514.0,2015290.0,-570923.0,0.0,-3998285.0,-1901171.0,-199264.0,191787.0,-4502884.0,-2356465.0,-6863956.0,0.0,-4391037.0,-2440999.0,4649570.0,-200979.0,0.0,0.0,0.0,0.0,0.0,0.0,0.0,0.0,0.0,0.0,0.0,0.0,0.0,0.0,0.0,0.0,0.0,0.0,0.0,0.0,0.0,0.0,0.0,0.0
41,2.783971071243286,30.080782,90.650452,22.909355,0.0,4.752281,-0.281295,43.180187,46.319702,30.16206,90.797127,22.850916,0.0,0.800262,-1.821797,31.848776,26.383192,3.0,1.0,111.0,0.0,1.0,-77881.0,-25589.0,13951.0,-78658.0,26366.0,14228.0,-0.941743,-0.214871,0.258747,-0.305514,0.224815,-0.925267,0.140643,-0.950415,-0.277364,-0.935843,0.172074,0.307554,0.332184,0.139255,0.932878,0.117695,0.975192,-0.187481,-0.941743,-0.214871,0.258747,-0.305514,0.224815,-0.925267,0.140643,-0.950415,-0.277364,-0.935843,0.172074,0.307554,0.332184,0.139255,0.932878,0.117695,0.975192,-0.187481,-77881.0,-25589.0,13951.0,-78658.0,26366.0,14228.0,-4453035.0,-2143598.0,-1730.0,0.0,-4194876.0,-2098075.0,-1912.0,-447.0,-4457240.0,-2227943.0,-6292661.0,0.0,-4194580.0,-2244772.0,-4456252.0,-1843.0,48.0,165.0,-45.0,0.0,166.0,642.0,61.0,216.0,-51.0,-169.0,44.0,0.0,-83.0,-257.0,663.0,-762.0,-0.013042,-0.04468,0.012181,0.0,0.006079,0.023517,-0.002235,0.007936,-0.013853,-0.045777,0.011913,0.0,-0.003071,-0.009417,-0.024275,-0.027905,4096.890137,11547.720703,51538.769531,0.0,-17693.191406,-17721.359375,18105.839844,-17301.060547,4107.959961,11566.980469,51416.550781,0.0,17681.130859,17660.431641,-17398.621094,17922.240234,0.0,0.0,0.0,0.0,0.0,0.0,0.0,0.0,0.0,0.0,0.0,0.0,0.0,0.0,0.0,0.0,0.0,0.0,0.0,0.0,0.0,0.0,0.0,0.0,0.0,0.0,0.0,0.0,0.0,0.0,0.0,0.0,4096.903809,11547.68457,51538.828125,0.0,-17693.193359,-17721.357422,18105.824219,-17301.080078,4107.900879,11566.793945,51416.511719,0.0,17681.882812,17661.0,-17398.535156,17922.494141,30.080883,90.650146,22.909382,0.0,4.75203,-0.281178,43.178463,46.317547,30.161627,90.795647,22.850912,0.0,0.940067,-1.758663,31.826721,26.443087,1.562,1.016,4407514.0,2015290.0,-570923.0,0.0,-3998285.0,-1901171.0,-199264.0,191787.0,-4502884.0,-2356465.0,-6863956.0,0.0,-4391037.0,-2440999.0,4649570.0,-200979.0,0.0,0.0,0.0,0.0,0.0,0.0,0.0,0.0,0.0,0.0,0.0,0.0,0.0,0.0,0.0,0.0,0.0,0.0,0.0,0.0,0.0,0.0,0.0,0.0
42,2.8499600887298584,30.080782,90.650452,22.909355,0.0,4.752281,-0.281295,43.180187,46.319702,30.16206,90.797127,22.850916,0.0,0.800262,-1.821797,31.848776,26.383192,3.0,1.0,111.0,0.0,1.0,-77881.0,-25589.0,13951.0,-78658.0,26366.0,14228.0,-0.941743,-0.214871,0.258747,-0.305514,0.224815,-0.925267,0.140643,-0.950415,-0.277364,-0.935843,0.172074,0.307554,0.332184,0.139255,0.932878,0.117695,0.975192,-0.187481,-0.941743,-0.214871,0.258747,-0.305514,0.224815,-0.925267,0.140643,-0.950415,-0.277364,-0.935843,0.172074,0.307554,0.332184,0.139255,0.932878,0.117695,0.975192,-0.187481,-77881.0,-25589.0,13951.0,-78658.0,26366.0,14228.0,-4453035.0,-2143598.0,-1730.0,0.0,-4194876.0,-2098075.0,-1912.0,-447.0,-4457240.0,-2227943.0,-6292661.0,0.0,-4194580.0,-2244772.0,-4456252.0,-1843.0,48.0,165.0,-45.0,0.0,166.0,642.0,61.0,216.0,-51.0,-169.0,44.0,0.0,-82.0,-256.0,663.0,-762.0,-0.013042,-0.04468,0.012181,0.0,0.006079,0.023517,-0.002235,0.007935,-0.013853,-0.045777,0.011913,0.0,-0.003028,-0.009384,-0.02427,-0.02789,4096.890137,11547.720703,51538.769531,0.0,-17693.191406,-17721.359375,18105.839844,-17301.060547,4107.959961,11566.980469,51416.550781,0.0,17681.130859,17660.431641,-17398.621094,17922.240234,0.0,0.0,0.0,0.0,0.0,0.0,0.0,0.0,0.0,0.0,0.0,0.0,0.0,0.0,0.0,0.0,0.0,0.0,0.0,0.0,0.0,0.0,0.0,0.0,0.0,0.0,0.0,0.0,0.0,0.0,0.0,0.0,4096.903809,11547.68457,51538.828125,0.0,-17693.193359,-17721.357422,18105.824219,-17301.080078,4107.900879,11566.793945,51416.511719,0.0,17681.882812,17661.0,-17398.535156,17922.494141,30.080883,90.650146,22.909382,0.0,4.75203,-0.281178,43.178463,46.317547,30.161627,90.795647,22.850912,0.0,0.940067,-1.758663,31.826721,26.443087,1.562,1.016,4407514.0,2015290.0,-570923.0,0.0,-3998285.0,-1901171.0,-199264.0,191787.0,-4502884.0,-2356465.0,-6863956.0,0.0,-4391037.0,-2440999.0,4649570.0,-200979.0,0.0,0.0,0.0,0.0,0.0,0.0,0.0,0.0,0.0,0.0,0.0,0.0,0.0,0.0,0.0,0.0,0.0,0.0,0.0,0.0,0.0,0.0,0.0,0.0
43,2.9179630279541016,30.080782,90.650452,22.909355,0.0,4.752281,-0.281295,43.180187,46.319702,30.16206,90.797127,22.850916,0.0,0.800262,-1.821797,31.848776,26.383192,3.0,1.0,111.0,0.0,1.0,-77881.0,-25589.0,13951.0,-78658.0,26366.0,14228.0,-0.941743,-0.214871,0.258747,-0.305514,0.224815,-0.925267,0.140643,-0.950415,-0.277364,-0.935843,0.172074,0.307554,0.332184,0.139255,0.932878,0.117695,0.975192,-0.187481,-0.941743,-0.214871,0.258747,-0.305514,0.224815,-0.925267,0.140643,-0.950415,-0.277364,-0.935843,0.172074,0.307554,0.332184,0.139255,0.932878,0.117695,0.975192,-0.187481,-77881.0,-25589.0,13951.0,-78658.0,26366.0,14228.0,-4453035.0,-2143598.0,-1730.0,0.0,-4194876.0,-2098075.0,-1912.0,-447.0,-4457240.0,-2227943.0,-6292661.0,0.0,-4194580.0,-2244772.0,-4456252.0,-1843.0,48.0,165.0,-45.0,0.0,166.0,642.0,61.0,216.0,-51.0,-169.0,44.0,0.0,-81.0,-255.0,663.0,-761.0,-0.013042,-0.04468,0.012181,0.0,0.006079,0.023517,-0.002236,0.007933,-0.013853,-0.045777,0.011913,0.0,-0.002983,-0.00935,-0.024265,-0.027875,4096.890137,11547.720703,51538.769531,0.0,-17693.191406,-17721.359375,18105.839844,-17301.060547,4107.959961,11566.980469,51416.550781,0.0,17681.130859,17660.431641,-17398.621094,17922.240234,0.0,0.0,0.0,0.0,0.0,0.0,0.0,0.0,0.0,0.0,0.0,0.0,0.0,0.0,0.0,0.0,0.0,0.0,0.0,0.0,0.0,0.0,0.0,0.0,0.0,0.0,0.0,0.0,0.0,0.0,0.0,0.0,4096.903809,11547.68457,51538.828125,0.0,-17693.193359,-17721.357422,18105.824219,-17301.080078,4107.900879,11566.793945,51416.511719,0.0,17681.882812,17661.0,-17398.535156,17922.494141,30.080883,90.650146,22.909382,0.0,4.75203,-0.281178,43.178463,46.317547,30.161627,90.795647,22.850912,0.0,0.940067,-1.758663,31.826721,26.443087,1.562,1.016,4407514.0,2015290.0,-570923.0,0.0,-3998285.0,-1901171.0,-199264.0,191787.0,-4502884.0,-2356465.0,-6863956.0,0.0,-4391037.0,-2440999.0,4649570.0,-200979.0,0.0,0.0,0.0,0.0,0.0,0.0,0.0,0.0,0.0,0.0,0.0,0.0,0.0,0.0,0.0,0.0,0.0,0.0,0.0,0.0,0.0,0.0,0.0,0.0
44,2.984945058822632,30.080782,90.650452,22.909355,0.0,4.752281,-0.281295,43.180187,46.319702,30.16206,90.797127,22.850916,0.0,0.800262,-1.821797,31.848776,26.383192,3.0,1.0,111.0,0.0,1.0,-77881.0,-25589.0,13951.0,-78658.0,26366.0,14228.0,-0.941743,-0.214871,0.258747,-0.305514,0.224815,-0.925267,0.140643,-0.950415,-0.277364,-0.935843,0.172074,0.307554,0.332184,0.139255,0.932878,0.117695,0.975192,-0.187481,-0.941743,-0.214871,0.258747,-0.305514,0.224815,-0.925267,0.140643,-0.950415,-0.277364,-0.935843,0.172074,0.307554,0.332184,0.139255,0.932878,0.117695,0.975192,-0.187481,-77881.0,-25589.0,13951.0,-78658.0,26366.0,14228.0,-4453035.0,-2143598.0,-1730.0,0.0,-4194876.0,-2098075.0,-1912.0,-447.0,-4457240.0,-2227943.0,-6292661.0,0.0,-4194580.0,-2244772.0,-4456252.0,-1843.0,48.0,165.0,-45.0,0.0,166.0,642.0,61.0,216.0,-51.0,-169.0,44.0,0.0,-80.0,-254.0,662.0,-761.0,-0.013042,-0.04468,0.012181,0.0,0.006079,0.023517,-0.002237,0.007932,-0.013853,-0.045777,0.011913,0.0,-0.002939,-0.009317,-0.02426,-0.02786,4096.890137,11547.720703,51538.769531,0.0,-17693.191406,-17721.359375,18105.839844,-17301.060547,4107.959961,11566.980469,51416.550781,0.0,17681.130859,17660.431641,-17398.621094,17922.240234,0.0,0.0,0.0,0.0,0.0,0.0,0.0,0.0,0.0,0.0,0.0,0.0,0.0,0.0,0.0,0.0,0.0,0.0,0.0,0.0,0.0,0.0,0.0,0.0,0.0,0.0,0.0,0.0,0.0,0.0,0.0,0.0,4096.903809,11547.68457,51538.828125,0.0,-17693.193359,-17721.357422,18105.824219,-17301.080078,4107.900879,11566.793945,51416.511719,0.0,17681.882812,17661.0,-17398.535156,17922.494141,30.080883,90.650146,22.909382,0.0,4.75203,-0.281178,43.178463,46.317547,30.161627,90.795647,22.850912,0.0,0.940067,-1.758663,31.826721,26.443087,1.562,1.016,4407514.0,2015290.0,-570923.0,0.0,-3998285.0,-1901171.0,-199264.0,191787.0,-4502884.0,-2356465.0,-6863956.0,0.0,-4391037.0,-2440999.0,4649570.0,-200979.0,0.0,0.0,0.0,0.0,0.0,0.0,0.0,0.0,0.0,0.0,0.0,0.0,0.0,0.0,0.0,0.0,0.0,0.0,0.0,0.0,0.0,0.0,0.0,0.0
45,3.049962043762207,30.080782,90.650452,22.909355,0.0,4.752281,-0.281295,43.180187,46.319702,30.16206,90.797127,22.850916,0.0,0.800262,-1.821797,31.848776,26.383192,3.0,1.0,111.0,0.0,1.0,-77881.0,-25589.0,13951.0,-78658.0,26366.0,14228.0,-0.941743,-0.214871,0.258747,-0.305514,0.224815,-0.925267,0.140643,-0.950415,-0.277364,-0.935843,0.172074,0.307554,0.332184,0.139255,0.932878,0.117695,0.975192,-0.187481,-0.941743,-0.214871,0.258747,-0.305514,0.224815,-0.925267,0.140643,-0.950415,-0.277364,-0.935843,0.172074,0.307554,0.332184,0.139255,0.932878,0.117695,0.975192,-0.187481,-77881.0,-25589.0,13951.0,-78658.0,26366.0,14228.0,-4453035.0,-2143598.0,-1730.0,0.0,-4194876.0,-2098075.0,-1912.0,-447.0,-4457240.0,-2227943.0,-6292661.0,0.0,-4194580.0,-2244772.0,-4456252.0,-1843.0,48.0,165.0,-45.0,0.0,166.0,642.0,61.0,216.0,-51.0,-169.0,44.0,0.0,-79.0,-253.0,662.0,-760.0,-0.013042,-0.04468,0.012181,0.0,0.006079,0.023517,-0.002238,0.007931,-0.013853,-0.045777,0.011913,0.0,-0.002896,-0.009285,-0.024255,-0.027845,4096.890137,11547.720703,51538.769531,0.0,-17693.191406,-17721.359375,18105.839844,-17301.060547,4107.959961,11566.980469,51416.550781,0.0,17681.130859,17660.431641,-17398.621094,17922.240234,0.0,0.0,0.0,0.0,0.0,0.0,0.0,0.0,0.0,0.0,0.0,0.0,0.0,0.0,0.0,0.0,0.0,0.0,0.0,0.0,0.0,0.0,0.0,0.0,0.0,0.0,0.0,0.0,0.0,0.0,0.0,0.0,4096.903809,11547.68457,51538.828125,0.0,-17693.193359,-17721.357422,18105.824219,-17301.080078,4107.900879,11566.793945,51416.511719,0.0,17681.882812,17661.0,-17398.535156,17922.494141,30.080883,90.650146,22.909382,0.0,4.75203,-0.281178,43.178463,46.317547,30.161627,90.795647,22.850912,0.0,0.940067,-1.758663,31.826721,26.443087,1.562,1.016,4407514.0,2015290.0,-570923.0,0.0,-3998285.0,-1901171.0,-199264.0,191787.0,-4502884.0,-2356465.0,-6863956.0,0.0,-4391037.0,-2440999.0,4649570.0,-200979.0,0.0,0.0,0.0,0.0,0.0,0.0,0.0,0.0,0.0,0.0,0.0,0.0,0.0,0.0,0.0,0.0,0.0,0.0,0.0,0.0,0.0,0.0,0.0,0.0
46,3.1189751625061035,30.080782,90.650452,22.909355,0.0,4.752281,-0.281295,43.180187,46.319702,30.16206,90.797127,22.850916,0.0,0.800262,-1.821797,31.848776,26.383192,3.0,1.0,111.0,0.0,1.0,-77881.0,-25589.0,13951.0,-78658.0,26366.0,14228.0,-0.941743,-0.214871,0.258747,-0.305514,0.224815,-0.925267,0.140643,-0.950415,-0.277364,-0.935843,0.172074,0.307554,0.332184,0.139255,0.932878,0.117695,0.975192,-0.187481,-0.941743,-0.214871,0.258747,-0.305514,0.224815,-0.925267,0.140643,-0.950415,-0.277364,-0.935843,0.172074,0.307554,0.332184,0.139255,0.932878,0.117695,0.975192,-0.187481,-77881.0,-25589.0,13951.0,-78658.0,26366.0,14228.0,-4453035.0,-2143598.0,-1730.0,0.0,-4194876.0,-2098075.0,-1912.0,-447.0,-4457240.0,-2227943.0,-6292661.0,0.0,-4194580.0,-2244772.0,-4456252.0,-1843.0,48.0,165.0,-45.0,0.0,166.0,642.0,61.0,216.0,-51.0,-169.0,44.0,0.0,-77.0,-252.0,662.0,-760.0,-0.013042,-0.04468,0.012181,0.0,0.006078,0.023517,-0.002239,0.00793,-0.013853,-0.045777,0.011913,0.0,-0.002851,-0.00925,-0.02425,-0.02783,4096.890137,11547.720703,51538.769531,0.0,-17693.191406,-17721.359375,18105.839844,-17301.060547,4107.959961,11566.980469,51416.550781,0.0,17681.130859,17660.431641,-17398.621094,17922.240234,0.0,0.0,0.0,0.0,0.0,0.0,0.0,0.0,0.0,0.0,0.0,0.0,0.0,0.0,0.0,0.0,0.0,0.0,0.0,0.0,0.0,0.0,0.0,0.0,0.0,0.0,0.0,0.0,0.0,0.0,0.0,0.0,4096.903809,11547.68457,51538.828125,0.0,-17693.193359,-17721.357422,18105.824219,-17301.080078,4107.900879,11566.793945,51416.511719,0.0,17681.882812,17661.0,-17398.535156,17922.494141,30.080883,90.650146,22.909382,0.0,4.75203,-0.281178,43.178463,46.317547,30.161627,90.795647,22.850912,0.0,0.940067,-1.758663,31.826721,26.443087,1.562,1.016,4407514.0,2015290.0,-570923.0,0.0,-3998285.0,-1901171.0,-199264.0,191787.0,-4502884.0,-2356465.0,-6863956.0,0.0,-4391037.0,-2440999.0,4649570.0,-200979.0,0.0,0.0,0.0,0.0,0.0,0.0,0.0,0.0,0.0,0.0,0.0,0.0,0.0,0.0,0.0,0.0,0.0,0.0,0.0,0.0,0.0,0.0,0.0,0.0
47,3.1909971237182617,30.080782,90.650452,22.909355,0.0,4.752281,-0.281295,43.180187,46.319702,30.16206,90.797127,22.850916,0.0,0.800262,-1.821797,31.848776,26.383192,3.0,1.0,111.0,0.0,1.0,-77881.0,-25589.0,13951.0,-78658.0,26366.0,14228.0,-0.941743,-0.214871,0.258747,-0.305514,0.224815,-0.925267,0.140643,-0.950415,-0.277364,-0.935843,0.172074,0.307554,0.332184,0.139255,0.932878,0.117695,0.975192,-0.187481,-0.941743,-0.214871,0.258747,-0.305514,0.224815,-0.925267,0.140643,-0.950415,-0.277364,-0.935843,0.172074,0.307554,0.332184,0.139255,0.932878,0.117695,0.975192,-0.187481,-77881.0,-25589.0,13951.0,-78658.0,26366.0,14228.0,-4453035.0,-2143598.0,-1730.0,0.0,-4194876.0,-2098075.0,-1912.0,-447.0,-4457240.0,-2227943.0,-6292661.0,0.0,-4194580.0,-2244772.0,-4456252.0,-1843.0,48.0,165.0,-45.0,0.0,166.0,642.0,61.0,216.0,-51.0,-169.0,44.0,0.0,-76.0,-251.0,662.0,-760.0,-0.013042,-0.04468,0.012181,0.0,0.006078,0.023517,-0.00224,0.007929,-0.013853,-0.045777,0.011913,0.0,-0.002803,-0.009215,-0.024245,-0.027814,4096.890137,11547.720703,51538.769531,0.0,-17693.191406,-17721.359375,18105.839844,-17301.060547,4107.959961,11566.980469,51416.550781,0.0,17681.130859,17660.431641,-17398.621094,17922.240234,0.0,0.0,0.0,0.0,0.0,0.0,0.0,0.0,0.0,0.0,0.0,0.0,0.0,0.0,0.0,0.0,0.0,0.0,0.0,0.0,0.0,0.0,0.0,0.0,0.0,0.0,0.0,0.0,0.0,0.0,0.0,0.0,4096.903809,11547.68457,51538.828125,0.0,-17693.193359,-17721.357422,18105.824219,-17301.080078,4107.900879,11566.793945,51416.511719,0.0,17681.882812,17661.0,-17398.535156,17922.494141,30.080883,90.650146,22.909382,0.0,4.75203,-0.281178,43.178463,46.317547,30.161627,90.795647,22.850912,0.0,0.940067,-1.758663,31.826721,26.443087,1.562,1.016,4407514.0,2015290.0,-570923.0,0.0,-3998285.0,-1901171.0,-199264.0,191787.0,-4502884.0,-2356465.0,-6863956.0,0.0,-4391037.0,-2440999.0,4649570.0,-200979.0,0.0,0.0,0.0,0.0,0.0,0.0,0.0,0.0,0.0,0.0,0.0,0.0,0.0,0.0,0.0,0.0,0.0,0.0,0.0,0.0,0.0,0.0,0.0,0.0
48,3.266957998275757,30.080782,90.650452,22.909355,0.0,4.752281,-0.281295,43.180187,46.319702,30.16206,90.797127,22.850916,0.0,0.800262,-1.821797,31.848776,26.383192,3.0,1.0,111.0,0.0,1.0,-77881.0,-25589.0,13951.0,-78658.0,26366.0,14228.0,-0.941743,-0.214871,0.258747,-0.305514,0.224815,-0.925267,0.140643,-0.950415,-0.277364,-0.935843,0.172074,0.307554,0.332184,0.139255,0.932878,0.117695,0.975192,-0.187481,-0.941743,-0.214871,0.258747,-0.305514,0.224815,-0.925267,0.140643,-0.950415,-0.277364,-0.935843,0.172074,0.307554,0.332184,0.139255,0.932878,0.117695,0.975192,-0.187481,-77881.0,-25589.0,13951.0,-78658.0,26366.0,14228.0,-4453035.0,-2143598.0,-1730.0,0.0,-4194876.0,-2098075.0,-1912.0,-447.0,-4457240.0,-2227943.0,-6292661.0,0.0,-4194580.0,-2244772.0,-4456252.0,-1843.0,48.0,165.0,-45.0,0.0,166.0,642.0,61.0,216.0,-51.0,-169.0,44.0,0.0,-75.0,-250.0,662.0,-759.0,-0.013042,-0.04468,0.012181,0.0,0.006078,0.023517,-0.002241,0.007927,-0.013853,-0.045777,0.011913,0.0,-0.002753,-0.009177,-0.024239,-0.027797,4096.890137,11547.720703,51538.769531,0.0,-17693.191406,-17721.359375,18105.839844,-17301.060547,4107.959961,11566.980469,51416.550781,0.0,17681.130859,17660.431641,-17398.621094,17922.240234,0.0,0.0,0.0,0.0,0.0,0.0,0.0,0.0,0.0,0.0,0.0,0.0,0.0,0.0,0.0,0.0,0.0,0.0,0.0,0.0,0.0,0.0,0.0,0.0,0.0,0.0,0.0,0.0,0.0,0.0,0.0,0.0,4096.903809,11547.68457,51538.828125,0.0,-17693.193359,-17721.357422,18105.824219,-17301.080078,4107.900879,11566.793945,51416.511719,0.0,17681.882812,17661.0,-17398.535156,17922.494141,30.080883,90.650146,22.909382,0.0,4.75203,-0.281178,43.178463,46.317547,30.161627,90.795647,22.850912,0.0,0.940067,-1.758663,31.826721,26.443087,1.562,1.016,4407514.0,2015290.0,-570923.0,0.0,-3998285.0,-1901171.0,-199264.0,191787.0,-4502884.0,-2356465.0,-6863956.0,0.0,-4391037.0,-2440999.0,4649570.0,-200979.0,0.0,0.0,0.0,0.0,0.0,0.0,0.0,0.0,0.0,0.0,0.0,0.0,0.0,0.0,0.0,0.0,0.0,0.0,0.0,0.0,0.0,0.0,0.0,0.0
49,3.332965135574341,30.080782,90.650452,22.909355,0.0,4.752281,-0.281295,43.180187,46.319702,30.16206,90.797127,22.850916,0.0,0.800262,-1.821797,31.848776,26.383192,3.0,1.0,111.0,0.0,1.0,-77881.0,-25589.0,13951.0,-78658.0,26366.0,14228.0,-0.941743,-0.214871,0.258747,-0.305514,0.224815,-0.925267,0.140643,-0.950415,-0.277364,-0.935843,0.172074,0.307554,0.332184,0.139255,0.932878,0.117695,0.975192,-0.187481,-0.941743,-0.214871,0.258747,-0.305514,0.224815,-0.925267,0.140643,-0.950415,-0.277364,-0.935843,0.172074,0.307554,0.332184,0.139255,0.932878,0.117695,0.975192,-0.187481,-77881.0,-25589.0,13951.0,-78658.0,26366.0,14228.0,-4453035.0,-2143598.0,-1730.0,0.0,-4194876.0,-2098075.0,-1912.0,-447.0,-4457240.0,-2227943.0,-6292661.0,0.0,-4194580.0,-2244772.0,-4456252.0,-1843.0,48.0,165.0,-45.0,0.0,166.0,642.0,61.0,216.0,-51.0,-169.0,44.0,0.0,-74.0,-249.0,662.0,-759.0,-0.013042,-0.04468,0.012181,0.0,0.006078,0.023517,-0.002242,0.007926,-0.013853,-0.045777,0.011913,0.0,-0.00271,-0.009144,-0.024234,-0.027782,4096.890137,11547.720703,51538.769531,0.0,-17693.191406,-17721.359375,18105.839844,-17301.060547,4107.959961,11566.980469,51416.550781,0.0,17681.130859,17660.431641,-17398.621094,17922.240234,0.0,0.0,0.0,0.0,0.0,0.0,0.0,0.0,0.0,0.0,0.0,0.0,0.0,0.0,0.0,0.0,0.0,0.0,0.0,0.0,0.0,0.0,0.0,0.0,0.0,0.0,0.0,0.0,0.0,0.0,0.0,0.0,4096.903809,11547.68457,51538.828125,0.0,-17693.193359,-17721.357422,18105.824219,-17301.080078,4107.900879,11566.793945,51416.511719,0.0,17681.882812,17661.0,-17398.535156,17922.494141,30.080883,90.650146,22.909382,0.0,4.75203,-0.281178,43.178463,46.317547,30.161627,90.795647,22.850912,0.0,0.940067,-1.758663,31.826721,26.443087,1.562,1.016,4407514.0,2015290.0,-570923.0,0.0,-3998285.0,-1901171.0,-199264.0,191787.0,-4502884.0,-2356465.0,-6863956.0,0.0,-4391037.0,-2440999.0,4649570.0,-200979.0,0.0,0.0,0.0,0.0,0.0,0.0,0.0,0.0,0.0,0.0,0.0,0.0,0.0,0.0,0.0,0.0,0.0,0.0,0.0,0.0,0.0,0.0,0.0,0.0
