MHC-RobotSimulators-Research/Data_Analysis_MotionReplication/mai_plotter/raven_data/twoarm_p5_phys3.csv
,time,jpos0,jpos1,jpos2,jpos3,jpos4,jpos5,jpos6,jpos7,jpos8,jpos9,jpos10,jpos11,jpos12,jpos13,jpos14,jpos15,runlevel,sublevel,last_seq,type0,type1,pos0,pos1,pos2,pos3,pos4,pos5,ori0,ori1,ori2,ori3,ori4,ori5,ori6,ori7,ori8,ori9,ori10,ori11,ori12,ori13,ori14,ori15,ori16,ori17,ori_d0,ori_d1,ori_d2,ori_d3,ori_d4,ori_d5,ori_d6,ori_d7,ori_d8,ori_d9,ori_d10,ori_d11,ori_d12,ori_d13,ori_d14,ori_d15,ori_d16,ori_d17,pos_d0,pos_d1,pos_d2,pos_d3,pos_d4,pos_d5,encVals0,encVals1,encVals2,encVals3,encVals4,encVals5,encVals6,encVals7,encVals8,encVals9,encVals10,encVals11,encVals12,encVals13,encVals14,encVals15,dac_vals0,dac_vals1,dac_vals2,dac_vals3,dac_vals4,dac_vals5,dac_vals6,dac_vals7,dac_vals8,dac_vals9,dac_vals10,dac_vals11,dac_vals12,dac_vals13,dac_vals14,dac_vals15,Tau0,Tau1,Tau2,Tau3,Tau4,Tau5,Tau6,Tau7,Tau8,Tau9,Tau10,Tau11,Tau12,Tau13,Tau14,Tau15,mpos0,mpos1,mpos2,mpos3,mpos4,mpos5,mpos6,mpos7,mpos8,mpos9,mpos10,mpos11,mpos12,mpos13,mpos14,mpos15,mvel0,mvel1,mvel2,mvel3,mvel4,mvel5,mvel6,mvel7,mvel8,mvel9,mvel10,mvel11,mvel12,mvel13,mvel14,mvel15,jvel0,jvel1,jvel2,jvel3,jvel4,jvel5,jvel6,jvel7,jvel8,jvel9,jvel10,jvel11,jvel12,jvel13,jvel14,jvel15,mpos_d0,mpos_d1,mpos_d2,mpos_d3,mpos_d4,mpos_d5,mpos_d6,mpos_d7,mpos_d8,mpos_d9,mpos_d10,mpos_d11,mpos_d12,mpos_d13,mpos_d14,mpos_d15,jpos_d0,jpos_d1,jpos_d2,jpos_d3,jpos_d4,jpos_d5,jpos_d6,jpos_d7,jpos_d8,jpos_d9,jpos_d10,jpos_d11,jpos_d12,jpos_d13,jpos_d14,jpos_d15,grasp_d0,grasp_d1,encoffsets0,encoffsets1,encoffsets2,encoffsets3,encoffsets4,encoffsets5,encoffsets6,encoffsets7,encoffsets8,encoffsets9,encoffsets10,encoffsets11,encoffsets12,encoffsets13,encoffsets14,encoffsets15,jac_vel0,jac_vel1,jac_vel2,jac_vel3,jac_vel4,jac_vel5,jac_vel6,jac_vel7,jac_vel8,jac_vel9,jac_vel10,jac_vel11,jac_f0,jac_f1,jac_f2,jac_f3,jac_f4,jac_f5,jac_f6,jac_f7,jac_f8,jac_f9,jac_f10,jac_f11
0,0.0,30.080782,90.679337,22.910288,0.0,4.696134,0.635705,28.542683,29.308933,30.128361,90.508003,22.918013,0.0,2.771347,-0.318879,29.354248,28.847775,3.0,1.0,111.0,0.0,1.0,-77911.0,-25395.0,14037.0,-77749.0,25593.0,13775.0,-0.941029,-0.234344,0.244022,-0.295318,0.217024,-0.930424,0.165081,-0.94762,-0.273431,-0.936233,0.199783,0.289059,0.312357,0.096412,0.94506,0.160938,0.975085,-0.152668,-0.941109,-0.234282,0.243775,-0.295076,0.217143,-0.930472,0.165059,-0.947608,-0.273486,-0.936199,0.199701,0.289224,0.312516,0.096441,0.945004,0.160825,0.975099,-0.152697,-77911.0,-25392.0,14038.0,-77749.0,25596.0,13775.0,-4453035.0,-2143637.0,-1758.0,0.0,-4194889.0,-2097993.0,-505.0,-2202.0,-4457291.0,-2228340.0,-6291114.0,0.0,-4193930.0,-2244090.0,-4455546.0,-1140.0,49.0,165.0,-45.0,0.0,-379.0,-539.0,461.0,-486.0,-49.0,-163.0,44.0,0.0,462.0,624.0,675.0,-881.0,-0.013297,-0.044837,0.012409,0.0,-0.013886,-0.01974,-0.016894,-0.017813,-0.013277,-0.044366,0.012064,0.0,0.01691,0.022861,-0.024721,-0.032247,4096.890137,11551.229492,51541.292969,0.0,-17694.361328,-17713.980469,17979.210938,-17459.011719,4103.370117,11531.25,51555.78125,0.0,17739.630859,17721.810547,-17462.160156,17985.509766,0.0,0.0,0.0,0.0,0.0,0.0,0.0,0.0,0.0,0.0,0.0,0.0,0.0,0.0,0.0,0.0,0.0,0.0,0.0,0.0,0.0,0.0,0.0,0.0,0.0,0.0,0.0,0.0,0.0,0.0,0.0,0.0,4096.85791,11551.175781,51541.433594,0.0,-17694.332031,-17713.861328,17979.302734,-17458.949219,4103.375488,11531.224609,51555.789062,0.0,17739.630859,17721.720703,-17462.115234,17985.558594,30.080549,90.678925,22.910358,0.0,4.701705,0.649101,28.54632,29.322414,30.128401,90.507782,22.91802,0.0,2.771503,-0.32896,29.36438,28.848131,1.01,1.016,4407514.0,2015290.0,-570923.0,0.0,-3998285.0,-1901171.0,-199264.0,191787.0,-4502884.0,-2356465.0,-6863956.0,0.0,-4391037.0,-2440999.0,4649570.0,-200979.0,0.0,0.0,0.0,0.0,0.0,0.0,0.0,0.0,0.0,0.0,0.0,0.0,0.0,0.0,0.0,0.0,0.0,0.0,0.0,0.0,0.0,0.0,0.0,0.0
1,0.08944201469421387,30.080782,90.679337,22.910288,0.0,4.696134,0.635705,28.542683,29.308933,30.128361,90.508003,22.918013,0.0,2.771347,-0.318879,29.354248,28.847775,3.0,1.0,111.0,0.0,1.0,-77911.0,-25395.0,14037.0,-77749.0,25593.0,13775.0,-0.941029,-0.234344,0.244022,-0.295318,0.217024,-0.930424,0.165081,-0.94762,-0.273431,-0.936233,0.199783,0.289059,0.312357,0.096412,0.94506,0.160938,0.975085,-0.152668,-0.941029,-0.234344,0.244022,-0.295318,0.217024,-0.930424,0.165081,-0.94762,-0.273431,-0.936233,0.199783,0.289059,0.312357,0.096412,0.94506,0.160938,0.975085,-0.152668,-77911.0,-25395.0,14037.0,-77749.0,25593.0,13775.0,-4453035.0,-2143637.0,-1758.0,0.0,-4194889.0,-2097993.0,-505.0,-2202.0,-4457291.0,-2228340.0,-6291114.0,0.0,-4193930.0,-2244090.0,-4455546.0,-1140.0,49.0,165.0,-45.0,0.0,-379.0,-539.0,461.0,-486.0,-49.0,-163.0,44.0,0.0,462.0,624.0,675.0,-881.0,-0.013297,-0.044837,0.012409,0.0,-0.013884,-0.019731,-0.016887,-0.017808,-0.013277,-0.044366,0.012064,0.0,0.01691,0.022855,-0.024717,-0.032243,4096.890137,11551.229492,51541.292969,0.0,-17694.361328,-17713.980469,17979.210938,-17459.011719,4103.370117,11531.25,51555.78125,0.0,17739.630859,17721.810547,-17462.160156,17985.509766,0.0,0.0,0.0,0.0,0.0,0.0,0.0,0.0,0.0,0.0,0.0,0.0,0.0,0.0,0.0,0.0,0.0,0.0,0.0,0.0,0.0,0.0,0.0,0.0,0.0,0.0,0.0,0.0,0.0,0.0,0.0,0.0,4096.85791,11551.175781,51541.433594,0.0,-17694.332031,-17713.861328,17979.302734,-17458.949219,4103.375488,11531.224609,51555.789062,0.0,17739.630859,17721.720703,-17462.115234,17985.558594,30.080549,90.678925,22.910358,0.0,4.701705,0.649101,28.54632,29.322414,30.128401,90.507782,22.91802,0.0,2.771503,-0.32896,29.36438,28.848131,1.009,1.015,4407514.0,2015290.0,-570923.0,0.0,-3998285.0,-1901171.0,-199264.0,191787.0,-4502884.0,-2356465.0,-6863956.0,0.0,-4391037.0,-2440999.0,4649570.0,-200979.0,0.0,0.0,0.0,0.0,0.0,0.0,0.0,0.0,0.0,0.0,0.0,0.0,0.0,0.0,0.0,0.0,0.0,0.0,0.0,0.0,0.0,0.0,0.0,0.0
2,0.15352606773376465,30.080782,90.679337,22.910288,0.0,4.696134,0.635705,28.542683,29.308933,30.128361,90.508003,22.918013,0.0,2.771347,-0.318879,29.354248,28.847775,3.0,1.0,111.0,0.0,1.0,-77911.0,-25395.0,14037.0,-77749.0,25593.0,13775.0,-0.941029,-0.234344,0.244022,-0.295318,0.217024,-0.930424,0.165081,-0.94762,-0.273431,-0.936233,0.199783,0.289059,0.312357,0.096412,0.94506,0.160938,0.975085,-0.152668,-0.941029,-0.234344,0.244022,-0.295318,0.217024,-0.930424,0.165081,-0.94762,-0.273431,-0.936233,0.199783,0.289059,0.312357,0.096412,0.94506,0.160938,0.975085,-0.152668,-77911.0,-25395.0,14037.0,-77749.0,25593.0,13775.0,-4453035.0,-2143637.0,-1758.0,0.0,-4194889.0,-2097993.0,-505.0,-2202.0,-4457291.0,-2228340.0,-6291114.0,0.0,-4193930.0,-2244090.0,-4455546.0,-1140.0,49.0,165.0,-45.0,0.0,-379.0,-539.0,461.0,-486.0,-49.0,-163.0,44.0,0.0,462.0,624.0,675.0,-881.0,-0.013297,-0.044837,0.012409,0.0,-0.013883,-0.019724,-0.016882,-0.017805,-0.013277,-0.044366,0.012064,0.0,0.01691,0.02285,-0.024715,-0.032241,4096.890137,11551.229492,51541.292969,0.0,-17694.361328,-17713.980469,17979.210938,-17459.011719,4103.370117,11531.25,51555.78125,0.0,17739.630859,17721.810547,-17462.160156,17985.509766,0.0,0.0,0.0,0.0,0.0,0.0,0.0,0.0,0.0,0.0,0.0,0.0,0.0,0.0,0.0,0.0,0.0,0.0,0.0,0.0,0.0,0.0,0.0,0.0,0.0,0.0,0.0,0.0,0.0,0.0,0.0,0.0,4096.85791,11551.175781,51541.433594,0.0,-17694.332031,-17713.861328,17979.302734,-17458.949219,4103.375488,11531.224609,51555.789062,0.0,17739.630859,17721.720703,-17462.115234,17985.558594,30.080549,90.678925,22.910358,0.0,4.701705,0.649101,28.54632,29.322414,30.128401,90.507782,22.91802,0.0,2.771503,-0.32896,29.36438,28.848131,1.009,1.015,4407514.0,2015290.0,-570923.0,0.0,-3998285.0,-1901171.0,-199264.0,191787.0,-4502884.0,-2356465.0,-6863956.0,0.0,-4391037.0,-2440999.0,4649570.0,-200979.0,0.0,0.0,0.0,0.0,0.0,0.0,0.0,0.0,0.0,0.0,0.0,0.0,0.0,0.0,0.0,0.0,0.0,0.0,0.0,0.0,0.0,0.0,0.0,0.0
3,0.21950101852416992,30.080782,90.679337,22.910288,0.0,4.696134,0.635705,28.542683,29.308933,30.128361,90.508003,22.918013,0.0,2.771347,-0.318879,29.354248,28.847775,3.0,1.0,111.0,0.0,1.0,-77911.0,-25395.0,14037.0,-77749.0,25593.0,13775.0,-0.941029,-0.234344,0.244022,-0.295318,0.217024,-0.930424,0.165081,-0.94762,-0.273431,-0.936233,0.199783,0.289059,0.312357,0.096412,0.94506,0.160938,0.975085,-0.152668,-0.941029,-0.234344,0.244022,-0.295318,0.217024,-0.930424,0.165081,-0.94762,-0.273431,-0.936233,0.199783,0.289059,0.312357,0.096412,0.94506,0.160938,0.975085,-0.152668,-77911.0,-25395.0,14037.0,-77749.0,25593.0,13775.0,-4453035.0,-2143637.0,-1758.0,0.0,-4194889.0,-2097993.0,-505.0,-2202.0,-4457291.0,-2228340.0,-6291114.0,0.0,-4193930.0,-2244090.0,-4455546.0,-1140.0,49.0,165.0,-45.0,0.0,-379.0,-538.0,461.0,-486.0,-49.0,-163.0,44.0,0.0,462.0,624.0,675.0,-881.0,-0.013297,-0.044837,0.012409,0.0,-0.013881,-0.019717,-0.016877,-0.017801,-0.013277,-0.044366,0.012064,0.0,0.01691,0.022845,-0.024712,-0.032238,4096.890137,11551.229492,51541.292969,0.0,-17694.361328,-17713.980469,17979.210938,-17459.011719,4103.370117,11531.25,51555.78125,0.0,17739.630859,17721.810547,-17462.160156,17985.509766,0.0,0.0,0.0,0.0,0.0,0.0,0.0,0.0,0.0,0.0,0.0,0.0,0.0,0.0,0.0,0.0,0.0,0.0,0.0,0.0,0.0,0.0,0.0,0.0,0.0,0.0,0.0,0.0,0.0,0.0,0.0,0.0,4096.85791,11551.175781,51541.433594,0.0,-17694.332031,-17713.861328,17979.302734,-17458.949219,4103.375488,11531.224609,51555.789062,0.0,17739.630859,17721.720703,-17462.115234,17985.558594,30.080549,90.678925,22.910358,0.0,4.701705,0.649101,28.54632,29.322414,30.128401,90.507782,22.91802,0.0,2.771503,-0.32896,29.36438,28.848131,1.009,1.015,4407514.0,2015290.0,-570923.0,0.0,-3998285.0,-1901171.0,-199264.0,191787.0,-4502884.0,-2356465.0,-6863956.0,0.0,-4391037.0,-2440999.0,4649570.0,-200979.0,0.0,0.0,0.0,0.0,0.0,0.0,0.0,0.0,0.0,0.0,0.0,0.0,0.0,0.0,0.0,0.0,0.0,0.0,0.0,0.0,0.0,0.0,0.0,0.0
4,0.2875049114227295,30.080782,90.679337,22.910288,0.0,4.696134,0.635705,28.542683,29.308933,30.128361,90.508003,22.918013,0.0,2.771347,-0.318879,29.354248,28.847775,3.0,1.0,111.0,0.0,1.0,-77911.0,-25395.0,14037.0,-77749.0,25593.0,13775.0,-0.941029,-0.234344,0.244022,-0.295318,0.217024,-0.930424,0.165081,-0.94762,-0.273431,-0.936233,0.199783,0.289059,0.312357,0.096412,0.94506,0.160938,0.975085,-0.152668,-0.941029,-0.234344,0.244022,-0.295318,0.217024,-0.930424,0.165081,-0.94762,-0.273431,-0.936233,0.199783,0.289059,0.312357,0.096412,0.94506,0.160938,0.975085,-0.152668,-77911.0,-25395.0,14037.0,-77749.0,25593.0,13775.0,-4453035.0,-2143637.0,-1758.0,0.0,-4194889.0,-2097993.0,-505.0,-2202.0,-4457291.0,-2228340.0,-6291114.0,0.0,-4193930.0,-2244090.0,-4455546.0,-1140.0,49.0,165.0,-45.0,0.0,-379.0,-538.0,461.0,-486.0,-49.0,-163.0,44.0,0.0,462.0,624.0,675.0,-880.0,-0.013297,-0.044837,0.012409,0.0,-0.013879,-0.01971,-0.016872,-0.017798,-0.013277,-0.044366,0.012064,0.0,0.01691,0.022839,-0.024709,-0.032235,4096.890137,11551.229492,51541.292969,0.0,-17694.361328,-17713.980469,17979.210938,-17459.011719,4103.370117,11531.25,51555.78125,0.0,17739.630859,17721.810547,-17462.160156,17985.509766,0.0,0.0,0.0,0.0,0.0,0.0,0.0,0.0,0.0,0.0,0.0,0.0,0.0,0.0,0.0,0.0,0.0,0.0,0.0,0.0,0.0,0.0,0.0,0.0,0.0,0.0,0.0,0.0,0.0,0.0,0.0,0.0,4096.85791,11551.175781,51541.433594,0.0,-17694.332031,-17713.861328,17979.302734,-17458.949219,4103.375488,11531.224609,51555.789062,0.0,17739.630859,17721.720703,-17462.115234,17985.558594,30.080549,90.678925,22.910358,0.0,4.701705,0.649101,28.54632,29.322414,30.128401,90.507782,22.91802,0.0,2.771503,-0.32896,29.36438,28.848131,1.009,1.015,4407514.0,2015290.0,-570923.0,0.0,-3998285.0,-1901171.0,-199264.0,191787.0,-4502884.0,-2356465.0,-6863956.0,0.0,-4391037.0,-2440999.0,4649570.0,-200979.0,0.0,0.0,0.0,0.0,0.0,0.0,0.0,0.0,0.0,0.0,0.0,0.0,0.0,0.0,0.0,0.0,0.0,0.0,0.0,0.0,0.0,0.0,0.0,0.0
5,0.3594999313354492,30.080782,90.679337,22.910288,0.0,4.696134,0.635705,28.542683,29.308933,30.128361,90.508003,22.918013,0.0,2.771347,-0.318879,29.354248,28.847775,3.0,1.0,111.0,0.0,1.0,-77911.0,-25395.0,14037.0,-77749.0,25593.0,13775.0,-0.941029,-0.234344,0.244022,-0.295318,0.217024,-0.930424,0.165081,-0.94762,-0.273431,-0.936233,0.199783,0.289059,0.312357,0.096412,0.94506,0.160938,0.975085,-0.152668,-0.941029,-0.234344,0.244022,-0.295318,0.217024,-0.930424,0.165081,-0.94762,-0.273431,-0.936233,0.199783,0.289059,0.312357,0.096412,0.94506,0.160938,0.975085,-0.152668,-77911.0,-25395.0,14037.0,-77749.0,25593.0,13775.0,-4453035.0,-2143637.0,-1758.0,0.0,-4194889.0,-2097993.0,-505.0,-2202.0,-4457291.0,-2228340.0,-6291114.0,0.0,-4193930.0,-2244090.0,-4455546.0,-1140.0,49.0,165.0,-45.0,0.0,-379.0,-538.0,460.0,-486.0,-49.0,-163.0,44.0,0.0,462.0,624.0,675.0,-880.0,-0.013297,-0.044837,0.012409,0.0,-0.013877,-0.019703,-0.016866,-0.017794,-0.013277,-0.044366,0.012064,0.0,0.01691,0.022834,-0.024706,-0.032232,4096.890137,11551.229492,51541.292969,0.0,-17694.361328,-17713.980469,17979.210938,-17459.011719,4103.370117,11531.25,51555.78125,0.0,17739.630859,17721.810547,-17462.160156,17985.509766,0.0,0.0,0.0,0.0,0.0,0.0,0.0,0.0,0.0,0.0,0.0,0.0,0.0,0.0,0.0,0.0,0.0,0.0,0.0,0.0,0.0,0.0,0.0,0.0,0.0,0.0,0.0,0.0,0.0,0.0,0.0,0.0,4096.85791,11551.175781,51541.433594,0.0,-17694.332031,-17713.861328,17979.302734,-17458.949219,4103.375488,11531.224609,51555.789062,0.0,17739.630859,17721.720703,-17462.115234,17985.558594,30.080549,90.678925,22.910358,0.0,4.701705,0.649101,28.54632,29.322414,30.128401,90.507782,22.91802,0.0,2.771503,-0.32896,29.36438,28.848131,1.009,1.015,4407514.0,2015290.0,-570923.0,0.0,-3998285.0,-1901171.0,-199264.0,191787.0,-4502884.0,-2356465.0,-6863956.0,0.0,-4391037.0,-2440999.0,4649570.0,-200979.0,0.0,0.0,0.0,0.0,0.0,0.0,0.0,0.0,0.0,0.0,0.0,0.0,0.0,0.0,0.0,0.0,0.0,0.0,0.0,0.0,0.0,0.0,0.0,0.0
6,0.43253302574157715,30.080782,90.679337,22.910288,0.0,4.696134,0.635705,28.542683,29.308933,30.128361,90.508003,22.918013,0.0,2.771347,-0.318879,29.354248,28.847775,3.0,1.0,111.0,0.0,1.0,-77911.0,-25395.0,14037.0,-77749.0,25593.0,13775.0,-0.941029,-0.234344,0.244022,-0.295318,0.217024,-0.930424,0.165081,-0.94762,-0.273431,-0.936233,0.199783,0.289059,0.312357,0.096412,0.94506,0.160938,0.975085,-0.152668,-0.941029,-0.234344,0.244022,-0.295318,0.217024,-0.930424,0.165081,-0.94762,-0.273431,-0.936233,0.199783,0.289059,0.312357,0.096412,0.94506,0.160938,0.975085,-0.152668,-77911.0,-25395.0,14037.0,-77749.0,25593.0,13775.0,-4453035.0,-2143637.0,-1758.0,0.0,-4194889.0,-2097993.0,-505.0,-2202.0,-4457291.0,-2228340.0,-6291114.0,0.0,-4193930.0,-2244090.0,-4455546.0,-1140.0,49.0,165.0,-45.0,0.0,-379.0,-538.0,460.0,-486.0,-49.0,-163.0,44.0,0.0,462.0,623.0,675.0,-880.0,-0.013297,-0.044837,0.012409,0.0,-0.013876,-0.019695,-0.01686,-0.01779,-0.013277,-0.044366,0.012064,0.0,0.01691,0.022828,-0.024704,-0.032229,4096.890137,11551.229492,51541.292969,0.0,-17694.361328,-17713.980469,17979.210938,-17459.011719,4103.370117,11531.25,51555.78125,0.0,17739.630859,17721.810547,-17462.160156,17985.509766,0.0,0.0,0.0,0.0,0.0,0.0,0.0,0.0,0.0,0.0,0.0,0.0,0.0,0.0,0.0,0.0,0.0,0.0,0.0,0.0,0.0,0.0,0.0,0.0,0.0,0.0,0.0,0.0,0.0,0.0,0.0,0.0,4096.85791,11551.175781,51541.433594,0.0,-17694.332031,-17713.861328,17979.302734,-17458.949219,4103.375488,11531.224609,51555.789062,0.0,17739.630859,17721.720703,-17462.115234,17985.558594,30.080549,90.678925,22.910358,0.0,4.701705,0.649101,28.54632,29.322414,30.128401,90.507782,22.91802,0.0,2.771503,-0.32896,29.36438,28.848131,1.009,1.015,4407514.0,2015290.0,-570923.0,0.0,-3998285.0,-1901171.0,-199264.0,191787.0,-4502884.0,-2356465.0,-6863956.0,0.0,-4391037.0,-2440999.0,4649570.0,-200979.0,0.0,0.0,0.0,0.0,0.0,0.0,0.0,0.0,0.0,0.0,0.0,0.0,0.0,0.0,0.0,0.0,0.0,0.0,0.0,0.0,0.0,0.0,0.0,0.0
7,0.49751901626586914,30.080782,90.679337,22.910288,0.0,4.696134,0.635705,28.542683,29.308933,30.128361,90.508003,22.918013,0.0,2.771347,-0.318879,29.354248,28.847775,3.0,1.0,111.0,0.0,1.0,-77911.0,-25395.0,14037.0,-77749.0,25593.0,13775.0,-0.941029,-0.234344,0.244022,-0.295318,0.217024,-0.930424,0.165081,-0.94762,-0.273431,-0.936233,0.199783,0.289059,0.312357,0.096412,0.94506,0.160938,0.975085,-0.152668,-0.941029,-0.234344,0.244022,-0.295318,0.217024,-0.930424,0.165081,-0.94762,-0.273431,-0.936233,0.199783,0.289059,0.312357,0.096412,0.94506,0.160938,0.975085,-0.152668,-77911.0,-25395.0,14037.0,-77749.0,25593.0,13775.0,-4453035.0,-2143637.0,-1758.0,0.0,-4194889.0,-2097993.0,-505.0,-2202.0,-4457291.0,-2228340.0,-6291114.0,0.0,-4193930.0,-2244090.0,-4455546.0,-1140.0,49.0,165.0,-45.0,0.0,-379.0,-538.0,460.0,-486.0,-49.0,-163.0,44.0,0.0,462.0,623.0,675.0,-880.0,-0.013297,-0.044837,0.012409,0.0,-0.013874,-0.019688,-0.016855,-0.017786,-0.013277,-0.044366,0.012064,0.0,0.01691,0.022823,-0.024701,-0.032226,4096.890137,11551.229492,51541.292969,0.0,-17694.361328,-17713.980469,17979.210938,-17459.011719,4103.370117,11531.25,51555.78125,0.0,17739.630859,17721.810547,-17462.160156,17985.509766,0.0,0.0,0.0,0.0,0.0,0.0,0.0,0.0,0.0,0.0,0.0,0.0,0.0,0.0,0.0,0.0,0.0,0.0,0.0,0.0,0.0,0.0,0.0,0.0,0.0,0.0,0.0,0.0,0.0,0.0,0.0,0.0,4096.85791,11551.175781,51541.433594,0.0,-17694.332031,-17713.861328,17979.302734,-17458.949219,4103.375488,11531.224609,51555.789062,0.0,17739.630859,17721.720703,-17462.115234,17985.558594,30.080549,90.678925,22.910358,0.0,4.701705,0.649101,28.54632,29.322414,30.128401,90.507782,22.91802,0.0,2.771503,-0.32896,29.36438,28.848131,1.009,1.015,4407514.0,2015290.0,-570923.0,0.0,-3998285.0,-1901171.0,-199264.0,191787.0,-4502884.0,-2356465.0,-6863956.0,0.0,-4391037.0,-2440999.0,4649570.0,-200979.0,0.0,0.0,0.0,0.0,0.0,0.0,0.0,0.0,0.0,0.0,0.0,0.0,0.0,0.0,0.0,0.0,0.0,0.0,0.0,0.0,0.0,0.0,0.0,0.0
8,0.5664880275726318,30.080782,90.679337,22.910288,0.0,4.696134,0.635705,28.542683,29.308933,30.128361,90.508003,22.918013,0.0,2.771347,-0.318879,29.354248,28.847775,3.0,1.0,111.0,0.0,1.0,-77911.0,-25395.0,14037.0,-77749.0,25593.0,13775.0,-0.941029,-0.234344,0.244022,-0.295318,0.217024,-0.930424,0.165081,-0.94762,-0.273431,-0.936233,0.199783,0.289059,0.312357,0.096412,0.94506,0.160938,0.975085,-0.152668,-0.941029,-0.234344,0.244022,-0.295318,0.217024,-0.930424,0.165081,-0.94762,-0.273431,-0.936233,0.199783,0.289059,0.312357,0.096412,0.94506,0.160938,0.975085,-0.152668,-77911.0,-25395.0,14037.0,-77749.0,25593.0,13775.0,-4453035.0,-2143637.0,-1758.0,0.0,-4194889.0,-2097993.0,-505.0,-2202.0,-4457291.0,-2228340.0,-6291114.0,0.0,-4193930.0,-2244090.0,-4455546.0,-1140.0,49.0,165.0,-45.0,0.0,-379.0,-537.0,460.0,-485.0,-49.0,-163.0,44.0,0.0,462.0,623.0,674.0,-880.0,-0.013297,-0.044837,0.012409,0.0,-0.013872,-0.019681,-0.016849,-0.017783,-0.013277,-0.044366,0.012064,0.0,0.01691,0.022817,-0.024698,-0.032223,4096.890137,11551.229492,51541.292969,0.0,-17694.361328,-17713.980469,17979.210938,-17459.011719,4103.370117,11531.25,51555.78125,0.0,17739.630859,17721.810547,-17462.160156,17985.509766,0.0,0.0,0.0,0.0,0.0,0.0,0.0,0.0,0.0,0.0,0.0,0.0,0.0,0.0,0.0,0.0,0.0,0.0,0.0,0.0,0.0,0.0,0.0,0.0,0.0,0.0,0.0,0.0,0.0,0.0,0.0,0.0,4096.85791,11551.175781,51541.433594,0.0,-17694.332031,-17713.861328,17979.302734,-17458.949219,4103.375488,11531.224609,51555.789062,0.0,17739.630859,17721.720703,-17462.115234,17985.558594,30.080549,90.678925,22.910358,0.0,4.701705,0.649101,28.54632,29.322414,30.128401,90.507782,22.91802,0.0,2.771503,-0.32896,29.36438,28.848131,1.009,1.015,4407514.0,2015290.0,-570923.0,0.0,-3998285.0,-1901171.0,-199264.0,191787.0,-4502884.0,-2356465.0,-6863956.0,0.0,-4391037.0,-2440999.0,4649570.0,-200979.0,0.0,0.0,0.0,0.0,0.0,0.0,0.0,0.0,0.0,0.0,0.0,0.0,0.0,0.0,0.0,0.0,0.0,0.0,0.0,0.0,0.0,0.0,0.0,0.0
9,0.6344928741455078,30.080782,90.679337,22.910288,0.0,4.696134,0.635705,28.542683,29.308933,30.128361,90.508003,22.918013,0.0,2.771347,-0.318879,29.354248,28.847775,3.0,1.0,111.0,0.0,1.0,-77911.0,-25395.0,14037.0,-77749.0,25593.0,13775.0,-0.941029,-0.234344,0.244022,-0.295318,0.217024,-0.930424,0.165081,-0.94762,-0.273431,-0.936233,0.199783,0.289059,0.312357,0.096412,0.94506,0.160938,0.975085,-0.152668,-0.941029,-0.234344,0.244022,-0.295318,0.217024,-0.930424,0.165081,-0.94762,-0.273431,-0.936233,0.199783,0.289059,0.312357,0.096412,0.94506,0.160938,0.975085,-0.152668,-77911.0,-25395.0,14037.0,-77749.0,25593.0,13775.0,-4453035.0,-2143637.0,-1758.0,0.0,-4194889.0,-2097993.0,-505.0,-2202.0,-4457291.0,-2228340.0,-6291114.0,0.0,-4193930.0,-2244090.0,-4455546.0,-1140.0,49.0,165.0,-45.0,0.0,-379.0,-537.0,460.0,-485.0,-49.0,-163.0,44.0,0.0,462.0,623.0,674.0,-880.0,-0.013297,-0.044837,0.012409,0.0,-0.01387,-0.019674,-0.016844,-0.017779,-0.013277,-0.044366,0.012064,0.0,0.01691,0.022812,-0.024695,-0.032221,4096.890137,11551.229492,51541.292969,0.0,-17694.361328,-17713.980469,17979.210938,-17459.011719,4103.370117,11531.25,51555.78125,0.0,17739.630859,17721.810547,-17462.160156,17985.509766,0.0,0.0,0.0,0.0,0.0,0.0,0.0,0.0,0.0,0.0,0.0,0.0,0.0,0.0,0.0,0.0,0.0,0.0,0.0,0.0,0.0,0.0,0.0,0.0,0.0,0.0,0.0,0.0,0.0,0.0,0.0,0.0,4096.85791,11551.175781,51541.433594,0.0,-17694.332031,-17713.861328,17979.302734,-17458.949219,4103.375488,11531.224609,51555.789062,0.0,17739.630859,17721.720703,-17462.115234,17985.558594,30.080549,90.678925,22.910358,0.0,4.701705,0.649101,28.54632,29.322414,30.128401,90.507782,22.91802,0.0,2.771503,-0.32896,29.36438,28.848131,1.009,1.015,4407514.0,2015290.0,-570923.0,0.0,-3998285.0,-1901171.0,-199264.0,191787.0,-4502884.0,-2356465.0,-6863956.0,0.0,-4391037.0,-2440999.0,4649570.0,-200979.0,0.0,0.0,0.0,0.0,0.0,0.0,0.0,0.0,0.0,0.0,0.0,0.0,0.0,0.0,0.0,0.0,0.0,0.0,0.0,0.0,0.0,0.0,0.0,0.0
10,0.7095849514007568,30.080782,90.679337,22.910288,0.0,4.696134,0.635705,28.542683,29.308933,30.128361,90.508003,22.918013,0.0,2.771347,-0.318879,29.354248,28.847775,3.0,1.0,111.0,0.0,1.0,-77911.0,-25395.0,14037.0,-77749.0,25593.0,13775.0,-0.941029,-0.234344,0.244022,-0.295318,0.217024,-0.930424,0.165081,-0.94762,-0.273431,-0.936233,0.199783,0.289059,0.312357,0.096412,0.94506,0.160938,0.975085,-0.152668,-0.941029,-0.234344,0.244022,-0.295318,0.217024,-0.930424,0.165081,-0.94762,-0.273431,-0.936233,0.199783,0.289059,0.312357,0.096412,0.94506,0.160938,0.975085,-0.152668,-77911.0,-25395.0,14037.0,-77749.0,25593.0,13775.0,-4453035.0,-2143637.0,-1758.0,0.0,-4194889.0,-2097993.0,-505.0,-2202.0,-4457291.0,-2228340.0,-6291114.0,0.0,-4193930.0,-2244090.0,-4455546.0,-1140.0,49.0,165.0,-45.0,0.0,-379.0,-537.0,460.0,-485.0,-49.0,-163.0,44.0,0.0,462.0,623.0,674.0,-880.0,-0.013297,-0.044837,0.012409,0.0,-0.013869,-0.019666,-0.016838,-0.017775,-0.013277,-0.044366,0.012064,0.0,0.01691,0.022806,-0.024692,-0.032217,4096.890137,11551.229492,51541.292969,0.0,-17694.361328,-17713.980469,17979.210938,-17459.011719,4103.370117,11531.25,51555.78125,0.0,17739.630859,17721.810547,-17462.160156,17985.509766,0.0,0.0,0.0,0.0,0.0,0.0,0.0,0.0,0.0,0.0,0.0,0.0,0.0,0.0,0.0,0.0,0.0,0.0,0.0,0.0,0.0,0.0,0.0,0.0,0.0,0.0,0.0,0.0,0.0,0.0,0.0,0.0,4096.85791,11551.175781,51541.433594,0.0,-17694.332031,-17713.861328,17979.302734,-17458.949219,4103.375488,11531.224609,51555.789062,0.0,17739.630859,17721.720703,-17462.115234,17985.558594,30.080549,90.678925,22.910358,0.0,4.701705,0.649101,28.54632,29.322414,30.128401,90.507782,22.91802,0.0,2.771503,-0.32896,29.36438,28.848131,1.009,1.015,4407514.0,2015290.0,-570923.0,0.0,-3998285.0,-1901171.0,-199264.0,191787.0,-4502884.0,-2356465.0,-6863956.0,0.0,-4391037.0,-2440999.0,4649570.0,-200979.0,0.0,0.0,0.0,0.0,0.0,0.0,0.0,0.0,0.0,0.0,0.0,0.0,0.0,0.0,0.0,0.0,0.0,0.0,0.0,0.0,0.0,0.0,0.0,0.0
11,0.7765898704528809,30.080782,90.679337,22.910288,0.0,4.696134,0.635705,28.542683,29.308933,30.128361,90.508003,22.918013,0.0,2.771347,-0.318879,29.354248,28.847775,3.0,1.0,111.0,0.0,1.0,-77911.0,-25395.0,14037.0,-77749.0,25593.0,13775.0,-0.941029,-0.234344,0.244022,-0.295318,0.217024,-0.930424,0.165081,-0.94762,-0.273431,-0.936233,0.199783,0.289059,0.312357,0.096412,0.94506,0.160938,0.975085,-0.152668,-0.941029,-0.234344,0.244022,-0.295318,0.217024,-0.930424,0.165081,-0.94762,-0.273431,-0.936233,0.199783,0.289059,0.312357,0.096412,0.94506,0.160938,0.975085,-0.152668,-77911.0,-25395.0,14037.0,-77749.0,25593.0,13775.0,-4453035.0,-2143637.0,-1758.0,0.0,-4194889.0,-2097993.0,-505.0,-2202.0,-4457291.0,-2228340.0,-6291114.0,0.0,-4193930.0,-2244090.0,-4455546.0,-1140.0,49.0,165.0,-45.0,0.0,-378.0,-537.0,459.0,-485.0,-49.0,-163.0,44.0,0.0,462.0,623.0,674.0,-880.0,-0.013297,-0.044837,0.012409,0.0,-0.013867,-0.019659,-0.016832,-0.017771,-0.013277,-0.044366,0.012064,0.0,0.01691,0.022801,-0.02469,-0.032215,4096.890137,11551.229492,51541.292969,0.0,-17694.361328,-17713.980469,17979.210938,-17459.011719,4103.370117,11531.25,51555.78125,0.0,17739.630859,17721.810547,-17462.160156,17985.509766,0.0,0.0,0.0,0.0,0.0,0.0,0.0,0.0,0.0,0.0,0.0,0.0,0.0,0.0,0.0,0.0,0.0,0.0,0.0,0.0,0.0,0.0,0.0,0.0,0.0,0.0,0.0,0.0,0.0,0.0,0.0,0.0,4096.85791,11551.175781,51541.433594,0.0,-17694.332031,-17713.861328,17979.302734,-17458.949219,4103.375488,11531.224609,51555.789062,0.0,17739.630859,17721.720703,-17462.115234,17985.558594,30.080549,90.678925,22.910358,0.0,4.701705,0.649101,28.54632,29.322414,30.128401,90.507782,22.91802,0.0,2.771503,-0.32896,29.36438,28.848131,1.009,1.015,4407514.0,2015290.0,-570923.0,0.0,-3998285.0,-1901171.0,-199264.0,191787.0,-4502884.0,-2356465.0,-6863956.0,0.0,-4391037.0,-2440999.0,4649570.0,-200979.0,0.0,0.0,0.0,0.0,0.0,0.0,0.0,0.0,0.0,0.0,0.0,0.0,0.0,0.0,0.0,0.0,0.0,0.0,0.0,0.0,0.0,0.0,0.0,0.0
12,0.8445529937744141,30.080782,90.679337,22.910288,0.0,4.696134,0.635705,28.542683,29.308933,30.128361,90.508003,22.918013,0.0,2.771347,-0.318879,29.354248,28.847775,3.0,1.0,111.0,0.0,1.0,-77911.0,-25395.0,14037.0,-77749.0,25593.0,13775.0,-0.941029,-0.234344,0.244022,-0.295318,0.217024,-0.930424,0.165081,-0.94762,-0.273431,-0.936233,0.199783,0.289059,0.312357,0.096412,0.94506,0.160938,0.975085,-0.152668,-0.941029,-0.234344,0.244022,-0.295318,0.217024,-0.930424,0.165081,-0.94762,-0.273431,-0.936233,0.199783,0.289059,0.312357,0.096412,0.94506,0.160938,0.975085,-0.152668,-77911.0,-25395.0,14037.0,-77749.0,25593.0,13775.0,-4453035.0,-2143637.0,-1758.0,0.0,-4194889.0,-2097993.0,-505.0,-2202.0,-4457291.0,-2228340.0,-6291114.0,0.0,-4193930.0,-2244090.0,-4455546.0,-1140.0,49.0,165.0,-45.0,0.0,-378.0,-537.0,459.0,-485.0,-49.0,-163.0,44.0,0.0,462.0,622.0,674.0,-880.0,-0.013297,-0.044837,0.012409,0.0,-0.013865,-0.019651,-0.016827,-0.017768,-0.013277,-0.044366,0.012064,0.0,0.01691,0.022795,-0.024687,-0.032212,4096.890137,11551.229492,51541.292969,0.0,-17694.361328,-17713.980469,17979.210938,-17459.011719,4103.370117,11531.25,51555.78125,0.0,17739.630859,17721.810547,-17462.160156,17985.509766,0.0,0.0,0.0,0.0,0.0,0.0,0.0,0.0,0.0,0.0,0.0,0.0,0.0,0.0,0.0,0.0,0.0,0.0,0.0,0.0,0.0,0.0,0.0,0.0,0.0,0.0,0.0,0.0,0.0,0.0,0.0,0.0,4096.85791,11551.175781,51541.433594,0.0,-17694.332031,-17713.861328,17979.302734,-17458.949219,4103.375488,11531.224609,51555.789062,0.0,17739.630859,17721.720703,-17462.115234,17985.558594,30.080549,90.678925,22.910358,0.0,4.701705,0.649101,28.54632,29.322414,30.128401,90.507782,22.91802,0.0,2.771503,-0.32896,29.36438,28.848131,1.009,1.015,4407514.0,2015290.0,-570923.0,0.0,-3998285.0,-1901171.0,-199264.0,191787.0,-4502884.0,-2356465.0,-6863956.0,0.0,-4391037.0,-2440999.0,4649570.0,-200979.0,0.0,0.0,0.0,0.0,0.0,0.0,0.0,0.0,0.0,0.0,0.0,0.0,0.0,0.0,0.0,0.0,0.0,0.0,0.0,0.0,0.0,0.0,0.0,0.0
13,0.91255784034729,30.080782,90.679337,22.910288,0.0,4.696134,0.635705,28.542683,29.308933,30.128361,90.508003,22.918013,0.0,2.771347,-0.318879,29.354248,28.847775,3.0,1.0,111.0,0.0,1.0,-77911.0,-25395.0,14037.0,-77749.0,25593.0,13775.0,-0.941029,-0.234344,0.244022,-0.295318,0.217024,-0.930424,0.165081,-0.94762,-0.273431,-0.936233,0.199783,0.289059,0.312357,0.096412,0.94506,0.160938,0.975085,-0.152668,-0.941029,-0.234344,0.244022,-0.295318,0.217024,-0.930424,0.165081,-0.94762,-0.273431,-0.936233,0.199783,0.289059,0.312357,0.096412,0.94506,0.160938,0.975085,-0.152668,-77911.0,-25395.0,14037.0,-77749.0,25593.0,13775.0,-4453035.0,-2143637.0,-1758.0,0.0,-4194889.0,-2097993.0,-505.0,-2202.0,-4457291.0,-2228340.0,-6291114.0,0.0,-4193930.0,-2244090.0,-4455546.0,-1140.0,49.0,165.0,-45.0,0.0,-378.0,-536.0,459.0,-485.0,-49.0,-163.0,44.0,0.0,462.0,622.0,674.0,-880.0,-0.013297,-0.044837,0.012409,0.0,-0.013863,-0.019644,-0.016821,-0.017764,-0.013277,-0.044366,0.012064,0.0,0.01691,0.02279,-0.024684,-0.032209,4096.890137,11551.229492,51541.292969,0.0,-17694.361328,-17713.980469,17979.210938,-17459.011719,4103.370117,11531.25,51555.78125,0.0,17739.630859,17721.810547,-17462.160156,17985.509766,0.0,0.0,0.0,0.0,0.0,0.0,0.0,0.0,0.0,0.0,0.0,0.0,0.0,0.0,0.0,0.0,0.0,0.0,0.0,0.0,0.0,0.0,0.0,0.0,0.0,0.0,0.0,0.0,0.0,0.0,0.0,0.0,4096.85791,11551.175781,51541.433594,0.0,-17694.332031,-17713.861328,17979.302734,-17458.949219,4103.375488,11531.224609,51555.789062,0.0,17739.630859,17721.720703,-17462.115234,17985.558594,30.080549,90.678925,22.910358,0.0,4.701705,0.649101,28.54632,29.322414,30.128401,90.507782,22.91802,0.0,2.771503,-0.32896,29.36438,28.848131,1.009,1.015,4407514.0,2015290.0,-570923.0,0.0,-3998285.0,-1901171.0,-199264.0,191787.0,-4502884.0,-2356465.0,-6863956.0,0.0,-4391037.0,-2440999.0,4649570.0,-200979.0,0.0,0.0,0.0,0.0,0.0,0.0,0.0,0.0,0.0,0.0,0.0,0.0,0.0,0.0,0.0,0.0,0.0,0.0,0.0,0.0,0.0,0.0,0.0,0.0
14,0.9785540103912354,30.080782,90.679337,22.910288,0.0,4.696134,0.635705,28.542683,29.308933,30.128361,90.508003,22.918013,0.0,2.771347,-0.318879,29.354248,28.847775,3.0,1.0,111.0,0.0,1.0,-77911.0,-25395.0,14037.0,-77749.0,25593.0,13775.0,-0.941029,-0.234344,0.244022,-0.295318,0.217024,-0.930424,0.165081,-0.94762,-0.273431,-0.936233,0.199783,0.289059,0.312357,0.096412,0.94506,0.160938,0.975085,-0.152668,-0.941029,-0.234344,0.244022,-0.295318,0.217024,-0.930424,0.165081,-0.94762,-0.273431,-0.936233,0.199783,0.289059,0.312357,0.096412,0.94506,0.160938,0.975085,-0.152668,-77911.0,-25395.0,14037.0,-77749.0,25593.0,13775.0,-4453035.0,-2143637.0,-1758.0,0.0,-4194889.0,-2097993.0,-505.0,-2202.0,-4457291.0,-2228340.0,-6291114.0,0.0,-4193930.0,-2244090.0,-4455546.0,-1140.0,49.0,165.0,-45.0,0.0,-378.0,-536.0,459.0,-485.0,-49.0,-163.0,44.0,0.0,462.0,622.0,674.0,-880.0,-0.013297,-0.044837,0.012409,0.0,-0.013862,-0.019637,-0.016816,-0.01776,-0.013277,-0.044366,0.012064,0.0,0.01691,0.022785,-0.024682,-0.032206,4096.890137,11551.229492,51541.292969,0.0,-17694.361328,-17713.980469,17979.210938,-17459.011719,4103.370117,11531.25,51555.78125,0.0,17739.630859,17721.810547,-17462.160156,17985.509766,0.0,0.0,0.0,0.0,0.0,0.0,0.0,0.0,0.0,0.0,0.0,0.0,0.0,0.0,0.0,0.0,0.0,0.0,0.0,0.0,0.0,0.0,0.0,0.0,0.0,0.0,0.0,0.0,0.0,0.0,0.0,0.0,4096.85791,11551.175781,51541.433594,0.0,-17694.332031,-17713.861328,17979.302734,-17458.949219,4103.375488,11531.224609,51555.789062,0.0,17739.630859,17721.720703,-17462.115234,17985.558594,30.080549,90.678925,22.910358,0.0,4.701705,0.649101,28.54632,29.322414,30.128401,90.507782,22.91802,0.0,2.771503,-0.32896,29.36438,28.848131,1.009,1.015,4407514.0,2015290.0,-570923.0,0.0,-3998285.0,-1901171.0,-199264.0,191787.0,-4502884.0,-2356465.0,-6863956.0,0.0,-4391037.0,-2440999.0,4649570.0,-200979.0,0.0,0.0,0.0,0.0,0.0,0.0,0.0,0.0,0.0,0.0,0.0,0.0,0.0,0.0,0.0,0.0,0.0,0.0,0.0,0.0,0.0,0.0,0.0,0.0
15,1.0485570430755615,30.080782,90.679337,22.910288,0.0,4.696134,0.635705,28.542683,29.308933,30.128361,90.508003,22.918013,0.0,2.771347,-0.318879,29.354248,28.847775,3.0,1.0,111.0,0.0,1.0,-77911.0,-25395.0,14037.0,-77749.0,25593.0,13775.0,-0.941029,-0.234344,0.244022,-0.295318,0.217024,-0.930424,0.165081,-0.94762,-0.273431,-0.936233,0.199783,0.289059,0.312357,0.096412,0.94506,0.160938,0.975085,-0.152668,-0.941029,-0.234344,0.244022,-0.295318,0.217024,-0.930424,0.165081,-0.94762,-0.273431,-0.936233,0.199783,0.289059,0.312357,0.096412,0.94506,0.160938,0.975085,-0.152668,-77911.0,-25395.0,14037.0,-77749.0,25593.0,13775.0,-4453035.0,-2143637.0,-1758.0,0.0,-4194889.0,-2097993.0,-505.0,-2202.0,-4457291.0,-2228340.0,-6291114.0,0.0,-4193930.0,-2244090.0,-4455546.0,-1140.0,49.0,165.0,-45.0,0.0,-378.0,-536.0,459.0,-485.0,-49.0,-163.0,44.0,0.0,462.0,622.0,674.0,-880.0,-0.013297,-0.044837,0.012409,0.0,-0.01386,-0.01963,-0.01681,-0.017757,-0.013277,-0.044366,0.012064,0.0,0.01691,0.022779,-0.024679,-0.032203,4096.890137,11551.229492,51541.292969,0.0,-17694.361328,-17713.980469,17979.210938,-17459.011719,4103.370117,11531.25,51555.78125,0.0,17739.630859,17721.810547,-17462.160156,17985.509766,0.0,0.0,0.0,0.0,0.0,0.0,0.0,0.0,0.0,0.0,0.0,0.0,0.0,0.0,0.0,0.0,0.0,0.0,0.0,0.0,0.0,0.0,0.0,0.0,0.0,0.0,0.0,0.0,0.0,0.0,0.0,0.0,4096.85791,11551.175781,51541.433594,0.0,-17694.332031,-17713.861328,17979.302734,-17458.949219,4103.375488,11531.224609,51555.789062,0.0,17739.630859,17721.720703,-17462.115234,17985.558594,30.080549,90.678925,22.910358,0.0,4.701705,0.649101,28.54632,29.322414,30.128401,90.507782,22.91802,0.0,2.771503,-0.32896,29.36438,28.848131,1.009,1.015,4407514.0,2015290.0,-570923.0,0.0,-3998285.0,-1901171.0,-199264.0,191787.0,-4502884.0,-2356465.0,-6863956.0,0.0,-4391037.0,-2440999.0,4649570.0,-200979.0,0.0,0.0,0.0,0.0,0.0,0.0,0.0,0.0,0.0,0.0,0.0,0.0,0.0,0.0,0.0,0.0,0.0,0.0,0.0,0.0,0.0,0.0,0.0,0.0
16,1.115506887435913,30.080782,90.679337,22.910288,0.0,4.696134,0.635705,28.542683,29.308933,30.128361,90.508003,22.918013,0.0,2.771347,-0.318879,29.354248,28.847775,3.0,1.0,111.0,0.0,1.0,-77911.0,-25395.0,14037.0,-77749.0,25593.0,13775.0,-0.941029,-0.234344,0.244022,-0.295318,0.217024,-0.930424,0.165081,-0.94762,-0.273431,-0.936233,0.199783,0.289059,0.312357,0.096412,0.94506,0.160938,0.975085,-0.152668,-0.941029,-0.234344,0.244022,-0.295318,0.217024,-0.930424,0.165081,-0.94762,-0.273431,-0.936233,0.199783,0.289059,0.312357,0.096412,0.94506,0.160938,0.975085,-0.152668,-77911.0,-25395.0,14037.0,-77749.0,25593.0,13775.0,-4453035.0,-2143637.0,-1758.0,0.0,-4194889.0,-2097993.0,-505.0,-2202.0,-4457291.0,-2228340.0,-6291114.0,0.0,-4193930.0,-2244090.0,-4455546.0,-1140.0,49.0,165.0,-45.0,0.0,-378.0,-536.0,459.0,-485.0,-49.0,-163.0,44.0,0.0,462.0,622.0,674.0,-879.0,-0.013297,-0.044837,0.012409,0.0,-0.013858,-0.019623,-0.016805,-0.017753,-0.013277,-0.044366,0.012064,0.0,0.01691,0.022774,-0.024676,-0.032201,4096.890137,11551.229492,51541.292969,0.0,-17694.361328,-17713.980469,17979.210938,-17459.011719,4103.370117,11531.25,51555.78125,0.0,17739.630859,17721.810547,-17462.160156,17985.509766,0.0,0.0,0.0,0.0,0.0,0.0,0.0,0.0,0.0,0.0,0.0,0.0,0.0,0.0,0.0,0.0,0.0,0.0,0.0,0.0,0.0,0.0,0.0,0.0,0.0,0.0,0.0,0.0,0.0,0.0,0.0,0.0,4096.85791,11551.175781,51541.433594,0.0,-17694.332031,-17713.861328,17979.302734,-17458.949219,4103.375488,11531.224609,51555.789062,0.0,17739.630859,17721.720703,-17462.115234,17985.558594,30.080549,90.678925,22.910358,0.0,4.701705,0.649101,28.54632,29.322414,30.128401,90.507782,22.91802,0.0,2.771503,-0.32896,29.36438,28.848131,1.009,1.015,4407514.0,2015290.0,-570923.0,0.0,-3998285.0,-1901171.0,-199264.0,191787.0,-4502884.0,-2356465.0,-6863956.0,0.0,-4391037.0,-2440999.0,4649570.0,-200979.0,0.0,0.0,0.0,0.0,0.0,0.0,0.0,0.0,0.0,0.0,0.0,0.0,0.0,0.0,0.0,0.0,0.0,0.0,0.0,0.0,0.0,0.0,0.0,0.0
17,1.182548999786377,30.080782,90.679337,22.910288,0.0,4.696134,0.635705,28.542683,29.308933,30.128361,90.508003,22.918013,0.0,2.771347,-0.318879,29.354248,28.847775,3.0,1.0,111.0,0.0,1.0,-77911.0,-25395.0,14037.0,-77749.0,25593.0,13775.0,-0.941029,-0.234344,0.244022,-0.295318,0.217024,-0.930424,0.165081,-0.94762,-0.273431,-0.936233,0.199783,0.289059,0.312357,0.096412,0.94506,0.160938,0.975085,-0.152668,-0.941029,-0.234344,0.244022,-0.295318,0.217024,-0.930424,0.165081,-0.94762,-0.273431,-0.936233,0.199783,0.289059,0.312357,0.096412,0.94506,0.160938,0.975085,-0.152668,-77911.0,-25395.0,14037.0,-77749.0,25593.0,13775.0,-4453035.0,-2143637.0,-1758.0,0.0,-4194889.0,-2097993.0,-505.0,-2202.0,-4457291.0,-2228340.0,-6291114.0,0.0,-4193930.0,-2244090.0,-4455546.0,-1140.0,49.0,165.0,-45.0,0.0,-378.0,-536.0,459.0,-485.0,-49.0,-163.0,44.0,0.0,462.0,622.0,674.0,-879.0,-0.013297,-0.044837,0.012409,0.0,-0.013857,-0.019616,-0.0168,-0.01775,-0.013277,-0.044366,0.012064,0.0,0.01691,0.022769,-0.024673,-0.032198,4096.890137,11551.229492,51541.292969,0.0,-17694.361328,-17713.980469,17979.210938,-17459.011719,4103.370117,11531.25,51555.78125,0.0,17739.630859,17721.810547,-17462.160156,17985.509766,0.0,0.0,0.0,0.0,0.0,0.0,0.0,0.0,0.0,0.0,0.0,0.0,0.0,0.0,0.0,0.0,0.0,0.0,0.0,0.0,0.0,0.0,0.0,0.0,0.0,0.0,0.0,0.0,0.0,0.0,0.0,0.0,4096.85791,11551.175781,51541.433594,0.0,-17694.332031,-17713.861328,17979.302734,-17458.949219,4103.375488,11531.224609,51555.789062,0.0,17739.630859,17721.720703,-17462.115234,17985.558594,30.080549,90.678925,22.910358,0.0,4.701705,0.649101,28.54632,29.322414,30.128401,90.507782,22.91802,0.0,2.771503,-0.32896,29.36438,28.848131,1.009,1.015,4407514.0,2015290.0,-570923.0,0.0,-3998285.0,-1901171.0,-199264.0,191787.0,-4502884.0,-2356465.0,-6863956.0,0.0,-4391037.0,-2440999.0,4649570.0,-200979.0,0.0,0.0,0.0,0.0,0.0,0.0,0.0,0.0,0.0,0.0,0.0,0.0,0.0,0.0,0.0,0.0,0.0,0.0,0.0,0.0,0.0,0.0,0.0,0.0
18,1.2485530376434326,30.080782,90.679337,22.910288,0.0,4.696134,0.635705,28.542683,29.308933,30.128361,90.508003,22.918013,0.0,2.771347,-0.318879,29.354248,28.847775,3.0,1.0,111.0,0.0,1.0,-77911.0,-25395.0,14037.0,-77749.0,25593.0,13775.0,-0.941029,-0.234344,0.244022,-0.295318,0.217024,-0.930424,0.165081,-0.94762,-0.273431,-0.936233,0.199783,0.289059,0.312357,0.096412,0.94506,0.160938,0.975085,-0.152668,-0.941029,-0.234344,0.244022,-0.295318,0.217024,-0.930424,0.165081,-0.94762,-0.273431,-0.936233,0.199783,0.289059,0.312357,0.096412,0.94506,0.160938,0.975085,-0.152668,-77911.0,-25395.0,14037.0,-77749.0,25593.0,13775.0,-4453035.0,-2143637.0,-1758.0,0.0,-4194889.0,-2097993.0,-505.0,-2202.0,-4457291.0,-2228340.0,-6291114.0,0.0,-4193930.0,-2244090.0,-4455546.0,-1140.0,49.0,165.0,-45.0,0.0,-378.0,-535.0,458.0,-484.0,-49.0,-163.0,44.0,0.0,462.0,622.0,674.0,-879.0,-0.013297,-0.044837,0.012409,0.0,-0.013855,-0.019609,-0.016794,-0.017746,-0.013277,-0.044366,0.012064,0.0,0.01691,0.022764,-0.024671,-0.032195,4096.890137,11551.229492,51541.292969,0.0,-17694.361328,-17713.980469,17979.210938,-17459.011719,4103.370117,11531.25,51555.78125,0.0,17739.630859,17721.810547,-17462.160156,17985.509766,0.0,0.0,0.0,0.0,0.0,0.0,0.0,0.0,0.0,0.0,0.0,0.0,0.0,0.0,0.0,0.0,0.0,0.0,0.0,0.0,0.0,0.0,0.0,0.0,0.0,0.0,0.0,0.0,0.0,0.0,0.0,0.0,4096.85791,11551.175781,51541.433594,0.0,-17694.332031,-17713.861328,17979.302734,-17458.949219,4103.375488,11531.224609,51555.789062,0.0,17739.630859,17721.720703,-17462.115234,17985.558594,30.080549,90.678925,22.910358,0.0,4.701705,0.649101,28.54632,29.322414,30.128401,90.507782,22.91802,0.0,2.771503,-0.32896,29.36438,28.848131,1.009,1.015,4407514.0,2015290.0,-570923.0,0.0,-3998285.0,-1901171.0,-199264.0,191787.0,-4502884.0,-2356465.0,-6863956.0,0.0,-4391037.0,-2440999.0,4649570.0,-200979.0,0.0,0.0,0.0,0.0,0.0,0.0,0.0,0.0,0.0,0.0,0.0,0.0,0.0,0.0,0.0,0.0,0.0,0.0,0.0,0.0,0.0,0.0,0.0,0.0
19,1.3215489387512207,30.080782,90.679337,22.910288,0.0,4.696134,0.635705,28.542683,29.308933,30.128361,90.508003,22.918013,0.0,2.771347,-0.318879,29.354248,28.847775,3.0,1.0,111.0,0.0,1.0,-77911.0,-25395.0,14037.0,-77749.0,25593.0,13775.0,-0.941029,-0.234344,0.244022,-0.295318,0.217024,-0.930424,0.165081,-0.94762,-0.273431,-0.936233,0.199783,0.289059,0.312357,0.096412,0.94506,0.160938,0.975085,-0.152668,-0.941029,-0.234344,0.244022,-0.295318,0.217024,-0.930424,0.165081,-0.94762,-0.273431,-0.936233,0.199783,0.289059,0.312357,0.096412,0.94506,0.160938,0.975085,-0.152668,-77911.0,-25395.0,14037.0,-77749.0,25593.0,13775.0,-4453035.0,-2143637.0,-1758.0,0.0,-4194889.0,-2097993.0,-505.0,-2202.0,-4457291.0,-2228340.0,-6291114.0,0.0,-4193930.0,-2244090.0,-4455546.0,-1140.0,49.0,165.0,-45.0,0.0,-378.0,-535.0,458.0,-484.0,-49.0,-163.0,44.0,0.0,462.0,621.0,674.0,-879.0,-0.013297,-0.044837,0.012409,0.0,-0.013853,-0.019601,-0.016788,-0.017742,-0.013277,-0.044366,0.012064,0.0,0.01691,0.022758,-0.024668,-0.032192,4096.890137,11551.229492,51541.292969,0.0,-17694.361328,-17713.980469,17979.210938,-17459.011719,4103.370117,11531.25,51555.78125,0.0,17739.630859,17721.810547,-17462.160156,17985.509766,0.0,0.0,0.0,0.0,0.0,0.0,0.0,0.0,0.0,0.0,0.0,0.0,0.0,0.0,0.0,0.0,0.0,0.0,0.0,0.0,0.0,0.0,0.0,0.0,0.0,0.0,0.0,0.0,0.0,0.0,0.0,0.0,4096.85791,11551.175781,51541.433594,0.0,-17694.332031,-17713.861328,17979.302734,-17458.949219,4103.375488,11531.224609,51555.789062,0.0,17739.630859,17721.720703,-17462.115234,17985.558594,30.080549,90.678925,22.910358,0.0,4.701705,0.649101,28.54632,29.322414,30.128401,90.507782,22.91802,0.0,2.771503,-0.32896,29.36438,28.848131,1.009,1.015,4407514.0,2015290.0,-570923.0,0.0,-3998285.0,-1901171.0,-199264.0,191787.0,-4502884.0,-2356465.0,-6863956.0,0.0,-4391037.0,-2440999.0,4649570.0,-200979.0,0.0,0.0,0.0,0.0,0.0,0.0,0.0,0.0,0.0,0.0,0.0,0.0,0.0,0.0,0.0,0.0,0.0,0.0,0.0,0.0,0.0,0.0,0.0,0.0
20,1.3925068378448486,30.080782,90.679337,22.910288,0.0,4.696134,0.635705,28.542683,29.308933,30.128361,90.508003,22.918013,0.0,2.771347,-0.318879,29.354248,28.847775,3.0,1.0,111.0,0.0,1.0,-77911.0,-25395.0,14037.0,-77749.0,25593.0,13775.0,-0.941029,-0.234344,0.244022,-0.295318,0.217024,-0.930424,0.165081,-0.94762,-0.273431,-0.936233,0.199783,0.289059,0.312357,0.096412,0.94506,0.160938,0.975085,-0.152668,-0.941029,-0.234344,0.244022,-0.295318,0.217024,-0.930424,0.165081,-0.94762,-0.273431,-0.936233,0.199783,0.289059,0.312357,0.096412,0.94506,0.160938,0.975085,-0.152668,-77911.0,-25395.0,14037.0,-77749.0,25593.0,13775.0,-4453035.0,-2143637.0,-1758.0,0.0,-4194889.0,-2097993.0,-505.0,-2202.0,-4457291.0,-2228340.0,-6291114.0,0.0,-4193930.0,-2244090.0,-4455546.0,-1140.0,49.0,165.0,-45.0,0.0,-378.0,-535.0,458.0,-484.0,-49.0,-163.0,44.0,0.0,462.0,621.0,674.0,-879.0,-0.013297,-0.044837,0.012409,0.0,-0.013851,-0.019593,-0.016783,-0.017738,-0.013277,-0.044366,0.012064,0.0,0.01691,0.022752,-0.024665,-0.032189,4096.890137,11551.229492,51541.292969,0.0,-17694.361328,-17713.980469,17979.210938,-17459.011719,4103.370117,11531.25,51555.78125,0.0,17739.630859,17721.810547,-17462.160156,17985.509766,0.0,0.0,0.0,0.0,0.0,0.0,0.0,0.0,0.0,0.0,0.0,0.0,0.0,0.0,0.0,0.0,0.0,0.0,0.0,0.0,0.0,0.0,0.0,0.0,0.0,0.0,0.0,0.0,0.0,0.0,0.0,0.0,4096.85791,11551.175781,51541.433594,0.0,-17694.332031,-17713.861328,17979.302734,-17458.949219,4103.375488,11531.224609,51555.789062,0.0,17739.630859,17721.720703,-17462.115234,17985.558594,30.080549,90.678925,22.910358,0.0,4.701705,0.649101,28.54632,29.322414,30.128401,90.507782,22.91802,0.0,2.771503,-0.32896,29.36438,28.848131,1.009,1.015,4407514.0,2015290.0,-570923.0,0.0,-3998285.0,-1901171.0,-199264.0,191787.0,-4502884.0,-2356465.0,-6863956.0,0.0,-4391037.0,-2440999.0,4649570.0,-200979.0,0.0,0.0,0.0,0.0,0.0,0.0,0.0,0.0,0.0,0.0,0.0,0.0,0.0,0.0,0.0,0.0,0.0,0.0,0.0,0.0,0.0,0.0,0.0,0.0
21,1.4575529098510742,30.080782,90.679337,22.910288,0.0,4.696134,0.635705,28.542683,29.308933,30.128361,90.508003,22.918013,0.0,2.771347,-0.318879,29.354248,28.847775,3.0,1.0,111.0,0.0,1.0,-77911.0,-25395.0,14037.0,-77749.0,25593.0,13775.0,-0.941029,-0.234344,0.244022,-0.295318,0.217024,-0.930424,0.165081,-0.94762,-0.273431,-0.936233,0.199783,0.289059,0.312357,0.096412,0.94506,0.160938,0.975085,-0.152668,-0.941029,-0.234344,0.244022,-0.295318,0.217024,-0.930424,0.165081,-0.94762,-0.273431,-0.936233,0.199783,0.289059,0.312357,0.096412,0.94506,0.160938,0.975085,-0.152668,-77911.0,-25395.0,14037.0,-77749.0,25593.0,13775.0,-4453035.0,-2143637.0,-1758.0,0.0,-4194889.0,-2097993.0,-505.0,-2202.0,-4457291.0,-2228340.0,-6291114.0,0.0,-4193930.0,-2244090.0,-4455546.0,-1140.0,49.0,165.0,-45.0,0.0,-378.0,-535.0,458.0,-484.0,-49.0,-163.0,44.0,0.0,462.0,621.0,673.0,-879.0,-0.013297,-0.044837,0.012409,0.0,-0.01385,-0.019586,-0.016777,-0.017735,-0.013277,-0.044366,0.012064,0.0,0.01691,0.022747,-0.024662,-0.032186,4096.890137,11551.229492,51541.292969,0.0,-17694.361328,-17713.980469,17979.210938,-17459.011719,4103.370117,11531.25,51555.78125,0.0,17739.630859,17721.810547,-17462.160156,17985.509766,0.0,0.0,0.0,0.0,0.0,0.0,0.0,0.0,0.0,0.0,0.0,0.0,0.0,0.0,0.0,0.0,0.0,0.0,0.0,0.0,0.0,0.0,0.0,0.0,0.0,0.0,0.0,0.0,0.0,0.0,0.0,0.0,4096.85791,11551.175781,51541.433594,0.0,-17694.332031,-17713.861328,17979.302734,-17458.949219,4103.375488,11531.224609,51555.789062,0.0,17739.630859,17721.720703,-17462.115234,17985.558594,30.080549,90.678925,22.910358,0.0,4.701705,0.649101,28.54632,29.322414,30.128401,90.507782,22.91802,0.0,2.771503,-0.32896,29.36438,28.848131,1.009,1.015,4407514.0,2015290.0,-570923.0,0.0,-3998285.0,-1901171.0,-199264.0,191787.0,-4502884.0,-2356465.0,-6863956.0,0.0,-4391037.0,-2440999.0,4649570.0,-200979.0,0.0,0.0,0.0,0.0,0.0,0.0,0.0,0.0,0.0,0.0,0.0,0.0,0.0,0.0,0.0,0.0,0.0,0.0,0.0,0.0,0.0,0.0,0.0,0.0
22,1.5245280265808105,30.080782,90.679337,22.910288,0.0,4.696134,0.635705,28.542683,29.308933,30.128361,90.508003,22.918013,0.0,2.771347,-0.318879,29.354248,28.847775,3.0,1.0,111.0,0.0,1.0,-77911.0,-25395.0,14037.0,-77749.0,25593.0,13775.0,-0.941029,-0.234344,0.244022,-0.295318,0.217024,-0.930424,0.165081,-0.94762,-0.273431,-0.936233,0.199783,0.289059,0.312357,0.096412,0.94506,0.160938,0.975085,-0.152668,-0.941029,-0.234344,0.244022,-0.295318,0.217024,-0.930424,0.165081,-0.94762,-0.273431,-0.936233,0.199783,0.289059,0.312357,0.096412,0.94506,0.160938,0.975085,-0.152668,-77911.0,-25395.0,14037.0,-77749.0,25593.0,13775.0,-4453035.0,-2143637.0,-1758.0,0.0,-4194889.0,-2097993.0,-505.0,-2202.0,-4457291.0,-2228340.0,-6291114.0,0.0,-4193930.0,-2244090.0,-4455546.0,-1140.0,49.0,165.0,-45.0,0.0,-378.0,-535.0,458.0,-484.0,-49.0,-163.0,44.0,0.0,462.0,621.0,673.0,-879.0,-0.013297,-0.044837,0.012409,0.0,-0.013848,-0.019579,-0.016772,-0.017731,-0.013277,-0.044366,0.012064,0.0,0.01691,0.022742,-0.02466,-0.032183,4096.890137,11551.229492,51541.292969,0.0,-17694.361328,-17713.980469,17979.210938,-17459.011719,4103.370117,11531.25,51555.78125,0.0,17739.630859,17721.810547,-17462.160156,17985.509766,0.0,0.0,0.0,0.0,0.0,0.0,0.0,0.0,0.0,0.0,0.0,0.0,0.0,0.0,0.0,0.0,0.0,0.0,0.0,0.0,0.0,0.0,0.0,0.0,0.0,0.0,0.0,0.0,0.0,0.0,0.0,0.0,4096.85791,11551.175781,51541.433594,0.0,-17694.332031,-17713.861328,17979.302734,-17458.949219,4103.375488,11531.224609,51555.789062,0.0,17739.630859,17721.720703,-17462.115234,17985.558594,30.080549,90.678925,22.910358,0.0,4.701705,0.649101,28.54632,29.322414,30.128401,90.507782,22.91802,0.0,2.771503,-0.32896,29.36438,28.848131,1.009,1.015,4407514.0,2015290.0,-570923.0,0.0,-3998285.0,-1901171.0,-199264.0,191787.0,-4502884.0,-2356465.0,-6863956.0,0.0,-4391037.0,-2440999.0,4649570.0,-200979.0,0.0,0.0,0.0,0.0,0.0,0.0,0.0,0.0,0.0,0.0,0.0,0.0,0.0,0.0,0.0,0.0,0.0,0.0,0.0,0.0,0.0,0.0,0.0,0.0
23,1.5915758609771729,30.080782,90.679337,22.910288,0.0,4.696134,0.635705,28.542683,29.308933,30.128361,90.508003,22.918013,0.0,2.771347,-0.318879,29.354248,28.847775,3.0,1.0,111.0,0.0,1.0,-77911.0,-25395.0,14037.0,-77749.0,25593.0,13775.0,-0.941029,-0.234344,0.244022,-0.295318,0.217024,-0.930424,0.165081,-0.94762,-0.273431,-0.936233,0.199783,0.289059,0.312357,0.096412,0.94506,0.160938,0.975085,-0.152668,-0.941029,-0.234344,0.244022,-0.295318,0.217024,-0.930424,0.165081,-0.94762,-0.273431,-0.936233,0.199783,0.289059,0.312357,0.096412,0.94506,0.160938,0.975085,-0.152668,-77911.0,-25395.0,14037.0,-77749.0,25593.0,13775.0,-4453035.0,-2143637.0,-1758.0,0.0,-4194889.0,-2097993.0,-505.0,-2202.0,-4457291.0,-2228340.0,-6291114.0,0.0,-4193930.0,-2244090.0,-4455546.0,-1140.0,49.0,165.0,-45.0,0.0,-378.0,-534.0,458.0,-484.0,-49.0,-163.0,44.0,0.0,462.0,621.0,673.0,-879.0,-0.013297,-0.044837,0.012409,0.0,-0.013846,-0.019572,-0.016767,-0.017728,-0.013277,-0.044366,0.012064,0.0,0.01691,0.022736,-0.024657,-0.032181,4096.890137,11551.229492,51541.292969,0.0,-17694.361328,-17713.980469,17979.210938,-17459.011719,4103.370117,11531.25,51555.78125,0.0,17739.630859,17721.810547,-17462.160156,17985.509766,0.0,0.0,0.0,0.0,0.0,0.0,0.0,0.0,0.0,0.0,0.0,0.0,0.0,0.0,0.0,0.0,0.0,0.0,0.0,0.0,0.0,0.0,0.0,0.0,0.0,0.0,0.0,0.0,0.0,0.0,0.0,0.0,4096.85791,11551.175781,51541.433594,0.0,-17694.332031,-17713.861328,17979.302734,-17458.949219,4103.375488,11531.224609,51555.789062,0.0,17739.630859,17721.720703,-17462.115234,17985.558594,30.080549,90.678925,22.910358,0.0,4.701705,0.649101,28.54632,29.322414,30.128401,90.507782,22.91802,0.0,2.771503,-0.32896,29.36438,28.848131,1.009,1.015,4407514.0,2015290.0,-570923.0,0.0,-3998285.0,-1901171.0,-199264.0,191787.0,-4502884.0,-2356465.0,-6863956.0,0.0,-4391037.0,-2440999.0,4649570.0,-200979.0,0.0,0.0,0.0,0.0,0.0,0.0,0.0,0.0,0.0,0.0,0.0,0.0,0.0,0.0,0.0,0.0,0.0,0.0,0.0,0.0,0.0,0.0,0.0,0.0
24,1.663567066192627,30.080782,90.679337,22.910288,0.0,4.696134,0.635705,28.542683,29.308933,30.128361,90.508003,22.918013,0.0,2.771347,-0.318879,29.354248,28.847775,3.0,1.0,111.0,0.0,1.0,-77911.0,-25395.0,14037.0,-77749.0,25593.0,13775.0,-0.941029,-0.234344,0.244022,-0.295318,0.217024,-0.930424,0.165081,-0.94762,-0.273431,-0.936233,0.199783,0.289059,0.312357,0.096412,0.94506,0.160938,0.975085,-0.152668,-0.941029,-0.234344,0.244022,-0.295318,0.217024,-0.930424,0.165081,-0.94762,-0.273431,-0.936233,0.199783,0.289059,0.312357,0.096412,0.94506,0.160938,0.975085,-0.152668,-77911.0,-25395.0,14037.0,-77749.0,25593.0,13775.0,-4453035.0,-2143637.0,-1758.0,0.0,-4194889.0,-2097993.0,-505.0,-2202.0,-4457291.0,-2228340.0,-6291114.0,0.0,-4193930.0,-2244090.0,-4455546.0,-1140.0,49.0,165.0,-45.0,0.0,-378.0,-534.0,458.0,-484.0,-49.0,-163.0,44.0,0.0,462.0,621.0,673.0,-879.0,-0.013297,-0.044837,0.012409,0.0,-0.013844,-0.019565,-0.016761,-0.017724,-0.013277,-0.044366,0.012064,0.0,0.01691,0.022731,-0.024654,-0.032178,4096.890137,11551.229492,51541.292969,0.0,-17694.361328,-17713.980469,17979.210938,-17459.011719,4103.370117,11531.25,51555.78125,0.0,17739.630859,17721.810547,-17462.160156,17985.509766,0.0,0.0,0.0,0.0,0.0,0.0,0.0,0.0,0.0,0.0,0.0,0.0,0.0,0.0,0.0,0.0,0.0,0.0,0.0,0.0,0.0,0.0,0.0,0.0,0.0,0.0,0.0,0.0,0.0,0.0,0.0,0.0,4096.85791,11551.175781,51541.433594,0.0,-17694.332031,-17713.861328,17979.302734,-17458.949219,4103.375488,11531.224609,51555.789062,0.0,17739.630859,17721.720703,-17462.115234,17985.558594,30.080549,90.678925,22.910358,0.0,4.701705,0.649101,28.54632,29.322414,30.128401,90.507782,22.91802,0.0,2.771503,-0.32896,29.36438,28.848131,1.009,1.015,4407514.0,2015290.0,-570923.0,0.0,-3998285.0,-1901171.0,-199264.0,191787.0,-4502884.0,-2356465.0,-6863956.0,0.0,-4391037.0,-2440999.0,4649570.0,-200979.0,0.0,0.0,0.0,0.0,0.0,0.0,0.0,0.0,0.0,0.0,0.0,0.0,0.0,0.0,0.0,0.0,0.0,0.0,0.0,0.0,0.0,0.0,0.0,0.0
25,1.7295539379119873,30.080782,90.679337,22.910288,0.0,4.696134,0.635705,28.542683,29.308933,30.128361,90.508003,22.918013,0.0,2.771347,-0.318879,29.354248,28.847775,3.0,1.0,111.0,0.0,1.0,-77911.0,-25395.0,14037.0,-77749.0,25593.0,13775.0,-0.941029,-0.234344,0.244022,-0.295318,0.217024,-0.930424,0.165081,-0.94762,-0.273431,-0.936233,0.199783,0.289059,0.312357,0.096412,0.94506,0.160938,0.975085,-0.152668,-0.941029,-0.234344,0.244022,-0.295318,0.217024,-0.930424,0.165081,-0.94762,-0.273431,-0.936233,0.199783,0.289059,0.312357,0.096412,0.94506,0.160938,0.975085,-0.152668,-77911.0,-25395.0,14037.0,-77749.0,25593.0,13775.0,-4453035.0,-2143637.0,-1758.0,0.0,-4194889.0,-2097993.0,-505.0,-2202.0,-4457291.0,-2228340.0,-6291114.0,0.0,-4193930.0,-2244090.0,-4455546.0,-1140.0,49.0,165.0,-45.0,0.0,-378.0,-534.0,457.0,-484.0,-49.0,-163.0,44.0,0.0,462.0,621.0,673.0,-879.0,-0.013297,-0.044837,0.012409,0.0,-0.013843,-0.019558,-0.016756,-0.01772,-0.013277,-0.044366,0.012064,0.0,0.01691,0.022726,-0.024651,-0.032175,4096.890137,11551.229492,51541.292969,0.0,-17694.361328,-17713.980469,17979.210938,-17459.011719,4103.370117,11531.25,51555.78125,0.0,17739.630859,17721.810547,-17462.160156,17985.509766,0.0,0.0,0.0,0.0,0.0,0.0,0.0,0.0,0.0,0.0,0.0,0.0,0.0,0.0,0.0,0.0,0.0,0.0,0.0,0.0,0.0,0.0,0.0,0.0,0.0,0.0,0.0,0.0,0.0,0.0,0.0,0.0,4096.85791,11551.175781,51541.433594,0.0,-17694.332031,-17713.861328,17979.302734,-17458.949219,4103.375488,11531.224609,51555.789062,0.0,17739.630859,17721.720703,-17462.115234,17985.558594,30.080549,90.678925,22.910358,0.0,4.701705,0.649101,28.54632,29.322414,30.128401,90.507782,22.91802,0.0,2.771503,-0.32896,29.36438,28.848131,1.009,1.015,4407514.0,2015290.0,-570923.0,0.0,-3998285.0,-1901171.0,-199264.0,191787.0,-4502884.0,-2356465.0,-6863956.0,0.0,-4391037.0,-2440999.0,4649570.0,-200979.0,0.0,0.0,0.0,0.0,0.0,0.0,0.0,0.0,0.0,0.0,0.0,0.0,0.0,0.0,0.0,0.0,0.0,0.0,0.0,0.0,0.0,0.0,0.0,0.0
26,1.799569845199585,30.080782,90.679337,22.910288,0.0,4.696134,0.635705,28.542683,29.308933,30.128361,90.508003,22.918013,0.0,2.771347,-0.318879,29.354248,28.847775,3.0,1.0,111.0,0.0,1.0,-77911.0,-25395.0,14037.0,-77749.0,25593.0,13775.0,-0.941029,-0.234344,0.244022,-0.295318,0.217024,-0.930424,0.165081,-0.94762,-0.273431,-0.936233,0.199783,0.289059,0.312357,0.096412,0.94506,0.160938,0.975085,-0.152668,-0.941029,-0.234344,0.244022,-0.295318,0.217024,-0.930424,0.165081,-0.94762,-0.273431,-0.936233,0.199783,0.289059,0.312357,0.096412,0.94506,0.160938,0.975085,-0.152668,-77911.0,-25395.0,14037.0,-77749.0,25593.0,13775.0,-4453035.0,-2143637.0,-1758.0,0.0,-4194889.0,-2097993.0,-505.0,-2202.0,-4457291.0,-2228340.0,-6291114.0,0.0,-4193930.0,-2244090.0,-4455546.0,-1140.0,49.0,165.0,-45.0,0.0,-378.0,-534.0,457.0,-484.0,-49.0,-163.0,44.0,0.0,462.0,620.0,673.0,-879.0,-0.013297,-0.044837,0.012409,0.0,-0.013841,-0.01955,-0.01675,-0.017716,-0.013277,-0.044366,0.012064,0.0,0.01691,0.02272,-0.024649,-0.032172,4096.890137,11551.229492,51541.292969,0.0,-17694.361328,-17713.980469,17979.210938,-17459.011719,4103.370117,11531.25,51555.78125,0.0,17739.630859,17721.810547,-17462.160156,17985.509766,0.0,0.0,0.0,0.0,0.0,0.0,0.0,0.0,0.0,0.0,0.0,0.0,0.0,0.0,0.0,0.0,0.0,0.0,0.0,0.0,0.0,0.0,0.0,0.0,0.0,0.0,0.0,0.0,0.0,0.0,0.0,0.0,4096.85791,11551.175781,51541.433594,0.0,-17694.332031,-17713.861328,17979.302734,-17458.949219,4103.375488,11531.224609,51555.789062,0.0,17739.630859,17721.720703,-17462.115234,17985.558594,30.080549,90.678925,22.910358,0.0,4.701705,0.649101,28.54632,29.322414,30.128401,90.507782,22.91802,0.0,2.771503,-0.32896,29.36438,28.848131,1.009,1.015,4407514.0,2015290.0,-570923.0,0.0,-3998285.0,-1901171.0,-199264.0,191787.0,-4502884.0,-2356465.0,-6863956.0,0.0,-4391037.0,-2440999.0,4649570.0,-200979.0,0.0,0.0,0.0,0.0,0.0,0.0,0.0,0.0,0.0,0.0,0.0,0.0,0.0,0.0,0.0,0.0,0.0,0.0,0.0,0.0,0.0,0.0,0.0,0.0
27,1.8655550479888916,30.080782,90.679337,22.910288,0.0,4.696134,0.635705,28.542683,29.308933,30.128361,90.508003,22.918013,0.0,2.771347,-0.318879,29.354248,28.847775,3.0,1.0,111.0,0.0,1.0,-77911.0,-25395.0,14037.0,-77749.0,25593.0,13775.0,-0.941029,-0.234344,0.244022,-0.295318,0.217024,-0.930424,0.165081,-0.94762,-0.273431,-0.936233,0.199783,0.289059,0.312357,0.096412,0.94506,0.160938,0.975085,-0.152668,-0.941029,-0.234344,0.244022,-0.295318,0.217024,-0.930424,0.165081,-0.94762,-0.273431,-0.936233,0.199783,0.289059,0.312357,0.096412,0.94506,0.160938,0.975085,-0.152668,-77911.0,-25395.0,14037.0,-77749.0,25593.0,13775.0,-4453035.0,-2143637.0,-1758.0,0.0,-4194889.0,-2097993.0,-505.0,-2202.0,-4457291.0,-2228340.0,-6291114.0,0.0,-4193930.0,-2244090.0,-4455546.0,-1140.0,49.0,165.0,-45.0,0.0,-378.0,-534.0,457.0,-484.0,-49.0,-163.0,44.0,0.0,462.0,620.0,673.0,-879.0,-0.013297,-0.044837,0.012409,0.0,-0.013839,-0.019543,-0.016745,-0.017713,-0.013277,-0.044366,0.012064,0.0,0.01691,0.022715,-0.024646,-0.032169,4096.890137,11551.229492,51541.292969,0.0,-17694.361328,-17713.980469,17979.210938,-17459.011719,4103.370117,11531.25,51555.78125,0.0,17739.630859,17721.810547,-17462.160156,17985.509766,0.0,0.0,0.0,0.0,0.0,0.0,0.0,0.0,0.0,0.0,0.0,0.0,0.0,0.0,0.0,0.0,0.0,0.0,0.0,0.0,0.0,0.0,0.0,0.0,0.0,0.0,0.0,0.0,0.0,0.0,0.0,0.0,4096.85791,11551.175781,51541.433594,0.0,-17694.332031,-17713.861328,17979.302734,-17458.949219,4103.375488,11531.224609,51555.789062,0.0,17739.630859,17721.720703,-17462.115234,17985.558594,30.080549,90.678925,22.910358,0.0,4.701705,0.649101,28.54632,29.322414,30.128401,90.507782,22.91802,0.0,2.771503,-0.32896,29.36438,28.848131,1.009,1.015,4407514.0,2015290.0,-570923.0,0.0,-3998285.0,-1901171.0,-199264.0,191787.0,-4502884.0,-2356465.0,-6863956.0,0.0,-4391037.0,-2440999.0,4649570.0,-200979.0,0.0,0.0,0.0,0.0,0.0,0.0,0.0,0.0,0.0,0.0,0.0,0.0,0.0,0.0,0.0,0.0,0.0,0.0,0.0,0.0,0.0,0.0,0.0,0.0
28,1.9415550231933594,30.080782,90.679337,22.910288,0.0,4.696134,0.635705,28.542683,29.308933,30.128361,90.508003,22.918013,0.0,2.771347,-0.318879,29.354248,28.847775,3.0,1.0,111.0,0.0,1.0,-77911.0,-25395.0,14037.0,-77749.0,25593.0,13775.0,-0.941029,-0.234344,0.244022,-0.295318,0.217024,-0.930424,0.165081,-0.94762,-0.273431,-0.936233,0.199783,0.289059,0.312357,0.096412,0.94506,0.160938,0.975085,-0.152668,-0.941029,-0.234344,0.244022,-0.295318,0.217024,-0.930424,0.165081,-0.94762,-0.273431,-0.936233,0.199783,0.289059,0.312357,0.096412,0.94506,0.160938,0.975085,-0.152668,-77911.0,-25395.0,14037.0,-77749.0,25593.0,13775.0,-4453035.0,-2143637.0,-1758.0,0.0,-4194889.0,-2097993.0,-505.0,-2202.0,-4457291.0,-2228340.0,-6291114.0,0.0,-4193930.0,-2244090.0,-4455546.0,-1140.0,49.0,165.0,-45.0,0.0,-378.0,-533.0,457.0,-483.0,-49.0,-163.0,44.0,0.0,462.0,620.0,673.0,-879.0,-0.013297,-0.044837,0.012409,0.0,-0.013837,-0.019535,-0.016738,-0.017709,-0.013277,-0.044366,0.012064,0.0,0.01691,0.022709,-0.024643,-0.032166,4096.890137,11551.229492,51541.292969,0.0,-17694.361328,-17713.980469,17979.210938,-17459.011719,4103.370117,11531.25,51555.78125,0.0,17739.630859,17721.810547,-17462.160156,17985.509766,0.0,0.0,0.0,0.0,0.0,0.0,0.0,0.0,0.0,0.0,0.0,0.0,0.0,0.0,0.0,0.0,0.0,0.0,0.0,0.0,0.0,0.0,0.0,0.0,0.0,0.0,0.0,0.0,0.0,0.0,0.0,0.0,4096.85791,11551.175781,51541.433594,0.0,-17694.332031,-17713.861328,17979.302734,-17458.949219,4103.375488,11531.224609,51555.789062,0.0,17739.630859,17721.720703,-17462.115234,17985.558594,30.080549,90.678925,22.910358,0.0,4.701705,0.649101,28.54632,29.322414,30.128401,90.507782,22.91802,0.0,2.771503,-0.32896,29.36438,28.848131,1.009,1.015,4407514.0,2015290.0,-570923.0,0.0,-3998285.0,-1901171.0,-199264.0,191787.0,-4502884.0,-2356465.0,-6863956.0,0.0,-4391037.0,-2440999.0,4649570.0,-200979.0,0.0,0.0,0.0,0.0,0.0,0.0,0.0,0.0,0.0,0.0,0.0,0.0,0.0,0.0,0.0,0.0,0.0,0.0,0.0,0.0,0.0,0.0,0.0,0.0
29,2.008547067642212,30.080782,90.679337,22.910288,0.0,4.696134,0.635705,28.542683,29.308933,30.128361,90.508003,22.918013,0.0,2.771347,-0.318879,29.354248,28.847775,3.0,1.0,111.0,0.0,1.0,-77911.0,-25395.0,14037.0,-77749.0,25593.0,13775.0,-0.941029,-0.234344,0.244022,-0.295318,0.217024,-0.930424,0.165081,-0.94762,-0.273431,-0.936233,0.199783,0.289059,0.312357,0.096412,0.94506,0.160938,0.975085,-0.152668,-0.941029,-0.234344,0.244022,-0.295318,0.217024,-0.930424,0.165081,-0.94762,-0.273431,-0.936233,0.199783,0.289059,0.312357,0.096412,0.94506,0.160938,0.975085,-0.152668,-77911.0,-25395.0,14037.0,-77749.0,25593.0,13775.0,-4453035.0,-2143637.0,-1758.0,0.0,-4194889.0,-2097993.0,-505.0,-2202.0,-4457291.0,-2228340.0,-6291114.0,0.0,-4193930.0,-2244090.0,-4455546.0,-1140.0,49.0,165.0,-45.0,0.0,-378.0,-533.0,457.0,-483.0,-49.0,-163.0,44.0,0.0,462.0,620.0,673.0,-878.0,-0.013297,-0.044837,0.012409,0.0,-0.013836,-0.019528,-0.016733,-0.017705,-0.013277,-0.044366,0.012064,0.0,0.01691,0.022704,-0.02464,-0.032163,4096.890137,11551.229492,51541.292969,0.0,-17694.361328,-17713.980469,17979.210938,-17459.011719,4103.370117,11531.25,51555.78125,0.0,17739.630859,17721.810547,-17462.160156,17985.509766,0.0,0.0,0.0,0.0,0.0,0.0,0.0,0.0,0.0,0.0,0.0,0.0,0.0,0.0,0.0,0.0,0.0,0.0,0.0,0.0,0.0,0.0,0.0,0.0,0.0,0.0,0.0,0.0,0.0,0.0,0.0,0.0,4096.85791,11551.175781,51541.433594,0.0,-17694.332031,-17713.861328,17979.302734,-17458.949219,4103.375488,11531.224609,51555.789062,0.0,17739.630859,17721.720703,-17462.115234,17985.558594,30.080549,90.678925,22.910358,0.0,4.701705,0.649101,28.54632,29.322414,30.128401,90.507782,22.91802,0.0,2.771503,-0.32896,29.36438,28.848131,1.009,1.015,4407514.0,2015290.0,-570923.0,0.0,-3998285.0,-1901171.0,-199264.0,191787.0,-4502884.0,-2356465.0,-6863956.0,0.0,-4391037.0,-2440999.0,4649570.0,-200979.0,0.0,0.0,0.0,0.0,0.0,0.0,0.0,0.0,0.0,0.0,0.0,0.0,0.0,0.0,0.0,0.0,0.0,0.0,0.0,0.0,0.0,0.0,0.0,0.0
30,2.0815539360046387,30.080782,90.679337,22.910288,0.0,4.696134,0.635705,28.542683,29.308933,30.128361,90.508003,22.918013,0.0,2.771347,-0.318879,29.354248,28.847775,3.0,1.0,111.0,0.0,1.0,-77911.0,-25395.0,14037.0,-77749.0,25593.0,13775.0,-0.941029,-0.234344,0.244022,-0.295318,0.217024,-0.930424,0.165081,-0.94762,-0.273431,-0.936233,0.199783,0.289059,0.312357,0.096412,0.94506,0.160938,0.975085,-0.152668,-0.941029,-0.234344,0.244022,-0.295318,0.217024,-0.930424,0.165081,-0.94762,-0.273431,-0.936233,0.199783,0.289059,0.312357,0.096412,0.94506,0.160938,0.975085,-0.152668,-77911.0,-25395.0,14037.0,-77749.0,25593.0,13775.0,-4453035.0,-2143637.0,-1758.0,0.0,-4194889.0,-2097993.0,-505.0,-2202.0,-4457291.0,-2228340.0,-6291114.0,0.0,-4193930.0,-2244090.0,-4455546.0,-1140.0,49.0,165.0,-45.0,0.0,-378.0,-533.0,457.0,-483.0,-49.0,-163.0,44.0,0.0,462.0,620.0,673.0,-878.0,-0.013297,-0.044837,0.012409,0.0,-0.013834,-0.01952,-0.016727,-0.017701,-0.013277,-0.044366,0.012064,0.0,0.01691,0.022698,-0.024637,-0.03216,4096.890137,11551.229492,51541.292969,0.0,-17694.361328,-17713.980469,17979.210938,-17459.011719,4103.370117,11531.25,51555.78125,0.0,17739.630859,17721.810547,-17462.160156,17985.509766,0.0,0.0,0.0,0.0,0.0,0.0,0.0,0.0,0.0,0.0,0.0,0.0,0.0,0.0,0.0,0.0,0.0,0.0,0.0,0.0,0.0,0.0,0.0,0.0,0.0,0.0,0.0,0.0,0.0,0.0,0.0,0.0,4096.85791,11551.175781,51541.433594,0.0,-17694.332031,-17713.861328,17979.302734,-17458.949219,4103.375488,11531.224609,51555.789062,0.0,17739.630859,17721.720703,-17462.115234,17985.558594,30.080549,90.678925,22.910358,0.0,4.701705,0.649101,28.54632,29.322414,30.128401,90.507782,22.91802,0.0,2.771503,-0.32896,29.36438,28.848131,1.009,1.015,4407514.0,2015290.0,-570923.0,0.0,-3998285.0,-1901171.0,-199264.0,191787.0,-4502884.0,-2356465.0,-6863956.0,0.0,-4391037.0,-2440999.0,4649570.0,-200979.0,0.0,0.0,0.0,0.0,0.0,0.0,0.0,0.0,0.0,0.0,0.0,0.0,0.0,0.0,0.0,0.0,0.0,0.0,0.0,0.0,0.0,0.0,0.0,0.0
31,2.1465539932250977,30.080782,90.679337,22.910288,0.0,4.696134,0.635705,28.542683,29.308933,30.128361,90.508003,22.918013,0.0,2.771347,-0.318879,29.354248,28.847775,3.0,1.0,111.0,0.0,1.0,-77911.0,-25395.0,14037.0,-77749.0,25593.0,13775.0,-0.941029,-0.234344,0.244022,-0.295318,0.217024,-0.930424,0.165081,-0.94762,-0.273431,-0.936233,0.199783,0.289059,0.312357,0.096412,0.94506,0.160938,0.975085,-0.152668,-0.941029,-0.234344,0.244022,-0.295318,0.217024,-0.930424,0.165081,-0.94762,-0.273431,-0.936233,0.199783,0.289059,0.312357,0.096412,0.94506,0.160938,0.975085,-0.152668,-77911.0,-25395.0,14037.0,-77749.0,25593.0,13775.0,-4453035.0,-2143637.0,-1758.0,0.0,-4194889.0,-2097993.0,-505.0,-2202.0,-4457291.0,-2228340.0,-6291114.0,0.0,-4193930.0,-2244090.0,-4455546.0,-1140.0,49.0,165.0,-45.0,0.0,-378.0,-533.0,456.0,-483.0,-49.0,-163.0,44.0,0.0,462.0,620.0,673.0,-878.0,-0.013297,-0.044837,0.012409,0.0,-0.013832,-0.019514,-0.016722,-0.017698,-0.013277,-0.044366,0.012064,0.0,0.01691,0.022693,-0.024635,-0.032158,4096.890137,11551.229492,51541.292969,0.0,-17694.361328,-17713.980469,17979.210938,-17459.011719,4103.370117,11531.25,51555.78125,0.0,17739.630859,17721.810547,-17462.160156,17985.509766,0.0,0.0,0.0,0.0,0.0,0.0,0.0,0.0,0.0,0.0,0.0,0.0,0.0,0.0,0.0,0.0,0.0,0.0,0.0,0.0,0.0,0.0,0.0,0.0,0.0,0.0,0.0,0.0,0.0,0.0,0.0,0.0,4096.85791,11551.175781,51541.433594,0.0,-17694.332031,-17713.861328,17979.302734,-17458.949219,4103.375488,11531.224609,51555.789062,0.0,17739.630859,17721.720703,-17462.115234,17985.558594,30.080549,90.678925,22.910358,0.0,4.701705,0.649101,28.54632,29.322414,30.128401,90.507782,22.91802,0.0,2.771503,-0.32896,29.36438,28.848131,1.009,1.015,4407514.0,2015290.0,-570923.0,0.0,-3998285.0,-1901171.0,-199264.0,191787.0,-4502884.0,-2356465.0,-6863956.0,0.0,-4391037.0,-2440999.0,4649570.0,-200979.0,0.0,0.0,0.0,0.0,0.0,0.0,0.0,0.0,0.0,0.0,0.0,0.0,0.0,0.0,0.0,0.0,0.0,0.0,0.0,0.0,0.0,0.0,0.0,0.0
32,2.2165889739990234,30.080782,90.679337,22.910288,0.0,4.696134,0.635705,28.542683,29.308933,30.128361,90.508003,22.918013,0.0,2.771347,-0.318879,29.354248,28.847775,3.0,1.0,111.0,0.0,1.0,-77911.0,-25395.0,14037.0,-77749.0,25593.0,13775.0,-0.941029,-0.234344,0.244022,-0.295318,0.217024,-0.930424,0.165081,-0.94762,-0.273431,-0.936233,0.199783,0.289059,0.312357,0.096412,0.94506,0.160938,0.975085,-0.152668,-0.941029,-0.234344,0.244022,-0.295318,0.217024,-0.930424,0.165081,-0.94762,-0.273431,-0.936233,0.199783,0.289059,0.312357,0.096412,0.94506,0.160938,0.975085,-0.152668,-77911.0,-25395.0,14037.0,-77749.0,25593.0,13775.0,-4453035.0,-2143637.0,-1758.0,0.0,-4194889.0,-2097993.0,-505.0,-2202.0,-4457291.0,-2228340.0,-6291114.0,0.0,-4193930.0,-2244090.0,-4455546.0,-1140.0,49.0,165.0,-45.0,0.0,-377.0,-533.0,456.0,-483.0,-49.0,-163.0,44.0,0.0,462.0,620.0,673.0,-878.0,-0.013297,-0.044837,0.012409,0.0,-0.01383,-0.019506,-0.016716,-0.017694,-0.013277,-0.044366,0.012064,0.0,0.01691,0.022687,-0.024632,-0.032155,4096.890137,11551.229492,51541.292969,0.0,-17694.361328,-17713.980469,17979.210938,-17459.011719,4103.370117,11531.25,51555.78125,0.0,17739.630859,17721.810547,-17462.160156,17985.509766,0.0,0.0,0.0,0.0,0.0,0.0,0.0,0.0,0.0,0.0,0.0,0.0,0.0,0.0,0.0,0.0,0.0,0.0,0.0,0.0,0.0,0.0,0.0,0.0,0.0,0.0,0.0,0.0,0.0,0.0,0.0,0.0,4096.85791,11551.175781,51541.433594,0.0,-17694.332031,-17713.861328,17979.302734,-17458.949219,4103.375488,11531.224609,51555.789062,0.0,17739.630859,17721.720703,-17462.115234,17985.558594,30.080549,90.678925,22.910358,0.0,4.701705,0.649101,28.54632,29.322414,30.128401,90.507782,22.91802,0.0,2.771503,-0.32896,29.36438,28.848131,1.009,1.015,4407514.0,2015290.0,-570923.0,0.0,-3998285.0,-1901171.0,-199264.0,191787.0,-4502884.0,-2356465.0,-6863956.0,0.0,-4391037.0,-2440999.0,4649570.0,-200979.0,0.0,0.0,0.0,0.0,0.0,0.0,0.0,0.0,0.0,0.0,0.0,0.0,0.0,0.0,0.0,0.0,0.0,0.0,0.0,0.0,0.0,0.0,0.0,0.0
33,2.2855730056762695,30.080782,90.679337,22.910288,0.0,4.696134,0.635705,28.542683,29.308933,30.128361,90.508003,22.918013,0.0,2.771347,-0.318879,29.354248,28.847775,3.0,1.0,111.0,0.0,1.0,-77911.0,-25395.0,14037.0,-77749.0,25593.0,13775.0,-0.941029,-0.234344,0.244022,-0.295318,0.217024,-0.930424,0.165081,-0.94762,-0.273431,-0.936233,0.199783,0.289059,0.312357,0.096412,0.94506,0.160938,0.975085,-0.152668,-0.941029,-0.234344,0.244022,-0.295318,0.217024,-0.930424,0.165081,-0.94762,-0.273431,-0.936233,0.199783,0.289059,0.312357,0.096412,0.94506,0.160938,0.975085,-0.152668,-77911.0,-25395.0,14037.0,-77749.0,25593.0,13775.0,-4453035.0,-2143637.0,-1758.0,0.0,-4194889.0,-2097993.0,-505.0,-2202.0,-4457291.0,-2228340.0,-6291114.0,0.0,-4193930.0,-2244090.0,-4455546.0,-1140.0,49.0,165.0,-45.0,0.0,-377.0,-532.0,456.0,-483.0,-49.0,-163.0,44.0,0.0,462.0,619.0,673.0,-878.0,-0.013297,-0.044837,0.012409,0.0,-0.013829,-0.019499,-0.016711,-0.01769,-0.013277,-0.044366,0.012064,0.0,0.01691,0.022682,-0.024629,-0.032152,4096.890137,11551.229492,51541.292969,0.0,-17694.361328,-17713.980469,17979.210938,-17459.011719,4103.370117,11531.25,51555.78125,0.0,17739.630859,17721.810547,-17462.160156,17985.509766,0.0,0.0,0.0,0.0,0.0,0.0,0.0,0.0,0.0,0.0,0.0,0.0,0.0,0.0,0.0,0.0,0.0,0.0,0.0,0.0,0.0,0.0,0.0,0.0,0.0,0.0,0.0,0.0,0.0,0.0,0.0,0.0,4096.85791,11551.175781,51541.433594,0.0,-17694.332031,-17713.861328,17979.302734,-17458.949219,4103.375488,11531.224609,51555.789062,0.0,17739.630859,17721.720703,-17462.115234,17985.558594,30.080549,90.678925,22.910358,0.0,4.701705,0.649101,28.54632,29.322414,30.128401,90.507782,22.91802,0.0,2.771503,-0.32896,29.36438,28.848131,1.009,1.015,4407514.0,2015290.0,-570923.0,0.0,-3998285.0,-1901171.0,-199264.0,191787.0,-4502884.0,-2356465.0,-6863956.0,0.0,-4391037.0,-2440999.0,4649570.0,-200979.0,0.0,0.0,0.0,0.0,0.0,0.0,0.0,0.0,0.0,0.0,0.0,0.0,0.0,0.0,0.0,0.0,0.0,0.0,0.0,0.0,0.0,0.0,0.0,0.0
34,2.352583885192871,30.080782,90.679337,22.910288,0.0,4.696134,0.635705,28.542683,29.308933,30.128361,90.508003,22.918013,0.0,2.771347,-0.318879,29.354248,28.847775,3.0,1.0,111.0,0.0,1.0,-77911.0,-25395.0,14037.0,-77749.0,25593.0,13775.0,-0.941029,-0.234344,0.244022,-0.295318,0.217024,-0.930424,0.165081,-0.94762,-0.273431,-0.936233,0.199783,0.289059,0.312357,0.096412,0.94506,0.160938,0.975085,-0.152668,-0.941029,-0.234344,0.244022,-0.295318,0.217024,-0.930424,0.165081,-0.94762,-0.273431,-0.936233,0.199783,0.289059,0.312357,0.096412,0.94506,0.160938,0.975085,-0.152668,-77911.0,-25395.0,14037.0,-77749.0,25593.0,13775.0,-4453035.0,-2143637.0,-1758.0,0.0,-4194889.0,-2097993.0,-505.0,-2202.0,-4457291.0,-2228340.0,-6291114.0,0.0,-4193930.0,-2244090.0,-4455546.0,-1140.0,49.0,165.0,-45.0,0.0,-377.0,-532.0,456.0,-483.0,-49.0,-163.0,44.0,0.0,462.0,619.0,672.0,-878.0,-0.013297,-0.044837,0.012409,0.0,-0.013827,-0.019492,-0.016705,-0.017687,-0.013277,-0.044366,0.012064,0.0,0.01691,0.022676,-0.024626,-0.032149,4096.890137,11551.229492,51541.292969,0.0,-17694.361328,-17713.980469,17979.210938,-17459.011719,4103.370117,11531.25,51555.78125,0.0,17739.630859,17721.810547,-17462.160156,17985.509766,0.0,0.0,0.0,0.0,0.0,0.0,0.0,0.0,0.0,0.0,0.0,0.0,0.0,0.0,0.0,0.0,0.0,0.0,0.0,0.0,0.0,0.0,0.0,0.0,0.0,0.0,0.0,0.0,0.0,0.0,0.0,0.0,4096.85791,11551.175781,51541.433594,0.0,-17694.332031,-17713.861328,17979.302734,-17458.949219,4103.375488,11531.224609,51555.789062,0.0,17739.630859,17721.720703,-17462.115234,17985.558594,30.080549,90.678925,22.910358,0.0,4.701705,0.649101,28.54632,29.322414,30.128401,90.507782,22.91802,0.0,2.771503,-0.32896,29.36438,28.848131,1.009,1.015,4407514.0,2015290.0,-570923.0,0.0,-3998285.0,-1901171.0,-199264.0,191787.0,-4502884.0,-2356465.0,-6863956.0,0.0,-4391037.0,-2440999.0,4649570.0,-200979.0,0.0,0.0,0.0,0.0,0.0,0.0,0.0,0.0,0.0,0.0,0.0,0.0,0.0,0.0,0.0,0.0,0.0,0.0,0.0,0.0,0.0,0.0,0.0,0.0
35,2.4195668697357178,30.080782,90.679337,22.910288,0.0,4.696134,0.635705,28.542683,29.308933,30.128361,90.508003,22.918013,0.0,2.771347,-0.318879,29.354248,28.847775,3.0,1.0,111.0,0.0,1.0,-77911.0,-25395.0,14037.0,-77749.0,25593.0,13775.0,-0.941029,-0.234344,0.244022,-0.295318,0.217024,-0.930424,0.165081,-0.94762,-0.273431,-0.936233,0.199783,0.289059,0.312357,0.096412,0.94506,0.160938,0.975085,-0.152668,-0.941029,-0.234344,0.244022,-0.295318,0.217024,-0.930424,0.165081,-0.94762,-0.273431,-0.936233,0.199783,0.289059,0.312357,0.096412,0.94506,0.160938,0.975085,-0.152668,-77911.0,-25395.0,14037.0,-77749.0,25593.0,13775.0,-4453035.0,-2143637.0,-1758.0,0.0,-4194889.0,-2097993.0,-505.0,-2202.0,-4457291.0,-2228340.0,-6291114.0,0.0,-4193930.0,-2244090.0,-4455546.0,-1140.0,49.0,165.0,-45.0,0.0,-377.0,-532.0,456.0,-483.0,-49.0,-163.0,44.0,0.0,462.0,619.0,672.0,-878.0,-0.013297,-0.044837,0.012409,0.0,-0.013825,-0.019485,-0.0167,-0.017683,-0.013277,-0.044366,0.012064,0.0,0.01691,0.022671,-0.024624,-0.032146,4096.890137,11551.229492,51541.292969,0.0,-17694.361328,-17713.980469,17979.210938,-17459.011719,4103.370117,11531.25,51555.78125,0.0,17739.630859,17721.810547,-17462.160156,17985.509766,0.0,0.0,0.0,0.0,0.0,0.0,0.0,0.0,0.0,0.0,0.0,0.0,0.0,0.0,0.0,0.0,0.0,0.0,0.0,0.0,0.0,0.0,0.0,0.0,0.0,0.0,0.0,0.0,0.0,0.0,0.0,0.0,4096.85791,11551.175781,51541.433594,0.0,-17694.332031,-17713.861328,17979.302734,-17458.949219,4103.375488,11531.224609,51555.789062,0.0,17739.630859,17721.720703,-17462.115234,17985.558594,30.080549,90.678925,22.910358,0.0,4.701705,0.649101,28.54632,29.322414,30.128401,90.507782,22.91802,0.0,2.771503,-0.32896,29.36438,28.848131,1.009,1.015,4407514.0,2015290.0,-570923.0,0.0,-3998285.0,-1901171.0,-199264.0,191787.0,-4502884.0,-2356465.0,-6863956.0,0.0,-4391037.0,-2440999.0,4649570.0,-200979.0,0.0,0.0,0.0,0.0,0.0,0.0,0.0,0.0,0.0,0.0,0.0,0.0,0.0,0.0,0.0,0.0,0.0,0.0,0.0,0.0,0.0,0.0,0.0,0.0
36,2.4835660457611084,30.080782,90.679337,22.910288,0.0,4.696134,0.635705,28.542683,29.308933,30.128361,90.508003,22.918013,0.0,2.771347,-0.318879,29.354248,28.847775,3.0,1.0,111.0,0.0,1.0,-77911.0,-25395.0,14037.0,-77749.0,25593.0,13775.0,-0.941029,-0.234344,0.244022,-0.295318,0.217024,-0.930424,0.165081,-0.94762,-0.273431,-0.936233,0.199783,0.289059,0.312357,0.096412,0.94506,0.160938,0.975085,-0.152668,-0.941029,-0.234344,0.244022,-0.295318,0.217024,-0.930424,0.165081,-0.94762,-0.273431,-0.936233,0.199783,0.289059,0.312357,0.096412,0.94506,0.160938,0.975085,-0.152668,-77911.0,-25395.0,14037.0,-77749.0,25593.0,13775.0,-4453035.0,-2143637.0,-1758.0,0.0,-4194889.0,-2097993.0,-505.0,-2202.0,-4457291.0,-2228340.0,-6291114.0,0.0,-4193930.0,-2244090.0,-4455546.0,-1140.0,49.0,165.0,-45.0,0.0,-377.0,-532.0,456.0,-483.0,-49.0,-163.0,44.0,0.0,462.0,619.0,672.0,-878.0,-0.013297,-0.044837,0.012409,0.0,-0.013824,-0.019478,-0.016695,-0.01768,-0.013277,-0.044366,0.012064,0.0,0.01691,0.022666,-0.024621,-0.032143,4096.890137,11551.229492,51541.292969,0.0,-17694.361328,-17713.980469,17979.210938,-17459.011719,4103.370117,11531.25,51555.78125,0.0,17739.630859,17721.810547,-17462.160156,17985.509766,0.0,0.0,0.0,0.0,0.0,0.0,0.0,0.0,0.0,0.0,0.0,0.0,0.0,0.0,0.0,0.0,0.0,0.0,0.0,0.0,0.0,0.0,0.0,0.0,0.0,0.0,0.0,0.0,0.0,0.0,0.0,0.0,4096.85791,11551.175781,51541.433594,0.0,-17694.332031,-17713.861328,17979.302734,-17458.949219,4103.375488,11531.224609,51555.789062,0.0,17739.630859,17721.720703,-17462.115234,17985.558594,30.080549,90.678925,22.910358,0.0,4.701705,0.649101,28.54632,29.322414,30.128401,90.507782,22.91802,0.0,2.771503,-0.32896,29.36438,28.848131,1.009,1.015,4407514.0,2015290.0,-570923.0,0.0,-3998285.0,-1901171.0,-199264.0,191787.0,-4502884.0,-2356465.0,-6863956.0,0.0,-4391037.0,-2440999.0,4649570.0,-200979.0,0.0,0.0,0.0,0.0,0.0,0.0,0.0,0.0,0.0,0.0,0.0,0.0,0.0,0.0,0.0,0.0,0.0,0.0,0.0,0.0,0.0,0.0,0.0,0.0
37,2.560555934906006,30.080782,90.679337,22.910288,0.0,4.696134,0.635705,28.542683,29.308933,30.128361,90.508003,22.918013,0.0,2.771347,-0.318879,29.354248,28.847775,3.0,1.0,111.0,0.0,1.0,-77911.0,-25395.0,14037.0,-77749.0,25593.0,13775.0,-0.941029,-0.234344,0.244022,-0.295318,0.217024,-0.930424,0.165081,-0.94762,-0.273431,-0.936233,0.199783,0.289059,0.312357,0.096412,0.94506,0.160938,0.975085,-0.152668,-0.941029,-0.234344,0.244022,-0.295318,0.217024,-0.930424,0.165081,-0.94762,-0.273431,-0.936233,0.199783,0.289059,0.312357,0.096412,0.94506,0.160938,0.975085,-0.152668,-77911.0,-25395.0,14037.0,-77749.0,25593.0,13775.0,-4453035.0,-2143637.0,-1758.0,0.0,-4194889.0,-2097993.0,-505.0,-2202.0,-4457291.0,-2228340.0,-6291114.0,0.0,-4193930.0,-2244090.0,-4455546.0,-1140.0,49.0,165.0,-45.0,0.0,-377.0,-532.0,456.0,-483.0,-49.0,-163.0,44.0,0.0,462.0,619.0,672.0,-878.0,-0.013297,-0.044837,0.012409,0.0,-0.013822,-0.01947,-0.016689,-0.017676,-0.013277,-0.044366,0.012064,0.0,0.01691,0.02266,-0.024618,-0.03214,4096.890137,11551.229492,51541.292969,0.0,-17694.361328,-17713.980469,17979.210938,-17459.011719,4103.370117,11531.25,51555.78125,0.0,17739.630859,17721.810547,-17462.160156,17985.509766,0.0,0.0,0.0,0.0,0.0,0.0,0.0,0.0,0.0,0.0,0.0,0.0,0.0,0.0,0.0,0.0,0.0,0.0,0.0,0.0,0.0,0.0,0.0,0.0,0.0,0.0,0.0,0.0,0.0,0.0,0.0,0.0,4096.85791,11551.175781,51541.433594,0.0,-17694.332031,-17713.861328,17979.302734,-17458.949219,4103.375488,11531.224609,51555.789062,0.0,17739.630859,17721.720703,-17462.115234,17985.558594,30.080549,90.678925,22.910358,0.0,4.701705,0.649101,28.54632,29.322414,30.128401,90.507782,22.91802,0.0,2.771503,-0.32896,29.36438,28.848131,1.009,1.015,4407514.0,2015290.0,-570923.0,0.0,-3998285.0,-1901171.0,-199264.0,191787.0,-4502884.0,-2356465.0,-6863956.0,0.0,-4391037.0,-2440999.0,4649570.0,-200979.0,0.0,0.0,0.0,0.0,0.0,0.0,0.0,0.0,0.0,0.0,0.0,0.0,0.0,0.0,0.0,0.0,0.0,0.0,0.0,0.0,0.0,0.0,0.0,0.0
38,2.6325550079345703,30.080782,90.679337,22.910288,0.0,4.696134,0.635705,28.542683,29.308933,30.128361,90.508003,22.918013,0.0,2.771347,-0.318879,29.354248,28.847775,3.0,1.0,111.0,0.0,1.0,-77911.0,-25395.0,14037.0,-77749.0,25593.0,13775.0,-0.941029,-0.234344,0.244022,-0.295318,0.217024,-0.930424,0.165081,-0.94762,-0.273431,-0.936233,0.199783,0.289059,0.312357,0.096412,0.94506,0.160938,0.975085,-0.152668,-0.941029,-0.234344,0.244022,-0.295318,0.217024,-0.930424,0.165081,-0.94762,-0.273431,-0.936233,0.199783,0.289059,0.312357,0.096412,0.94506,0.160938,0.975085,-0.152668,-77911.0,-25395.0,14037.0,-77749.0,25593.0,13775.0,-4453035.0,-2143637.0,-1758.0,0.0,-4194889.0,-2097993.0,-505.0,-2202.0,-4457291.0,-2228340.0,-6291114.0,0.0,-4193930.0,-2244090.0,-4455546.0,-1140.0,49.0,165.0,-45.0,0.0,-377.0,-531.0,455.0,-482.0,-49.0,-163.0,44.0,0.0,462.0,619.0,672.0,-878.0,-0.013297,-0.044837,0.012409,0.0,-0.01382,-0.019462,-0.016683,-0.017672,-0.013277,-0.044366,0.012064,0.0,0.01691,0.022654,-0.024615,-0.032137,4096.890137,11551.229492,51541.292969,0.0,-17694.361328,-17713.980469,17979.210938,-17459.011719,4103.370117,11531.25,51555.78125,0.0,17739.630859,17721.810547,-17462.160156,17985.509766,0.0,0.0,0.0,0.0,0.0,0.0,0.0,0.0,0.0,0.0,0.0,0.0,0.0,0.0,0.0,0.0,0.0,0.0,0.0,0.0,0.0,0.0,0.0,0.0,0.0,0.0,0.0,0.0,0.0,0.0,0.0,0.0,4096.85791,11551.175781,51541.433594,0.0,-17694.332031,-17713.861328,17979.302734,-17458.949219,4103.375488,11531.224609,51555.789062,0.0,17739.630859,17721.720703,-17462.115234,17985.558594,30.080549,90.678925,22.910358,0.0,4.701705,0.649101,28.54632,29.322414,30.128401,90.507782,22.91802,0.0,2.771503,-0.32896,29.36438,28.848131,1.009,1.015,4407514.0,2015290.0,-570923.0,0.0,-3998285.0,-1901171.0,-199264.0,191787.0,-4502884.0,-2356465.0,-6863956.0,0.0,-4391037.0,-2440999.0,4649570.0,-200979.0,0.0,0.0,0.0,0.0,0.0,0.0,0.0,0.0,0.0,0.0,0.0,0.0,0.0,0.0,0.0,0.0,0.0,0.0,0.0,0.0,0.0,0.0,0.0,0.0
39,2.7005839347839355,30.080782,90.679337,22.910288,0.0,4.696134,0.635705,28.542683,29.308933,30.128361,90.508003,22.918013,0.0,2.771347,-0.318879,29.354248,28.847775,3.0,1.0,111.0,0.0,1.0,-77911.0,-25395.0,14037.0,-77749.0,25593.0,13775.0,-0.941029,-0.234344,0.244022,-0.295318,0.217024,-0.930424,0.165081,-0.94762,-0.273431,-0.936233,0.199783,0.289059,0.312357,0.096412,0.94506,0.160938,0.975085,-0.152668,-0.941029,-0.234344,0.244022,-0.295318,0.217024,-0.930424,0.165081,-0.94762,-0.273431,-0.936233,0.199783,0.289059,0.312357,0.096412,0.94506,0.160938,0.975085,-0.152668,-77911.0,-25395.0,14037.0,-77749.0,25593.0,13775.0,-4453035.0,-2143637.0,-1758.0,0.0,-4194889.0,-2097993.0,-505.0,-2202.0,-4457291.0,-2228340.0,-6291114.0,0.0,-4193930.0,-2244090.0,-4455546.0,-1140.0,49.0,165.0,-45.0,0.0,-377.0,-531.0,455.0,-482.0,-49.0,-163.0,44.0,0.0,462.0,618.0,672.0,-878.0,-0.013297,-0.044837,0.012409,0.0,-0.013818,-0.019455,-0.016677,-0.017668,-0.013277,-0.044366,0.012064,0.0,0.01691,0.022649,-0.024612,-0.032134,4096.890137,11551.229492,51541.292969,0.0,-17694.361328,-17713.980469,17979.210938,-17459.011719,4103.370117,11531.25,51555.78125,0.0,17739.630859,17721.810547,-17462.160156,17985.509766,0.0,0.0,0.0,0.0,0.0,0.0,0.0,0.0,0.0,0.0,0.0,0.0,0.0,0.0,0.0,0.0,0.0,0.0,0.0,0.0,0.0,0.0,0.0,0.0,0.0,0.0,0.0,0.0,0.0,0.0,0.0,0.0,4096.85791,11551.175781,51541.433594,0.0,-17694.332031,-17713.861328,17979.302734,-17458.949219,4103.375488,11531.224609,51555.789062,0.0,17739.630859,17721.720703,-17462.115234,17985.558594,30.080549,90.678925,22.910358,0.0,4.701705,0.649101,28.54632,29.322414,30.128401,90.507782,22.91802,0.0,2.771503,-0.32896,29.36438,28.848131,1.009,1.015,4407514.0,2015290.0,-570923.0,0.0,-3998285.0,-1901171.0,-199264.0,191787.0,-4502884.0,-2356465.0,-6863956.0,0.0,-4391037.0,-2440999.0,4649570.0,-200979.0,0.0,0.0,0.0,0.0,0.0,0.0,0.0,0.0,0.0,0.0,0.0,0.0,0.0,0.0,0.0,0.0,0.0,0.0,0.0,0.0,0.0,0.0,0.0,0.0
40,2.7685458660125732,30.080782,90.679337,22.910288,0.0,4.696134,0.635705,28.542683,29.308933,30.128361,90.508003,22.918013,0.0,2.771347,-0.318879,29.354248,28.847775,3.0,1.0,111.0,0.0,1.0,-77911.0,-25395.0,14037.0,-77749.0,25593.0,13775.0,-0.941029,-0.234344,0.244022,-0.295318,0.217024,-0.930424,0.165081,-0.94762,-0.273431,-0.936233,0.199783,0.289059,0.312357,0.096412,0.94506,0.160938,0.975085,-0.152668,-0.941029,-0.234344,0.244022,-0.295318,0.217024,-0.930424,0.165081,-0.94762,-0.273431,-0.936233,0.199783,0.289059,0.312357,0.096412,0.94506,0.160938,0.975085,-0.152668,-77911.0,-25395.0,14037.0,-77749.0,25593.0,13775.0,-4453035.0,-2143637.0,-1758.0,0.0,-4194889.0,-2097993.0,-505.0,-2202.0,-4457291.0,-2228340.0,-6291114.0,0.0,-4193930.0,-2244090.0,-4455546.0,-1140.0,49.0,165.0,-45.0,0.0,-377.0,-531.0,455.0,-482.0,-49.0,-163.0,44.0,0.0,462.0,618.0,672.0,-878.0,-0.013297,-0.044837,0.012409,0.0,-0.013816,-0.019448,-0.016672,-0.017664,-0.013277,-0.044366,0.012064,0.0,0.01691,0.022644,-0.02461,-0.032132,4096.890137,11551.229492,51541.292969,0.0,-17694.361328,-17713.980469,17979.210938,-17459.011719,4103.370117,11531.25,51555.78125,0.0,17739.630859,17721.810547,-17462.160156,17985.509766,0.0,0.0,0.0,0.0,0.0,0.0,0.0,0.0,0.0,0.0,0.0,0.0,0.0,0.0,0.0,0.0,0.0,0.0,0.0,0.0,0.0,0.0,0.0,0.0,0.0,0.0,0.0,0.0,0.0,0.0,0.0,0.0,4096.85791,11551.175781,51541.433594,0.0,-17694.332031,-17713.861328,17979.302734,-17458.949219,4103.375488,11531.224609,51555.789062,0.0,17739.630859,17721.720703,-17462.115234,17985.558594,30.080549,90.678925,22.910358,0.0,4.701705,0.649101,28.54632,29.322414,30.128401,90.507782,22.91802,0.0,2.771503,-0.32896,29.36438,28.848131,1.009,1.015,4407514.0,2015290.0,-570923.0,0.0,-3998285.0,-1901171.0,-199264.0,191787.0,-4502884.0,-2356465.0,-6863956.0,0.0,-4391037.0,-2440999.0,4649570.0,-200979.0,0.0,0.0,0.0,0.0,0.0,0.0,0.0,0.0,0.0,0.0,0.0,0.0,0.0,0.0,0.0,0.0,0.0,0.0,0.0,0.0,0.0,0.0,0.0,0.0
41,2.8355648517608643,30.080782,90.679337,22.910288,0.0,4.696134,0.635705,28.542683,29.308933,30.128361,90.508003,22.918013,0.0,2.771347,-0.318879,29.354248,28.847775,3.0,1.0,111.0,0.0,1.0,-77911.0,-25395.0,14037.0,-77749.0,25593.0,13775.0,-0.941029,-0.234344,0.244022,-0.295318,0.217024,-0.930424,0.165081,-0.94762,-0.273431,-0.936233,0.199783,0.289059,0.312357,0.096412,0.94506,0.160938,0.975085,-0.152668,-0.941029,-0.234344,0.244022,-0.295318,0.217024,-0.930424,0.165081,-0.94762,-0.273431,-0.936233,0.199783,0.289059,0.312357,0.096412,0.94506,0.160938,0.975085,-0.152668,-77911.0,-25395.0,14037.0,-77749.0,25593.0,13775.0,-4453035.0,-2143637.0,-1758.0,0.0,-4194889.0,-2097993.0,-505.0,-2202.0,-4457291.0,-2228340.0,-6291114.0,0.0,-4193930.0,-2244090.0,-4455546.0,-1140.0,49.0,165.0,-45.0,0.0,-377.0,-531.0,455.0,-482.0,-49.0,-163.0,44.0,0.0,462.0,618.0,672.0,-878.0,-0.013297,-0.044837,0.012409,0.0,-0.013815,-0.019441,-0.016667,-0.017661,-0.013277,-0.044366,0.012064,0.0,0.01691,0.022638,-0.024607,-0.032129,4096.890137,11551.229492,51541.292969,0.0,-17694.361328,-17713.980469,17979.210938,-17459.011719,4103.370117,11531.25,51555.78125,0.0,17739.630859,17721.810547,-17462.160156,17985.509766,0.0,0.0,0.0,0.0,0.0,0.0,0.0,0.0,0.0,0.0,0.0,0.0,0.0,0.0,0.0,0.0,0.0,0.0,0.0,0.0,0.0,0.0,0.0,0.0,0.0,0.0,0.0,0.0,0.0,0.0,0.0,0.0,4096.85791,11551.175781,51541.433594,0.0,-17694.332031,-17713.861328,17979.302734,-17458.949219,4103.375488,11531.224609,51555.789062,0.0,17739.630859,17721.720703,-17462.115234,17985.558594,30.080549,90.678925,22.910358,0.0,4.701705,0.649101,28.54632,29.322414,30.128401,90.507782,22.91802,0.0,2.771503,-0.32896,29.36438,28.848131,1.009,1.015,4407514.0,2015290.0,-570923.0,0.0,-3998285.0,-1901171.0,-199264.0,191787.0,-4502884.0,-2356465.0,-6863956.0,0.0,-4391037.0,-2440999.0,4649570.0,-200979.0,0.0,0.0,0.0,0.0,0.0,0.0,0.0,0.0,0.0,0.0,0.0,0.0,0.0,0.0,0.0,0.0,0.0,0.0,0.0,0.0,0.0,0.0,0.0,0.0
42,2.9005868434906006,30.080782,90.679337,22.910288,0.0,4.696134,0.635705,28.542683,29.308933,30.128361,90.508003,22.918013,0.0,2.771347,-0.318879,29.354248,28.847775,3.0,1.0,111.0,0.0,1.0,-77911.0,-25395.0,14037.0,-77749.0,25593.0,13775.0,-0.941029,-0.234344,0.244022,-0.295318,0.217024,-0.930424,0.165081,-0.94762,-0.273431,-0.936233,0.199783,0.289059,0.312357,0.096412,0.94506,0.160938,0.975085,-0.152668,-0.941029,-0.234344,0.244022,-0.295318,0.217024,-0.930424,0.165081,-0.94762,-0.273431,-0.936233,0.199783,0.289059,0.312357,0.096412,0.94506,0.160938,0.975085,-0.152668,-77911.0,-25395.0,14037.0,-77749.0,25593.0,13775.0,-4453035.0,-2143637.0,-1758.0,0.0,-4194889.0,-2097993.0,-505.0,-2202.0,-4457291.0,-2228340.0,-6291114.0,0.0,-4193930.0,-2244090.0,-4455546.0,-1140.0,49.0,165.0,-45.0,0.0,-377.0,-531.0,455.0,-482.0,-49.0,-163.0,44.0,0.0,462.0,618.0,672.0,-877.0,-0.013297,-0.044837,0.012409,0.0,-0.013813,-0.019434,-0.016661,-0.017657,-0.013277,-0.044366,0.012064,0.0,0.01691,0.022633,-0.024604,-0.032126,4096.890137,11551.229492,51541.292969,0.0,-17694.361328,-17713.980469,17979.210938,-17459.011719,4103.370117,11531.25,51555.78125,0.0,17739.630859,17721.810547,-17462.160156,17985.509766,0.0,0.0,0.0,0.0,0.0,0.0,0.0,0.0,0.0,0.0,0.0,0.0,0.0,0.0,0.0,0.0,0.0,0.0,0.0,0.0,0.0,0.0,0.0,0.0,0.0,0.0,0.0,0.0,0.0,0.0,0.0,0.0,4096.85791,11551.175781,51541.433594,0.0,-17694.332031,-17713.861328,17979.302734,-17458.949219,4103.375488,11531.224609,51555.789062,0.0,17739.630859,17721.720703,-17462.115234,17985.558594,30.080549,90.678925,22.910358,0.0,4.701705,0.649101,28.54632,29.322414,30.128401,90.507782,22.91802,0.0,2.771503,-0.32896,29.36438,28.848131,1.009,1.015,4407514.0,2015290.0,-570923.0,0.0,-3998285.0,-1901171.0,-199264.0,191787.0,-4502884.0,-2356465.0,-6863956.0,0.0,-4391037.0,-2440999.0,4649570.0,-200979.0,0.0,0.0,0.0,0.0,0.0,0.0,0.0,0.0,0.0,0.0,0.0,0.0,0.0,0.0,0.0,0.0,0.0,0.0,0.0,0.0,0.0,0.0,0.0,0.0
43,2.9715659618377686,30.080782,90.679337,22.910288,0.0,4.696134,0.635705,28.542683,29.308933,30.128361,90.508003,22.918013,0.0,2.771347,-0.318879,29.354248,28.847775,3.0,1.0,111.0,0.0,1.0,-77911.0,-25395.0,14037.0,-77749.0,25593.0,13775.0,-0.941029,-0.234344,0.244022,-0.295318,0.217024,-0.930424,0.165081,-0.94762,-0.273431,-0.936233,0.199783,0.289059,0.312357,0.096412,0.94506,0.160938,0.975085,-0.152668,-0.941029,-0.234344,0.244022,-0.295318,0.217024,-0.930424,0.165081,-0.94762,-0.273431,-0.936233,0.199783,0.289059,0.312357,0.096412,0.94506,0.160938,0.975085,-0.152668,-77911.0,-25395.0,14037.0,-77749.0,25593.0,13775.0,-4453035.0,-2143637.0,-1758.0,0.0,-4194889.0,-2097993.0,-505.0,-2202.0,-4457291.0,-2228340.0,-6291114.0,0.0,-4193930.0,-2244090.0,-4455546.0,-1140.0,49.0,165.0,-45.0,0.0,-377.0,-530.0,455.0,-482.0,-49.0,-163.0,44.0,0.0,462.0,618.0,672.0,-877.0,-0.013297,-0.044837,0.012409,0.0,-0.013811,-0.019426,-0.016656,-0.017654,-0.013277,-0.044366,0.012064,0.0,0.01691,0.022627,-0.024601,-0.032123,4096.890137,11551.229492,51541.292969,0.0,-17694.361328,-17713.980469,17979.210938,-17459.011719,4103.370117,11531.25,51555.78125,0.0,17739.630859,17721.810547,-17462.160156,17985.509766,0.0,0.0,0.0,0.0,0.0,0.0,0.0,0.0,0.0,0.0,0.0,0.0,0.0,0.0,0.0,0.0,0.0,0.0,0.0,0.0,0.0,0.0,0.0,0.0,0.0,0.0,0.0,0.0,0.0,0.0,0.0,0.0,4096.85791,11551.175781,51541.433594,0.0,-17694.332031,-17713.861328,17979.302734,-17458.949219,4103.375488,11531.224609,51555.789062,0.0,17739.630859,17721.720703,-17462.115234,17985.558594,30.080549,90.678925,22.910358,0.0,4.701705,0.649101,28.54632,29.322414,30.128401,90.507782,22.91802,0.0,2.771503,-0.32896,29.36438,28.848131,1.009,1.015,4407514.0,2015290.0,-570923.0,0.0,-3998285.0,-1901171.0,-199264.0,191787.0,-4502884.0,-2356465.0,-6863956.0,0.0,-4391037.0,-2440999.0,4649570.0,-200979.0,0.0,0.0,0.0,0.0,0.0,0.0,0.0,0.0,0.0,0.0,0.0,0.0,0.0,0.0,0.0,0.0,0.0,0.0,0.0,0.0,0.0,0.0,0.0,0.0
44,3.044571876525879,30.080782,90.679337,22.910288,0.0,4.696134,0.635705,28.542683,29.308933,30.128361,90.508003,22.918013,0.0,2.771347,-0.318879,29.354248,28.847775,3.0,1.0,111.0,0.0,1.0,-77911.0,-25395.0,14037.0,-77749.0,25593.0,13775.0,-0.941029,-0.234344,0.244022,-0.295318,0.217024,-0.930424,0.165081,-0.94762,-0.273431,-0.936233,0.199783,0.289059,0.312357,0.096412,0.94506,0.160938,0.975085,-0.152668,-0.941029,-0.234344,0.244022,-0.295318,0.217024,-0.930424,0.165081,-0.94762,-0.273431,-0.936233,0.199783,0.289059,0.312357,0.096412,0.94506,0.160938,0.975085,-0.152668,-77911.0,-25395.0,14037.0,-77749.0,25593.0,13775.0,-4453035.0,-2143637.0,-1758.0,0.0,-4194889.0,-2097993.0,-505.0,-2202.0,-4457291.0,-2228340.0,-6291114.0,0.0,-4193930.0,-2244090.0,-4455546.0,-1140.0,49.0,165.0,-45.0,0.0,-377.0,-530.0,455.0,-482.0,-49.0,-163.0,44.0,0.0,462.0,618.0,672.0,-877.0,-0.013297,-0.044837,0.012409,0.0,-0.013809,-0.019419,-0.01665,-0.01765,-0.013277,-0.044366,0.012064,0.0,0.01691,0.022622,-0.024598,-0.03212,4096.890137,11551.229492,51541.292969,0.0,-17694.361328,-17713.980469,17979.210938,-17459.011719,4103.370117,11531.25,51555.78125,0.0,17739.630859,17721.810547,-17462.160156,17985.509766,0.0,0.0,0.0,0.0,0.0,0.0,0.0,0.0,0.0,0.0,0.0,0.0,0.0,0.0,0.0,0.0,0.0,0.0,0.0,0.0,0.0,0.0,0.0,0.0,0.0,0.0,0.0,0.0,0.0,0.0,0.0,0.0,4096.85791,11551.175781,51541.433594,0.0,-17694.332031,-17713.861328,17979.302734,-17458.949219,4103.375488,11531.224609,51555.789062,0.0,17739.630859,17721.720703,-17462.115234,17985.558594,30.080549,90.678925,22.910358,0.0,4.701705,0.649101,28.54632,29.322414,30.128401,90.507782,22.91802,0.0,2.771503,-0.32896,29.36438,28.848131,1.009,1.015,4407514.0,2015290.0,-570923.0,0.0,-3998285.0,-1901171.0,-199264.0,191787.0,-4502884.0,-2356465.0,-6863956.0,0.0,-4391037.0,-2440999.0,4649570.0,-200979.0,0.0,0.0,0.0,0.0,0.0,0.0,0.0,0.0,0.0,0.0,0.0,0.0,0.0,0.0,0.0,0.0,0.0,0.0,0.0,0.0,0.0,0.0,0.0,0.0
45,3.115562915802002,30.080782,90.679337,22.910288,0.0,4.696134,0.635705,28.542683,29.308933,30.128361,90.508003,22.918013,0.0,2.771347,-0.318879,29.354248,28.847775,3.0,1.0,111.0,0.0,1.0,-77911.0,-25395.0,14037.0,-77749.0,25593.0,13775.0,-0.941029,-0.234344,0.244022,-0.295318,0.217024,-0.930424,0.165081,-0.94762,-0.273431,-0.936233,0.199783,0.289059,0.312357,0.096412,0.94506,0.160938,0.975085,-0.152668,-0.941029,-0.234344,0.244022,-0.295318,0.217024,-0.930424,0.165081,-0.94762,-0.273431,-0.936233,0.199783,0.289059,0.312357,0.096412,0.94506,0.160938,0.975085,-0.152668,-77911.0,-25395.0,14037.0,-77749.0,25593.0,13775.0,-4453035.0,-2143637.0,-1758.0,0.0,-4194889.0,-2097993.0,-505.0,-2202.0,-4457291.0,-2228340.0,-6291114.0,0.0,-4193930.0,-2244090.0,-4455546.0,-1140.0,49.0,165.0,-45.0,0.0,-377.0,-530.0,454.0,-482.0,-49.0,-163.0,44.0,0.0,462.0,618.0,672.0,-877.0,-0.013297,-0.044837,0.012409,0.0,-0.013808,-0.019411,-0.016644,-0.017646,-0.013277,-0.044366,0.012064,0.0,0.01691,0.022616,-0.024596,-0.032117,4096.890137,11551.229492,51541.292969,0.0,-17694.361328,-17713.980469,17979.210938,-17459.011719,4103.370117,11531.25,51555.78125,0.0,17739.630859,17721.810547,-17462.160156,17985.509766,0.0,0.0,0.0,0.0,0.0,0.0,0.0,0.0,0.0,0.0,0.0,0.0,0.0,0.0,0.0,0.0,0.0,0.0,0.0,0.0,0.0,0.0,0.0,0.0,0.0,0.0,0.0,0.0,0.0,0.0,0.0,0.0,4096.85791,11551.175781,51541.433594,0.0,-17694.332031,-17713.861328,17979.302734,-17458.949219,4103.375488,11531.224609,51555.789062,0.0,17739.630859,17721.720703,-17462.115234,17985.558594,30.080549,90.678925,22.910358,0.0,4.701705,0.649101,28.54632,29.322414,30.128401,90.507782,22.91802,0.0,2.771503,-0.32896,29.36438,28.848131,1.009,1.015,4407514.0,2015290.0,-570923.0,0.0,-3998285.0,-1901171.0,-199264.0,191787.0,-4502884.0,-2356465.0,-6863956.0,0.0,-4391037.0,-2440999.0,4649570.0,-200979.0,0.0,0.0,0.0,0.0,0.0,0.0,0.0,0.0,0.0,0.0,0.0,0.0,0.0,0.0,0.0,0.0,0.0,0.0,0.0,0.0,0.0,0.0,0.0,0.0
46,3.183568000793457,30.080782,90.679337,22.910288,0.0,4.696134,0.635705,28.542683,29.308933,30.128361,90.508003,22.918013,0.0,2.771347,-0.318879,29.354248,28.847775,3.0,1.0,111.0,0.0,1.0,-77911.0,-25395.0,14037.0,-77749.0,25593.0,13775.0,-0.941029,-0.234344,0.244022,-0.295318,0.217024,-0.930424,0.165081,-0.94762,-0.273431,-0.936233,0.199783,0.289059,0.312357,0.096412,0.94506,0.160938,0.975085,-0.152668,-0.941029,-0.234344,0.244022,-0.295318,0.217024,-0.930424,0.165081,-0.94762,-0.273431,-0.936233,0.199783,0.289059,0.312357,0.096412,0.94506,0.160938,0.975085,-0.152668,-77911.0,-25395.0,14037.0,-77749.0,25593.0,13775.0,-4453035.0,-2143637.0,-1758.0,0.0,-4194889.0,-2097993.0,-505.0,-2202.0,-4457291.0,-2228340.0,-6291114.0,0.0,-4193930.0,-2244090.0,-4455546.0,-1140.0,49.0,165.0,-45.0,0.0,-377.0,-530.0,454.0,-482.0,-49.0,-163.0,44.0,0.0,462.0,617.0,672.0,-877.0,-0.013297,-0.044837,0.012409,0.0,-0.013806,-0.019404,-0.016639,-0.017642,-0.013277,-0.044366,0.012064,0.0,0.01691,0.022611,-0.024593,-0.032114,4096.890137,11551.229492,51541.292969,0.0,-17694.361328,-17713.980469,17979.210938,-17459.011719,4103.370117,11531.25,51555.78125,0.0,17739.630859,17721.810547,-17462.160156,17985.509766,0.0,0.0,0.0,0.0,0.0,0.0,0.0,0.0,0.0,0.0,0.0,0.0,0.0,0.0,0.0,0.0,0.0,0.0,0.0,0.0,0.0,0.0,0.0,0.0,0.0,0.0,0.0,0.0,0.0,0.0,0.0,0.0,4096.85791,11551.175781,51541.433594,0.0,-17694.332031,-17713.861328,17979.302734,-17458.949219,4103.375488,11531.224609,51555.789062,0.0,17739.630859,17721.720703,-17462.115234,17985.558594,30.080549,90.678925,22.910358,0.0,4.701705,0.649101,28.54632,29.322414,30.128401,90.507782,22.91802,0.0,2.771503,-0.32896,29.36438,28.848131,1.009,1.015,4407514.0,2015290.0,-570923.0,0.0,-3998285.0,-1901171.0,-199264.0,191787.0,-4502884.0,-2356465.0,-6863956.0,0.0,-4391037.0,-2440999.0,4649570.0,-200979.0,0.0,0.0,0.0,0.0,0.0,0.0,0.0,0.0,0.0,0.0,0.0,0.0,0.0,0.0,0.0,0.0,0.0,0.0,0.0,0.0,0.0,0.0,0.0,0.0
47,3.255560874938965,30.080782,90.679337,22.910288,0.0,4.696134,0.635705,28.542683,29.308933,30.128361,90.508003,22.918013,0.0,2.771347,-0.318879,29.354248,28.847775,3.0,1.0,111.0,0.0,1.0,-77911.0,-25395.0,14037.0,-77749.0,25593.0,13775.0,-0.941029,-0.234344,0.244022,-0.295318,0.217024,-0.930424,0.165081,-0.94762,-0.273431,-0.936233,0.199783,0.289059,0.312357,0.096412,0.94506,0.160938,0.975085,-0.152668,-0.941029,-0.234344,0.244022,-0.295318,0.217024,-0.930424,0.165081,-0.94762,-0.273431,-0.936233,0.199783,0.289059,0.312357,0.096412,0.94506,0.160938,0.975085,-0.152668,-77911.0,-25395.0,14037.0,-77749.0,25593.0,13775.0,-4453035.0,-2143637.0,-1758.0,0.0,-4194889.0,-2097993.0,-505.0,-2202.0,-4457291.0,-2228340.0,-6291114.0,0.0,-4193930.0,-2244090.0,-4455546.0,-1140.0,49.0,165.0,-45.0,0.0,-377.0,-530.0,454.0,-482.0,-49.0,-163.0,44.0,0.0,462.0,617.0,672.0,-877.0,-0.013297,-0.044837,0.012409,0.0,-0.013804,-0.019396,-0.016633,-0.017638,-0.013277,-0.044366,0.012064,0.0,0.01691,0.022605,-0.02459,-0.032111,4096.890137,11551.229492,51541.292969,0.0,-17694.361328,-17713.980469,17979.210938,-17459.011719,4103.370117,11531.25,51555.78125,0.0,17739.630859,17721.810547,-17462.160156,17985.509766,0.0,0.0,0.0,0.0,0.0,0.0,0.0,0.0,0.0,0.0,0.0,0.0,0.0,0.0,0.0,0.0,0.0,0.0,0.0,0.0,0.0,0.0,0.0,0.0,0.0,0.0,0.0,0.0,0.0,0.0,0.0,0.0,4096.85791,11551.175781,51541.433594,0.0,-17694.332031,-17713.861328,17979.302734,-17458.949219,4103.375488,11531.224609,51555.789062,0.0,17739.630859,17721.720703,-17462.115234,17985.558594,30.080549,90.678925,22.910358,0.0,4.701705,0.649101,28.54632,29.322414,30.128401,90.507782,22.91802,0.0,2.771503,-0.32896,29.36438,28.848131,1.009,1.015,4407514.0,2015290.0,-570923.0,0.0,-3998285.0,-1901171.0,-199264.0,191787.0,-4502884.0,-2356465.0,-6863956.0,0.0,-4391037.0,-2440999.0,4649570.0,-200979.0,0.0,0.0,0.0,0.0,0.0,0.0,0.0,0.0,0.0,0.0,0.0,0.0,0.0,0.0,0.0,0.0,0.0,0.0,0.0,0.0,0.0,0.0,0.0,0.0
48,3.3205559253692627,30.080782,90.679337,22.910288,0.0,4.696134,0.635705,28.542683,29.308933,30.128361,90.508003,22.918013,0.0,2.771347,-0.318879,29.354248,28.847775,3.0,1.0,111.0,0.0,1.0,-77911.0,-25395.0,14037.0,-77749.0,25593.0,13775.0,-0.941029,-0.234344,0.244022,-0.295318,0.217024,-0.930424,0.165081,-0.94762,-0.273431,-0.936233,0.199783,0.289059,0.312357,0.096412,0.94506,0.160938,0.975085,-0.152668,-0.941029,-0.234344,0.244022,-0.295318,0.217024,-0.930424,0.165081,-0.94762,-0.273431,-0.936233,0.199783,0.289059,0.312357,0.096412,0.94506,0.160938,0.975085,-0.152668,-77911.0,-25395.0,14037.0,-77749.0,25593.0,13775.0,-4453035.0,-2143637.0,-1758.0,0.0,-4194889.0,-2097993.0,-505.0,-2202.0,-4457291.0,-2228340.0,-6291114.0,0.0,-4193930.0,-2244090.0,-4455546.0,-1140.0,49.0,165.0,-45.0,0.0,-377.0,-529.0,454.0,-481.0,-49.0,-163.0,44.0,0.0,462.0,617.0,671.0,-877.0,-0.013297,-0.044837,0.012409,0.0,-0.013802,-0.019389,-0.016627,-0.017635,-0.013277,-0.044366,0.012064,0.0,0.01691,0.0226,-0.024587,-0.032109,4096.890137,11551.229492,51541.292969,0.0,-17694.361328,-17713.980469,17979.210938,-17459.011719,4103.370117,11531.25,51555.78125,0.0,17739.630859,17721.810547,-17462.160156,17985.509766,0.0,0.0,0.0,0.0,0.0,0.0,0.0,0.0,0.0,0.0,0.0,0.0,0.0,0.0,0.0,0.0,0.0,0.0,0.0,0.0,0.0,0.0,0.0,0.0,0.0,0.0,0.0,0.0,0.0,0.0,0.0,0.0,4096.85791,11551.175781,51541.433594,0.0,-17694.332031,-17713.861328,17979.302734,-17458.949219,4103.375488,11531.224609,51555.789062,0.0,17739.630859,17721.720703,-17462.115234,17985.558594,30.080549,90.678925,22.910358,0.0,4.701705,0.649101,28.54632,29.322414,30.128401,90.507782,22.91802,0.0,2.771503,-0.32896,29.36438,28.848131,1.009,1.015,4407514.0,2015290.0,-570923.0,0.0,-3998285.0,-1901171.0,-199264.0,191787.0,-4502884.0,-2356465.0,-6863956.0,0.0,-4391037.0,-2440999.0,4649570.0,-200979.0,0.0,0.0,0.0,0.0,0.0,0.0,0.0,0.0,0.0,0.0,0.0,0.0,0.0,0.0,0.0,0.0,0.0,0.0,0.0,0.0,0.0,0.0,0.0,0.0
49,3.385556936264038,30.101931,90.676994,22.909975,0.0,4.673181,0.621933,28.563341,29.288275,30.128361,90.508003,22.918013,0.0,2.771347,-0.318879,29.354248,28.847775,3.0,1.0,111.0,0.0,1.0,-77906.0,-25428.0,14035.0,-77749.0,25593.0,13775.0,-0.940784,-0.234638,0.244684,-0.295963,0.216494,-0.930342,0.165321,-0.947668,-0.273118,-0.936233,0.199783,0.289059,0.312357,0.096412,0.94506,0.160938,0.975085,-0.152668,-0.940784,-0.234638,0.244684,-0.295963,0.216494,-0.930342,0.165321,-0.947668,-0.273118,-0.936233,0.199783,0.289059,0.312357,0.096412,0.94506,0.160938,0.975085,-0.152668,-77906.0,-25428.0,14035.0,-77749.0,25593.0,13775.0,-4453067.0,-2143638.0,-1754.0,0.0,-4194889.0,-2097993.0,-505.0,-2202.0,-4457291.0,-2228340.0,-6291114.0,0.0,-4193930.0,-2244090.0,-4455546.0,-1140.0,-140.0,77.0,95.0,0.0,-371.0,-526.0,457.0,-478.0,-49.0,-163.0,44.0,0.0,462.0,617.0,671.0,-877.0,0.03804,-0.021062,-0.025715,0.0,-0.013605,-0.019274,-0.016731,-0.017522,-0.013277,-0.044366,0.012064,0.0,0.01691,0.022595,-0.024585,-0.032106,4099.77002,11551.320312,51540.933594,0.0,-17694.361328,-17713.980469,17979.210938,-17459.011719,4103.370117,11531.25,51555.78125,0.0,17739.630859,17721.810547,-17462.160156,17985.509766,180.098419,0.0,0.0,0.0,0.0,0.0,0.0,0.0,0.0,0.0,0.0,0.0,0.0,0.0,0.0,0.0,1.322345,-0.192335,-0.008757,0.0,0.0,0.0,0.0,0.0,0.0,0.0,0.0,0.0,0.0,0.0,0.0,0.0,4114.366699,11555.807617,51526.511719,0.0,-17694.207031,-17713.736328,17979.179688,-17458.826172,4103.375488,11531.224609,51555.789062,0.0,17739.630859,17721.720703,-17462.115234,17985.558594,30.209101,90.698334,22.902287,0.0,4.701705,0.649101,28.54632,29.322414,30.128401,90.507782,22.91802,0.0,2.771503,-0.32896,29.36438,28.848131,1.009,1.015,4407514.0,2015290.0,-570923.0,0.0,-3998285.0,-1901171.0,-199264.0,191787.0,-4502884.0,-2356465.0,-6863956.0,0.0,-4391037.0,-2440999.0,4649570.0,-200979.0,-0.003702,1e-06,0.046311,0.025956,0.00887,-0.026992,0.0,0.0,0.0,0.0,0.0,0.0,-0.003702,1e-06,0.046311,0.025956,0.00887,-0.026992,0.0,0.0,0.0,0.0,0.0,0.0
