MHC-RobotSimulators-Research/Data_Analysis_MotionReplication/mai_plotter/raven_data/twoarm_p5_phys1.csv
,time,jpos0,jpos1,jpos2,jpos3,jpos4,jpos5,jpos6,jpos7,jpos8,jpos9,jpos10,jpos11,jpos12,jpos13,jpos14,jpos15,runlevel,sublevel,last_seq,type0,type1,pos0,pos1,pos2,pos3,pos4,pos5,ori0,ori1,ori2,ori3,ori4,ori5,ori6,ori7,ori8,ori9,ori10,ori11,ori12,ori13,ori14,ori15,ori16,ori17,ori_d0,ori_d1,ori_d2,ori_d3,ori_d4,ori_d5,ori_d6,ori_d7,ori_d8,ori_d9,ori_d10,ori_d11,ori_d12,ori_d13,ori_d14,ori_d15,ori_d16,ori_d17,pos_d0,pos_d1,pos_d2,pos_d3,pos_d4,pos_d5,encVals0,encVals1,encVals2,encVals3,encVals4,encVals5,encVals6,encVals7,encVals8,encVals9,encVals10,encVals11,encVals12,encVals13,encVals14,encVals15,dac_vals0,dac_vals1,dac_vals2,dac_vals3,dac_vals4,dac_vals5,dac_vals6,dac_vals7,dac_vals8,dac_vals9,dac_vals10,dac_vals11,dac_vals12,dac_vals13,dac_vals14,dac_vals15,Tau0,Tau1,Tau2,Tau3,Tau4,Tau5,Tau6,Tau7,Tau8,Tau9,Tau10,Tau11,Tau12,Tau13,Tau14,Tau15,mpos0,mpos1,mpos2,mpos3,mpos4,mpos5,mpos6,mpos7,mpos8,mpos9,mpos10,mpos11,mpos12,mpos13,mpos14,mpos15,mvel0,mvel1,mvel2,mvel3,mvel4,mvel5,mvel6,mvel7,mvel8,mvel9,mvel10,mvel11,mvel12,mvel13,mvel14,mvel15,jvel0,jvel1,jvel2,jvel3,jvel4,jvel5,jvel6,jvel7,jvel8,jvel9,jvel10,jvel11,jvel12,jvel13,jvel14,jvel15,mpos_d0,mpos_d1,mpos_d2,mpos_d3,mpos_d4,mpos_d5,mpos_d6,mpos_d7,mpos_d8,mpos_d9,mpos_d10,mpos_d11,mpos_d12,mpos_d13,mpos_d14,mpos_d15,jpos_d0,jpos_d1,jpos_d2,jpos_d3,jpos_d4,jpos_d5,jpos_d6,jpos_d7,jpos_d8,jpos_d9,jpos_d10,jpos_d11,jpos_d12,jpos_d13,jpos_d14,jpos_d15,grasp_d0,grasp_d1,encoffsets0,encoffsets1,encoffsets2,encoffsets3,encoffsets4,encoffsets5,encoffsets6,encoffsets7,encoffsets8,encoffsets9,encoffsets10,encoffsets11,encoffsets12,encoffsets13,encoffsets14,encoffsets15,jac_vel0,jac_vel1,jac_vel2,jac_vel3,jac_vel4,jac_vel5,jac_vel6,jac_vel7,jac_vel8,jac_vel9,jac_vel10,jac_vel11,jac_f0,jac_f1,jac_f2,jac_f3,jac_f4,jac_f5,jac_f6,jac_f7,jac_f8,jac_f9,jac_f10,jac_f11
0,0.0,29.961178,90.88929,22.918322,0.0,44.924461,-0.06946,32.012642,31.854427,29.892448,90.647484,22.938532,0.0,44.987183,-0.001688,31.430679,31.455563,3.0,1.0,111.0,0.0,1.0,-77743.0,-25366.0,14193.0,-77504.0,25118.0,13880.0,-0.936154,-0.349568,0.037664,-0.307251,0.761309,-0.570969,0.170919,-0.546087,-0.820107,-0.937774,-0.036409,0.345333,0.303825,-0.567572,0.765214,0.168141,0.822518,0.543316,-0.936154,-0.349568,0.037664,-0.307251,0.761309,-0.570969,0.170919,-0.546087,-0.820107,-0.937774,-0.036409,0.345333,0.303825,-0.567572,0.765214,0.168141,0.822518,0.543316,-77743.0,-25366.0,14193.0,-77504.0,25118.0,13880.0,-4442328.0,-5827.0,-4205036.0,0.0,-1221.0,-3262.0,-3558.0,-5329.0,-20540.0,8798.0,3165.0,0.0,2402.0,1251.0,1853.0,-938.0,48.0,166.0,-45.0,0.0,870.0,539.0,431.0,-39.0,-44.0,-164.0,19.0,0.0,400.0,195.0,546.0,-736.0,-0.013036,-0.044922,0.012262,0.0,0.031847,0.019756,-0.015794,-0.001437,-0.012175,-0.044471,0.005218,0.0,0.014658,0.007149,-0.019985,-0.026949,4080.600342,11574.630859,51560.28125,0.0,-17483.849609,-17726.849609,18013.769531,-17439.480469,4071.23999,11544.030273,51598.53125,0.0,17982.089844,17739.361328,-17456.759766,18022.230469,0.0,0.0,0.0,0.0,0.0,0.0,0.0,0.0,0.0,0.0,0.0,0.0,0.0,0.0,0.0,0.0,0.0,0.0,0.0,0.0,0.0,0.0,0.0,0.0,0.0,0.0,0.0,0.0,0.0,0.0,0.0,0.0,4080.519043,11574.631836,51560.367188,0.0,-17483.931641,-17726.238281,18014.160156,-17438.376953,4071.237305,11544.018555,51595.921875,0.0,17981.589844,17739.382812,-17456.15625,18022.664062,29.960581,90.889397,22.918367,0.0,44.909554,-0.001336,32.021858,32.01115,29.892431,90.647385,22.937325,0.0,44.894424,0.000567,31.49687,31.504948,1.114,1.097,4396988.0,-122780.0,3632144.0,0.0,193044.0,193703.0,-196595.0,188443.0,-65776.0,-119469.0,-570152.0,0.0,-197399.0,-195853.0,192111.0,-201185.0,0.0,0.0,0.0,0.0,0.0,0.0,0.0,0.0,0.0,0.0,0.0,0.0,0.0,0.0,0.0,0.0,0.0,0.0,0.0,0.0,0.0,0.0,0.0,0.0
1,0.06796002388000488,29.961178,90.88929,22.918322,0.0,44.924461,-0.06946,32.012642,31.854427,29.892448,90.647484,22.938532,0.0,44.987183,-0.001688,31.430679,31.455563,3.0,1.0,111.0,0.0,1.0,-77743.0,-25366.0,14193.0,-77504.0,25118.0,13880.0,-0.936154,-0.349568,0.037664,-0.307251,0.761309,-0.570969,0.170919,-0.546087,-0.820107,-0.937774,-0.036409,0.345333,0.303825,-0.567572,0.765214,0.168141,0.822518,0.543316,-0.936154,-0.349568,0.037664,-0.307251,0.761309,-0.570969,0.170919,-0.546087,-0.820107,-0.937774,-0.036409,0.345333,0.303825,-0.567572,0.765214,0.168141,0.822518,0.543316,-77743.0,-25366.0,14193.0,-77504.0,25118.0,13880.0,-4442328.0,-5827.0,-4205036.0,0.0,-1221.0,-3262.0,-3558.0,-5329.0,-20540.0,8798.0,3165.0,0.0,2402.0,1251.0,1853.0,-938.0,46.0,166.0,-45.0,0.0,873.0,525.0,445.0,-70.0,-46.0,-165.0,45.0,0.0,425.0,194.0,564.0,-750.0,-0.012517,-0.044977,0.012272,0.0,0.031962,0.019224,-0.016299,-0.002564,-0.012525,-0.044723,0.012203,0.0,0.015582,0.007125,-0.020652,-0.027462,4080.600342,11574.630859,51560.28125,0.0,-17483.849609,-17726.849609,18013.769531,-17439.480469,4071.23999,11544.030273,51598.53125,0.0,17982.089844,17739.361328,-17456.759766,18022.230469,0.0,0.0,0.0,0.0,0.0,0.0,0.0,0.0,0.0,0.0,0.0,0.0,0.0,0.0,0.0,0.0,0.0,0.0,0.0,0.0,0.0,0.0,0.0,0.0,0.0,0.0,0.0,0.0,0.0,0.0,0.0,0.0,4080.618164,11574.62207,51560.371094,0.0,-17483.857422,-17726.849609,18013.591797,-17439.658203,4071.17041,11543.969727,51598.589844,0.0,17982.175781,17739.355469,-17456.910156,18022.085938,29.961308,90.889206,22.918364,0.0,44.923103,-0.06934,31.992802,31.8347,29.891941,90.647064,22.938566,0.0,45.003113,-0.002339,31.414335,31.439135,1.114,1.097,4396988.0,-122780.0,3632144.0,0.0,193044.0,193703.0,-196595.0,188443.0,-65776.0,-119469.0,-570152.0,0.0,-197399.0,-195853.0,192111.0,-201185.0,0.0,0.0,0.0,0.0,0.0,0.0,0.0,0.0,0.0,0.0,0.0,0.0,0.0,0.0,0.0,0.0,0.0,0.0,0.0,0.0,0.0,0.0,0.0,0.0
2,0.1339709758758545,29.961178,90.88929,22.918322,0.0,44.924461,-0.06946,32.012642,31.854427,29.892448,90.647484,22.938532,0.0,44.987183,-0.001688,31.430679,31.455563,3.0,1.0,111.0,0.0,1.0,-77743.0,-25366.0,14193.0,-77504.0,25118.0,13880.0,-0.936154,-0.349568,0.037664,-0.307251,0.761309,-0.570969,0.170919,-0.546087,-0.820107,-0.937774,-0.036409,0.345333,0.303825,-0.567572,0.765214,0.168141,0.822518,0.543316,-0.936154,-0.349568,0.037664,-0.307251,0.761309,-0.570969,0.170919,-0.546087,-0.820107,-0.937774,-0.036409,0.345333,0.303825,-0.567572,0.765214,0.168141,0.822518,0.543316,-77743.0,-25366.0,14193.0,-77504.0,25118.0,13880.0,-4442328.0,-5827.0,-4205036.0,0.0,-1221.0,-3262.0,-3558.0,-5329.0,-20540.0,8798.0,3165.0,0.0,2402.0,1251.0,1853.0,-938.0,46.0,166.0,-45.0,0.0,873.0,525.0,445.0,-70.0,-46.0,-165.0,45.0,0.0,425.0,194.0,564.0,-750.0,-0.012517,-0.044977,0.012272,0.0,0.031961,0.019224,-0.01631,-0.002574,-0.012525,-0.044723,0.012203,0.0,0.015587,0.007125,-0.020661,-0.02747,4080.600342,11574.630859,51560.28125,0.0,-17483.849609,-17726.849609,18013.769531,-17439.480469,4071.23999,11544.030273,51598.53125,0.0,17982.089844,17739.361328,-17456.759766,18022.230469,0.0,0.0,0.0,0.0,0.0,0.0,0.0,0.0,0.0,0.0,0.0,0.0,0.0,0.0,0.0,0.0,0.0,0.0,0.0,0.0,0.0,0.0,0.0,0.0,0.0,0.0,0.0,0.0,0.0,0.0,0.0,0.0,4080.618164,11574.62207,51560.371094,0.0,-17483.857422,-17726.849609,18013.591797,-17439.658203,4071.17041,11543.969727,51598.589844,0.0,17982.175781,17739.355469,-17456.910156,18022.085938,29.961308,90.889206,22.918364,0.0,44.923103,-0.06934,31.992802,31.8347,29.891941,90.647064,22.938566,0.0,45.003113,-0.002339,31.414335,31.439135,1.114,1.097,4396988.0,-122780.0,3632144.0,0.0,193044.0,193703.0,-196595.0,188443.0,-65776.0,-119469.0,-570152.0,0.0,-197399.0,-195853.0,192111.0,-201185.0,0.0,0.0,0.0,0.0,0.0,0.0,0.0,0.0,0.0,0.0,0.0,0.0,0.0,0.0,0.0,0.0,0.0,0.0,0.0,0.0,0.0,0.0,0.0,0.0
3,0.20198893547058105,29.961178,90.88929,22.918322,0.0,44.924461,-0.06946,32.012642,31.854427,29.892448,90.647484,22.938698,0.0,44.964233,-0.015459,31.451338,31.434904,3.0,1.0,111.0,0.0,1.0,-77743.0,-25366.0,14193.0,-77500.0,25120.0,13881.0,-0.936154,-0.349568,0.037664,-0.307251,0.761309,-0.570969,0.170919,-0.546087,-0.820107,-0.937677,-0.036609,0.345573,0.304213,-0.567156,0.765368,0.167975,0.822796,0.542946,-0.936154,-0.349568,0.037664,-0.307251,0.761309,-0.570969,0.170919,-0.546087,-0.820107,-0.937677,-0.036609,0.345573,0.304213,-0.567156,0.765368,0.167975,0.822796,0.542946,-77743.0,-25366.0,14193.0,-77500.0,25120.0,13881.0,-4442328.0,-5827.0,-4205036.0,0.0,-1221.0,-3262.0,-3558.0,-5329.0,-20540.0,8798.0,3169.0,0.0,2402.0,1251.0,1853.0,-938.0,46.0,166.0,-45.0,0.0,873.0,525.0,446.0,-70.0,-46.0,-165.0,41.0,0.0,431.0,197.0,567.0,-747.0,-0.012517,-0.044977,0.012272,0.0,0.031961,0.019224,-0.01632,-0.002585,-0.012525,-0.044723,0.01126,0.0,0.015789,0.007233,-0.02078,-0.027368,4080.600342,11574.630859,51560.28125,0.0,-17483.849609,-17726.849609,18013.769531,-17439.480469,4071.23999,11544.030273,51598.890625,0.0,17982.089844,17739.361328,-17456.759766,18022.230469,0.0,0.0,0.0,0.0,0.0,0.0,0.0,0.0,0.0,0.0,0.0,0.0,0.0,0.0,0.0,0.0,0.0,0.0,0.0,0.0,0.0,0.0,0.0,0.0,0.0,0.0,0.0,0.0,0.0,0.0,0.0,0.0,4080.618164,11574.62207,51560.371094,0.0,-17483.857422,-17726.849609,18013.591797,-17439.658203,4071.17041,11543.969727,51598.589844,0.0,17982.300781,17739.478516,-17457.035156,18022.210938,29.961308,90.889206,22.918364,0.0,44.923103,-0.06934,31.992802,31.8347,29.891941,90.647064,22.938566,0.0,45.003113,-0.002339,31.414335,31.439135,1.114,1.097,4396988.0,-122780.0,3632144.0,0.0,193044.0,193703.0,-196595.0,188443.0,-65776.0,-119469.0,-570152.0,0.0,-197399.0,-195853.0,192111.0,-201185.0,0.0,0.0,0.0,0.0,0.0,0.0,0.0,0.0,0.0,0.0,0.0,0.0,0.0,0.0,0.0,0.0,0.0,0.0,0.0,0.0,0.0,0.0,0.0,0.0
4,0.2679569721221924,29.961178,90.88929,22.918322,0.0,44.924461,-0.06946,32.012642,31.854427,29.892448,90.647484,22.939072,0.0,44.912754,-0.046345,31.497667,31.388575,3.0,1.0,111.0,0.0,1.0,-77743.0,-25366.0,14193.0,-77491.0,25123.0,13884.0,-0.936154,-0.349568,0.037664,-0.307251,0.761309,-0.570969,0.170919,-0.546087,-0.820107,-0.937461,-0.037056,0.346111,0.305084,-0.566221,0.765713,0.167601,0.82342,0.542116,-0.936154,-0.349568,0.037664,-0.307251,0.761309,-0.570969,0.170919,-0.546087,-0.820107,-0.937461,-0.037056,0.346111,0.305084,-0.566221,0.765713,0.167601,0.82342,0.542116,-77743.0,-25366.0,14193.0,-77491.0,25123.0,13884.0,-4442328.0,-5827.0,-4205036.0,0.0,-1221.0,-3262.0,-3558.0,-5329.0,-20540.0,8798.0,3178.0,0.0,2402.0,1251.0,1853.0,-938.0,46.0,166.0,-45.0,0.0,873.0,525.0,446.0,-70.0,-46.0,-165.0,33.0,0.0,444.0,204.0,575.0,-741.0,-0.012517,-0.044977,0.012272,0.0,0.031961,0.019225,-0.01633,-0.002595,-0.012526,-0.044724,0.009145,0.0,0.016247,0.007492,-0.021046,-0.027118,4080.600342,11574.630859,51560.28125,0.0,-17483.849609,-17726.849609,18013.769531,-17439.480469,4071.23999,11544.030273,51599.699219,0.0,17982.089844,17739.361328,-17456.759766,18022.230469,0.0,0.0,0.0,0.0,0.0,0.0,0.0,0.0,0.0,0.0,0.0,0.0,0.0,0.0,0.0,0.0,0.0,0.0,0.0,0.0,0.0,0.0,0.0,0.0,0.0,0.0,0.0,0.0,0.0,0.0,0.0,0.0,4080.618164,11574.62207,51560.371094,0.0,-17483.857422,-17726.849609,18013.591797,-17439.658203,4071.17041,11543.969727,51598.589844,0.0,17982.578125,17739.755859,-17457.310547,18022.488281,29.961308,90.889206,22.918364,0.0,44.923103,-0.06934,31.992802,31.8347,29.891941,90.647064,22.938566,0.0,45.003113,-0.002339,31.414335,31.439135,1.114,1.097,4396988.0,-122780.0,3632144.0,0.0,193044.0,193703.0,-196595.0,188443.0,-65776.0,-119469.0,-570152.0,0.0,-197399.0,-195853.0,192111.0,-201185.0,0.0,0.0,0.0,0.0,0.0,0.0,0.0,0.0,0.0,0.0,0.0,0.0,0.0,0.0,0.0,0.0,0.0,0.0,0.0,0.0,0.0,0.0,0.0,0.0
5,0.33295392990112305,29.961178,90.88929,22.918322,0.0,44.924461,-0.06946,32.012642,31.854427,29.892448,90.647484,22.939116,0.0,44.90696,-0.049822,31.502878,31.38336,3.0,1.0,111.0,0.0,1.0,-77743.0,-25366.0,14193.0,-77490.0,25124.0,13884.0,-0.936154,-0.349568,0.037664,-0.307251,0.761309,-0.570969,0.170919,-0.546087,-0.820107,-0.937437,-0.037107,0.346172,0.305182,-0.566116,0.765752,0.167559,0.82349,0.542023,-0.936154,-0.349568,0.037664,-0.307251,0.761309,-0.570969,0.170919,-0.546087,-0.820107,-0.937437,-0.037107,0.346172,0.305182,-0.566116,0.765752,0.167559,0.82349,0.542023,-77743.0,-25366.0,14193.0,-77490.0,25124.0,13884.0,-4442328.0,-5827.0,-4205036.0,0.0,-1221.0,-3262.0,-3558.0,-5329.0,-20540.0,8798.0,3179.0,0.0,2402.0,1251.0,1853.0,-938.0,46.0,166.0,-45.0,0.0,873.0,525.0,446.0,-71.0,-46.0,-165.0,32.0,0.0,446.0,206.0,576.0,-739.0,-0.012517,-0.044977,0.012272,0.0,0.03196,0.019225,-0.01634,-0.002605,-0.012526,-0.044724,0.008907,0.0,0.016326,0.007544,-0.021106,-0.027074,4080.600342,11574.630859,51560.28125,0.0,-17483.849609,-17726.849609,18013.769531,-17439.480469,4071.23999,11544.030273,51599.789062,0.0,17982.089844,17739.361328,-17456.759766,18022.230469,0.0,0.0,0.0,0.0,0.0,0.0,0.0,0.0,0.0,0.0,0.0,0.0,0.0,0.0,0.0,0.0,0.0,0.0,0.0,0.0,0.0,0.0,0.0,0.0,0.0,0.0,0.0,0.0,0.0,0.0,0.0,0.0,4080.618164,11574.62207,51560.371094,0.0,-17483.857422,-17726.849609,18013.591797,-17439.658203,4071.17041,11543.969727,51598.589844,0.0,17982.609375,17739.787109,-17457.34375,18022.519531,29.961308,90.889206,22.918364,0.0,44.923103,-0.06934,31.992802,31.8347,29.891941,90.647064,22.938566,0.0,45.003113,-0.002339,31.414335,31.439135,1.114,1.097,4396988.0,-122780.0,3632144.0,0.0,193044.0,193703.0,-196595.0,188443.0,-65776.0,-119469.0,-570152.0,0.0,-197399.0,-195853.0,192111.0,-201185.0,0.0,0.0,0.0,0.0,0.0,0.0,0.0,0.0,0.0,0.0,0.0,0.0,0.0,0.0,0.0,0.0,0.0,0.0,0.0,0.0,0.0,0.0,0.0,0.0
6,0.396960973739624,29.961178,90.88929,22.918322,0.0,44.924461,-0.06946,32.012642,31.854427,29.892448,90.647484,22.939116,0.0,44.90696,-0.049822,31.502878,31.38336,3.0,1.0,111.0,0.0,1.0,-77743.0,-25366.0,14193.0,-77490.0,25124.0,13884.0,-0.936154,-0.349568,0.037664,-0.307251,0.761309,-0.570969,0.170919,-0.546087,-0.820107,-0.937437,-0.037107,0.346172,0.305182,-0.566116,0.765752,0.167559,0.82349,0.542023,-0.936154,-0.349568,0.037664,-0.307251,0.761309,-0.570969,0.170919,-0.546087,-0.820107,-0.937437,-0.037107,0.346172,0.305182,-0.566116,0.765752,0.167559,0.82349,0.542023,-77743.0,-25366.0,14193.0,-77490.0,25124.0,13884.0,-4442328.0,-5827.0,-4205036.0,0.0,-1221.0,-3262.0,-3558.0,-5329.0,-20540.0,8798.0,3179.0,0.0,2402.0,1251.0,1853.0,-938.0,46.0,166.0,-45.0,0.0,873.0,525.0,446.0,-71.0,-46.0,-165.0,32.0,0.0,446.0,206.0,577.0,-739.0,-0.012517,-0.044977,0.012272,0.0,0.03196,0.019225,-0.01635,-0.002615,-0.012526,-0.044724,0.008907,0.0,0.016355,0.007567,-0.021139,-0.027058,4080.600342,11574.630859,51560.28125,0.0,-17483.849609,-17726.849609,18013.769531,-17439.480469,4071.23999,11544.030273,51599.789062,0.0,17982.089844,17739.361328,-17456.759766,18022.230469,0.0,0.0,0.0,0.0,0.0,0.0,0.0,0.0,0.0,0.0,0.0,0.0,0.0,0.0,0.0,0.0,0.0,0.0,0.0,0.0,0.0,0.0,0.0,0.0,0.0,0.0,0.0,0.0,0.0,0.0,0.0,0.0,4080.618164,11574.62207,51560.371094,0.0,-17483.857422,-17726.849609,18013.591797,-17439.658203,4071.17041,11543.969727,51598.589844,0.0,17982.609375,17739.787109,-17457.34375,18022.519531,29.961308,90.889206,22.918364,0.0,44.923103,-0.06934,31.992802,31.8347,29.891941,90.647064,22.938566,0.0,45.003113,-0.002339,31.414335,31.439135,1.114,1.097,4396988.0,-122780.0,3632144.0,0.0,193044.0,193703.0,-196595.0,188443.0,-65776.0,-119469.0,-570152.0,0.0,-197399.0,-195853.0,192111.0,-201185.0,0.0,0.0,0.0,0.0,0.0,0.0,0.0,0.0,0.0,0.0,0.0,0.0,0.0,0.0,0.0,0.0,0.0,0.0,0.0,0.0,0.0,0.0,0.0,0.0
7,0.4619591236114502,29.961178,90.88929,22.918322,0.0,44.924461,-0.06946,32.012642,31.854427,29.892448,90.647484,22.939116,0.0,44.90696,-0.049822,31.502878,31.38336,3.0,1.0,111.0,0.0,1.0,-77743.0,-25366.0,14193.0,-77490.0,25124.0,13884.0,-0.936154,-0.349568,0.037664,-0.307251,0.761309,-0.570969,0.170919,-0.546087,-0.820107,-0.937437,-0.037107,0.346172,0.305182,-0.566116,0.765752,0.167559,0.82349,0.542023,-0.936154,-0.349568,0.037664,-0.307251,0.761309,-0.570969,0.170919,-0.546087,-0.820107,-0.937437,-0.037107,0.346172,0.305182,-0.566116,0.765752,0.167559,0.82349,0.542023,-77743.0,-25366.0,14193.0,-77490.0,25124.0,13884.0,-4442328.0,-5827.0,-4205036.0,0.0,-1221.0,-3262.0,-3558.0,-5329.0,-20540.0,8798.0,3179.0,0.0,2402.0,1251.0,1853.0,-938.0,46.0,166.0,-45.0,0.0,873.0,525.0,447.0,-71.0,-46.0,-165.0,32.0,0.0,447.0,207.0,578.0,-739.0,-0.012517,-0.044977,0.012272,0.0,0.031959,0.019225,-0.01636,-0.002625,-0.012526,-0.044724,0.008907,0.0,0.016384,0.007592,-0.021172,-0.027042,4080.600342,11574.630859,51560.28125,0.0,-17483.849609,-17726.849609,18013.769531,-17439.480469,4071.23999,11544.030273,51599.789062,0.0,17982.089844,17739.361328,-17456.759766,18022.230469,0.0,0.0,0.0,0.0,0.0,0.0,0.0,0.0,0.0,0.0,0.0,0.0,0.0,0.0,0.0,0.0,0.0,0.0,0.0,0.0,0.0,0.0,0.0,0.0,0.0,0.0,0.0,0.0,0.0,0.0,0.0,0.0,4080.618164,11574.62207,51560.371094,0.0,-17483.857422,-17726.849609,18013.591797,-17439.658203,4071.17041,11543.969727,51598.589844,0.0,17982.609375,17739.787109,-17457.34375,18022.519531,29.961308,90.889206,22.918364,0.0,44.923103,-0.06934,31.992802,31.8347,29.891941,90.647064,22.938566,0.0,45.003113,-0.002339,31.414335,31.439135,1.114,1.097,4396988.0,-122780.0,3632144.0,0.0,193044.0,193703.0,-196595.0,188443.0,-65776.0,-119469.0,-570152.0,0.0,-197399.0,-195853.0,192111.0,-201185.0,0.0,0.0,0.0,0.0,0.0,0.0,0.0,0.0,0.0,0.0,0.0,0.0,0.0,0.0,0.0,0.0,0.0,0.0,0.0,0.0,0.0,0.0,0.0,0.0
8,0.5280139446258545,29.961178,90.88929,22.918322,0.0,44.924461,-0.06946,32.012642,31.854427,29.892448,90.647484,22.939116,0.0,44.90696,-0.049822,31.502878,31.38336,3.0,1.0,111.0,0.0,1.0,-77743.0,-25366.0,14193.0,-77490.0,25124.0,13884.0,-0.936154,-0.349568,0.037664,-0.307251,0.761309,-0.570969,0.170919,-0.546087,-0.820107,-0.937437,-0.037107,0.346172,0.305182,-0.566116,0.765752,0.167559,0.82349,0.542023,-0.936154,-0.349568,0.037664,-0.307251,0.761309,-0.570969,0.170919,-0.546087,-0.820107,-0.937437,-0.037107,0.346172,0.305182,-0.566116,0.765752,0.167559,0.82349,0.542023,-77743.0,-25366.0,14193.0,-77490.0,25124.0,13884.0,-4442328.0,-5827.0,-4205036.0,0.0,-1221.0,-3262.0,-3558.0,-5329.0,-20540.0,8798.0,3179.0,0.0,2402.0,1251.0,1853.0,-938.0,46.0,166.0,-45.0,0.0,873.0,525.0,447.0,-72.0,-46.0,-165.0,32.0,0.0,448.0,208.0,579.0,-738.0,-0.012517,-0.044977,0.012272,0.0,0.031959,0.019225,-0.016371,-0.002635,-0.012526,-0.044724,0.008907,0.0,0.016414,0.007616,-0.021205,-0.027025,4080.600342,11574.630859,51560.28125,0.0,-17483.849609,-17726.849609,18013.769531,-17439.480469,4071.23999,11544.030273,51599.789062,0.0,17982.089844,17739.361328,-17456.759766,18022.230469,0.0,0.0,0.0,0.0,0.0,0.0,0.0,0.0,0.0,0.0,0.0,0.0,0.0,0.0,0.0,0.0,0.0,0.0,0.0,0.0,0.0,0.0,0.0,0.0,0.0,0.0,0.0,0.0,0.0,0.0,0.0,0.0,4080.618164,11574.62207,51560.371094,0.0,-17483.857422,-17726.849609,18013.591797,-17439.658203,4071.17041,11543.969727,51598.589844,0.0,17982.609375,17739.787109,-17457.34375,18022.519531,29.961308,90.889206,22.918364,0.0,44.923103,-0.06934,31.992802,31.8347,29.891941,90.647064,22.938566,0.0,45.003113,-0.002339,31.414335,31.439135,1.114,1.097,4396988.0,-122780.0,3632144.0,0.0,193044.0,193703.0,-196595.0,188443.0,-65776.0,-119469.0,-570152.0,0.0,-197399.0,-195853.0,192111.0,-201185.0,0.0,0.0,0.0,0.0,0.0,0.0,0.0,0.0,0.0,0.0,0.0,0.0,0.0,0.0,0.0,0.0,0.0,0.0,0.0,0.0,0.0,0.0,0.0,0.0
9,0.5929601192474365,29.961178,90.88929,22.918322,0.0,44.924461,-0.06946,32.012642,31.854427,29.892448,90.647484,22.939116,0.0,44.90696,-0.049822,31.502878,31.38336,3.0,1.0,111.0,0.0,1.0,-77743.0,-25366.0,14193.0,-77490.0,25124.0,13884.0,-0.936154,-0.349568,0.037664,-0.307251,0.761309,-0.570969,0.170919,-0.546087,-0.820107,-0.937437,-0.037107,0.346172,0.305182,-0.566116,0.765752,0.167559,0.82349,0.542023,-0.936154,-0.349568,0.037664,-0.307251,0.761309,-0.570969,0.170919,-0.546087,-0.820107,-0.937437,-0.037107,0.346172,0.305182,-0.566116,0.765752,0.167559,0.82349,0.542023,-77743.0,-25366.0,14193.0,-77490.0,25124.0,13884.0,-4442328.0,-5827.0,-4205036.0,0.0,-1221.0,-3262.0,-3558.0,-5329.0,-20540.0,8798.0,3179.0,0.0,2402.0,1251.0,1853.0,-938.0,46.0,166.0,-45.0,0.0,873.0,525.0,447.0,-72.0,-46.0,-165.0,32.0,0.0,449.0,208.0,580.0,-738.0,-0.012517,-0.044977,0.012272,0.0,0.031959,0.019225,-0.016381,-0.002645,-0.012526,-0.044724,0.008907,0.0,0.016444,0.00764,-0.021238,-0.027009,4080.600342,11574.630859,51560.28125,0.0,-17483.849609,-17726.849609,18013.769531,-17439.480469,4071.23999,11544.030273,51599.789062,0.0,17982.089844,17739.361328,-17456.759766,18022.230469,0.0,0.0,0.0,0.0,0.0,0.0,0.0,0.0,0.0,0.0,0.0,0.0,0.0,0.0,0.0,0.0,0.0,0.0,0.0,0.0,0.0,0.0,0.0,0.0,0.0,0.0,0.0,0.0,0.0,0.0,0.0,0.0,4080.618164,11574.62207,51560.371094,0.0,-17483.857422,-17726.849609,18013.591797,-17439.658203,4071.17041,11543.969727,51598.589844,0.0,17982.609375,17739.787109,-17457.34375,18022.519531,29.961308,90.889206,22.918364,0.0,44.923103,-0.06934,31.992802,31.8347,29.891941,90.647064,22.938566,0.0,45.003113,-0.002339,31.414335,31.439135,1.114,1.097,4396988.0,-122780.0,3632144.0,0.0,193044.0,193703.0,-196595.0,188443.0,-65776.0,-119469.0,-570152.0,0.0,-197399.0,-195853.0,192111.0,-201185.0,0.0,0.0,0.0,0.0,0.0,0.0,0.0,0.0,0.0,0.0,0.0,0.0,0.0,0.0,0.0,0.0,0.0,0.0,0.0,0.0,0.0,0.0,0.0,0.0
10,0.6579599380493164,29.961178,90.88929,22.918322,0.0,44.924461,-0.06946,32.012642,31.854427,29.892448,90.647484,22.939116,0.0,44.90696,-0.049822,31.502878,31.38336,3.0,1.0,111.0,0.0,1.0,-77743.0,-25366.0,14193.0,-77490.0,25124.0,13884.0,-0.936154,-0.349568,0.037664,-0.307251,0.761309,-0.570969,0.170919,-0.546087,-0.820107,-0.937437,-0.037107,0.346172,0.305182,-0.566116,0.765752,0.167559,0.82349,0.542023,-0.936154,-0.349568,0.037664,-0.307251,0.761309,-0.570969,0.170919,-0.546087,-0.820107,-0.937437,-0.037107,0.346172,0.305182,-0.566116,0.765752,0.167559,0.82349,0.542023,-77743.0,-25366.0,14193.0,-77490.0,25124.0,13884.0,-4442328.0,-5827.0,-4205036.0,0.0,-1221.0,-3262.0,-3558.0,-5329.0,-20540.0,8798.0,3179.0,0.0,2402.0,1251.0,1853.0,-938.0,46.0,166.0,-45.0,0.0,873.0,525.0,447.0,-72.0,-46.0,-165.0,32.0,0.0,450.0,209.0,581.0,-737.0,-0.012517,-0.044977,0.012272,0.0,0.031958,0.019225,-0.016391,-0.002656,-0.012526,-0.044724,0.008907,0.0,0.016473,0.007665,-0.021271,-0.026993,4080.600342,11574.630859,51560.28125,0.0,-17483.849609,-17726.849609,18013.769531,-17439.480469,4071.23999,11544.030273,51599.789062,0.0,17982.089844,17739.361328,-17456.759766,18022.230469,0.0,0.0,0.0,0.0,0.0,0.0,0.0,0.0,0.0,0.0,0.0,0.0,0.0,0.0,0.0,0.0,0.0,0.0,0.0,0.0,0.0,0.0,0.0,0.0,0.0,0.0,0.0,0.0,0.0,0.0,0.0,0.0,4080.618164,11574.62207,51560.371094,0.0,-17483.857422,-17726.849609,18013.591797,-17439.658203,4071.17041,11543.969727,51598.589844,0.0,17982.609375,17739.787109,-17457.34375,18022.519531,29.961308,90.889206,22.918364,0.0,44.923103,-0.06934,31.992802,31.8347,29.891941,90.647064,22.938566,0.0,45.003113,-0.002339,31.414335,31.439135,1.114,1.097,4396988.0,-122780.0,3632144.0,0.0,193044.0,193703.0,-196595.0,188443.0,-65776.0,-119469.0,-570152.0,0.0,-197399.0,-195853.0,192111.0,-201185.0,0.0,0.0,0.0,0.0,0.0,0.0,0.0,0.0,0.0,0.0,0.0,0.0,0.0,0.0,0.0,0.0,0.0,0.0,0.0,0.0,0.0,0.0,0.0,0.0
11,0.7219679355621338,29.961178,90.88929,22.918322,0.0,44.924461,-0.06946,32.012642,31.854427,29.892448,90.647484,22.939116,0.0,44.90696,-0.049822,31.502878,31.38336,3.0,1.0,111.0,0.0,1.0,-77743.0,-25366.0,14193.0,-77490.0,25124.0,13884.0,-0.936154,-0.349568,0.037664,-0.307251,0.761309,-0.570969,0.170919,-0.546087,-0.820107,-0.937437,-0.037107,0.346172,0.305182,-0.566116,0.765752,0.167559,0.82349,0.542023,-0.936154,-0.349568,0.037664,-0.307251,0.761309,-0.570969,0.170919,-0.546087,-0.820107,-0.937437,-0.037107,0.346172,0.305182,-0.566116,0.765752,0.167559,0.82349,0.542023,-77743.0,-25366.0,14193.0,-77490.0,25124.0,13884.0,-4442328.0,-5827.0,-4205036.0,0.0,-1221.0,-3262.0,-3558.0,-5329.0,-20540.0,8798.0,3179.0,0.0,2402.0,1251.0,1853.0,-938.0,46.0,166.0,-45.0,0.0,873.0,525.0,448.0,-72.0,-46.0,-165.0,32.0,0.0,450.0,210.0,582.0,-737.0,-0.012517,-0.044977,0.012272,0.0,0.031958,0.019225,-0.016401,-0.002665,-0.012526,-0.044724,0.008907,0.0,0.016502,0.007688,-0.021304,-0.026977,4080.600342,11574.630859,51560.28125,0.0,-17483.849609,-17726.849609,18013.769531,-17439.480469,4071.23999,11544.030273,51599.789062,0.0,17982.089844,17739.361328,-17456.759766,18022.230469,0.0,0.0,0.0,0.0,0.0,0.0,0.0,0.0,0.0,0.0,0.0,0.0,0.0,0.0,0.0,0.0,0.0,0.0,0.0,0.0,0.0,0.0,0.0,0.0,0.0,0.0,0.0,0.0,0.0,0.0,0.0,0.0,4080.618164,11574.62207,51560.371094,0.0,-17483.857422,-17726.849609,18013.591797,-17439.658203,4071.17041,11543.969727,51598.589844,0.0,17982.609375,17739.787109,-17457.34375,18022.519531,29.961308,90.889206,22.918364,0.0,44.923103,-0.06934,31.992802,31.8347,29.891941,90.647064,22.938566,0.0,45.003113,-0.002339,31.414335,31.439135,1.114,1.097,4396988.0,-122780.0,3632144.0,0.0,193044.0,193703.0,-196595.0,188443.0,-65776.0,-119469.0,-570152.0,0.0,-197399.0,-195853.0,192111.0,-201185.0,0.0,0.0,0.0,0.0,0.0,0.0,0.0,0.0,0.0,0.0,0.0,0.0,0.0,0.0,0.0,0.0,0.0,0.0,0.0,0.0,0.0,0.0,0.0,0.0
12,0.7869739532470703,29.961178,90.88929,22.918322,0.0,44.924461,-0.06946,32.012642,31.854427,29.892448,90.647484,22.939116,0.0,44.90696,-0.019875,31.487906,31.398335,3.0,1.0,111.0,0.0,1.0,-77743.0,-25366.0,14193.0,-77493.0,25118.0,13881.0,-0.936154,-0.349568,0.037664,-0.307251,0.761309,-0.570969,0.170919,-0.546087,-0.820107,-0.937627,-0.036862,0.345682,0.304634,-0.566196,0.765911,0.167491,0.823446,0.542111,-0.936154,-0.349568,0.037664,-0.307251,0.761309,-0.570969,0.170919,-0.546087,-0.820107,-0.937627,-0.036862,0.345682,0.304634,-0.566196,0.765911,0.167491,0.823446,0.542111,-77743.0,-25366.0,14193.0,-77493.0,25118.0,13881.0,-4442328.0,-5827.0,-4205036.0,0.0,-1221.0,-3262.0,-3558.0,-5329.0,-20540.0,8798.0,3179.0,0.0,2402.0,1254.0,1853.0,-938.0,46.0,166.0,-45.0,0.0,873.0,525.0,448.0,-73.0,-46.0,-165.0,32.0,0.0,451.0,204.0,583.0,-736.0,-0.012517,-0.044977,0.012272,0.0,0.031958,0.019225,-0.016411,-0.002676,-0.012526,-0.044724,0.008907,0.0,0.016532,0.007475,-0.021337,-0.026961,4080.600342,11574.630859,51560.28125,0.0,-17483.849609,-17726.849609,18013.769531,-17439.480469,4071.23999,11544.030273,51599.789062,0.0,17982.089844,17739.630859,-17456.759766,18022.230469,0.0,0.0,0.0,0.0,0.0,0.0,0.0,0.0,0.0,0.0,0.0,0.0,0.0,0.0,0.0,0.0,0.0,0.0,0.0,0.0,0.0,0.0,0.0,0.0,0.0,0.0,0.0,0.0,0.0,0.0,0.0,0.0,4080.618164,11574.62207,51560.371094,0.0,-17483.857422,-17726.849609,18013.591797,-17439.658203,4071.17041,11543.969727,51598.589844,0.0,17982.609375,17739.787109,-17457.34375,18022.519531,29.961308,90.889206,22.918364,0.0,44.923103,-0.06934,31.992802,31.8347,29.891941,90.647064,22.938566,0.0,45.003113,-0.002339,31.414335,31.439135,1.114,1.097,4396988.0,-122780.0,3632144.0,0.0,193044.0,193703.0,-196595.0,188443.0,-65776.0,-119469.0,-570152.0,0.0,-197399.0,-195853.0,192111.0,-201185.0,0.0,0.0,0.0,0.0,0.0,0.0,0.0,0.0,0.0,0.0,0.0,0.0,0.0,0.0,0.0,0.0,0.0,0.0,0.0,0.0,0.0,0.0,0.0,0.0
13,0.8529520034790039,29.961178,90.88929,22.918322,0.0,44.924461,-0.06946,32.012642,31.854427,29.892448,90.647484,22.939116,0.0,44.90696,-0.009958,31.482948,31.403294,3.0,1.0,111.0,0.0,1.0,-77743.0,-25366.0,14193.0,-77494.0,25117.0,13879.0,-0.936154,-0.349568,0.037664,-0.307251,0.761309,-0.570969,0.170919,-0.546087,-0.820107,-0.93769,-0.036781,0.34552,0.304452,-0.566223,0.765964,0.167468,0.823431,0.54214,-0.936154,-0.349568,0.037664,-0.307251,0.761309,-0.570969,0.170919,-0.546087,-0.820107,-0.93769,-0.036781,0.34552,0.304452,-0.566223,0.765964,0.167468,0.823431,0.54214,-77743.0,-25366.0,14193.0,-77494.0,25117.0,13879.0,-4442328.0,-5827.0,-4205036.0,0.0,-1221.0,-3262.0,-3558.0,-5329.0,-20540.0,8798.0,3179.0,0.0,2402.0,1255.0,1853.0,-938.0,46.0,166.0,-45.0,0.0,873.0,525.0,448.0,-73.0,-46.0,-165.0,32.0,0.0,452.0,202.0,584.0,-736.0,-0.012517,-0.044977,0.012272,0.0,0.031957,0.019225,-0.016421,-0.002686,-0.012526,-0.044724,0.008907,0.0,0.016562,0.007401,-0.02137,-0.026944,4080.600342,11574.630859,51560.28125,0.0,-17483.849609,-17726.849609,18013.769531,-17439.480469,4071.23999,11544.030273,51599.789062,0.0,17982.089844,17739.71875,-17456.759766,18022.230469,0.0,0.0,0.0,0.0,0.0,0.0,0.0,0.0,0.0,0.0,0.0,0.0,0.0,0.0,0.0,0.0,0.0,0.0,0.0,0.0,0.0,0.0,0.0,0.0,0.0,0.0,0.0,0.0,0.0,0.0,0.0,0.0,4080.618164,11574.62207,51560.371094,0.0,-17483.857422,-17726.849609,18013.591797,-17439.658203,4071.17041,11543.969727,51598.589844,0.0,17982.609375,17739.787109,-17457.34375,18022.519531,29.961308,90.889206,22.918364,0.0,44.923103,-0.06934,31.992802,31.8347,29.891941,90.647064,22.938566,0.0,45.003113,-0.002339,31.414335,31.439135,1.114,1.097,4396988.0,-122780.0,3632144.0,0.0,193044.0,193703.0,-196595.0,188443.0,-65776.0,-119469.0,-570152.0,0.0,-197399.0,-195853.0,192111.0,-201185.0,0.0,0.0,0.0,0.0,0.0,0.0,0.0,0.0,0.0,0.0,0.0,0.0,0.0,0.0,0.0,0.0,0.0,0.0,0.0,0.0,0.0,0.0,0.0,0.0
14,0.9170019626617432,29.961178,90.88929,22.918322,0.0,44.924461,-0.06946,32.012642,31.854427,29.892448,90.647484,22.939116,0.0,44.90696,-0.009958,31.482948,31.403294,3.0,1.0,111.0,0.0,1.0,-77743.0,-25366.0,14193.0,-77494.0,25117.0,13879.0,-0.936154,-0.349568,0.037664,-0.307251,0.761309,-0.570969,0.170919,-0.546087,-0.820107,-0.93769,-0.036781,0.34552,0.304452,-0.566223,0.765964,0.167468,0.823431,0.54214,-0.936154,-0.349568,0.037664,-0.307251,0.761309,-0.570969,0.170919,-0.546087,-0.820107,-0.93769,-0.036781,0.34552,0.304452,-0.566223,0.765964,0.167468,0.823431,0.54214,-77743.0,-25366.0,14193.0,-77494.0,25117.0,13879.0,-4442328.0,-5827.0,-4205036.0,0.0,-1221.0,-3262.0,-3558.0,-5329.0,-20540.0,8798.0,3179.0,0.0,2402.0,1255.0,1853.0,-938.0,46.0,166.0,-45.0,0.0,873.0,525.0,449.0,-73.0,-46.0,-165.0,32.0,0.0,453.0,202.0,584.0,-735.0,-0.012517,-0.044977,0.012272,0.0,0.031957,0.019226,-0.016431,-0.002696,-0.012526,-0.044724,0.008907,0.0,0.016591,0.007405,-0.021403,-0.026928,4080.600342,11574.630859,51560.28125,0.0,-17483.849609,-17726.849609,18013.769531,-17439.480469,4071.23999,11544.030273,51599.789062,0.0,17982.089844,17739.71875,-17456.759766,18022.230469,0.0,0.0,0.0,0.0,0.0,0.0,0.0,0.0,0.0,0.0,0.0,0.0,0.0,0.0,0.0,0.0,0.0,0.0,0.0,0.0,0.0,0.0,0.0,0.0,0.0,0.0,0.0,0.0,0.0,0.0,0.0,0.0,4080.618164,11574.62207,51560.371094,0.0,-17483.857422,-17726.849609,18013.591797,-17439.658203,4071.17041,11543.969727,51598.589844,0.0,17982.609375,17739.787109,-17457.34375,18022.519531,29.961308,90.889206,22.918364,0.0,44.923103,-0.06934,31.992802,31.8347,29.891941,90.647064,22.938566,0.0,45.003113,-0.002339,31.414335,31.439135,1.114,1.097,4396988.0,-122780.0,3632144.0,0.0,193044.0,193703.0,-196595.0,188443.0,-65776.0,-119469.0,-570152.0,0.0,-197399.0,-195853.0,192111.0,-201185.0,0.0,0.0,0.0,0.0,0.0,0.0,0.0,0.0,0.0,0.0,0.0,0.0,0.0,0.0,0.0,0.0,0.0,0.0,0.0,0.0,0.0,0.0,0.0,0.0
15,0.9829540252685547,29.961178,90.88929,22.918322,0.0,44.924461,-0.06946,32.012642,31.854427,29.892448,90.647484,22.939116,0.0,44.90696,-0.009958,31.482948,31.403294,3.0,1.0,111.0,0.0,1.0,-77743.0,-25366.0,14193.0,-77494.0,25117.0,13879.0,-0.936154,-0.349568,0.037664,-0.307251,0.761309,-0.570969,0.170919,-0.546087,-0.820107,-0.93769,-0.036781,0.34552,0.304452,-0.566223,0.765964,0.167468,0.823431,0.54214,-0.936154,-0.349568,0.037664,-0.307251,0.761309,-0.570969,0.170919,-0.546087,-0.820107,-0.93769,-0.036781,0.34552,0.304452,-0.566223,0.765964,0.167468,0.823431,0.54214,-77743.0,-25366.0,14193.0,-77494.0,25117.0,13879.0,-4442328.0,-5827.0,-4205036.0,0.0,-1221.0,-3262.0,-3558.0,-5329.0,-20540.0,8798.0,3179.0,0.0,2402.0,1255.0,1853.0,-938.0,46.0,166.0,-45.0,0.0,873.0,525.0,449.0,-73.0,-46.0,-165.0,32.0,0.0,454.0,202.0,585.0,-735.0,-0.012517,-0.044977,0.012272,0.0,0.031956,0.019226,-0.016441,-0.002706,-0.012526,-0.044724,0.008907,0.0,0.01662,0.007409,-0.021436,-0.026911,4080.600342,11574.630859,51560.28125,0.0,-17483.849609,-17726.849609,18013.769531,-17439.480469,4071.23999,11544.030273,51599.789062,0.0,17982.089844,17739.71875,-17456.759766,18022.230469,0.0,0.0,0.0,0.0,0.0,0.0,0.0,0.0,0.0,0.0,0.0,0.0,0.0,0.0,0.0,0.0,0.0,0.0,0.0,0.0,0.0,0.0,0.0,0.0,0.0,0.0,0.0,0.0,0.0,0.0,0.0,0.0,4080.618164,11574.62207,51560.371094,0.0,-17483.857422,-17726.849609,18013.591797,-17439.658203,4071.17041,11543.969727,51598.589844,0.0,17982.609375,17739.787109,-17457.34375,18022.519531,29.961308,90.889206,22.918364,0.0,44.923103,-0.06934,31.992802,31.8347,29.891941,90.647064,22.938566,0.0,45.003113,-0.002339,31.414335,31.439135,1.114,1.097,4396988.0,-122780.0,3632144.0,0.0,193044.0,193703.0,-196595.0,188443.0,-65776.0,-119469.0,-570152.0,0.0,-197399.0,-195853.0,192111.0,-201185.0,0.0,0.0,0.0,0.0,0.0,0.0,0.0,0.0,0.0,0.0,0.0,0.0,0.0,0.0,0.0,0.0,0.0,0.0,0.0,0.0,0.0,0.0,0.0,0.0
16,1.0499961376190186,29.961178,90.88929,22.918322,0.0,44.924461,-0.06946,32.012642,31.854427,29.892448,90.647484,22.939116,0.0,44.90696,-0.009958,31.482948,31.403294,3.0,1.0,111.0,0.0,1.0,-77743.0,-25366.0,14193.0,-77494.0,25117.0,13879.0,-0.936154,-0.349568,0.037664,-0.307251,0.761309,-0.570969,0.170919,-0.546087,-0.820107,-0.93769,-0.036781,0.34552,0.304452,-0.566223,0.765964,0.167468,0.823431,0.54214,-0.936154,-0.349568,0.037664,-0.307251,0.761309,-0.570969,0.170919,-0.546087,-0.820107,-0.93769,-0.036781,0.34552,0.304452,-0.566223,0.765964,0.167468,0.823431,0.54214,-77743.0,-25366.0,14193.0,-77494.0,25117.0,13879.0,-4442328.0,-5827.0,-4205036.0,0.0,-1221.0,-3262.0,-3558.0,-5329.0,-20540.0,8798.0,3179.0,0.0,2402.0,1255.0,1853.0,-938.0,46.0,166.0,-45.0,0.0,873.0,525.0,449.0,-74.0,-46.0,-165.0,32.0,0.0,455.0,202.0,586.0,-734.0,-0.012517,-0.044977,0.012272,0.0,0.031956,0.019226,-0.016452,-0.002717,-0.012526,-0.044724,0.008907,0.0,0.016651,0.007413,-0.02147,-0.026895,4080.600342,11574.630859,51560.28125,0.0,-17483.849609,-17726.849609,18013.769531,-17439.480469,4071.23999,11544.030273,51599.789062,0.0,17982.089844,17739.71875,-17456.759766,18022.230469,0.0,0.0,0.0,0.0,0.0,0.0,0.0,0.0,0.0,0.0,0.0,0.0,0.0,0.0,0.0,0.0,0.0,0.0,0.0,0.0,0.0,0.0,0.0,0.0,0.0,0.0,0.0,0.0,0.0,0.0,0.0,0.0,4080.618164,11574.62207,51560.371094,0.0,-17483.857422,-17726.849609,18013.591797,-17439.658203,4071.17041,11543.969727,51598.589844,0.0,17982.609375,17739.787109,-17457.34375,18022.519531,29.961308,90.889206,22.918364,0.0,44.923103,-0.06934,31.992802,31.8347,29.891941,90.647064,22.938566,0.0,45.003113,-0.002339,31.414335,31.439135,1.114,1.097,4396988.0,-122780.0,3632144.0,0.0,193044.0,193703.0,-196595.0,188443.0,-65776.0,-119469.0,-570152.0,0.0,-197399.0,-195853.0,192111.0,-201185.0,0.0,0.0,0.0,0.0,0.0,0.0,0.0,0.0,0.0,0.0,0.0,0.0,0.0,0.0,0.0,0.0,0.0,0.0,0.0,0.0,0.0,0.0,0.0,0.0
17,1.1159679889678955,29.961178,90.88929,22.918322,0.0,44.924461,-0.06946,32.012642,31.854427,29.892448,90.647484,22.939116,0.0,44.90696,-0.009958,31.482948,31.403294,3.0,1.0,111.0,0.0,1.0,-77743.0,-25366.0,14193.0,-77494.0,25117.0,13879.0,-0.936154,-0.349568,0.037664,-0.307251,0.761309,-0.570969,0.170919,-0.546087,-0.820107,-0.93769,-0.036781,0.34552,0.304452,-0.566223,0.765964,0.167468,0.823431,0.54214,-0.936154,-0.349568,0.037664,-0.307251,0.761309,-0.570969,0.170919,-0.546087,-0.820107,-0.93769,-0.036781,0.34552,0.304452,-0.566223,0.765964,0.167468,0.823431,0.54214,-77743.0,-25366.0,14193.0,-77494.0,25117.0,13879.0,-4442328.0,-5827.0,-4205036.0,0.0,-1221.0,-3262.0,-3558.0,-5329.0,-20540.0,8798.0,3179.0,0.0,2402.0,1255.0,1853.0,-938.0,46.0,166.0,-45.0,0.0,873.0,525.0,449.0,-74.0,-46.0,-165.0,32.0,0.0,455.0,202.0,587.0,-734.0,-0.012517,-0.044977,0.012272,0.0,0.031956,0.019226,-0.016462,-0.002727,-0.012526,-0.044724,0.008907,0.0,0.016681,0.007417,-0.021504,-0.026878,4080.600342,11574.630859,51560.28125,0.0,-17483.849609,-17726.849609,18013.769531,-17439.480469,4071.23999,11544.030273,51599.789062,0.0,17982.089844,17739.71875,-17456.759766,18022.230469,0.0,0.0,0.0,0.0,0.0,0.0,0.0,0.0,0.0,0.0,0.0,0.0,0.0,0.0,0.0,0.0,0.0,0.0,0.0,0.0,0.0,0.0,0.0,0.0,0.0,0.0,0.0,0.0,0.0,0.0,0.0,0.0,4080.618164,11574.62207,51560.371094,0.0,-17483.857422,-17726.849609,18013.591797,-17439.658203,4071.17041,11543.969727,51598.589844,0.0,17982.609375,17739.787109,-17457.34375,18022.519531,29.961308,90.889206,22.918364,0.0,44.923103,-0.06934,31.992802,31.8347,29.891941,90.647064,22.938566,0.0,45.003113,-0.002339,31.414335,31.439135,1.114,1.097,4396988.0,-122780.0,3632144.0,0.0,193044.0,193703.0,-196595.0,188443.0,-65776.0,-119469.0,-570152.0,0.0,-197399.0,-195853.0,192111.0,-201185.0,0.0,0.0,0.0,0.0,0.0,0.0,0.0,0.0,0.0,0.0,0.0,0.0,0.0,0.0,0.0,0.0,0.0,0.0,0.0,0.0,0.0,0.0,0.0,0.0
18,1.1819519996643066,29.961178,90.88929,22.918322,0.0,44.924461,-0.06946,32.012642,31.854427,29.892448,90.647484,22.939116,0.0,44.90696,-0.009958,31.482948,31.403294,3.0,1.0,111.0,0.0,1.0,-77743.0,-25366.0,14193.0,-77494.0,25117.0,13879.0,-0.936154,-0.349568,0.037664,-0.307251,0.761309,-0.570969,0.170919,-0.546087,-0.820107,-0.93769,-0.036781,0.34552,0.304452,-0.566223,0.765964,0.167468,0.823431,0.54214,-0.936154,-0.349568,0.037664,-0.307251,0.761309,-0.570969,0.170919,-0.546087,-0.820107,-0.93769,-0.036781,0.34552,0.304452,-0.566223,0.765964,0.167468,0.823431,0.54214,-77743.0,-25366.0,14193.0,-77494.0,25117.0,13879.0,-4442328.0,-5827.0,-4205036.0,0.0,-1221.0,-3262.0,-3558.0,-5329.0,-20540.0,8798.0,3179.0,0.0,2402.0,1255.0,1853.0,-938.0,46.0,166.0,-45.0,0.0,873.0,525.0,450.0,-74.0,-46.0,-165.0,32.0,0.0,456.0,202.0,588.0,-734.0,-0.012517,-0.044977,0.012272,0.0,0.031955,0.019226,-0.016472,-0.002737,-0.012526,-0.044724,0.008907,0.0,0.016711,0.007421,-0.021537,-0.026862,4080.600342,11574.630859,51560.28125,0.0,-17483.849609,-17726.849609,18013.769531,-17439.480469,4071.23999,11544.030273,51599.789062,0.0,17982.089844,17739.71875,-17456.759766,18022.230469,0.0,0.0,0.0,0.0,0.0,0.0,0.0,0.0,0.0,0.0,0.0,0.0,0.0,0.0,0.0,0.0,0.0,0.0,0.0,0.0,0.0,0.0,0.0,0.0,0.0,0.0,0.0,0.0,0.0,0.0,0.0,0.0,4080.618164,11574.62207,51560.371094,0.0,-17483.857422,-17726.849609,18013.591797,-17439.658203,4071.17041,11543.969727,51598.589844,0.0,17982.609375,17739.787109,-17457.34375,18022.519531,29.961308,90.889206,22.918364,0.0,44.923103,-0.06934,31.992802,31.8347,29.891941,90.647064,22.938566,0.0,45.003113,-0.002339,31.414335,31.439135,1.114,1.097,4396988.0,-122780.0,3632144.0,0.0,193044.0,193703.0,-196595.0,188443.0,-65776.0,-119469.0,-570152.0,0.0,-197399.0,-195853.0,192111.0,-201185.0,0.0,0.0,0.0,0.0,0.0,0.0,0.0,0.0,0.0,0.0,0.0,0.0,0.0,0.0,0.0,0.0,0.0,0.0,0.0,0.0,0.0,0.0,0.0,0.0
19,1.247995138168335,29.961178,90.88929,22.918322,0.0,44.924461,-0.06946,32.012642,31.854427,29.892448,90.647484,22.939116,0.0,44.90696,-0.009958,31.482948,31.403294,3.0,1.0,111.0,0.0,1.0,-77743.0,-25366.0,14193.0,-77494.0,25117.0,13879.0,-0.936154,-0.349568,0.037664,-0.307251,0.761309,-0.570969,0.170919,-0.546087,-0.820107,-0.93769,-0.036781,0.34552,0.304452,-0.566223,0.765964,0.167468,0.823431,0.54214,-0.936154,-0.349568,0.037664,-0.307251,0.761309,-0.570969,0.170919,-0.546087,-0.820107,-0.93769,-0.036781,0.34552,0.304452,-0.566223,0.765964,0.167468,0.823431,0.54214,-77743.0,-25366.0,14193.0,-77494.0,25117.0,13879.0,-4442328.0,-5827.0,-4205036.0,0.0,-1221.0,-3262.0,-3558.0,-5329.0,-20540.0,8798.0,3179.0,0.0,2402.0,1255.0,1853.0,-938.0,46.0,166.0,-45.0,0.0,873.0,525.0,450.0,-75.0,-46.0,-165.0,32.0,0.0,457.0,202.0,589.0,-733.0,-0.012517,-0.044977,0.012272,0.0,0.031955,0.019226,-0.016482,-0.002747,-0.012526,-0.044724,0.008907,0.0,0.01674,0.007424,-0.021571,-0.026845,4080.600342,11574.630859,51560.28125,0.0,-17483.849609,-17726.849609,18013.769531,-17439.480469,4071.23999,11544.030273,51599.789062,0.0,17982.089844,17739.71875,-17456.759766,18022.230469,0.0,0.0,0.0,0.0,0.0,0.0,0.0,0.0,0.0,0.0,0.0,0.0,0.0,0.0,0.0,0.0,0.0,0.0,0.0,0.0,0.0,0.0,0.0,0.0,0.0,0.0,0.0,0.0,0.0,0.0,0.0,0.0,4080.618164,11574.62207,51560.371094,0.0,-17483.857422,-17726.849609,18013.591797,-17439.658203,4071.17041,11543.969727,51598.589844,0.0,17982.609375,17739.787109,-17457.34375,18022.519531,29.961308,90.889206,22.918364,0.0,44.923103,-0.06934,31.992802,31.8347,29.891941,90.647064,22.938566,0.0,45.003113,-0.002339,31.414335,31.439135,1.114,1.097,4396988.0,-122780.0,3632144.0,0.0,193044.0,193703.0,-196595.0,188443.0,-65776.0,-119469.0,-570152.0,0.0,-197399.0,-195853.0,192111.0,-201185.0,0.0,0.0,0.0,0.0,0.0,0.0,0.0,0.0,0.0,0.0,0.0,0.0,0.0,0.0,0.0,0.0,0.0,0.0,0.0,0.0,0.0,0.0,0.0,0.0
20,1.3159549236297607,29.961178,90.88929,22.918322,0.0,44.924461,-0.06946,32.012642,31.854427,29.892448,90.647484,22.939116,0.0,44.90696,-0.009958,31.482948,31.403294,3.0,1.0,111.0,0.0,1.0,-77743.0,-25366.0,14193.0,-77494.0,25117.0,13879.0,-0.936154,-0.349568,0.037664,-0.307251,0.761309,-0.570969,0.170919,-0.546087,-0.820107,-0.93769,-0.036781,0.34552,0.304452,-0.566223,0.765964,0.167468,0.823431,0.54214,-0.936154,-0.349568,0.037664,-0.307251,0.761309,-0.570969,0.170919,-0.546087,-0.820107,-0.93769,-0.036781,0.34552,0.304452,-0.566223,0.765964,0.167468,0.823431,0.54214,-77743.0,-25366.0,14193.0,-77494.0,25117.0,13879.0,-4442328.0,-5827.0,-4205036.0,0.0,-1221.0,-3262.0,-3558.0,-5329.0,-20540.0,8798.0,3179.0,0.0,2402.0,1255.0,1853.0,-938.0,46.0,166.0,-45.0,0.0,873.0,525.0,450.0,-75.0,-46.0,-165.0,32.0,0.0,458.0,203.0,590.0,-733.0,-0.012517,-0.044977,0.012272,0.0,0.031954,0.019226,-0.016493,-0.002758,-0.012526,-0.044724,0.008907,0.0,0.016771,0.007429,-0.021606,-0.026828,4080.600342,11574.630859,51560.28125,0.0,-17483.849609,-17726.849609,18013.769531,-17439.480469,4071.23999,11544.030273,51599.789062,0.0,17982.089844,17739.71875,-17456.759766,18022.230469,0.0,0.0,0.0,0.0,0.0,0.0,0.0,0.0,0.0,0.0,0.0,0.0,0.0,0.0,0.0,0.0,0.0,0.0,0.0,0.0,0.0,0.0,0.0,0.0,0.0,0.0,0.0,0.0,0.0,0.0,0.0,0.0,4080.618164,11574.62207,51560.371094,0.0,-17483.857422,-17726.849609,18013.591797,-17439.658203,4071.17041,11543.969727,51598.589844,0.0,17982.609375,17739.787109,-17457.34375,18022.519531,29.961308,90.889206,22.918364,0.0,44.923103,-0.06934,31.992802,31.8347,29.891941,90.647064,22.938566,0.0,45.003113,-0.002339,31.414335,31.439135,1.114,1.097,4396988.0,-122780.0,3632144.0,0.0,193044.0,193703.0,-196595.0,188443.0,-65776.0,-119469.0,-570152.0,0.0,-197399.0,-195853.0,192111.0,-201185.0,0.0,0.0,0.0,0.0,0.0,0.0,0.0,0.0,0.0,0.0,0.0,0.0,0.0,0.0,0.0,0.0,0.0,0.0,0.0,0.0,0.0,0.0,0.0,0.0
21,1.3809690475463867,29.961178,90.88929,22.918322,0.0,44.924461,-0.06946,32.012642,31.854427,29.892448,90.647484,22.939116,0.0,44.90696,-0.009958,31.482948,31.403294,3.0,1.0,111.0,0.0,1.0,-77743.0,-25366.0,14193.0,-77494.0,25117.0,13879.0,-0.936154,-0.349568,0.037664,-0.307251,0.761309,-0.570969,0.170919,-0.546087,-0.820107,-0.93769,-0.036781,0.34552,0.304452,-0.566223,0.765964,0.167468,0.823431,0.54214,-0.936154,-0.349568,0.037664,-0.307251,0.761309,-0.570969,0.170919,-0.546087,-0.820107,-0.93769,-0.036781,0.34552,0.304452,-0.566223,0.765964,0.167468,0.823431,0.54214,-77743.0,-25366.0,14193.0,-77494.0,25117.0,13879.0,-4442328.0,-5827.0,-4205036.0,0.0,-1221.0,-3262.0,-3558.0,-5329.0,-20540.0,8798.0,3179.0,0.0,2402.0,1255.0,1853.0,-938.0,46.0,166.0,-45.0,0.0,873.0,525.0,450.0,-75.0,-46.0,-165.0,32.0,0.0,459.0,203.0,591.0,-732.0,-0.012517,-0.044977,0.012272,0.0,0.031954,0.019226,-0.016503,-0.002768,-0.012526,-0.044724,0.008907,0.0,0.016801,0.007432,-0.021639,-0.026812,4080.600342,11574.630859,51560.28125,0.0,-17483.849609,-17726.849609,18013.769531,-17439.480469,4071.23999,11544.030273,51599.789062,0.0,17982.089844,17739.71875,-17456.759766,18022.230469,0.0,0.0,0.0,0.0,0.0,0.0,0.0,0.0,0.0,0.0,0.0,0.0,0.0,0.0,0.0,0.0,0.0,0.0,0.0,0.0,0.0,0.0,0.0,0.0,0.0,0.0,0.0,0.0,0.0,0.0,0.0,0.0,4080.618164,11574.62207,51560.371094,0.0,-17483.857422,-17726.849609,18013.591797,-17439.658203,4071.17041,11543.969727,51598.589844,0.0,17982.609375,17739.787109,-17457.34375,18022.519531,29.961308,90.889206,22.918364,0.0,44.923103,-0.06934,31.992802,31.8347,29.891941,90.647064,22.938566,0.0,45.003113,-0.002339,31.414335,31.439135,1.114,1.097,4396988.0,-122780.0,3632144.0,0.0,193044.0,193703.0,-196595.0,188443.0,-65776.0,-119469.0,-570152.0,0.0,-197399.0,-195853.0,192111.0,-201185.0,0.0,0.0,0.0,0.0,0.0,0.0,0.0,0.0,0.0,0.0,0.0,0.0,0.0,0.0,0.0,0.0,0.0,0.0,0.0,0.0,0.0,0.0,0.0,0.0
22,1.448988914489746,29.961178,90.88929,22.918322,0.0,44.924461,-0.06946,32.012642,31.854427,29.892448,90.647484,22.939116,0.0,44.90696,-0.009958,31.482948,31.403294,3.0,1.0,111.0,0.0,1.0,-77743.0,-25366.0,14193.0,-77494.0,25117.0,13879.0,-0.936154,-0.349568,0.037664,-0.307251,0.761309,-0.570969,0.170919,-0.546087,-0.820107,-0.93769,-0.036781,0.34552,0.304452,-0.566223,0.765964,0.167468,0.823431,0.54214,-0.936154,-0.349568,0.037664,-0.307251,0.761309,-0.570969,0.170919,-0.546087,-0.820107,-0.93769,-0.036781,0.34552,0.304452,-0.566223,0.765964,0.167468,0.823431,0.54214,-77743.0,-25366.0,14193.0,-77494.0,25117.0,13879.0,-4442328.0,-5827.0,-4205036.0,0.0,-1221.0,-3262.0,-3558.0,-5329.0,-20540.0,8798.0,3179.0,0.0,2402.0,1255.0,1853.0,-938.0,46.0,166.0,-45.0,0.0,873.0,525.0,451.0,-75.0,-46.0,-165.0,32.0,0.0,459.0,203.0,592.0,-732.0,-0.012517,-0.044977,0.012272,0.0,0.031954,0.019226,-0.016513,-0.002779,-0.012526,-0.044724,0.008907,0.0,0.016832,0.007436,-0.021673,-0.026795,4080.600342,11574.630859,51560.28125,0.0,-17483.849609,-17726.849609,18013.769531,-17439.480469,4071.23999,11544.030273,51599.789062,0.0,17982.089844,17739.71875,-17456.759766,18022.230469,0.0,0.0,0.0,0.0,0.0,0.0,0.0,0.0,0.0,0.0,0.0,0.0,0.0,0.0,0.0,0.0,0.0,0.0,0.0,0.0,0.0,0.0,0.0,0.0,0.0,0.0,0.0,0.0,0.0,0.0,0.0,0.0,4080.618164,11574.62207,51560.371094,0.0,-17483.857422,-17726.849609,18013.591797,-17439.658203,4071.17041,11543.969727,51598.589844,0.0,17982.609375,17739.787109,-17457.34375,18022.519531,29.961308,90.889206,22.918364,0.0,44.923103,-0.06934,31.992802,31.8347,29.891941,90.647064,22.938566,0.0,45.003113,-0.002339,31.414335,31.439135,1.114,1.097,4396988.0,-122780.0,3632144.0,0.0,193044.0,193703.0,-196595.0,188443.0,-65776.0,-119469.0,-570152.0,0.0,-197399.0,-195853.0,192111.0,-201185.0,0.0,0.0,0.0,0.0,0.0,0.0,0.0,0.0,0.0,0.0,0.0,0.0,0.0,0.0,0.0,0.0,0.0,0.0,0.0,0.0,0.0,0.0,0.0,0.0
23,1.5169949531555176,29.961178,90.88929,22.918322,0.0,44.924461,-0.06946,32.012642,31.854427,29.892448,90.647484,22.939116,0.0,44.90696,-0.009958,31.482948,31.403294,3.0,1.0,111.0,0.0,1.0,-77743.0,-25366.0,14193.0,-77494.0,25117.0,13879.0,-0.936154,-0.349568,0.037664,-0.307251,0.761309,-0.570969,0.170919,-0.546087,-0.820107,-0.93769,-0.036781,0.34552,0.304452,-0.566223,0.765964,0.167468,0.823431,0.54214,-0.936154,-0.349568,0.037664,-0.307251,0.761309,-0.570969,0.170919,-0.546087,-0.820107,-0.93769,-0.036781,0.34552,0.304452,-0.566223,0.765964,0.167468,0.823431,0.54214,-77743.0,-25366.0,14193.0,-77494.0,25117.0,13879.0,-4442328.0,-5827.0,-4205036.0,0.0,-1221.0,-3262.0,-3558.0,-5329.0,-20540.0,8798.0,3179.0,0.0,2402.0,1255.0,1853.0,-938.0,46.0,166.0,-45.0,0.0,873.0,525.0,451.0,-76.0,-46.0,-165.0,32.0,0.0,460.0,203.0,593.0,-731.0,-0.012517,-0.044977,0.012272,0.0,0.031953,0.019226,-0.016524,-0.002789,-0.012526,-0.044724,0.008907,0.0,0.016862,0.007441,-0.021708,-0.026778,4080.600342,11574.630859,51560.28125,0.0,-17483.849609,-17726.849609,18013.769531,-17439.480469,4071.23999,11544.030273,51599.789062,0.0,17982.089844,17739.71875,-17456.759766,18022.230469,0.0,0.0,0.0,0.0,0.0,0.0,0.0,0.0,0.0,0.0,0.0,0.0,0.0,0.0,0.0,0.0,0.0,0.0,0.0,0.0,0.0,0.0,0.0,0.0,0.0,0.0,0.0,0.0,0.0,0.0,0.0,0.0,4080.618164,11574.62207,51560.371094,0.0,-17483.857422,-17726.849609,18013.591797,-17439.658203,4071.17041,11543.969727,51598.589844,0.0,17982.609375,17739.787109,-17457.34375,18022.519531,29.961308,90.889206,22.918364,0.0,44.923103,-0.06934,31.992802,31.8347,29.891941,90.647064,22.938566,0.0,45.003113,-0.002339,31.414335,31.439135,1.114,1.097,4396988.0,-122780.0,3632144.0,0.0,193044.0,193703.0,-196595.0,188443.0,-65776.0,-119469.0,-570152.0,0.0,-197399.0,-195853.0,192111.0,-201185.0,0.0,0.0,0.0,0.0,0.0,0.0,0.0,0.0,0.0,0.0,0.0,0.0,0.0,0.0,0.0,0.0,0.0,0.0,0.0,0.0,0.0,0.0,0.0,0.0
24,1.5829861164093018,29.961178,90.88929,22.918322,0.0,44.924461,-0.06946,32.012642,31.854427,29.892448,90.647484,22.939116,0.0,44.90696,-0.009958,31.482948,31.403294,3.0,1.0,111.0,0.0,1.0,-77743.0,-25366.0,14193.0,-77494.0,25117.0,13879.0,-0.936154,-0.349568,0.037664,-0.307251,0.761309,-0.570969,0.170919,-0.546087,-0.820107,-0.93769,-0.036781,0.34552,0.304452,-0.566223,0.765964,0.167468,0.823431,0.54214,-0.936154,-0.349568,0.037664,-0.307251,0.761309,-0.570969,0.170919,-0.546087,-0.820107,-0.93769,-0.036781,0.34552,0.304452,-0.566223,0.765964,0.167468,0.823431,0.54214,-77743.0,-25366.0,14193.0,-77494.0,25117.0,13879.0,-4442328.0,-5827.0,-4205036.0,0.0,-1221.0,-3262.0,-3558.0,-5329.0,-20540.0,8798.0,3179.0,0.0,2402.0,1255.0,1853.0,-938.0,46.0,166.0,-45.0,0.0,873.0,525.0,451.0,-76.0,-46.0,-165.0,32.0,0.0,461.0,203.0,594.0,-731.0,-0.012517,-0.044977,0.012272,0.0,0.031953,0.019227,-0.016534,-0.0028,-0.012526,-0.044724,0.008907,0.0,0.016892,0.007444,-0.021741,-0.026761,4080.600342,11574.630859,51560.28125,0.0,-17483.849609,-17726.849609,18013.769531,-17439.480469,4071.23999,11544.030273,51599.789062,0.0,17982.089844,17739.71875,-17456.759766,18022.230469,0.0,0.0,0.0,0.0,0.0,0.0,0.0,0.0,0.0,0.0,0.0,0.0,0.0,0.0,0.0,0.0,0.0,0.0,0.0,0.0,0.0,0.0,0.0,0.0,0.0,0.0,0.0,0.0,0.0,0.0,0.0,0.0,4080.618164,11574.62207,51560.371094,0.0,-17483.857422,-17726.849609,18013.591797,-17439.658203,4071.17041,11543.969727,51598.589844,0.0,17982.609375,17739.787109,-17457.34375,18022.519531,29.961308,90.889206,22.918364,0.0,44.923103,-0.06934,31.992802,31.8347,29.891941,90.647064,22.938566,0.0,45.003113,-0.002339,31.414335,31.439135,1.114,1.097,4396988.0,-122780.0,3632144.0,0.0,193044.0,193703.0,-196595.0,188443.0,-65776.0,-119469.0,-570152.0,0.0,-197399.0,-195853.0,192111.0,-201185.0,0.0,0.0,0.0,0.0,0.0,0.0,0.0,0.0,0.0,0.0,0.0,0.0,0.0,0.0,0.0,0.0,0.0,0.0,0.0,0.0,0.0,0.0,0.0,0.0
25,1.6499519348144531,29.961178,90.88929,22.918322,0.0,44.924461,-0.06946,32.012642,31.854427,29.892448,90.647484,22.939116,0.0,44.90696,-0.009958,31.482948,31.403294,3.0,1.0,111.0,0.0,1.0,-77743.0,-25366.0,14193.0,-77494.0,25117.0,13879.0,-0.936154,-0.349568,0.037664,-0.307251,0.761309,-0.570969,0.170919,-0.546087,-0.820107,-0.93769,-0.036781,0.34552,0.304452,-0.566223,0.765964,0.167468,0.823431,0.54214,-0.936154,-0.349568,0.037664,-0.307251,0.761309,-0.570969,0.170919,-0.546087,-0.820107,-0.93769,-0.036781,0.34552,0.304452,-0.566223,0.765964,0.167468,0.823431,0.54214,-77743.0,-25366.0,14193.0,-77494.0,25117.0,13879.0,-4442328.0,-5827.0,-4205036.0,0.0,-1221.0,-3262.0,-3558.0,-5329.0,-20540.0,8798.0,3179.0,0.0,2402.0,1255.0,1853.0,-938.0,46.0,166.0,-45.0,0.0,873.0,525.0,452.0,-76.0,-46.0,-165.0,32.0,0.0,462.0,203.0,595.0,-730.0,-0.012517,-0.044977,0.012272,0.0,0.031952,0.019227,-0.016545,-0.00281,-0.012526,-0.044724,0.008907,0.0,0.016923,0.007448,-0.021775,-0.026744,4080.600342,11574.630859,51560.28125,0.0,-17483.849609,-17726.849609,18013.769531,-17439.480469,4071.23999,11544.030273,51599.789062,0.0,17982.089844,17739.71875,-17456.759766,18022.230469,0.0,0.0,0.0,0.0,0.0,0.0,0.0,0.0,0.0,0.0,0.0,0.0,0.0,0.0,0.0,0.0,0.0,0.0,0.0,0.0,0.0,0.0,0.0,0.0,0.0,0.0,0.0,0.0,0.0,0.0,0.0,0.0,4080.618164,11574.62207,51560.371094,0.0,-17483.857422,-17726.849609,18013.591797,-17439.658203,4071.17041,11543.969727,51598.589844,0.0,17982.609375,17739.787109,-17457.34375,18022.519531,29.961308,90.889206,22.918364,0.0,44.923103,-0.06934,31.992802,31.8347,29.891941,90.647064,22.938566,0.0,45.003113,-0.002339,31.414335,31.439135,1.114,1.097,4396988.0,-122780.0,3632144.0,0.0,193044.0,193703.0,-196595.0,188443.0,-65776.0,-119469.0,-570152.0,0.0,-197399.0,-195853.0,192111.0,-201185.0,0.0,0.0,0.0,0.0,0.0,0.0,0.0,0.0,0.0,0.0,0.0,0.0,0.0,0.0,0.0,0.0,0.0,0.0,0.0,0.0,0.0,0.0,0.0,0.0
26,1.7149569988250732,29.961178,90.88929,22.918322,0.0,44.924461,-0.06946,32.012642,31.854427,29.892448,90.647484,22.939116,0.0,44.90696,-0.009958,31.482948,31.403294,3.0,1.0,111.0,0.0,1.0,-77743.0,-25366.0,14193.0,-77494.0,25117.0,13879.0,-0.936154,-0.349568,0.037664,-0.307251,0.761309,-0.570969,0.170919,-0.546087,-0.820107,-0.93769,-0.036781,0.34552,0.304452,-0.566223,0.765964,0.167468,0.823431,0.54214,-0.936154,-0.349568,0.037664,-0.307251,0.761309,-0.570969,0.170919,-0.546087,-0.820107,-0.93769,-0.036781,0.34552,0.304452,-0.566223,0.765964,0.167468,0.823431,0.54214,-77743.0,-25366.0,14193.0,-77494.0,25117.0,13879.0,-4442328.0,-5827.0,-4205036.0,0.0,-1221.0,-3262.0,-3558.0,-5329.0,-20540.0,8798.0,3179.0,0.0,2402.0,1255.0,1853.0,-938.0,46.0,166.0,-45.0,0.0,873.0,525.0,452.0,-77.0,-46.0,-165.0,32.0,0.0,463.0,203.0,595.0,-730.0,-0.012517,-0.044977,0.012272,0.0,0.031952,0.019227,-0.016555,-0.00282,-0.012526,-0.044724,0.008907,0.0,0.016952,0.007452,-0.021808,-0.026728,4080.600342,11574.630859,51560.28125,0.0,-17483.849609,-17726.849609,18013.769531,-17439.480469,4071.23999,11544.030273,51599.789062,0.0,17982.089844,17739.71875,-17456.759766,18022.230469,0.0,0.0,0.0,0.0,0.0,0.0,0.0,0.0,0.0,0.0,0.0,0.0,0.0,0.0,0.0,0.0,0.0,0.0,0.0,0.0,0.0,0.0,0.0,0.0,0.0,0.0,0.0,0.0,0.0,0.0,0.0,0.0,4080.618164,11574.62207,51560.371094,0.0,-17483.857422,-17726.849609,18013.591797,-17439.658203,4071.17041,11543.969727,51598.589844,0.0,17982.609375,17739.787109,-17457.34375,18022.519531,29.961308,90.889206,22.918364,0.0,44.923103,-0.06934,31.992802,31.8347,29.891941,90.647064,22.938566,0.0,45.003113,-0.002339,31.414335,31.439135,1.114,1.097,4396988.0,-122780.0,3632144.0,0.0,193044.0,193703.0,-196595.0,188443.0,-65776.0,-119469.0,-570152.0,0.0,-197399.0,-195853.0,192111.0,-201185.0,0.0,0.0,0.0,0.0,0.0,0.0,0.0,0.0,0.0,0.0,0.0,0.0,0.0,0.0,0.0,0.0,0.0,0.0,0.0,0.0,0.0,0.0,0.0,0.0
27,1.7829580307006836,29.961178,90.88929,22.918322,0.0,44.924461,-0.06946,32.012642,31.854427,29.892448,90.647484,22.939157,0.0,44.901169,-0.013435,31.488163,31.398079,3.0,1.0,111.0,0.0,1.0,-77743.0,-25366.0,14193.0,-77493.0,25117.0,13880.0,-0.936154,-0.349568,0.037664,-0.307251,0.761309,-0.570969,0.170919,-0.546087,-0.820107,-0.937666,-0.036831,0.34558,0.30455,-0.566118,0.766003,0.167426,0.823501,0.542046,-0.936154,-0.349568,0.037664,-0.307251,0.761309,-0.570969,0.170919,-0.546087,-0.820107,-0.937666,-0.036831,0.34558,0.30455,-0.566118,0.766003,0.167426,0.823501,0.542046,-77743.0,-25366.0,14193.0,-77493.0,25117.0,13880.0,-4442328.0,-5827.0,-4205036.0,0.0,-1221.0,-3262.0,-3558.0,-5329.0,-20540.0,8798.0,3180.0,0.0,2402.0,1255.0,1853.0,-938.0,46.0,166.0,-45.0,0.0,873.0,525.0,452.0,-77.0,-46.0,-165.0,32.0,0.0,465.0,204.0,597.0,-729.0,-0.012517,-0.044977,0.012272,0.0,0.031952,0.019227,-0.016565,-0.002831,-0.012526,-0.044724,0.008669,0.0,0.017033,0.007484,-0.021871,-0.026683,4080.600342,11574.630859,51560.28125,0.0,-17483.849609,-17726.849609,18013.769531,-17439.480469,4071.23999,11544.030273,51599.882812,0.0,17982.089844,17739.71875,-17456.759766,18022.230469,0.0,0.0,0.0,0.0,0.0,0.0,0.0,0.0,0.0,0.0,0.0,0.0,0.0,0.0,0.0,0.0,0.0,0.0,0.0,0.0,0.0,0.0,0.0,0.0,0.0,0.0,0.0,0.0,0.0,0.0,0.0,0.0,4080.618164,11574.62207,51560.371094,0.0,-17483.857422,-17726.849609,18013.591797,-17439.658203,4071.17041,11543.969727,51598.589844,0.0,17982.640625,17739.818359,-17457.375,18022.550781,29.961308,90.889206,22.918364,0.0,44.923103,-0.06934,31.992802,31.8347,29.891941,90.647064,22.938566,0.0,45.003113,-0.002339,31.414335,31.439135,1.114,1.097,4396988.0,-122780.0,3632144.0,0.0,193044.0,193703.0,-196595.0,188443.0,-65776.0,-119469.0,-570152.0,0.0,-197399.0,-195853.0,192111.0,-201185.0,0.0,0.0,0.0,0.0,0.0,0.0,0.0,0.0,0.0,0.0,0.0,0.0,0.0,0.0,0.0,0.0,0.0,0.0,0.0,0.0,0.0,0.0,0.0,0.0
28,1.8500010967254639,29.961178,90.88929,22.918322,0.0,44.924461,-0.06946,32.012642,31.854427,29.892448,90.647484,22.939157,0.0,44.901169,-0.013435,31.488163,31.398079,3.0,1.0,111.0,0.0,1.0,-77743.0,-25366.0,14193.0,-77493.0,25117.0,13880.0,-0.936154,-0.349568,0.037664,-0.307251,0.761309,-0.570969,0.170919,-0.546087,-0.820107,-0.937666,-0.036831,0.34558,0.30455,-0.566118,0.766003,0.167426,0.823501,0.542046,-0.936154,-0.349568,0.037664,-0.307251,0.761309,-0.570969,0.170919,-0.546087,-0.820107,-0.937666,-0.036831,0.34558,0.30455,-0.566118,0.766003,0.167426,0.823501,0.542046,-77743.0,-25366.0,14193.0,-77493.0,25117.0,13880.0,-4442328.0,-5827.0,-4205036.0,0.0,-1221.0,-3262.0,-3558.0,-5329.0,-20540.0,8798.0,3180.0,0.0,2402.0,1255.0,1853.0,-938.0,46.0,166.0,-45.0,0.0,873.0,525.0,452.0,-77.0,-46.0,-165.0,32.0,0.0,466.0,204.0,598.0,-728.0,-0.012517,-0.044977,0.012272,0.0,0.031951,0.019227,-0.016576,-0.002841,-0.012526,-0.044724,0.008669,0.0,0.017065,0.00749,-0.021907,-0.026664,4080.600342,11574.630859,51560.28125,0.0,-17483.849609,-17726.849609,18013.769531,-17439.480469,4071.23999,11544.030273,51599.882812,0.0,17982.089844,17739.71875,-17456.759766,18022.230469,0.0,0.0,0.0,0.0,0.0,0.0,0.0,0.0,0.0,0.0,0.0,0.0,0.0,0.0,0.0,0.0,0.0,0.0,0.0,0.0,0.0,0.0,0.0,0.0,0.0,0.0,0.0,0.0,0.0,0.0,0.0,0.0,4080.618164,11574.62207,51560.371094,0.0,-17483.857422,-17726.849609,18013.591797,-17439.658203,4071.17041,11543.969727,51598.589844,0.0,17982.640625,17739.818359,-17457.375,18022.550781,29.961308,90.889206,22.918364,0.0,44.923103,-0.06934,31.992802,31.8347,29.891941,90.647064,22.938566,0.0,45.003113,-0.002339,31.414335,31.439135,1.114,1.097,4396988.0,-122780.0,3632144.0,0.0,193044.0,193703.0,-196595.0,188443.0,-65776.0,-119469.0,-570152.0,0.0,-197399.0,-195853.0,192111.0,-201185.0,0.0,0.0,0.0,0.0,0.0,0.0,0.0,0.0,0.0,0.0,0.0,0.0,0.0,0.0,0.0,0.0,0.0,0.0,0.0,0.0,0.0,0.0,0.0,0.0
29,1.9149610996246338,29.961178,90.88929,22.918322,0.0,44.924461,-0.06946,32.012642,31.854427,29.892448,90.647484,22.939157,0.0,44.901169,-0.013435,31.488163,31.398079,3.0,1.0,111.0,0.0,1.0,-77743.0,-25366.0,14193.0,-77493.0,25117.0,13880.0,-0.936154,-0.349568,0.037664,-0.307251,0.761309,-0.570969,0.170919,-0.546087,-0.820107,-0.937666,-0.036831,0.34558,0.30455,-0.566118,0.766003,0.167426,0.823501,0.542046,-0.936154,-0.349568,0.037664,-0.307251,0.761309,-0.570969,0.170919,-0.546087,-0.820107,-0.937666,-0.036831,0.34558,0.30455,-0.566118,0.766003,0.167426,0.823501,0.542046,-77743.0,-25366.0,14193.0,-77493.0,25117.0,13880.0,-4442328.0,-5827.0,-4205036.0,0.0,-1221.0,-3262.0,-3558.0,-5329.0,-20540.0,8798.0,3180.0,0.0,2402.0,1255.0,1853.0,-938.0,46.0,166.0,-45.0,0.0,873.0,525.0,453.0,-77.0,-46.0,-165.0,32.0,0.0,467.0,204.0,599.0,-728.0,-0.012517,-0.044977,0.012272,0.0,0.031951,0.019227,-0.016586,-0.002851,-0.012526,-0.044724,0.008669,0.0,0.017096,0.007496,-0.021941,-0.026646,4080.600342,11574.630859,51560.28125,0.0,-17483.849609,-17726.849609,18013.769531,-17439.480469,4071.23999,11544.030273,51599.882812,0.0,17982.089844,17739.71875,-17456.759766,18022.230469,0.0,0.0,0.0,0.0,0.0,0.0,0.0,0.0,0.0,0.0,0.0,0.0,0.0,0.0,0.0,0.0,0.0,0.0,0.0,0.0,0.0,0.0,0.0,0.0,0.0,0.0,0.0,0.0,0.0,0.0,0.0,0.0,4080.618164,11574.62207,51560.371094,0.0,-17483.857422,-17726.849609,18013.591797,-17439.658203,4071.17041,11543.969727,51598.589844,0.0,17982.640625,17739.818359,-17457.375,18022.550781,29.961308,90.889206,22.918364,0.0,44.923103,-0.06934,31.992802,31.8347,29.891941,90.647064,22.938566,0.0,45.003113,-0.002339,31.414335,31.439135,1.114,1.097,4396988.0,-122780.0,3632144.0,0.0,193044.0,193703.0,-196595.0,188443.0,-65776.0,-119469.0,-570152.0,0.0,-197399.0,-195853.0,192111.0,-201185.0,0.0,0.0,0.0,0.0,0.0,0.0,0.0,0.0,0.0,0.0,0.0,0.0,0.0,0.0,0.0,0.0,0.0,0.0,0.0,0.0,0.0,0.0,0.0,0.0
30,1.9799509048461914,29.961178,90.88929,22.918322,0.0,44.924461,-0.06946,32.012642,31.854427,29.892448,90.647484,22.939157,0.0,44.901169,-0.013435,31.488163,31.398079,3.0,1.0,111.0,0.0,1.0,-77743.0,-25366.0,14193.0,-77493.0,25117.0,13880.0,-0.936154,-0.349568,0.037664,-0.307251,0.761309,-0.570969,0.170919,-0.546087,-0.820107,-0.937666,-0.036831,0.34558,0.30455,-0.566118,0.766003,0.167426,0.823501,0.542046,-0.936154,-0.349568,0.037664,-0.307251,0.761309,-0.570969,0.170919,-0.546087,-0.820107,-0.937666,-0.036831,0.34558,0.30455,-0.566118,0.766003,0.167426,0.823501,0.542046,-77743.0,-25366.0,14193.0,-77493.0,25117.0,13880.0,-4442328.0,-5827.0,-4205036.0,0.0,-1221.0,-3262.0,-3558.0,-5329.0,-20540.0,8798.0,3180.0,0.0,2402.0,1255.0,1853.0,-938.0,46.0,166.0,-45.0,0.0,873.0,525.0,453.0,-78.0,-46.0,-165.0,32.0,0.0,468.0,205.0,600.0,-727.0,-0.012517,-0.044977,0.012272,0.0,0.03195,0.019227,-0.016596,-0.002861,-0.012526,-0.044724,0.008669,0.0,0.017128,0.007502,-0.021976,-0.026628,4080.600342,11574.630859,51560.28125,0.0,-17483.849609,-17726.849609,18013.769531,-17439.480469,4071.23999,11544.030273,51599.882812,0.0,17982.089844,17739.71875,-17456.759766,18022.230469,0.0,0.0,0.0,0.0,0.0,0.0,0.0,0.0,0.0,0.0,0.0,0.0,0.0,0.0,0.0,0.0,0.0,0.0,0.0,0.0,0.0,0.0,0.0,0.0,0.0,0.0,0.0,0.0,0.0,0.0,0.0,0.0,4080.618164,11574.62207,51560.371094,0.0,-17483.857422,-17726.849609,18013.591797,-17439.658203,4071.17041,11543.969727,51598.589844,0.0,17982.640625,17739.818359,-17457.375,18022.550781,29.961308,90.889206,22.918364,0.0,44.923103,-0.06934,31.992802,31.8347,29.891941,90.647064,22.938566,0.0,45.003113,-0.002339,31.414335,31.439135,1.114,1.097,4396988.0,-122780.0,3632144.0,0.0,193044.0,193703.0,-196595.0,188443.0,-65776.0,-119469.0,-570152.0,0.0,-197399.0,-195853.0,192111.0,-201185.0,0.0,0.0,0.0,0.0,0.0,0.0,0.0,0.0,0.0,0.0,0.0,0.0,0.0,0.0,0.0,0.0,0.0,0.0,0.0,0.0,0.0,0.0,0.0,0.0
31,2.0479531288146973,29.961178,90.88929,22.918322,0.0,44.924461,-0.06946,32.012642,31.854427,29.892448,90.647484,22.939157,0.0,44.901169,-0.013435,31.488163,31.398079,3.0,1.0,111.0,0.0,1.0,-77743.0,-25366.0,14193.0,-77493.0,25117.0,13880.0,-0.936154,-0.349568,0.037664,-0.307251,0.761309,-0.570969,0.170919,-0.546087,-0.820107,-0.937666,-0.036831,0.34558,0.30455,-0.566118,0.766003,0.167426,0.823501,0.542046,-0.936154,-0.349568,0.037664,-0.307251,0.761309,-0.570969,0.170919,-0.546087,-0.820107,-0.937666,-0.036831,0.34558,0.30455,-0.566118,0.766003,0.167426,0.823501,0.542046,-77743.0,-25366.0,14193.0,-77493.0,25117.0,13880.0,-4442328.0,-5827.0,-4205036.0,0.0,-1221.0,-3262.0,-3558.0,-5329.0,-20540.0,8798.0,3180.0,0.0,2402.0,1255.0,1853.0,-938.0,46.0,166.0,-45.0,0.0,873.0,525.0,453.0,-78.0,-46.0,-165.0,32.0,0.0,468.0,205.0,601.0,-727.0,-0.012517,-0.044977,0.012272,0.0,0.03195,0.019227,-0.016606,-0.002872,-0.012526,-0.044724,0.008669,0.0,0.01716,0.007507,-0.022013,-0.026609,4080.600342,11574.630859,51560.28125,0.0,-17483.849609,-17726.849609,18013.769531,-17439.480469,4071.23999,11544.030273,51599.882812,0.0,17982.089844,17739.71875,-17456.759766,18022.230469,0.0,0.0,0.0,0.0,0.0,0.0,0.0,0.0,0.0,0.0,0.0,0.0,0.0,0.0,0.0,0.0,0.0,0.0,0.0,0.0,0.0,0.0,0.0,0.0,0.0,0.0,0.0,0.0,0.0,0.0,0.0,0.0,4080.618164,11574.62207,51560.371094,0.0,-17483.857422,-17726.849609,18013.591797,-17439.658203,4071.17041,11543.969727,51598.589844,0.0,17982.640625,17739.818359,-17457.375,18022.550781,29.961308,90.889206,22.918364,0.0,44.923103,-0.06934,31.992802,31.8347,29.891941,90.647064,22.938566,0.0,45.003113,-0.002339,31.414335,31.439135,1.114,1.097,4396988.0,-122780.0,3632144.0,0.0,193044.0,193703.0,-196595.0,188443.0,-65776.0,-119469.0,-570152.0,0.0,-197399.0,-195853.0,192111.0,-201185.0,0.0,0.0,0.0,0.0,0.0,0.0,0.0,0.0,0.0,0.0,0.0,0.0,0.0,0.0,0.0,0.0,0.0,0.0,0.0,0.0,0.0,0.0,0.0,0.0
32,2.1159520149230957,29.961178,90.88929,22.918322,0.0,44.924461,-0.06946,32.012642,31.854427,29.892448,90.647484,22.939157,0.0,44.901169,-0.013435,31.488163,31.398079,3.0,1.0,111.0,0.0,1.0,-77743.0,-25366.0,14193.0,-77493.0,25117.0,13880.0,-0.936154,-0.349568,0.037664,-0.307251,0.761309,-0.570969,0.170919,-0.546087,-0.820107,-0.937666,-0.036831,0.34558,0.30455,-0.566118,0.766003,0.167426,0.823501,0.542046,-0.936154,-0.349568,0.037664,-0.307251,0.761309,-0.570969,0.170919,-0.546087,-0.820107,-0.937666,-0.036831,0.34558,0.30455,-0.566118,0.766003,0.167426,0.823501,0.542046,-77743.0,-25366.0,14193.0,-77493.0,25117.0,13880.0,-4442328.0,-5827.0,-4205036.0,0.0,-1221.0,-3262.0,-3558.0,-5329.0,-20540.0,8798.0,3180.0,0.0,2402.0,1255.0,1853.0,-938.0,46.0,166.0,-45.0,0.0,873.0,525.0,454.0,-78.0,-46.0,-165.0,32.0,0.0,469.0,205.0,602.0,-726.0,-0.012517,-0.044977,0.012272,0.0,0.03195,0.019227,-0.016617,-0.002883,-0.012526,-0.044724,0.008669,0.0,0.017193,0.007513,-0.022049,-0.02659,4080.600342,11574.630859,51560.28125,0.0,-17483.849609,-17726.849609,18013.769531,-17439.480469,4071.23999,11544.030273,51599.882812,0.0,17982.089844,17739.71875,-17456.759766,18022.230469,0.0,0.0,0.0,0.0,0.0,0.0,0.0,0.0,0.0,0.0,0.0,0.0,0.0,0.0,0.0,0.0,0.0,0.0,0.0,0.0,0.0,0.0,0.0,0.0,0.0,0.0,0.0,0.0,0.0,0.0,0.0,0.0,4080.618164,11574.62207,51560.371094,0.0,-17483.857422,-17726.849609,18013.591797,-17439.658203,4071.17041,11543.969727,51598.589844,0.0,17982.640625,17739.818359,-17457.375,18022.550781,29.961308,90.889206,22.918364,0.0,44.923103,-0.06934,31.992802,31.8347,29.891941,90.647064,22.938566,0.0,45.003113,-0.002339,31.414335,31.439135,1.114,1.097,4396988.0,-122780.0,3632144.0,0.0,193044.0,193703.0,-196595.0,188443.0,-65776.0,-119469.0,-570152.0,0.0,-197399.0,-195853.0,192111.0,-201185.0,0.0,0.0,0.0,0.0,0.0,0.0,0.0,0.0,0.0,0.0,0.0,0.0,0.0,0.0,0.0,0.0,0.0,0.0,0.0,0.0,0.0,0.0,0.0,0.0
33,2.183954954147339,29.961178,90.88929,22.918322,0.0,44.924461,-0.06946,32.012642,31.854427,29.892448,90.647484,22.939157,0.0,44.901169,-0.013435,31.488163,31.398079,3.0,1.0,111.0,0.0,1.0,-77743.0,-25366.0,14193.0,-77493.0,25117.0,13880.0,-0.936154,-0.349568,0.037664,-0.307251,0.761309,-0.570969,0.170919,-0.546087,-0.820107,-0.937666,-0.036831,0.34558,0.30455,-0.566118,0.766003,0.167426,0.823501,0.542046,-0.936154,-0.349568,0.037664,-0.307251,0.761309,-0.570969,0.170919,-0.546087,-0.820107,-0.937666,-0.036831,0.34558,0.30455,-0.566118,0.766003,0.167426,0.823501,0.542046,-77743.0,-25366.0,14193.0,-77493.0,25117.0,13880.0,-4442328.0,-5827.0,-4205036.0,0.0,-1221.0,-3262.0,-3558.0,-5329.0,-20540.0,8798.0,3180.0,0.0,2402.0,1255.0,1853.0,-938.0,46.0,166.0,-45.0,0.0,873.0,525.0,454.0,-79.0,-46.0,-165.0,32.0,0.0,470.0,205.0,603.0,-726.0,-0.012517,-0.044977,0.012272,0.0,0.031949,0.019227,-0.016627,-0.002893,-0.012526,-0.044724,0.008669,0.0,0.017226,0.007519,-0.022085,-0.026571,4080.600342,11574.630859,51560.28125,0.0,-17483.849609,-17726.849609,18013.769531,-17439.480469,4071.23999,11544.030273,51599.882812,0.0,17982.089844,17739.71875,-17456.759766,18022.230469,0.0,0.0,0.0,0.0,0.0,0.0,0.0,0.0,0.0,0.0,0.0,0.0,0.0,0.0,0.0,0.0,0.0,0.0,0.0,0.0,0.0,0.0,0.0,0.0,0.0,0.0,0.0,0.0,0.0,0.0,0.0,0.0,4080.618164,11574.62207,51560.371094,0.0,-17483.857422,-17726.849609,18013.591797,-17439.658203,4071.17041,11543.969727,51598.589844,0.0,17982.640625,17739.818359,-17457.375,18022.550781,29.961308,90.889206,22.918364,0.0,44.923103,-0.06934,31.992802,31.8347,29.891941,90.647064,22.938566,0.0,45.003113,-0.002339,31.414335,31.439135,1.114,1.097,4396988.0,-122780.0,3632144.0,0.0,193044.0,193703.0,-196595.0,188443.0,-65776.0,-119469.0,-570152.0,0.0,-197399.0,-195853.0,192111.0,-201185.0,0.0,0.0,0.0,0.0,0.0,0.0,0.0,0.0,0.0,0.0,0.0,0.0,0.0,0.0,0.0,0.0,0.0,0.0,0.0,0.0,0.0,0.0,0.0,0.0
34,2.2499840259552,29.961178,90.88929,22.918322,0.0,44.924461,-0.06946,32.012642,31.854427,29.892448,90.647484,22.939157,0.0,44.901169,-0.013435,31.488163,31.398079,3.0,1.0,111.0,0.0,1.0,-77743.0,-25366.0,14193.0,-77493.0,25117.0,13880.0,-0.936154,-0.349568,0.037664,-0.307251,0.761309,-0.570969,0.170919,-0.546087,-0.820107,-0.937666,-0.036831,0.34558,0.30455,-0.566118,0.766003,0.167426,0.823501,0.542046,-0.936154,-0.349568,0.037664,-0.307251,0.761309,-0.570969,0.170919,-0.546087,-0.820107,-0.937666,-0.036831,0.34558,0.30455,-0.566118,0.766003,0.167426,0.823501,0.542046,-77743.0,-25366.0,14193.0,-77493.0,25117.0,13880.0,-4442328.0,-5827.0,-4205036.0,0.0,-1221.0,-3262.0,-3558.0,-5329.0,-20540.0,8798.0,3180.0,0.0,2402.0,1255.0,1853.0,-938.0,46.0,166.0,-45.0,0.0,873.0,525.0,454.0,-79.0,-46.0,-165.0,32.0,0.0,471.0,205.0,604.0,-725.0,-0.012517,-0.044977,0.012272,0.0,0.031949,0.019228,-0.016638,-0.002903,-0.012526,-0.044724,0.008669,0.0,0.017258,0.007525,-0.022121,-0.026552,4080.600342,11574.630859,51560.28125,0.0,-17483.849609,-17726.849609,18013.769531,-17439.480469,4071.23999,11544.030273,51599.882812,0.0,17982.089844,17739.71875,-17456.759766,18022.230469,0.0,0.0,0.0,0.0,0.0,0.0,0.0,0.0,0.0,0.0,0.0,0.0,0.0,0.0,0.0,0.0,0.0,0.0,0.0,0.0,0.0,0.0,0.0,0.0,0.0,0.0,0.0,0.0,0.0,0.0,0.0,0.0,4080.618164,11574.62207,51560.371094,0.0,-17483.857422,-17726.849609,18013.591797,-17439.658203,4071.17041,11543.969727,51598.589844,0.0,17982.640625,17739.818359,-17457.375,18022.550781,29.961308,90.889206,22.918364,0.0,44.923103,-0.06934,31.992802,31.8347,29.891941,90.647064,22.938566,0.0,45.003113,-0.002339,31.414335,31.439135,1.114,1.097,4396988.0,-122780.0,3632144.0,0.0,193044.0,193703.0,-196595.0,188443.0,-65776.0,-119469.0,-570152.0,0.0,-197399.0,-195853.0,192111.0,-201185.0,0.0,0.0,0.0,0.0,0.0,0.0,0.0,0.0,0.0,0.0,0.0,0.0,0.0,0.0,0.0,0.0,0.0,0.0,0.0,0.0,0.0,0.0,0.0,0.0
35,2.31599497795105,29.961178,90.88929,22.918322,0.0,44.924461,-0.06946,32.012642,31.854427,29.892448,90.647484,22.939157,0.0,44.901169,-0.013435,31.488163,31.398079,3.0,1.0,111.0,0.0,1.0,-77743.0,-25366.0,14193.0,-77493.0,25117.0,13880.0,-0.936154,-0.349568,0.037664,-0.307251,0.761309,-0.570969,0.170919,-0.546087,-0.820107,-0.937666,-0.036831,0.34558,0.30455,-0.566118,0.766003,0.167426,0.823501,0.542046,-0.936154,-0.349568,0.037664,-0.307251,0.761309,-0.570969,0.170919,-0.546087,-0.820107,-0.937666,-0.036831,0.34558,0.30455,-0.566118,0.766003,0.167426,0.823501,0.542046,-77743.0,-25366.0,14193.0,-77493.0,25117.0,13880.0,-4442328.0,-5827.0,-4205036.0,0.0,-1221.0,-3262.0,-3558.0,-5329.0,-20540.0,8798.0,3180.0,0.0,2402.0,1255.0,1853.0,-938.0,46.0,166.0,-45.0,0.0,873.0,525.0,454.0,-79.0,-46.0,-165.0,32.0,0.0,472.0,205.0,605.0,-725.0,-0.012517,-0.044977,0.012272,0.0,0.031948,0.019228,-0.016648,-0.002914,-0.012526,-0.044724,0.008669,0.0,0.017289,0.007531,-0.022156,-0.026534,4080.600342,11574.630859,51560.28125,0.0,-17483.849609,-17726.849609,18013.769531,-17439.480469,4071.23999,11544.030273,51599.882812,0.0,17982.089844,17739.71875,-17456.759766,18022.230469,0.0,0.0,0.0,0.0,0.0,0.0,0.0,0.0,0.0,0.0,0.0,0.0,0.0,0.0,0.0,0.0,0.0,0.0,0.0,0.0,0.0,0.0,0.0,0.0,0.0,0.0,0.0,0.0,0.0,0.0,0.0,0.0,4080.618164,11574.62207,51560.371094,0.0,-17483.857422,-17726.849609,18013.591797,-17439.658203,4071.17041,11543.969727,51598.589844,0.0,17982.640625,17739.818359,-17457.375,18022.550781,29.961308,90.889206,22.918364,0.0,44.923103,-0.06934,31.992802,31.8347,29.891941,90.647064,22.938566,0.0,45.003113,-0.002339,31.414335,31.439135,1.114,1.097,4396988.0,-122780.0,3632144.0,0.0,193044.0,193703.0,-196595.0,188443.0,-65776.0,-119469.0,-570152.0,0.0,-197399.0,-195853.0,192111.0,-201185.0,0.0,0.0,0.0,0.0,0.0,0.0,0.0,0.0,0.0,0.0,0.0,0.0,0.0,0.0,0.0,0.0,0.0,0.0,0.0,0.0,0.0,0.0,0.0,0.0
36,2.3839879035949707,29.961178,90.88929,22.918322,0.0,44.924461,-0.06946,32.012642,31.854427,29.892448,90.647484,22.939157,0.0,44.901169,-0.013435,31.488163,31.398079,3.0,1.0,111.0,0.0,1.0,-77743.0,-25366.0,14193.0,-77493.0,25117.0,13880.0,-0.936154,-0.349568,0.037664,-0.307251,0.761309,-0.570969,0.170919,-0.546087,-0.820107,-0.937666,-0.036831,0.34558,0.30455,-0.566118,0.766003,0.167426,0.823501,0.542046,-0.936154,-0.349568,0.037664,-0.307251,0.761309,-0.570969,0.170919,-0.546087,-0.820107,-0.937666,-0.036831,0.34558,0.30455,-0.566118,0.766003,0.167426,0.823501,0.542046,-77743.0,-25366.0,14193.0,-77493.0,25117.0,13880.0,-4442328.0,-5827.0,-4205036.0,0.0,-1221.0,-3262.0,-3558.0,-5329.0,-20540.0,8798.0,3180.0,0.0,2402.0,1255.0,1853.0,-938.0,46.0,166.0,-45.0,0.0,873.0,525.0,455.0,-79.0,-46.0,-165.0,32.0,0.0,473.0,205.0,606.0,-724.0,-0.012517,-0.044977,0.012272,0.0,0.031948,0.019228,-0.016658,-0.002924,-0.012526,-0.044724,0.008669,0.0,0.017322,0.007537,-0.022192,-0.026515,4080.600342,11574.630859,51560.28125,0.0,-17483.849609,-17726.849609,18013.769531,-17439.480469,4071.23999,11544.030273,51599.882812,0.0,17982.089844,17739.71875,-17456.759766,18022.230469,0.0,0.0,0.0,0.0,0.0,0.0,0.0,0.0,0.0,0.0,0.0,0.0,0.0,0.0,0.0,0.0,0.0,0.0,0.0,0.0,0.0,0.0,0.0,0.0,0.0,0.0,0.0,0.0,0.0,0.0,0.0,0.0,4080.618164,11574.62207,51560.371094,0.0,-17483.857422,-17726.849609,18013.591797,-17439.658203,4071.17041,11543.969727,51598.589844,0.0,17982.640625,17739.818359,-17457.375,18022.550781,29.961308,90.889206,22.918364,0.0,44.923103,-0.06934,31.992802,31.8347,29.891941,90.647064,22.938566,0.0,45.003113,-0.002339,31.414335,31.439135,1.114,1.097,4396988.0,-122780.0,3632144.0,0.0,193044.0,193703.0,-196595.0,188443.0,-65776.0,-119469.0,-570152.0,0.0,-197399.0,-195853.0,192111.0,-201185.0,0.0,0.0,0.0,0.0,0.0,0.0,0.0,0.0,0.0,0.0,0.0,0.0,0.0,0.0,0.0,0.0,0.0,0.0,0.0,0.0,0.0,0.0,0.0,0.0
37,2.4499590396881104,29.961178,90.88929,22.918322,0.0,44.924461,-0.06946,32.012642,31.854427,29.892448,90.647484,22.939157,0.0,44.901169,-0.013435,31.488163,31.398079,3.0,1.0,111.0,0.0,1.0,-77743.0,-25366.0,14193.0,-77493.0,25117.0,13880.0,-0.936154,-0.349568,0.037664,-0.307251,0.761309,-0.570969,0.170919,-0.546087,-0.820107,-0.937666,-0.036831,0.34558,0.30455,-0.566118,0.766003,0.167426,0.823501,0.542046,-0.936154,-0.349568,0.037664,-0.307251,0.761309,-0.570969,0.170919,-0.546087,-0.820107,-0.937666,-0.036831,0.34558,0.30455,-0.566118,0.766003,0.167426,0.823501,0.542046,-77743.0,-25366.0,14193.0,-77493.0,25117.0,13880.0,-4442328.0,-5827.0,-4205036.0,0.0,-1221.0,-3262.0,-3558.0,-5329.0,-20540.0,8798.0,3180.0,0.0,2402.0,1255.0,1853.0,-938.0,46.0,166.0,-45.0,0.0,873.0,525.0,455.0,-80.0,-46.0,-165.0,32.0,0.0,474.0,206.0,607.0,-724.0,-0.012517,-0.044977,0.012272,0.0,0.031948,0.019228,-0.016669,-0.002935,-0.012526,-0.044724,0.008669,0.0,0.017354,0.007543,-0.022228,-0.026496,4080.600342,11574.630859,51560.28125,0.0,-17483.849609,-17726.849609,18013.769531,-17439.480469,4071.23999,11544.030273,51599.882812,0.0,17982.089844,17739.71875,-17456.759766,18022.230469,0.0,0.0,0.0,0.0,0.0,0.0,0.0,0.0,0.0,0.0,0.0,0.0,0.0,0.0,0.0,0.0,0.0,0.0,0.0,0.0,0.0,0.0,0.0,0.0,0.0,0.0,0.0,0.0,0.0,0.0,0.0,0.0,4080.618164,11574.62207,51560.371094,0.0,-17483.857422,-17726.849609,18013.591797,-17439.658203,4071.17041,11543.969727,51598.589844,0.0,17982.640625,17739.818359,-17457.375,18022.550781,29.961308,90.889206,22.918364,0.0,44.923103,-0.06934,31.992802,31.8347,29.891941,90.647064,22.938566,0.0,45.003113,-0.002339,31.414335,31.439135,1.114,1.097,4396988.0,-122780.0,3632144.0,0.0,193044.0,193703.0,-196595.0,188443.0,-65776.0,-119469.0,-570152.0,0.0,-197399.0,-195853.0,192111.0,-201185.0,0.0,0.0,0.0,0.0,0.0,0.0,0.0,0.0,0.0,0.0,0.0,0.0,0.0,0.0,0.0,0.0,0.0,0.0,0.0,0.0,0.0,0.0,0.0,0.0
38,2.515955924987793,29.961178,90.88929,22.918322,0.0,44.924461,-0.06946,32.012642,31.854427,29.892448,90.647484,22.939157,0.0,44.901169,-0.013435,31.488163,31.398079,3.0,1.0,111.0,0.0,1.0,-77743.0,-25366.0,14193.0,-77493.0,25117.0,13880.0,-0.936154,-0.349568,0.037664,-0.307251,0.761309,-0.570969,0.170919,-0.546087,-0.820107,-0.937666,-0.036831,0.34558,0.30455,-0.566118,0.766003,0.167426,0.823501,0.542046,-0.936154,-0.349568,0.037664,-0.307251,0.761309,-0.570969,0.170919,-0.546087,-0.820107,-0.937666,-0.036831,0.34558,0.30455,-0.566118,0.766003,0.167426,0.823501,0.542046,-77743.0,-25366.0,14193.0,-77493.0,25117.0,13880.0,-4442328.0,-5827.0,-4205036.0,0.0,-1221.0,-3262.0,-3558.0,-5329.0,-20540.0,8798.0,3180.0,0.0,2402.0,1255.0,1853.0,-938.0,46.0,166.0,-45.0,0.0,873.0,525.0,455.0,-80.0,-46.0,-165.0,32.0,0.0,475.0,206.0,608.0,-723.0,-0.012517,-0.044977,0.012272,0.0,0.031947,0.019228,-0.016679,-0.002945,-0.012526,-0.044724,0.008669,0.0,0.017386,0.007548,-0.022263,-0.026478,4080.600342,11574.630859,51560.28125,0.0,-17483.849609,-17726.849609,18013.769531,-17439.480469,4071.23999,11544.030273,51599.882812,0.0,17982.089844,17739.71875,-17456.759766,18022.230469,0.0,0.0,0.0,0.0,0.0,0.0,0.0,0.0,0.0,0.0,0.0,0.0,0.0,0.0,0.0,0.0,0.0,0.0,0.0,0.0,0.0,0.0,0.0,0.0,0.0,0.0,0.0,0.0,0.0,0.0,0.0,0.0,4080.618164,11574.62207,51560.371094,0.0,-17483.857422,-17726.849609,18013.591797,-17439.658203,4071.17041,11543.969727,51598.589844,0.0,17982.640625,17739.818359,-17457.375,18022.550781,29.961308,90.889206,22.918364,0.0,44.923103,-0.06934,31.992802,31.8347,29.891941,90.647064,22.938566,0.0,45.003113,-0.002339,31.414335,31.439135,1.114,1.097,4396988.0,-122780.0,3632144.0,0.0,193044.0,193703.0,-196595.0,188443.0,-65776.0,-119469.0,-570152.0,0.0,-197399.0,-195853.0,192111.0,-201185.0,0.0,0.0,0.0,0.0,0.0,0.0,0.0,0.0,0.0,0.0,0.0,0.0,0.0,0.0,0.0,0.0,0.0,0.0,0.0,0.0,0.0,0.0,0.0,0.0
39,2.5819590091705322,29.961178,90.88929,22.918322,0.0,44.924461,-0.06946,32.012642,31.854427,29.892448,90.647484,22.939157,0.0,44.901169,-0.013435,31.488163,31.398079,3.0,1.0,111.0,0.0,1.0,-77743.0,-25366.0,14193.0,-77493.0,25117.0,13880.0,-0.936154,-0.349568,0.037664,-0.307251,0.761309,-0.570969,0.170919,-0.546087,-0.820107,-0.937666,-0.036831,0.34558,0.30455,-0.566118,0.766003,0.167426,0.823501,0.542046,-0.936154,-0.349568,0.037664,-0.307251,0.761309,-0.570969,0.170919,-0.546087,-0.820107,-0.937666,-0.036831,0.34558,0.30455,-0.566118,0.766003,0.167426,0.823501,0.542046,-77743.0,-25366.0,14193.0,-77493.0,25117.0,13880.0,-4442328.0,-5827.0,-4205036.0,0.0,-1221.0,-3262.0,-3558.0,-5329.0,-20540.0,8798.0,3180.0,0.0,2402.0,1255.0,1853.0,-938.0,46.0,166.0,-45.0,0.0,873.0,525.0,456.0,-80.0,-46.0,-165.0,32.0,0.0,475.0,206.0,609.0,-723.0,-0.012517,-0.044977,0.012272,0.0,0.031947,0.019228,-0.016689,-0.002955,-0.012526,-0.044724,0.008669,0.0,0.017417,0.007554,-0.022298,-0.026459,4080.600342,11574.630859,51560.28125,0.0,-17483.849609,-17726.849609,18013.769531,-17439.480469,4071.23999,11544.030273,51599.882812,0.0,17982.089844,17739.71875,-17456.759766,18022.230469,0.0,0.0,0.0,0.0,0.0,0.0,0.0,0.0,0.0,0.0,0.0,0.0,0.0,0.0,0.0,0.0,0.0,0.0,0.0,0.0,0.0,0.0,0.0,0.0,0.0,0.0,0.0,0.0,0.0,0.0,0.0,0.0,4080.618164,11574.62207,51560.371094,0.0,-17483.857422,-17726.849609,18013.591797,-17439.658203,4071.17041,11543.969727,51598.589844,0.0,17982.640625,17739.818359,-17457.375,18022.550781,29.961308,90.889206,22.918364,0.0,44.923103,-0.06934,31.992802,31.8347,29.891941,90.647064,22.938566,0.0,45.003113,-0.002339,31.414335,31.439135,1.114,1.097,4396988.0,-122780.0,3632144.0,0.0,193044.0,193703.0,-196595.0,188443.0,-65776.0,-119469.0,-570152.0,0.0,-197399.0,-195853.0,192111.0,-201185.0,0.0,0.0,0.0,0.0,0.0,0.0,0.0,0.0,0.0,0.0,0.0,0.0,0.0,0.0,0.0,0.0,0.0,0.0,0.0,0.0,0.0,0.0,0.0,0.0
40,2.6499569416046143,29.961178,90.88929,22.918322,0.0,44.924461,-0.06946,32.012642,31.854427,29.892448,90.647484,22.939157,0.0,44.901169,-0.013435,31.488163,31.398079,3.0,1.0,111.0,0.0,1.0,-77743.0,-25366.0,14193.0,-77493.0,25117.0,13880.0,-0.936154,-0.349568,0.037664,-0.307251,0.761309,-0.570969,0.170919,-0.546087,-0.820107,-0.937666,-0.036831,0.34558,0.30455,-0.566118,0.766003,0.167426,0.823501,0.542046,-0.936154,-0.349568,0.037664,-0.307251,0.761309,-0.570969,0.170919,-0.546087,-0.820107,-0.937666,-0.036831,0.34558,0.30455,-0.566118,0.766003,0.167426,0.823501,0.542046,-77743.0,-25366.0,14193.0,-77493.0,25117.0,13880.0,-4442328.0,-5827.0,-4205036.0,0.0,-1221.0,-3262.0,-3558.0,-5329.0,-20540.0,8798.0,3180.0,0.0,2402.0,1255.0,1853.0,-938.0,46.0,166.0,-45.0,0.0,873.0,525.0,456.0,-81.0,-46.0,-165.0,32.0,0.0,476.0,206.0,610.0,-722.0,-0.012517,-0.044977,0.012272,0.0,0.031946,0.019228,-0.0167,-0.002966,-0.012526,-0.044724,0.008669,0.0,0.01745,0.00756,-0.022335,-0.02644,4080.600342,11574.630859,51560.28125,0.0,-17483.849609,-17726.849609,18013.769531,-17439.480469,4071.23999,11544.030273,51599.882812,0.0,17982.089844,17739.71875,-17456.759766,18022.230469,0.0,0.0,0.0,0.0,0.0,0.0,0.0,0.0,0.0,0.0,0.0,0.0,0.0,0.0,0.0,0.0,0.0,0.0,0.0,0.0,0.0,0.0,0.0,0.0,0.0,0.0,0.0,0.0,0.0,0.0,0.0,0.0,4080.618164,11574.62207,51560.371094,0.0,-17483.857422,-17726.849609,18013.591797,-17439.658203,4071.17041,11543.969727,51598.589844,0.0,17982.640625,17739.818359,-17457.375,18022.550781,29.961308,90.889206,22.918364,0.0,44.923103,-0.06934,31.992802,31.8347,29.891941,90.647064,22.938566,0.0,45.003113,-0.002339,31.414335,31.439135,1.114,1.097,4396988.0,-122780.0,3632144.0,0.0,193044.0,193703.0,-196595.0,188443.0,-65776.0,-119469.0,-570152.0,0.0,-197399.0,-195853.0,192111.0,-201185.0,0.0,0.0,0.0,0.0,0.0,0.0,0.0,0.0,0.0,0.0,0.0,0.0,0.0,0.0,0.0,0.0,0.0,0.0,0.0,0.0,0.0,0.0,0.0,0.0
41,2.7159690856933594,29.961178,90.88929,22.918322,0.0,44.924461,-0.06946,32.012642,31.854427,29.892448,90.647484,22.939157,0.0,44.901169,-0.013435,31.488163,31.398079,3.0,1.0,111.0,0.0,1.0,-77743.0,-25366.0,14193.0,-77493.0,25117.0,13880.0,-0.936154,-0.349568,0.037664,-0.307251,0.761309,-0.570969,0.170919,-0.546087,-0.820107,-0.937666,-0.036831,0.34558,0.30455,-0.566118,0.766003,0.167426,0.823501,0.542046,-0.936154,-0.349568,0.037664,-0.307251,0.761309,-0.570969,0.170919,-0.546087,-0.820107,-0.937666,-0.036831,0.34558,0.30455,-0.566118,0.766003,0.167426,0.823501,0.542046,-77743.0,-25366.0,14193.0,-77493.0,25117.0,13880.0,-4442328.0,-5827.0,-4205036.0,0.0,-1221.0,-3262.0,-3558.0,-5329.0,-20540.0,8798.0,3180.0,0.0,2402.0,1255.0,1853.0,-938.0,46.0,166.0,-45.0,0.0,873.0,525.0,456.0,-81.0,-46.0,-165.0,32.0,0.0,477.0,206.0,611.0,-722.0,-0.012517,-0.044977,0.012272,0.0,0.031946,0.019228,-0.01671,-0.002976,-0.012526,-0.044724,0.008669,0.0,0.017482,0.007566,-0.02237,-0.026422,4080.600342,11574.630859,51560.28125,0.0,-17483.849609,-17726.849609,18013.769531,-17439.480469,4071.23999,11544.030273,51599.882812,0.0,17982.089844,17739.71875,-17456.759766,18022.230469,0.0,0.0,0.0,0.0,0.0,0.0,0.0,0.0,0.0,0.0,0.0,0.0,0.0,0.0,0.0,0.0,0.0,0.0,0.0,0.0,0.0,0.0,0.0,0.0,0.0,0.0,0.0,0.0,0.0,0.0,0.0,0.0,4080.618164,11574.62207,51560.371094,0.0,-17483.857422,-17726.849609,18013.591797,-17439.658203,4071.17041,11543.969727,51598.589844,0.0,17982.640625,17739.818359,-17457.375,18022.550781,29.961308,90.889206,22.918364,0.0,44.923103,-0.06934,31.992802,31.8347,29.891941,90.647064,22.938566,0.0,45.003113,-0.002339,31.414335,31.439135,1.114,1.097,4396988.0,-122780.0,3632144.0,0.0,193044.0,193703.0,-196595.0,188443.0,-65776.0,-119469.0,-570152.0,0.0,-197399.0,-195853.0,192111.0,-201185.0,0.0,0.0,0.0,0.0,0.0,0.0,0.0,0.0,0.0,0.0,0.0,0.0,0.0,0.0,0.0,0.0,0.0,0.0,0.0,0.0,0.0,0.0,0.0,0.0
42,2.7839560508728027,29.961178,90.88929,22.918322,0.0,44.924461,-0.06946,32.012642,31.854427,29.892448,90.647484,22.939157,0.0,44.901169,-0.013435,31.488163,31.398079,3.0,1.0,111.0,0.0,1.0,-77743.0,-25366.0,14193.0,-77493.0,25117.0,13880.0,-0.936154,-0.349568,0.037664,-0.307251,0.761309,-0.570969,0.170919,-0.546087,-0.820107,-0.937666,-0.036831,0.34558,0.30455,-0.566118,0.766003,0.167426,0.823501,0.542046,-0.936154,-0.349568,0.037664,-0.307251,0.761309,-0.570969,0.170919,-0.546087,-0.820107,-0.937666,-0.036831,0.34558,0.30455,-0.566118,0.766003,0.167426,0.823501,0.542046,-77743.0,-25366.0,14193.0,-77493.0,25117.0,13880.0,-4442328.0,-5827.0,-4205036.0,0.0,-1221.0,-3262.0,-3558.0,-5329.0,-20540.0,8798.0,3180.0,0.0,2402.0,1255.0,1853.0,-938.0,46.0,166.0,-45.0,0.0,873.0,525.0,456.0,-81.0,-46.0,-165.0,32.0,0.0,478.0,206.0,612.0,-721.0,-0.012517,-0.044977,0.012272,0.0,0.031946,0.019228,-0.01672,-0.002987,-0.012526,-0.044724,0.008669,0.0,0.017515,0.007572,-0.022406,-0.026403,4080.600342,11574.630859,51560.28125,0.0,-17483.849609,-17726.849609,18013.769531,-17439.480469,4071.23999,11544.030273,51599.882812,0.0,17982.089844,17739.71875,-17456.759766,18022.230469,0.0,0.0,0.0,0.0,0.0,0.0,0.0,0.0,0.0,0.0,0.0,0.0,0.0,0.0,0.0,0.0,0.0,0.0,0.0,0.0,0.0,0.0,0.0,0.0,0.0,0.0,0.0,0.0,0.0,0.0,0.0,0.0,4080.618164,11574.62207,51560.371094,0.0,-17483.857422,-17726.849609,18013.591797,-17439.658203,4071.17041,11543.969727,51598.589844,0.0,17982.640625,17739.818359,-17457.375,18022.550781,29.961308,90.889206,22.918364,0.0,44.923103,-0.06934,31.992802,31.8347,29.891941,90.647064,22.938566,0.0,45.003113,-0.002339,31.414335,31.439135,1.114,1.097,4396988.0,-122780.0,3632144.0,0.0,193044.0,193703.0,-196595.0,188443.0,-65776.0,-119469.0,-570152.0,0.0,-197399.0,-195853.0,192111.0,-201185.0,0.0,0.0,0.0,0.0,0.0,0.0,0.0,0.0,0.0,0.0,0.0,0.0,0.0,0.0,0.0,0.0,0.0,0.0,0.0,0.0,0.0,0.0,0.0,0.0
43,2.84895396232605,29.961178,90.88929,22.918322,0.0,44.924461,-0.06946,32.012642,31.854427,29.892448,90.647484,22.939157,0.0,44.901169,-0.013435,31.488163,31.398079,3.0,1.0,111.0,0.0,1.0,-77743.0,-25366.0,14193.0,-77493.0,25117.0,13880.0,-0.936154,-0.349568,0.037664,-0.307251,0.761309,-0.570969,0.170919,-0.546087,-0.820107,-0.937666,-0.036831,0.34558,0.30455,-0.566118,0.766003,0.167426,0.823501,0.542046,-0.936154,-0.349568,0.037664,-0.307251,0.761309,-0.570969,0.170919,-0.546087,-0.820107,-0.937666,-0.036831,0.34558,0.30455,-0.566118,0.766003,0.167426,0.823501,0.542046,-77743.0,-25366.0,14193.0,-77493.0,25117.0,13880.0,-4442328.0,-5827.0,-4205036.0,0.0,-1221.0,-3262.0,-3558.0,-5329.0,-20540.0,8798.0,3180.0,0.0,2402.0,1255.0,1853.0,-938.0,46.0,166.0,-45.0,0.0,873.0,525.0,457.0,-81.0,-46.0,-165.0,32.0,0.0,479.0,207.0,613.0,-721.0,-0.012517,-0.044977,0.012272,0.0,0.031945,0.019228,-0.01673,-0.002997,-0.012526,-0.044724,0.008669,0.0,0.017546,0.007577,-0.022441,-0.026385,4080.600342,11574.630859,51560.28125,0.0,-17483.849609,-17726.849609,18013.769531,-17439.480469,4071.23999,11544.030273,51599.882812,0.0,17982.089844,17739.71875,-17456.759766,18022.230469,0.0,0.0,0.0,0.0,0.0,0.0,0.0,0.0,0.0,0.0,0.0,0.0,0.0,0.0,0.0,0.0,0.0,0.0,0.0,0.0,0.0,0.0,0.0,0.0,0.0,0.0,0.0,0.0,0.0,0.0,0.0,0.0,4080.618164,11574.62207,51560.371094,0.0,-17483.857422,-17726.849609,18013.591797,-17439.658203,4071.17041,11543.969727,51598.589844,0.0,17982.640625,17739.818359,-17457.375,18022.550781,29.961308,90.889206,22.918364,0.0,44.923103,-0.06934,31.992802,31.8347,29.891941,90.647064,22.938566,0.0,45.003113,-0.002339,31.414335,31.439135,1.114,1.097,4396988.0,-122780.0,3632144.0,0.0,193044.0,193703.0,-196595.0,188443.0,-65776.0,-119469.0,-570152.0,0.0,-197399.0,-195853.0,192111.0,-201185.0,0.0,0.0,0.0,0.0,0.0,0.0,0.0,0.0,0.0,0.0,0.0,0.0,0.0,0.0,0.0,0.0,0.0,0.0,0.0,0.0,0.0,0.0,0.0,0.0
44,2.9169490337371826,29.961178,90.88929,22.918322,0.0,44.924461,-0.06946,32.012642,31.854427,29.892448,90.647484,22.939157,0.0,44.901169,-0.013435,31.488163,31.398079,3.0,1.0,111.0,0.0,1.0,-77743.0,-25366.0,14193.0,-77493.0,25117.0,13880.0,-0.936154,-0.349568,0.037664,-0.307251,0.761309,-0.570969,0.170919,-0.546087,-0.820107,-0.937666,-0.036831,0.34558,0.30455,-0.566118,0.766003,0.167426,0.823501,0.542046,-0.936154,-0.349568,0.037664,-0.307251,0.761309,-0.570969,0.170919,-0.546087,-0.820107,-0.937666,-0.036831,0.34558,0.30455,-0.566118,0.766003,0.167426,0.823501,0.542046,-77743.0,-25366.0,14193.0,-77493.0,25117.0,13880.0,-4442328.0,-5827.0,-4205036.0,0.0,-1221.0,-3262.0,-3558.0,-5329.0,-20540.0,8798.0,3180.0,0.0,2402.0,1255.0,1853.0,-938.0,46.0,166.0,-45.0,0.0,873.0,525.0,457.0,-82.0,-46.0,-165.0,32.0,0.0,480.0,207.0,614.0,-720.0,-0.012517,-0.044977,0.012272,0.0,0.031945,0.019228,-0.016741,-0.003007,-0.012526,-0.044724,0.008669,0.0,0.017579,0.007583,-0.022477,-0.026365,4080.600342,11574.630859,51560.28125,0.0,-17483.849609,-17726.849609,18013.769531,-17439.480469,4071.23999,11544.030273,51599.882812,0.0,17982.089844,17739.71875,-17456.759766,18022.230469,0.0,0.0,0.0,0.0,0.0,0.0,0.0,0.0,0.0,0.0,0.0,0.0,0.0,0.0,0.0,0.0,0.0,0.0,0.0,0.0,0.0,0.0,0.0,0.0,0.0,0.0,0.0,0.0,0.0,0.0,0.0,0.0,4080.618164,11574.62207,51560.371094,0.0,-17483.857422,-17726.849609,18013.591797,-17439.658203,4071.17041,11543.969727,51598.589844,0.0,17982.640625,17739.818359,-17457.375,18022.550781,29.961308,90.889206,22.918364,0.0,44.923103,-0.06934,31.992802,31.8347,29.891941,90.647064,22.938566,0.0,45.003113,-0.002339,31.414335,31.439135,1.114,1.097,4396988.0,-122780.0,3632144.0,0.0,193044.0,193703.0,-196595.0,188443.0,-65776.0,-119469.0,-570152.0,0.0,-197399.0,-195853.0,192111.0,-201185.0,0.0,0.0,0.0,0.0,0.0,0.0,0.0,0.0,0.0,0.0,0.0,0.0,0.0,0.0,0.0,0.0,0.0,0.0,0.0,0.0,0.0,0.0,0.0,0.0
45,2.9809529781341553,29.961178,90.88929,22.918322,0.0,44.924461,-0.06946,32.012642,31.854427,29.892448,90.647484,22.939157,0.0,44.901169,-0.013435,31.488163,31.398079,3.0,1.0,111.0,0.0,1.0,-77743.0,-25366.0,14193.0,-77493.0,25117.0,13880.0,-0.936154,-0.349568,0.037664,-0.307251,0.761309,-0.570969,0.170919,-0.546087,-0.820107,-0.937666,-0.036831,0.34558,0.30455,-0.566118,0.766003,0.167426,0.823501,0.542046,-0.936154,-0.349568,0.037664,-0.307251,0.761309,-0.570969,0.170919,-0.546087,-0.820107,-0.937666,-0.036831,0.34558,0.30455,-0.566118,0.766003,0.167426,0.823501,0.542046,-77743.0,-25366.0,14193.0,-77493.0,25117.0,13880.0,-4442328.0,-5827.0,-4205036.0,0.0,-1221.0,-3262.0,-3558.0,-5329.0,-20540.0,8798.0,3180.0,0.0,2402.0,1255.0,1853.0,-938.0,46.0,166.0,-45.0,0.0,872.0,525.0,457.0,-82.0,-46.0,-165.0,32.0,0.0,481.0,207.0,615.0,-720.0,-0.012517,-0.044977,0.012272,0.0,0.031944,0.019229,-0.016751,-0.003017,-0.012526,-0.044724,0.008669,0.0,0.017609,0.007589,-0.022512,-0.026348,4080.600342,11574.630859,51560.28125,0.0,-17483.849609,-17726.849609,18013.769531,-17439.480469,4071.23999,11544.030273,51599.882812,0.0,17982.089844,17739.71875,-17456.759766,18022.230469,0.0,0.0,0.0,0.0,0.0,0.0,0.0,0.0,0.0,0.0,0.0,0.0,0.0,0.0,0.0,0.0,0.0,0.0,0.0,0.0,0.0,0.0,0.0,0.0,0.0,0.0,0.0,0.0,0.0,0.0,0.0,0.0,4080.618164,11574.62207,51560.371094,0.0,-17483.857422,-17726.849609,18013.591797,-17439.658203,4071.17041,11543.969727,51598.589844,0.0,17982.640625,17739.818359,-17457.375,18022.550781,29.961308,90.889206,22.918364,0.0,44.923103,-0.06934,31.992802,31.8347,29.891941,90.647064,22.938566,0.0,45.003113,-0.002339,31.414335,31.439135,1.114,1.097,4396988.0,-122780.0,3632144.0,0.0,193044.0,193703.0,-196595.0,188443.0,-65776.0,-119469.0,-570152.0,0.0,-197399.0,-195853.0,192111.0,-201185.0,0.0,0.0,0.0,0.0,0.0,0.0,0.0,0.0,0.0,0.0,0.0,0.0,0.0,0.0,0.0,0.0,0.0,0.0,0.0,0.0,0.0,0.0,0.0,0.0
46,3.0489540100097656,29.961178,90.88929,22.918322,0.0,44.924461,-0.06946,32.012642,31.854427,29.892448,90.647484,22.939157,0.0,44.901169,-0.013435,31.488163,31.398079,3.0,1.0,111.0,0.0,1.0,-77743.0,-25366.0,14193.0,-77493.0,25117.0,13880.0,-0.936154,-0.349568,0.037664,-0.307251,0.761309,-0.570969,0.170919,-0.546087,-0.820107,-0.937666,-0.036831,0.34558,0.30455,-0.566118,0.766003,0.167426,0.823501,0.542046,-0.936154,-0.349568,0.037664,-0.307251,0.761309,-0.570969,0.170919,-0.546087,-0.820107,-0.937666,-0.036831,0.34558,0.30455,-0.566118,0.766003,0.167426,0.823501,0.542046,-77743.0,-25366.0,14193.0,-77493.0,25117.0,13880.0,-4442328.0,-5827.0,-4205036.0,0.0,-1221.0,-3262.0,-3558.0,-5329.0,-20540.0,8798.0,3180.0,0.0,2402.0,1255.0,1853.0,-938.0,46.0,166.0,-45.0,0.0,872.0,525.0,458.0,-82.0,-46.0,-165.0,32.0,0.0,482.0,207.0,616.0,-719.0,-0.012517,-0.044977,0.012272,0.0,0.031944,0.019229,-0.016761,-0.003028,-0.012526,-0.044724,0.008669,0.0,0.017642,0.007595,-0.022548,-0.026328,4080.600342,11574.630859,51560.28125,0.0,-17483.849609,-17726.849609,18013.769531,-17439.480469,4071.23999,11544.030273,51599.882812,0.0,17982.089844,17739.71875,-17456.759766,18022.230469,0.0,0.0,0.0,0.0,0.0,0.0,0.0,0.0,0.0,0.0,0.0,0.0,0.0,0.0,0.0,0.0,0.0,0.0,0.0,0.0,0.0,0.0,0.0,0.0,0.0,0.0,0.0,0.0,0.0,0.0,0.0,0.0,4080.618164,11574.62207,51560.371094,0.0,-17483.857422,-17726.849609,18013.591797,-17439.658203,4071.17041,11543.969727,51598.589844,0.0,17982.640625,17739.818359,-17457.375,18022.550781,29.961308,90.889206,22.918364,0.0,44.923103,-0.06934,31.992802,31.8347,29.891941,90.647064,22.938566,0.0,45.003113,-0.002339,31.414335,31.439135,1.114,1.097,4396988.0,-122780.0,3632144.0,0.0,193044.0,193703.0,-196595.0,188443.0,-65776.0,-119469.0,-570152.0,0.0,-197399.0,-195853.0,192111.0,-201185.0,0.0,0.0,0.0,0.0,0.0,0.0,0.0,0.0,0.0,0.0,0.0,0.0,0.0,0.0,0.0,0.0,0.0,0.0,0.0,0.0,0.0,0.0,0.0,0.0
47,3.1159510612487793,29.961178,90.88929,22.918322,0.0,44.924461,-0.06946,32.012642,31.854427,29.892448,90.647484,22.939157,0.0,44.901169,-0.013435,31.488163,31.398079,3.0,1.0,111.0,0.0,1.0,-77743.0,-25366.0,14193.0,-77493.0,25117.0,13880.0,-0.936154,-0.349568,0.037664,-0.307251,0.761309,-0.570969,0.170919,-0.546087,-0.820107,-0.937666,-0.036831,0.34558,0.30455,-0.566118,0.766003,0.167426,0.823501,0.542046,-0.936154,-0.349568,0.037664,-0.307251,0.761309,-0.570969,0.170919,-0.546087,-0.820107,-0.937666,-0.036831,0.34558,0.30455,-0.566118,0.766003,0.167426,0.823501,0.542046,-77743.0,-25366.0,14193.0,-77493.0,25117.0,13880.0,-4442328.0,-5827.0,-4205036.0,0.0,-1221.0,-3262.0,-3558.0,-5329.0,-20540.0,8798.0,3180.0,0.0,2402.0,1255.0,1853.0,-938.0,46.0,166.0,-45.0,0.0,872.0,525.0,458.0,-83.0,-46.0,-165.0,32.0,0.0,483.0,207.0,617.0,-719.0,-0.012517,-0.044977,0.012272,0.0,0.031944,0.019229,-0.016772,-0.003038,-0.012526,-0.044724,0.008669,0.0,0.017674,0.007601,-0.022584,-0.02631,4080.600342,11574.630859,51560.28125,0.0,-17483.849609,-17726.849609,18013.769531,-17439.480469,4071.23999,11544.030273,51599.882812,0.0,17982.089844,17739.71875,-17456.759766,18022.230469,0.0,0.0,0.0,0.0,0.0,0.0,0.0,0.0,0.0,0.0,0.0,0.0,0.0,0.0,0.0,0.0,0.0,0.0,0.0,0.0,0.0,0.0,0.0,0.0,0.0,0.0,0.0,0.0,0.0,0.0,0.0,0.0,4080.618164,11574.62207,51560.371094,0.0,-17483.857422,-17726.849609,18013.591797,-17439.658203,4071.17041,11543.969727,51598.589844,0.0,17982.640625,17739.818359,-17457.375,18022.550781,29.961308,90.889206,22.918364,0.0,44.923103,-0.06934,31.992802,31.8347,29.891941,90.647064,22.938566,0.0,45.003113,-0.002339,31.414335,31.439135,1.114,1.097,4396988.0,-122780.0,3632144.0,0.0,193044.0,193703.0,-196595.0,188443.0,-65776.0,-119469.0,-570152.0,0.0,-197399.0,-195853.0,192111.0,-201185.0,0.0,0.0,0.0,0.0,0.0,0.0,0.0,0.0,0.0,0.0,0.0,0.0,0.0,0.0,0.0,0.0,0.0,0.0,0.0,0.0,0.0,0.0,0.0,0.0
48,3.182953119277954,29.961178,90.88929,22.918322,0.0,44.924461,-0.06946,32.012642,31.854427,29.892448,90.647484,22.939157,0.0,44.901169,-0.013435,31.488163,31.398079,3.0,1.0,111.0,0.0,1.0,-77743.0,-25366.0,14193.0,-77493.0,25117.0,13880.0,-0.936154,-0.349568,0.037664,-0.307251,0.761309,-0.570969,0.170919,-0.546087,-0.820107,-0.937666,-0.036831,0.34558,0.30455,-0.566118,0.766003,0.167426,0.823501,0.542046,-0.936154,-0.349568,0.037664,-0.307251,0.761309,-0.570969,0.170919,-0.546087,-0.820107,-0.937666,-0.036831,0.34558,0.30455,-0.566118,0.766003,0.167426,0.823501,0.542046,-77743.0,-25366.0,14193.0,-77493.0,25117.0,13880.0,-4442328.0,-5827.0,-4205036.0,0.0,-1221.0,-3262.0,-3558.0,-5329.0,-20540.0,8798.0,3180.0,0.0,2402.0,1255.0,1853.0,-938.0,46.0,166.0,-45.0,0.0,872.0,525.0,458.0,-83.0,-46.0,-165.0,32.0,0.0,483.0,207.0,618.0,-718.0,-0.012517,-0.044977,0.012272,0.0,0.031943,0.019229,-0.016782,-0.003049,-0.012526,-0.044724,0.008669,0.0,0.017707,0.007606,-0.02262,-0.026291,4080.600342,11574.630859,51560.28125,0.0,-17483.849609,-17726.849609,18013.769531,-17439.480469,4071.23999,11544.030273,51599.882812,0.0,17982.089844,17739.71875,-17456.759766,18022.230469,0.0,0.0,0.0,0.0,0.0,0.0,0.0,0.0,0.0,0.0,0.0,0.0,0.0,0.0,0.0,0.0,0.0,0.0,0.0,0.0,0.0,0.0,0.0,0.0,0.0,0.0,0.0,0.0,0.0,0.0,0.0,0.0,4080.618164,11574.62207,51560.371094,0.0,-17483.857422,-17726.849609,18013.591797,-17439.658203,4071.17041,11543.969727,51598.589844,0.0,17982.640625,17739.818359,-17457.375,18022.550781,29.961308,90.889206,22.918364,0.0,44.923103,-0.06934,31.992802,31.8347,29.891941,90.647064,22.938566,0.0,45.003113,-0.002339,31.414335,31.439135,1.114,1.097,4396988.0,-122780.0,3632144.0,0.0,193044.0,193703.0,-196595.0,188443.0,-65776.0,-119469.0,-570152.0,0.0,-197399.0,-195853.0,192111.0,-201185.0,0.0,0.0,0.0,0.0,0.0,0.0,0.0,0.0,0.0,0.0,0.0,0.0,0.0,0.0,0.0,0.0,0.0,0.0,0.0,0.0,0.0,0.0,0.0,0.0
49,3.250999927520752,29.964481,90.888817,22.918301,0.0,44.924461,-0.06946,32.012642,31.854427,29.892448,90.647484,22.939157,0.0,44.901169,-0.013435,31.488163,31.398079,3.0,1.0,111.0,0.0,1.0,-77742.0,-25370.0,14192.0,-77493.0,25117.0,13880.0,-0.936137,-0.349608,0.0377,-0.307304,0.761293,-0.570961,0.170912,-0.546083,-0.820111,-0.937666,-0.036831,0.34558,0.30455,-0.566118,0.766003,0.167426,0.823501,0.542046,-0.936137,-0.349608,0.0377,-0.307304,0.761293,-0.570961,0.170912,-0.546083,-0.820111,-0.937666,-0.036831,0.34558,0.30455,-0.566118,0.766003,0.167426,0.823501,0.542046,-77742.0,-25370.0,14192.0,-77493.0,25117.0,13880.0,-4442333.0,-5827.0,-4205036.0,0.0,-1221.0,-3262.0,-3558.0,-5329.0,-20540.0,8798.0,3180.0,0.0,2402.0,1255.0,1853.0,-938.0,-238.0,77.0,99.0,0.0,872.0,525.0,458.0,-83.0,-46.0,-165.0,32.0,0.0,484.0,208.0,619.0,-717.0,0.064422,-0.020949,-0.026812,0.0,0.031943,0.019229,-0.016793,-0.003059,-0.012526,-0.044724,0.008669,0.0,0.017739,0.007612,-0.022656,-0.026272,4081.050049,11574.630859,51560.28125,0.0,-17483.849609,-17726.849609,18013.769531,-17439.480469,4071.23999,11544.030273,51599.882812,0.0,17982.089844,17739.71875,-17456.759766,18022.230469,90.04921,0.0,0.0,0.0,0.0,0.0,0.0,0.0,0.0,0.0,0.0,0.0,0.0,0.0,0.0,0.0,0.661172,-0.096168,-0.004379,0.0,0.0,0.0,0.0,0.0,0.0,0.0,0.0,0.0,0.0,0.0,0.0,0.0,4098.166992,11579.210938,51545.441406,0.0,-17483.857422,-17726.849609,18013.591797,-17439.658203,4071.17041,11543.969727,51598.589844,0.0,17982.640625,17739.818359,-17457.375,18022.550781,30.090157,90.908218,22.910292,0.0,44.923103,-0.06934,31.992802,31.8347,29.891941,90.647064,22.938566,0.0,45.003113,-0.002339,31.414335,31.439135,1.114,1.097,4396988.0,-122780.0,3632144.0,0.0,193044.0,193703.0,-196595.0,188443.0,-65776.0,-119469.0,-570152.0,0.0,-197399.0,-195853.0,192111.0,-201185.0,-0.001458,-0.0,0.023156,0.012231,-0.002477,-0.013367,0.0,0.0,0.0,0.0,0.0,0.0,-0.001458,-0.0,0.023156,0.012231,-0.002477,-0.013367,0.0,0.0,0.0,0.0,0.0,0.0
50,3.3169949054718018,30.128361,90.864975,22.913298,0.0,44.435318,-0.392894,32.497791,31.36928,29.892448,90.647484,22.939157,0.0,44.901169,-0.013435,31.488163,31.398079,3.0,1.0,111.0,0.0,1.0,-77754.0,-25658.0,14121.0,-77493.0,25117.0,13880.0,-0.932062,-0.359141,0.04773,-0.319577,0.752922,-0.575307,0.170679,-0.551476,-0.816543,-0.937666,-0.036831,0.34558,0.30455,-0.566118,0.766003,0.167426,0.823501,0.542046,-0.932224,-0.358775,0.047323,-0.319104,0.75329,-0.575089,0.17068,-0.551213,-0.816721,-0.937666,-0.036831,0.34558,0.30455,-0.566118,0.766003,0.167426,0.823501,0.542046,-77752.0,-25650.0,14124.0,-77493.0,25117.0,13880.0,-4442581.0,-5827.0,-4204942.0,0.0,-1218.0,-3262.0,-3558.0,-5329.0,-20540.0,8798.0,3180.0,0.0,2402.0,1255.0,1853.0,-938.0,-327.0,379.0,93.0,0.0,987.0,596.0,529.0,-13.0,-46.0,-165.0,32.0,0.0,485.0,208.0,620.0,-717.0,0.088503,-0.102655,-0.025266,0.0,0.036137,0.021818,-0.019391,-0.00048,-0.012526,-0.044724,0.008669,0.0,0.017771,0.007618,-0.022691,-0.026253,4103.370117,11574.630859,51551.820312,0.0,-17483.582031,-17726.849609,18013.769531,-17439.480469,4071.23999,11544.030273,51599.882812,0.0,17982.089844,17739.71875,-17456.759766,18022.230469,539.858154,0.0,-360.196838,0.0,0.0,0.0,0.0,0.0,0.0,0.0,0.0,0.0,0.0,0.0,0.0,0.0,3.963825,-0.576538,-0.193117,0.0,-22.952778,-13.771667,20.657501,-20.657501,0.0,0.0,0.0,0.0,0.0,0.0,0.0,0.0,4137.241211,11563.612305,51508.761719,0.0,-17480.949219,-17723.941406,18010.683594,-17436.748047,4071.17041,11543.969727,51598.589844,0.0,17982.640625,17739.818359,-17457.375,18022.550781,30.377054,90.738136,22.892435,0.0,44.923103,-0.06934,31.992802,31.8347,29.891941,90.647064,22.938566,0.0,45.003113,-0.002339,31.414335,31.439135,1.114,1.097,4396988.0,-122780.0,3632144.0,0.0,193044.0,193703.0,-196595.0,188443.0,-65776.0,-119469.0,-570152.0,0.0,-197399.0,-195853.0,192111.0,-201185.0,-0.008912,-0.240373,0.141734,-0.053944,-0.217697,0.681267,0.0,0.0,0.0,0.0,0.0,0.0,-0.008912,-0.240373,0.141734,-0.053944,-0.217697,0.681267,0.0,0.0,0.0,0.0,0.0,0.0
