MHC-RobotSimulators-Research/Data_Analysis_MotionReplication/mai_plotter/raven_data/twoarm_p5_phys2.csv
,time,jpos0,jpos1,jpos2,jpos3,jpos4,jpos5,jpos6,jpos7,jpos8,jpos9,jpos10,jpos11,jpos12,jpos13,jpos14,jpos15,runlevel,sublevel,last_seq,type0,type1,pos0,pos1,pos2,pos3,pos4,pos5,ori0,ori1,ori2,ori3,ori4,ori5,ori6,ori7,ori8,ori9,ori10,ori11,ori12,ori13,ori14,ori15,ori16,ori17,ori_d0,ori_d1,ori_d2,ori_d3,ori_d4,ori_d5,ori_d6,ori_d7,ori_d8,ori_d9,ori_d10,ori_d11,ori_d12,ori_d13,ori_d14,ori_d15,ori_d16,ori_d17,pos_d0,pos_d1,pos_d2,pos_d3,pos_d4,pos_d5,encVals0,encVals1,encVals2,encVals3,encVals4,encVals5,encVals6,encVals7,encVals8,encVals9,encVals10,encVals11,encVals12,encVals13,encVals14,encVals15,dac_vals0,dac_vals1,dac_vals2,dac_vals3,dac_vals4,dac_vals5,dac_vals6,dac_vals7,dac_vals8,dac_vals9,dac_vals10,dac_vals11,dac_vals12,dac_vals13,dac_vals14,dac_vals15,Tau0,Tau1,Tau2,Tau3,Tau4,Tau5,Tau6,Tau7,Tau8,Tau9,Tau10,Tau11,Tau12,Tau13,Tau14,Tau15,mpos0,mpos1,mpos2,mpos3,mpos4,mpos5,mpos6,mpos7,mpos8,mpos9,mpos10,mpos11,mpos12,mpos13,mpos14,mpos15,mvel0,mvel1,mvel2,mvel3,mvel4,mvel5,mvel6,mvel7,mvel8,mvel9,mvel10,mvel11,mvel12,mvel13,mvel14,mvel15,jvel0,jvel1,jvel2,jvel3,jvel4,jvel5,jvel6,jvel7,jvel8,jvel9,jvel10,jvel11,jvel12,jvel13,jvel14,jvel15,mpos_d0,mpos_d1,mpos_d2,mpos_d3,mpos_d4,mpos_d5,mpos_d6,mpos_d7,mpos_d8,mpos_d9,mpos_d10,mpos_d11,mpos_d12,mpos_d13,mpos_d14,mpos_d15,jpos_d0,jpos_d1,jpos_d2,jpos_d3,jpos_d4,jpos_d5,jpos_d6,jpos_d7,jpos_d8,jpos_d9,jpos_d10,jpos_d11,jpos_d12,jpos_d13,jpos_d14,jpos_d15,grasp_d0,grasp_d1,encoffsets0,encoffsets1,encoffsets2,encoffsets3,encoffsets4,encoffsets5,encoffsets6,encoffsets7,encoffsets8,encoffsets9,encoffsets10,encoffsets11,encoffsets12,encoffsets13,encoffsets14,encoffsets15,jac_vel0,jac_vel1,jac_vel2,jac_vel3,jac_vel4,jac_vel5,jac_vel6,jac_vel7,jac_vel8,jac_vel9,jac_vel10,jac_vel11,jac_f0,jac_f1,jac_f2,jac_f3,jac_f4,jac_f5,jac_f6,jac_f7,jac_f8,jac_f9,jac_f10,jac_f11
0,0.0,30.076817,90.651039,22.907421,0.0,4.316282,0.057386,29.159899,29.39234,30.077478,90.790909,22.921379,0.0,3.082844,-0.782626,29.929502,29.403469,3.0,1.0,111.0,0.0,1.0,-77934.0,-25522.0,13978.0,-77615.0,25651.0,14062.0,-0.93752,-0.236738,0.254972,-0.305593,0.209931,-0.928731,0.166339,-0.948622,-0.26916,-0.933309,0.200786,0.29769,0.319743,0.087457,0.94346,0.163398,0.975723,-0.145824,-0.93942,-0.233115,0.251292,-0.301185,0.211387,-0.929841,0.16364,-0.949196,-0.268792,-0.933194,0.20109,0.297845,0.319932,0.087378,0.943403,0.163684,0.975668,-0.145876,-77901.0,-25461.0,13984.0,-77615.0,25652.0,14060.0,-4453029.0,-2143598.0,-1683.0,0.0,-4194886.0,-2098025.0,-512.0,-2139.0,-4457368.0,-2227968.0,-6290988.0,0.0,-4193868.0,-2244093.0,-4455537.0,-1018.0,49.0,164.0,-103.0,0.0,195.0,700.0,529.0,-1.0,-50.0,-170.0,45.0,0.0,514.0,760.0,547.0,-522.0,-0.013285,-0.044563,0.027956,0.0,0.007156,0.025618,-0.019385,-4.6e-05,-0.013536,-0.046227,0.012185,0.0,0.018832,0.027842,-0.02003,-0.019136,4096.350098,11547.720703,51534.542969,0.0,-17694.089844,-17716.861328,17979.839844,-17453.339844,4096.439941,11564.730469,51567.121094,0.0,17745.210938,17721.541016,-17462.970703,17996.490234,0.0,0.0,0.0,0.0,0.0,0.0,0.0,0.0,0.0,0.0,0.0,0.0,0.0,0.0,0.0,0.0,0.0,0.0,0.0,0.0,0.0,0.0,0.0,0.0,0.0,0.0,0.0,0.0,0.0,0.0,0.0,0.0,4096.313477,11547.707031,51540.625,0.0,-17694.0,-17714.880859,17979.851562,-17451.253906,4096.371582,11564.456055,51567.179688,0.0,17745.210938,17721.445312,-17462.826172,17997.089844,30.07655,90.650955,22.91024,0.0,4.332927,0.277729,29.051062,29.734406,30.076977,90.788727,22.921429,0.0,3.08298,-0.793031,29.950813,29.464911,1.026,1.037,4407514.0,2015290.0,-570923.0,0.0,-3998285.0,-1901171.0,-199264.0,191787.0,-4502884.0,-2356465.0,-6863956.0,0.0,-4391037.0,-2440999.0,4649570.0,-200979.0,0.0,0.0,0.0,0.0,0.0,0.0,0.0,0.0,0.0,0.0,0.0,0.0,0.0,0.0,0.0,0.0,0.0,0.0,0.0,0.0,0.0,0.0,0.0,0.0
1,0.07496213912963867,30.076817,90.651039,22.907379,0.0,4.310488,0.05391,29.165113,29.387125,30.077478,90.790909,22.921379,0.0,3.082844,-0.782626,29.929502,29.403469,3.0,1.0,111.0,0.0,1.0,-77934.0,-25523.0,13978.0,-77615.0,25651.0,14062.0,-0.937483,-0.236798,0.255053,-0.305668,0.20981,-0.928734,0.166409,-0.948634,-0.269075,-0.933309,0.200786,0.29769,0.319743,0.087457,0.94346,0.163398,0.975723,-0.145824,-0.937483,-0.236798,0.255053,-0.305668,0.20981,-0.928734,0.166409,-0.948634,-0.269075,-0.933309,0.200786,0.29769,0.319743,0.087457,0.94346,0.163398,0.975723,-0.145824,-77934.0,-25523.0,13978.0,-77615.0,25651.0,14062.0,-4453029.0,-2143598.0,-1682.0,0.0,-4194886.0,-2098025.0,-512.0,-2139.0,-4457368.0,-2227968.0,-6290988.0,0.0,-4193868.0,-2244093.0,-4455537.0,-1018.0,49.0,164.0,-104.0,0.0,197.0,704.0,530.0,3.0,-50.0,-170.0,45.0,0.0,514.0,760.0,547.0,-521.0,-0.013285,-0.044563,0.028194,0.0,0.007211,0.025776,-0.019412,0.000117,-0.013536,-0.046227,0.012185,0.0,0.018832,0.027835,-0.02002,-0.019097,4096.350098,11547.720703,51534.453125,0.0,-17694.089844,-17716.861328,17979.839844,-17453.339844,4096.439941,11564.730469,51567.121094,0.0,17745.210938,17721.541016,-17462.970703,17996.490234,0.0,0.0,0.0,0.0,0.0,0.0,0.0,0.0,0.0,0.0,0.0,0.0,0.0,0.0,0.0,0.0,0.0,0.0,0.0,0.0,0.0,0.0,0.0,0.0,0.0,0.0,0.0,0.0,0.0,0.0,0.0,0.0,4096.313477,11547.707031,51540.625,0.0,-17693.96875,-17714.847656,17979.820312,-17451.224609,4096.371582,11564.456055,51567.179688,0.0,17745.210938,17721.445312,-17462.826172,17997.089844,30.07655,90.650955,22.91024,0.0,4.332927,0.277729,29.051062,29.734406,30.076977,90.788727,22.921429,0.0,3.08298,-0.793031,29.950813,29.464911,1.021,1.035,4407514.0,2015290.0,-570923.0,0.0,-3998285.0,-1901171.0,-199264.0,191787.0,-4502884.0,-2356465.0,-6863956.0,0.0,-4391037.0,-2440999.0,4649570.0,-200979.0,0.0,0.0,0.0,0.0,0.0,0.0,0.0,0.0,0.0,0.0,0.0,0.0,0.0,0.0,0.0,0.0,0.0,0.0,0.0,0.0,0.0,0.0,0.0,0.0
2,0.13995099067687988,30.076817,90.651039,22.907379,0.0,4.310488,0.05391,29.165113,29.387125,30.077478,90.790909,22.921379,0.0,3.082844,-0.782626,29.929502,29.403469,3.0,1.0,111.0,0.0,1.0,-77934.0,-25523.0,13978.0,-77615.0,25651.0,14062.0,-0.937483,-0.236798,0.255053,-0.305668,0.20981,-0.928734,0.166409,-0.948634,-0.269075,-0.933309,0.200786,0.29769,0.319743,0.087457,0.94346,0.163398,0.975723,-0.145824,-0.937483,-0.236798,0.255053,-0.305668,0.20981,-0.928734,0.166409,-0.948634,-0.269075,-0.933309,0.200786,0.29769,0.319743,0.087457,0.94346,0.163398,0.975723,-0.145824,-77934.0,-25523.0,13978.0,-77615.0,25651.0,14062.0,-4453029.0,-2143598.0,-1682.0,0.0,-4194886.0,-2098025.0,-512.0,-2139.0,-4457368.0,-2227968.0,-6290988.0,0.0,-4193868.0,-2244093.0,-4455537.0,-1018.0,49.0,164.0,-104.0,0.0,197.0,707.0,530.0,6.0,-50.0,-170.0,45.0,0.0,514.0,760.0,546.0,-520.0,-0.013285,-0.044563,0.028194,0.0,0.007218,0.02589,-0.019413,0.000237,-0.013536,-0.046227,0.012185,0.0,0.018832,0.02783,-0.020012,-0.019063,4096.350098,11547.720703,51534.453125,0.0,-17694.089844,-17716.861328,17979.839844,-17453.339844,4096.439941,11564.730469,51567.121094,0.0,17745.210938,17721.541016,-17462.970703,17996.490234,0.0,0.0,0.0,0.0,0.0,0.0,0.0,0.0,0.0,0.0,0.0,0.0,0.0,0.0,0.0,0.0,0.0,0.0,0.0,0.0,0.0,0.0,0.0,0.0,0.0,0.0,0.0,0.0,0.0,0.0,0.0,0.0,4096.313477,11547.707031,51540.625,0.0,-17693.96875,-17714.847656,17979.820312,-17451.224609,4096.371582,11564.456055,51567.179688,0.0,17745.210938,17721.445312,-17462.826172,17997.089844,30.07655,90.650955,22.91024,0.0,4.332927,0.277729,29.051062,29.734406,30.076977,90.788727,22.921429,0.0,3.08298,-0.793031,29.950813,29.464911,1.021,1.035,4407514.0,2015290.0,-570923.0,0.0,-3998285.0,-1901171.0,-199264.0,191787.0,-4502884.0,-2356465.0,-6863956.0,0.0,-4391037.0,-2440999.0,4649570.0,-200979.0,0.0,0.0,0.0,0.0,0.0,0.0,0.0,0.0,0.0,0.0,0.0,0.0,0.0,0.0,0.0,0.0,0.0,0.0,0.0,0.0,0.0,0.0,0.0,0.0
3,0.20589518547058105,30.076817,90.651039,22.907379,0.0,4.310488,0.064022,29.160059,29.392179,30.077478,90.790909,22.921379,0.0,3.082844,-0.782626,29.929502,29.403469,3.0,1.0,111.0,0.0,1.0,-77935.0,-25521.0,13979.0,-77615.0,25651.0,14062.0,-0.937549,-0.236715,0.254888,-0.305486,0.209836,-0.928788,0.166373,-0.948649,-0.269045,-0.933309,0.200786,0.29769,0.319743,0.087457,0.94346,0.163398,0.975723,-0.145824,-0.937549,-0.236715,0.254888,-0.305486,0.209836,-0.928788,0.166373,-0.948649,-0.269045,-0.933309,0.200786,0.29769,0.319743,0.087457,0.94346,0.163398,0.975723,-0.145824,-77935.0,-25521.0,13979.0,-77615.0,25651.0,14062.0,-4453029.0,-2143598.0,-1682.0,0.0,-4194886.0,-2098024.0,-512.0,-2139.0,-4457368.0,-2227968.0,-6290988.0,0.0,-4193868.0,-2244093.0,-4455537.0,-1018.0,49.0,164.0,-104.0,0.0,197.0,708.0,530.0,9.0,-50.0,-170.0,45.0,0.0,514.0,760.0,546.0,-520.0,-0.013285,-0.044563,0.028194,0.0,0.007225,0.025924,-0.019414,0.000359,-0.013536,-0.046227,0.012185,0.0,0.018832,0.027825,-0.020004,-0.019028,4096.350098,11547.720703,51534.453125,0.0,-17694.089844,-17716.769531,17979.839844,-17453.339844,4096.439941,11564.730469,51567.121094,0.0,17745.210938,17721.541016,-17462.970703,17996.490234,0.0,0.0,0.0,0.0,0.0,0.0,0.0,0.0,0.0,0.0,0.0,0.0,0.0,0.0,0.0,0.0,0.0,0.0,0.0,0.0,0.0,0.0,0.0,0.0,0.0,0.0,0.0,0.0,0.0,0.0,0.0,0.0,4096.313477,11547.707031,51540.625,0.0,-17693.96875,-17714.847656,17979.820312,-17451.224609,4096.371582,11564.456055,51567.179688,0.0,17745.210938,17721.445312,-17462.826172,17997.089844,30.07655,90.650955,22.91024,0.0,4.332927,0.277729,29.051062,29.734406,30.076977,90.788727,22.921429,0.0,3.08298,-0.793031,29.950813,29.464911,1.021,1.035,4407514.0,2015290.0,-570923.0,0.0,-3998285.0,-1901171.0,-199264.0,191787.0,-4502884.0,-2356465.0,-6863956.0,0.0,-4391037.0,-2440999.0,4649570.0,-200979.0,0.0,0.0,0.0,0.0,0.0,0.0,0.0,0.0,0.0,0.0,0.0,0.0,0.0,0.0,0.0,0.0,0.0,0.0,0.0,0.0,0.0,0.0,0.0,0.0
4,0.2759220600128174,30.076817,90.651039,22.907379,0.0,4.310488,0.064022,29.160059,29.392179,30.077478,90.790909,22.921379,0.0,3.082844,-0.782626,29.929502,29.403469,3.0,1.0,111.0,0.0,1.0,-77935.0,-25521.0,13979.0,-77615.0,25651.0,14062.0,-0.937549,-0.236715,0.254888,-0.305486,0.209836,-0.928788,0.166373,-0.948649,-0.269045,-0.933309,0.200786,0.29769,0.319743,0.087457,0.94346,0.163398,0.975723,-0.145824,-0.937549,-0.236715,0.254888,-0.305486,0.209836,-0.928788,0.166373,-0.948649,-0.269045,-0.933309,0.200786,0.29769,0.319743,0.087457,0.94346,0.163398,0.975723,-0.145824,-77935.0,-25521.0,13979.0,-77615.0,25651.0,14062.0,-4453029.0,-2143598.0,-1682.0,0.0,-4194886.0,-2098024.0,-512.0,-2139.0,-4457368.0,-2227968.0,-6290988.0,0.0,-4193868.0,-2244093.0,-4455537.0,-1018.0,49.0,164.0,-104.0,0.0,197.0,711.0,530.0,13.0,-50.0,-170.0,45.0,0.0,514.0,760.0,546.0,-519.0,-0.013285,-0.044563,0.028194,0.0,0.007232,0.026041,-0.019415,0.000488,-0.013536,-0.046227,0.012185,0.0,0.018832,0.027819,-0.019995,-0.018992,4096.350098,11547.720703,51534.453125,0.0,-17694.089844,-17716.769531,17979.839844,-17453.339844,4096.439941,11564.730469,51567.121094,0.0,17745.210938,17721.541016,-17462.970703,17996.490234,0.0,0.0,0.0,0.0,0.0,0.0,0.0,0.0,0.0,0.0,0.0,0.0,0.0,0.0,0.0,0.0,0.0,0.0,0.0,0.0,0.0,0.0,0.0,0.0,0.0,0.0,0.0,0.0,0.0,0.0,0.0,0.0,4096.313477,11547.707031,51540.625,0.0,-17693.96875,-17714.847656,17979.820312,-17451.224609,4096.371582,11564.456055,51567.179688,0.0,17745.210938,17721.445312,-17462.826172,17997.089844,30.07655,90.650955,22.91024,0.0,4.332927,0.277729,29.051062,29.734406,30.076977,90.788727,22.921429,0.0,3.08298,-0.793031,29.950813,29.464911,1.021,1.035,4407514.0,2015290.0,-570923.0,0.0,-3998285.0,-1901171.0,-199264.0,191787.0,-4502884.0,-2356465.0,-6863956.0,0.0,-4391037.0,-2440999.0,4649570.0,-200979.0,0.0,0.0,0.0,0.0,0.0,0.0,0.0,0.0,0.0,0.0,0.0,0.0,0.0,0.0,0.0,0.0,0.0,0.0,0.0,0.0,0.0,0.0,0.0,0.0
5,0.34691905975341797,30.076817,90.651039,22.907379,0.0,4.310488,0.064022,29.160059,29.392179,30.077478,90.790909,22.921379,0.0,3.082844,-0.782626,29.929502,29.403469,3.0,1.0,111.0,0.0,1.0,-77935.0,-25521.0,13979.0,-77615.0,25651.0,14062.0,-0.937549,-0.236715,0.254888,-0.305486,0.209836,-0.928788,0.166373,-0.948649,-0.269045,-0.933309,0.200786,0.29769,0.319743,0.087457,0.94346,0.163398,0.975723,-0.145824,-0.937549,-0.236715,0.254888,-0.305486,0.209836,-0.928788,0.166373,-0.948649,-0.269045,-0.933309,0.200786,0.29769,0.319743,0.087457,0.94346,0.163398,0.975723,-0.145824,-77935.0,-25521.0,13979.0,-77615.0,25651.0,14062.0,-4453029.0,-2143598.0,-1682.0,0.0,-4194886.0,-2098024.0,-512.0,-2139.0,-4457368.0,-2227968.0,-6290988.0,0.0,-4193868.0,-2244093.0,-4455537.0,-1018.0,49.0,164.0,-104.0,0.0,197.0,714.0,530.0,16.0,-50.0,-170.0,45.0,0.0,514.0,760.0,546.0,-518.0,-0.013285,-0.044563,0.028194,0.0,0.00724,0.02616,-0.019416,0.000619,-0.013536,-0.046227,0.012185,0.0,0.018832,0.027813,-0.019986,-0.018955,4096.350098,11547.720703,51534.453125,0.0,-17694.089844,-17716.769531,17979.839844,-17453.339844,4096.439941,11564.730469,51567.121094,0.0,17745.210938,17721.541016,-17462.970703,17996.490234,0.0,0.0,0.0,0.0,0.0,0.0,0.0,0.0,0.0,0.0,0.0,0.0,0.0,0.0,0.0,0.0,0.0,0.0,0.0,0.0,0.0,0.0,0.0,0.0,0.0,0.0,0.0,0.0,0.0,0.0,0.0,0.0,4096.313477,11547.707031,51540.625,0.0,-17693.96875,-17714.847656,17979.820312,-17451.224609,4096.371582,11564.456055,51567.179688,0.0,17745.210938,17721.445312,-17462.826172,17997.089844,30.07655,90.650955,22.91024,0.0,4.332927,0.277729,29.051062,29.734406,30.076977,90.788727,22.921429,0.0,3.08298,-0.793031,29.950813,29.464911,1.021,1.035,4407514.0,2015290.0,-570923.0,0.0,-3998285.0,-1901171.0,-199264.0,191787.0,-4502884.0,-2356465.0,-6863956.0,0.0,-4391037.0,-2440999.0,4649570.0,-200979.0,0.0,0.0,0.0,0.0,0.0,0.0,0.0,0.0,0.0,0.0,0.0,0.0,0.0,0.0,0.0,0.0,0.0,0.0,0.0,0.0,0.0,0.0,0.0,0.0
6,0.4128851890563965,30.076817,90.651039,22.907379,0.0,4.310488,0.064022,29.160059,29.402096,30.077478,90.790909,22.921379,0.0,3.082844,-0.782626,29.929502,29.403469,3.0,1.0,111.0,0.0,1.0,-77935.0,-25521.0,13979.0,-77615.0,25651.0,14062.0,-0.93757,-0.236634,0.254888,-0.305468,0.209863,-0.928788,0.166291,-0.948663,-0.269045,-0.933309,0.200786,0.29769,0.319743,0.087457,0.94346,0.163398,0.975723,-0.145824,-0.93757,-0.236634,0.254888,-0.305468,0.209863,-0.928788,0.166291,-0.948663,-0.269045,-0.933309,0.200786,0.29769,0.319743,0.087457,0.94346,0.163398,0.975723,-0.145824,-77935.0,-25521.0,13979.0,-77615.0,25651.0,14062.0,-4453029.0,-2143598.0,-1682.0,0.0,-4194886.0,-2098024.0,-512.0,-2138.0,-4457368.0,-2227968.0,-6290988.0,0.0,-4193868.0,-2244093.0,-4455537.0,-1018.0,49.0,164.0,-104.0,0.0,198.0,717.0,530.0,18.0,-50.0,-170.0,45.0,0.0,514.0,759.0,545.0,-517.0,-0.013285,-0.044563,0.028194,0.0,0.007247,0.026271,-0.019417,0.00066,-0.013536,-0.046227,0.012185,0.0,0.018832,0.027807,-0.019977,-0.01892,4096.350098,11547.720703,51534.453125,0.0,-17694.089844,-17716.769531,17979.839844,-17453.251953,4096.439941,11564.730469,51567.121094,0.0,17745.210938,17721.541016,-17462.970703,17996.490234,0.0,0.0,0.0,0.0,0.0,0.0,0.0,0.0,0.0,0.0,0.0,0.0,0.0,0.0,0.0,0.0,0.0,0.0,0.0,0.0,0.0,0.0,0.0,0.0,0.0,0.0,0.0,0.0,0.0,0.0,0.0,0.0,4096.313477,11547.707031,51540.625,0.0,-17693.96875,-17714.847656,17979.820312,-17451.224609,4096.371582,11564.456055,51567.179688,0.0,17745.210938,17721.445312,-17462.826172,17997.089844,30.07655,90.650955,22.91024,0.0,4.332927,0.277729,29.051062,29.734406,30.076977,90.788727,22.921429,0.0,3.08298,-0.793031,29.950813,29.464911,1.022,1.035,4407514.0,2015290.0,-570923.0,0.0,-3998285.0,-1901171.0,-199264.0,191787.0,-4502884.0,-2356465.0,-6863956.0,0.0,-4391037.0,-2440999.0,4649570.0,-200979.0,0.0,0.0,0.0,0.0,0.0,0.0,0.0,0.0,0.0,0.0,0.0,0.0,0.0,0.0,0.0,0.0,0.0,0.0,0.0,0.0,0.0,0.0,0.0,0.0
7,0.4788811206817627,30.076817,90.651039,22.907379,0.0,4.310488,0.064022,29.160059,29.402096,30.077478,90.790909,22.921379,0.0,3.082844,-0.782626,29.929502,29.403469,3.0,1.0,111.0,0.0,1.0,-77935.0,-25521.0,13979.0,-77615.0,25651.0,14062.0,-0.93757,-0.236634,0.254888,-0.305468,0.209863,-0.928788,0.166291,-0.948663,-0.269045,-0.933309,0.200786,0.29769,0.319743,0.087457,0.94346,0.163398,0.975723,-0.145824,-0.93757,-0.236634,0.254888,-0.305468,0.209863,-0.928788,0.166291,-0.948663,-0.269045,-0.933309,0.200786,0.29769,0.319743,0.087457,0.94346,0.163398,0.975723,-0.145824,-77935.0,-25521.0,13979.0,-77615.0,25651.0,14062.0,-4453029.0,-2143598.0,-1682.0,0.0,-4194886.0,-2098024.0,-512.0,-2138.0,-4457368.0,-2227968.0,-6290988.0,0.0,-4193868.0,-2244093.0,-4455537.0,-1018.0,49.0,164.0,-104.0,0.0,198.0,720.0,530.0,21.0,-50.0,-170.0,45.0,0.0,514.0,759.0,545.0,-516.0,-0.013285,-0.044563,0.028194,0.0,0.007254,0.026382,-0.019418,0.000777,-0.013536,-0.046227,0.012185,0.0,0.018832,0.027802,-0.019969,-0.018886,4096.350098,11547.720703,51534.453125,0.0,-17694.089844,-17716.769531,17979.839844,-17453.251953,4096.439941,11564.730469,51567.121094,0.0,17745.210938,17721.541016,-17462.970703,17996.490234,0.0,0.0,0.0,0.0,0.0,0.0,0.0,0.0,0.0,0.0,0.0,0.0,0.0,0.0,0.0,0.0,0.0,0.0,0.0,0.0,0.0,0.0,0.0,0.0,0.0,0.0,0.0,0.0,0.0,0.0,0.0,0.0,4096.313477,11547.707031,51540.625,0.0,-17693.96875,-17714.847656,17979.820312,-17451.224609,4096.371582,11564.456055,51567.179688,0.0,17745.210938,17721.445312,-17462.826172,17997.089844,30.07655,90.650955,22.91024,0.0,4.332927,0.277729,29.051062,29.734406,30.076977,90.788727,22.921429,0.0,3.08298,-0.793031,29.950813,29.464911,1.022,1.035,4407514.0,2015290.0,-570923.0,0.0,-3998285.0,-1901171.0,-199264.0,191787.0,-4502884.0,-2356465.0,-6863956.0,0.0,-4391037.0,-2440999.0,4649570.0,-200979.0,0.0,0.0,0.0,0.0,0.0,0.0,0.0,0.0,0.0,0.0,0.0,0.0,0.0,0.0,0.0,0.0,0.0,0.0,0.0,0.0,0.0,0.0,0.0,0.0
8,0.5448880195617676,30.076817,90.651039,22.907379,0.0,4.310488,0.064022,29.160059,29.412209,30.077478,90.790909,22.921379,0.0,3.082844,-0.782626,29.929502,29.403469,3.0,1.0,111.0,0.0,1.0,-77935.0,-25521.0,13979.0,-77615.0,25651.0,14062.0,-0.93759,-0.236551,0.254888,-0.305449,0.20989,-0.928788,0.166207,-0.948678,-0.269045,-0.933309,0.200786,0.29769,0.319743,0.087457,0.94346,0.163398,0.975723,-0.145824,-0.93759,-0.236551,0.254888,-0.305449,0.20989,-0.928788,0.166207,-0.948678,-0.269045,-0.933309,0.200786,0.29769,0.319743,0.087457,0.94346,0.163398,0.975723,-0.145824,-77935.0,-25521.0,13979.0,-77615.0,25651.0,14062.0,-4453029.0,-2143598.0,-1682.0,0.0,-4194886.0,-2098024.0,-512.0,-2137.0,-4457368.0,-2227968.0,-6290988.0,0.0,-4193868.0,-2244093.0,-4455537.0,-1018.0,49.0,164.0,-104.0,0.0,198.0,723.0,530.0,22.0,-50.0,-170.0,45.0,0.0,514.0,759.0,545.0,-515.0,-0.013285,-0.044563,0.028194,0.0,0.007261,0.026492,-0.019419,0.00081,-0.013536,-0.046227,0.012185,0.0,0.018832,0.027796,-0.019961,-0.018851,4096.350098,11547.720703,51534.453125,0.0,-17694.089844,-17716.769531,17979.839844,-17453.160156,4096.439941,11564.730469,51567.121094,0.0,17745.210938,17721.541016,-17462.970703,17996.490234,0.0,0.0,0.0,0.0,0.0,0.0,0.0,0.0,0.0,0.0,0.0,0.0,0.0,0.0,0.0,0.0,0.0,0.0,0.0,0.0,0.0,0.0,0.0,0.0,0.0,0.0,0.0,0.0,0.0,0.0,0.0,0.0,4096.313477,11547.707031,51540.625,0.0,-17693.96875,-17714.847656,17979.820312,-17451.224609,4096.371582,11564.456055,51567.179688,0.0,17745.210938,17721.445312,-17462.826172,17997.089844,30.07655,90.650955,22.91024,0.0,4.332927,0.277729,29.051062,29.734406,30.076977,90.788727,22.921429,0.0,3.08298,-0.793031,29.950813,29.464911,1.022,1.035,4407514.0,2015290.0,-570923.0,0.0,-3998285.0,-1901171.0,-199264.0,191787.0,-4502884.0,-2356465.0,-6863956.0,0.0,-4391037.0,-2440999.0,4649570.0,-200979.0,0.0,0.0,0.0,0.0,0.0,0.0,0.0,0.0,0.0,0.0,0.0,0.0,0.0,0.0,0.0,0.0,0.0,0.0,0.0,0.0,0.0,0.0,0.0,0.0
9,0.610882043838501,30.076817,90.651039,22.907379,0.0,4.310488,0.064022,29.160059,29.412209,30.077478,90.790909,22.921379,0.0,3.082844,-0.782626,29.929502,29.403469,3.0,1.0,111.0,0.0,1.0,-77935.0,-25521.0,13979.0,-77615.0,25651.0,14062.0,-0.93759,-0.236551,0.254888,-0.305449,0.20989,-0.928788,0.166207,-0.948678,-0.269045,-0.933309,0.200786,0.29769,0.319743,0.087457,0.94346,0.163398,0.975723,-0.145824,-0.93759,-0.236551,0.254888,-0.305449,0.20989,-0.928788,0.166207,-0.948678,-0.269045,-0.933309,0.200786,0.29769,0.319743,0.087457,0.94346,0.163398,0.975723,-0.145824,-77935.0,-25521.0,13979.0,-77615.0,25651.0,14062.0,-4453029.0,-2143598.0,-1682.0,0.0,-4194886.0,-2098024.0,-512.0,-2137.0,-4457368.0,-2227968.0,-6290988.0,0.0,-4193868.0,-2244093.0,-4455537.0,-1018.0,49.0,164.0,-104.0,0.0,198.0,727.0,530.0,25.0,-50.0,-170.0,45.0,0.0,514.0,759.0,545.0,-514.0,-0.013285,-0.044563,0.028194,0.0,0.007268,0.026603,-0.019421,0.000921,-0.013536,-0.046227,0.012185,0.0,0.018832,0.027791,-0.019952,-0.018817,4096.350098,11547.720703,51534.453125,0.0,-17694.089844,-17716.769531,17979.839844,-17453.160156,4096.439941,11564.730469,51567.121094,0.0,17745.210938,17721.541016,-17462.970703,17996.490234,0.0,0.0,0.0,0.0,0.0,0.0,0.0,0.0,0.0,0.0,0.0,0.0,0.0,0.0,0.0,0.0,0.0,0.0,0.0,0.0,0.0,0.0,0.0,0.0,0.0,0.0,0.0,0.0,0.0,0.0,0.0,0.0,4096.313477,11547.707031,51540.625,0.0,-17693.96875,-17714.847656,17979.820312,-17451.224609,4096.371582,11564.456055,51567.179688,0.0,17745.210938,17721.445312,-17462.826172,17997.089844,30.07655,90.650955,22.91024,0.0,4.332927,0.277729,29.051062,29.734406,30.076977,90.788727,22.921429,0.0,3.08298,-0.793031,29.950813,29.464911,1.022,1.035,4407514.0,2015290.0,-570923.0,0.0,-3998285.0,-1901171.0,-199264.0,191787.0,-4502884.0,-2356465.0,-6863956.0,0.0,-4391037.0,-2440999.0,4649570.0,-200979.0,0.0,0.0,0.0,0.0,0.0,0.0,0.0,0.0,0.0,0.0,0.0,0.0,0.0,0.0,0.0,0.0,0.0,0.0,0.0,0.0,0.0,0.0,0.0,0.0
10,0.6769270896911621,30.076817,90.651039,22.907337,0.0,4.304694,0.060545,29.16527,29.41691,30.077478,90.790909,22.921379,0.0,3.082844,-0.782626,29.929502,29.403469,3.0,1.0,111.0,0.0,1.0,-77935.0,-25522.0,13979.0,-77615.0,25651.0,14062.0,-0.937574,-0.236529,0.254969,-0.305507,0.209795,-0.928791,0.166195,-0.948704,-0.268959,-0.933309,0.200786,0.29769,0.319743,0.087457,0.94346,0.163398,0.975723,-0.145824,-0.937574,-0.236529,0.254969,-0.305507,0.209795,-0.928791,0.166195,-0.948704,-0.268959,-0.933309,0.200786,0.29769,0.319743,0.087457,0.94346,0.163398,0.975723,-0.145824,-77935.0,-25522.0,13979.0,-77615.0,25651.0,14062.0,-4453029.0,-2143598.0,-1681.0,0.0,-4194886.0,-2098024.0,-512.0,-2136.0,-4457368.0,-2227968.0,-6290988.0,0.0,-4193868.0,-2244093.0,-4455537.0,-1018.0,49.0,164.0,-105.0,0.0,200.0,730.0,531.0,26.0,-50.0,-170.0,45.0,0.0,514.0,759.0,545.0,-513.0,-0.013285,-0.044563,0.028432,0.0,0.007324,0.026741,-0.019449,0.000977,-0.013536,-0.046227,0.012185,0.0,0.018832,0.027785,-0.019944,-0.018782,4096.350098,11547.720703,51534.359375,0.0,-17694.089844,-17716.769531,17979.839844,-17453.070312,4096.439941,11564.730469,51567.121094,0.0,17745.210938,17721.541016,-17462.970703,17996.490234,0.0,0.0,0.0,0.0,0.0,0.0,0.0,0.0,0.0,0.0,0.0,0.0,0.0,0.0,0.0,0.0,0.0,0.0,0.0,0.0,0.0,0.0,0.0,0.0,0.0,0.0,0.0,0.0,0.0,0.0,0.0,0.0,4096.313477,11547.707031,51540.625,0.0,-17693.9375,-17714.816406,17979.789062,-17451.193359,4096.371582,11564.456055,51567.179688,0.0,17745.210938,17721.445312,-17462.826172,17997.089844,30.07655,90.650955,22.91024,0.0,4.332927,0.277729,29.051062,29.734406,30.076977,90.788727,22.921429,0.0,3.08298,-0.793031,29.950813,29.464911,1.022,1.035,4407514.0,2015290.0,-570923.0,0.0,-3998285.0,-1901171.0,-199264.0,191787.0,-4502884.0,-2356465.0,-6863956.0,0.0,-4391037.0,-2440999.0,4649570.0,-200979.0,0.0,0.0,0.0,0.0,0.0,0.0,0.0,0.0,0.0,0.0,0.0,0.0,0.0,0.0,0.0,0.0,0.0,0.0,0.0,0.0,0.0,0.0,0.0,0.0
11,0.7418990135192871,30.076817,90.651039,22.907337,0.0,4.304694,0.060545,29.16527,29.41691,30.077478,90.790909,22.921379,0.0,3.082844,-0.782626,29.929502,29.403469,3.0,1.0,111.0,0.0,1.0,-77935.0,-25522.0,13979.0,-77615.0,25651.0,14062.0,-0.937574,-0.236529,0.254969,-0.305507,0.209795,-0.928791,0.166195,-0.948704,-0.268959,-0.933309,0.200786,0.29769,0.319743,0.087457,0.94346,0.163398,0.975723,-0.145824,-0.937574,-0.236529,0.254969,-0.305507,0.209795,-0.928791,0.166195,-0.948704,-0.268959,-0.933309,0.200786,0.29769,0.319743,0.087457,0.94346,0.163398,0.975723,-0.145824,-77935.0,-25522.0,13979.0,-77615.0,25651.0,14062.0,-4453029.0,-2143598.0,-1681.0,0.0,-4194886.0,-2098024.0,-512.0,-2136.0,-4457368.0,-2227968.0,-6290988.0,0.0,-4193868.0,-2244093.0,-4455537.0,-1018.0,49.0,164.0,-105.0,0.0,200.0,733.0,531.0,29.0,-50.0,-170.0,45.0,0.0,514.0,759.0,544.0,-512.0,-0.013285,-0.044563,0.028432,0.0,0.007333,0.026852,-0.019452,0.001084,-0.013536,-0.046227,0.012185,0.0,0.018832,0.02778,-0.019936,-0.018748,4096.350098,11547.720703,51534.359375,0.0,-17694.089844,-17716.769531,17979.839844,-17453.070312,4096.439941,11564.730469,51567.121094,0.0,17745.210938,17721.541016,-17462.970703,17996.490234,0.0,0.0,0.0,0.0,0.0,0.0,0.0,0.0,0.0,0.0,0.0,0.0,0.0,0.0,0.0,0.0,0.0,0.0,0.0,0.0,0.0,0.0,0.0,0.0,0.0,0.0,0.0,0.0,0.0,0.0,0.0,0.0,4096.313477,11547.707031,51540.625,0.0,-17693.9375,-17714.816406,17979.789062,-17451.193359,4096.371582,11564.456055,51567.179688,0.0,17745.210938,17721.445312,-17462.826172,17997.089844,30.07655,90.650955,22.91024,0.0,4.332927,0.277729,29.051062,29.734406,30.076977,90.788727,22.921429,0.0,3.08298,-0.793031,29.950813,29.464911,1.022,1.035,4407514.0,2015290.0,-570923.0,0.0,-3998285.0,-1901171.0,-199264.0,191787.0,-4502884.0,-2356465.0,-6863956.0,0.0,-4391037.0,-2440999.0,4649570.0,-200979.0,0.0,0.0,0.0,0.0,0.0,0.0,0.0,0.0,0.0,0.0,0.0,0.0,0.0,0.0,0.0,0.0,0.0,0.0,0.0,0.0,0.0,0.0,0.0,0.0
12,0.8108870983123779,30.076817,90.651039,22.907337,0.0,4.304694,0.070463,29.160311,29.431982,30.077478,90.790909,22.921379,0.0,3.082844,-0.782626,29.929502,29.403469,3.0,1.0,111.0,0.0,1.0,-77936.0,-25520.0,13979.0,-77615.0,25651.0,14062.0,-0.937659,-0.236365,0.254807,-0.305309,0.209848,-0.928843,0.166076,-0.948734,-0.26893,-0.933309,0.200786,0.29769,0.319743,0.087457,0.94346,0.163398,0.975723,-0.145824,-0.937659,-0.236365,0.254807,-0.305309,0.209848,-0.928843,0.166076,-0.948734,-0.26893,-0.933309,0.200786,0.29769,0.319743,0.087457,0.94346,0.163398,0.975723,-0.145824,-77936.0,-25520.0,13979.0,-77615.0,25651.0,14062.0,-4453029.0,-2143598.0,-1681.0,0.0,-4194886.0,-2098023.0,-512.0,-2135.0,-4457368.0,-2227968.0,-6290988.0,0.0,-4193868.0,-2244093.0,-4455537.0,-1018.0,49.0,164.0,-105.0,0.0,200.0,734.0,531.0,30.0,-50.0,-170.0,45.0,0.0,514.0,759.0,544.0,-511.0,-0.013285,-0.044563,0.028432,0.0,0.007342,0.026888,-0.019455,0.001113,-0.013536,-0.046227,0.012185,0.0,0.018832,0.027774,-0.019927,-0.018712,4096.350098,11547.720703,51534.359375,0.0,-17694.089844,-17716.681641,17979.839844,-17452.980469,4096.439941,11564.730469,51567.121094,0.0,17745.210938,17721.541016,-17462.970703,17996.490234,0.0,0.0,0.0,0.0,0.0,0.0,0.0,0.0,0.0,0.0,0.0,0.0,0.0,0.0,0.0,0.0,0.0,0.0,0.0,0.0,0.0,0.0,0.0,0.0,0.0,0.0,0.0,0.0,0.0,0.0,0.0,0.0,4096.313477,11547.707031,51540.625,0.0,-17693.9375,-17714.816406,17979.789062,-17451.193359,4096.371582,11564.456055,51567.179688,0.0,17745.210938,17721.445312,-17462.826172,17997.089844,30.07655,90.650955,22.91024,0.0,4.332927,0.277729,29.051062,29.734406,30.076977,90.788727,22.921429,0.0,3.08298,-0.793031,29.950813,29.464911,1.022,1.035,4407514.0,2015290.0,-570923.0,0.0,-3998285.0,-1901171.0,-199264.0,191787.0,-4502884.0,-2356465.0,-6863956.0,0.0,-4391037.0,-2440999.0,4649570.0,-200979.0,0.0,0.0,0.0,0.0,0.0,0.0,0.0,0.0,0.0,0.0,0.0,0.0,0.0,0.0,0.0,0.0,0.0,0.0,0.0,0.0,0.0,0.0,0.0,0.0
13,0.8758871555328369,30.076817,90.651039,22.907337,0.0,4.304694,0.070463,29.160311,29.431982,30.077478,90.790909,22.921379,0.0,3.082844,-0.782626,29.929502,29.403469,3.0,1.0,111.0,0.0,1.0,-77936.0,-25520.0,13979.0,-77615.0,25651.0,14062.0,-0.937659,-0.236365,0.254807,-0.305309,0.209848,-0.928843,0.166076,-0.948734,-0.26893,-0.933309,0.200786,0.29769,0.319743,0.087457,0.94346,0.163398,0.975723,-0.145824,-0.937659,-0.236365,0.254807,-0.305309,0.209848,-0.928843,0.166076,-0.948734,-0.26893,-0.933309,0.200786,0.29769,0.319743,0.087457,0.94346,0.163398,0.975723,-0.145824,-77936.0,-25520.0,13979.0,-77615.0,25651.0,14062.0,-4453029.0,-2143598.0,-1681.0,0.0,-4194886.0,-2098023.0,-512.0,-2135.0,-4457368.0,-2227968.0,-6290988.0,0.0,-4193868.0,-2244093.0,-4455537.0,-1018.0,49.0,164.0,-105.0,0.0,200.0,737.0,531.0,33.0,-50.0,-170.0,45.0,0.0,514.0,758.0,544.0,-510.0,-0.013285,-0.044563,0.028432,0.0,0.00735,0.026994,-0.019458,0.001215,-0.013536,-0.046227,0.012185,0.0,0.018832,0.027769,-0.019919,-0.018678,4096.350098,11547.720703,51534.359375,0.0,-17694.089844,-17716.681641,17979.839844,-17452.980469,4096.439941,11564.730469,51567.121094,0.0,17745.210938,17721.541016,-17462.970703,17996.490234,0.0,0.0,0.0,0.0,0.0,0.0,0.0,0.0,0.0,0.0,0.0,0.0,0.0,0.0,0.0,0.0,0.0,0.0,0.0,0.0,0.0,0.0,0.0,0.0,0.0,0.0,0.0,0.0,0.0,0.0,0.0,0.0,4096.313477,11547.707031,51540.625,0.0,-17693.9375,-17714.816406,17979.789062,-17451.193359,4096.371582,11564.456055,51567.179688,0.0,17745.210938,17721.445312,-17462.826172,17997.089844,30.07655,90.650955,22.91024,0.0,4.332927,0.277729,29.051062,29.734406,30.076977,90.788727,22.921429,0.0,3.08298,-0.793031,29.950813,29.464911,1.022,1.035,4407514.0,2015290.0,-570923.0,0.0,-3998285.0,-1901171.0,-199264.0,191787.0,-4502884.0,-2356465.0,-6863956.0,0.0,-4391037.0,-2440999.0,4649570.0,-200979.0,0.0,0.0,0.0,0.0,0.0,0.0,0.0,0.0,0.0,0.0,0.0,0.0,0.0,0.0,0.0,0.0,0.0,0.0,0.0,0.0,0.0,0.0,0.0,0.0
14,0.9398841857910156,30.076817,90.651039,22.907337,0.0,4.304694,0.070463,29.160311,29.431982,30.077478,90.790909,22.921379,0.0,3.082844,-0.782626,29.929502,29.403469,3.0,1.0,111.0,0.0,1.0,-77936.0,-25520.0,13979.0,-77615.0,25651.0,14062.0,-0.937659,-0.236365,0.254807,-0.305309,0.209848,-0.928843,0.166076,-0.948734,-0.26893,-0.933309,0.200786,0.29769,0.319743,0.087457,0.94346,0.163398,0.975723,-0.145824,-0.937659,-0.236365,0.254807,-0.305309,0.209848,-0.928843,0.166076,-0.948734,-0.26893,-0.933309,0.200786,0.29769,0.319743,0.087457,0.94346,0.163398,0.975723,-0.145824,-77936.0,-25520.0,13979.0,-77615.0,25651.0,14062.0,-4453029.0,-2143598.0,-1681.0,0.0,-4194886.0,-2098023.0,-512.0,-2135.0,-4457368.0,-2227968.0,-6290988.0,0.0,-4193868.0,-2244093.0,-4455537.0,-1018.0,49.0,164.0,-105.0,0.0,201.0,740.0,531.0,35.0,-50.0,-170.0,45.0,0.0,514.0,758.0,544.0,-509.0,-0.013285,-0.044563,0.028432,0.0,0.007359,0.027098,-0.019461,0.001315,-0.013536,-0.046227,0.012185,0.0,0.018832,0.027763,-0.019911,-0.018645,4096.350098,11547.720703,51534.359375,0.0,-17694.089844,-17716.681641,17979.839844,-17452.980469,4096.439941,11564.730469,51567.121094,0.0,17745.210938,17721.541016,-17462.970703,17996.490234,0.0,0.0,0.0,0.0,0.0,0.0,0.0,0.0,0.0,0.0,0.0,0.0,0.0,0.0,0.0,0.0,0.0,0.0,0.0,0.0,0.0,0.0,0.0,0.0,0.0,0.0,0.0,0.0,0.0,0.0,0.0,0.0,4096.313477,11547.707031,51540.625,0.0,-17693.9375,-17714.816406,17979.789062,-17451.193359,4096.371582,11564.456055,51567.179688,0.0,17745.210938,17721.445312,-17462.826172,17997.089844,30.07655,90.650955,22.91024,0.0,4.332927,0.277729,29.051062,29.734406,30.076977,90.788727,22.921429,0.0,3.08298,-0.793031,29.950813,29.464911,1.022,1.035,4407514.0,2015290.0,-570923.0,0.0,-3998285.0,-1901171.0,-199264.0,191787.0,-4502884.0,-2356465.0,-6863956.0,0.0,-4391037.0,-2440999.0,4649570.0,-200979.0,0.0,0.0,0.0,0.0,0.0,0.0,0.0,0.0,0.0,0.0,0.0,0.0,0.0,0.0,0.0,0.0,0.0,0.0,0.0,0.0,0.0,0.0,0.0,0.0
15,1.0079150199890137,30.076817,90.651039,22.907337,0.0,4.304694,0.070463,29.150396,29.441898,30.077478,90.790909,22.921379,0.0,3.082844,-0.782626,29.929502,29.403469,3.0,1.0,111.0,0.0,1.0,-77936.0,-25520.0,13979.0,-77615.0,25651.0,14062.0,-0.9377,-0.236203,0.254807,-0.305273,0.209901,-0.928843,0.165911,-0.948762,-0.26893,-0.933309,0.200786,0.29769,0.319743,0.087457,0.94346,0.163398,0.975723,-0.145824,-0.9377,-0.236203,0.254807,-0.305273,0.209901,-0.928843,0.165911,-0.948762,-0.26893,-0.933309,0.200786,0.29769,0.319743,0.087457,0.94346,0.163398,0.975723,-0.145824,-77936.0,-25520.0,13979.0,-77615.0,25651.0,14062.0,-4453029.0,-2143598.0,-1681.0,0.0,-4194886.0,-2098023.0,-511.0,-2134.0,-4457368.0,-2227968.0,-6290988.0,0.0,-4193868.0,-2244093.0,-4455537.0,-1018.0,49.0,164.0,-105.0,0.0,201.0,743.0,529.0,36.0,-50.0,-170.0,45.0,0.0,514.0,758.0,543.0,-508.0,-0.013285,-0.044563,0.028432,0.0,0.007368,0.027209,-0.019382,0.00134,-0.013536,-0.046227,0.012185,0.0,0.018832,0.027758,-0.019902,-0.018609,4096.350098,11547.720703,51534.359375,0.0,-17694.089844,-17716.681641,17979.75,-17452.890625,4096.439941,11564.730469,51567.121094,0.0,17745.210938,17721.541016,-17462.970703,17996.490234,0.0,0.0,0.0,0.0,0.0,0.0,0.0,0.0,0.0,0.0,0.0,0.0,0.0,0.0,0.0,0.0,0.0,0.0,0.0,0.0,0.0,0.0,0.0,0.0,0.0,0.0,0.0,0.0,0.0,0.0,0.0,0.0,4096.313477,11547.707031,51540.625,0.0,-17693.9375,-17714.816406,17979.789062,-17451.193359,4096.371582,11564.456055,51567.179688,0.0,17745.210938,17721.445312,-17462.826172,17997.089844,30.07655,90.650955,22.91024,0.0,4.332927,0.277729,29.051062,29.734406,30.076977,90.788727,22.921429,0.0,3.08298,-0.793031,29.950813,29.464911,1.022,1.035,4407514.0,2015290.0,-570923.0,0.0,-3998285.0,-1901171.0,-199264.0,191787.0,-4502884.0,-2356465.0,-6863956.0,0.0,-4391037.0,-2440999.0,4649570.0,-200979.0,0.0,0.0,0.0,0.0,0.0,0.0,0.0,0.0,0.0,0.0,0.0,0.0,0.0,0.0,0.0,0.0,0.0,0.0,0.0,0.0,0.0,0.0,0.0,0.0
16,1.0738930702209473,30.076817,90.651039,22.907337,0.0,4.304694,0.070463,29.150396,29.441898,30.077478,90.790909,22.921379,0.0,3.082844,-0.782626,29.929502,29.403469,3.0,1.0,111.0,0.0,1.0,-77936.0,-25520.0,13979.0,-77615.0,25651.0,14062.0,-0.9377,-0.236203,0.254807,-0.305273,0.209901,-0.928843,0.165911,-0.948762,-0.26893,-0.933309,0.200786,0.29769,0.319743,0.087457,0.94346,0.163398,0.975723,-0.145824,-0.9377,-0.236203,0.254807,-0.305273,0.209901,-0.928843,0.165911,-0.948762,-0.26893,-0.933309,0.200786,0.29769,0.319743,0.087457,0.94346,0.163398,0.975723,-0.145824,-77936.0,-25520.0,13979.0,-77615.0,25651.0,14062.0,-4453029.0,-2143598.0,-1681.0,0.0,-4194886.0,-2098023.0,-511.0,-2134.0,-4457368.0,-2227968.0,-6290988.0,0.0,-4193868.0,-2244093.0,-4455537.0,-1018.0,49.0,164.0,-105.0,0.0,201.0,746.0,529.0,39.0,-50.0,-170.0,45.0,0.0,514.0,758.0,543.0,-507.0,-0.013285,-0.044563,0.028432,0.0,0.007377,0.027316,-0.019379,0.001438,-0.013536,-0.046227,0.012185,0.0,0.018832,0.027752,-0.019894,-0.018574,4096.350098,11547.720703,51534.359375,0.0,-17694.089844,-17716.681641,17979.75,-17452.890625,4096.439941,11564.730469,51567.121094,0.0,17745.210938,17721.541016,-17462.970703,17996.490234,0.0,0.0,0.0,0.0,0.0,0.0,0.0,0.0,0.0,0.0,0.0,0.0,0.0,0.0,0.0,0.0,0.0,0.0,0.0,0.0,0.0,0.0,0.0,0.0,0.0,0.0,0.0,0.0,0.0,0.0,0.0,0.0,4096.313477,11547.707031,51540.625,0.0,-17693.9375,-17714.816406,17979.789062,-17451.193359,4096.371582,11564.456055,51567.179688,0.0,17745.210938,17721.445312,-17462.826172,17997.089844,30.07655,90.650955,22.91024,0.0,4.332927,0.277729,29.051062,29.734406,30.076977,90.788727,22.921429,0.0,3.08298,-0.793031,29.950813,29.464911,1.022,1.035,4407514.0,2015290.0,-570923.0,0.0,-3998285.0,-1901171.0,-199264.0,191787.0,-4502884.0,-2356465.0,-6863956.0,0.0,-4391037.0,-2440999.0,4649570.0,-200979.0,0.0,0.0,0.0,0.0,0.0,0.0,0.0,0.0,0.0,0.0,0.0,0.0,0.0,0.0,0.0,0.0,0.0,0.0,0.0,0.0,0.0,0.0,0.0,0.0
17,1.1399321556091309,30.076817,90.651039,22.907337,0.0,4.304694,0.070463,29.150396,29.441898,30.077478,90.790909,22.921379,0.0,3.082844,-0.782626,29.929502,29.403469,3.0,1.0,111.0,0.0,1.0,-77936.0,-25520.0,13979.0,-77615.0,25651.0,14062.0,-0.9377,-0.236203,0.254807,-0.305273,0.209901,-0.928843,0.165911,-0.948762,-0.26893,-0.933309,0.200786,0.29769,0.319743,0.087457,0.94346,0.163398,0.975723,-0.145824,-0.9377,-0.236203,0.254807,-0.305273,0.209901,-0.928843,0.165911,-0.948762,-0.26893,-0.933309,0.200786,0.29769,0.319743,0.087457,0.94346,0.163398,0.975723,-0.145824,-77936.0,-25520.0,13979.0,-77615.0,25651.0,14062.0,-4453029.0,-2143598.0,-1681.0,0.0,-4194886.0,-2098023.0,-511.0,-2134.0,-4457368.0,-2227968.0,-6290988.0,0.0,-4193868.0,-2244093.0,-4455537.0,-1018.0,49.0,164.0,-105.0,0.0,201.0,749.0,529.0,41.0,-50.0,-170.0,45.0,0.0,514.0,758.0,543.0,-506.0,-0.013285,-0.044563,0.028432,0.0,0.007385,0.027424,-0.019377,0.001535,-0.013536,-0.046227,0.012185,0.0,0.018832,0.027747,-0.019885,-0.01854,4096.350098,11547.720703,51534.359375,0.0,-17694.089844,-17716.681641,17979.75,-17452.890625,4096.439941,11564.730469,51567.121094,0.0,17745.210938,17721.541016,-17462.970703,17996.490234,0.0,0.0,0.0,0.0,0.0,0.0,0.0,0.0,0.0,0.0,0.0,0.0,0.0,0.0,0.0,0.0,0.0,0.0,0.0,0.0,0.0,0.0,0.0,0.0,0.0,0.0,0.0,0.0,0.0,0.0,0.0,0.0,4096.313477,11547.707031,51540.625,0.0,-17693.9375,-17714.816406,17979.789062,-17451.193359,4096.371582,11564.456055,51567.179688,0.0,17745.210938,17721.445312,-17462.826172,17997.089844,30.07655,90.650955,22.91024,0.0,4.332927,0.277729,29.051062,29.734406,30.076977,90.788727,22.921429,0.0,3.08298,-0.793031,29.950813,29.464911,1.022,1.035,4407514.0,2015290.0,-570923.0,0.0,-3998285.0,-1901171.0,-199264.0,191787.0,-4502884.0,-2356465.0,-6863956.0,0.0,-4391037.0,-2440999.0,4649570.0,-200979.0,0.0,0.0,0.0,0.0,0.0,0.0,0.0,0.0,0.0,0.0,0.0,0.0,0.0,0.0,0.0,0.0,0.0,0.0,0.0,0.0,0.0,0.0,0.0,0.0
18,1.2098991870880127,30.076817,90.651039,22.907337,0.0,4.304694,0.070463,29.150396,29.441898,30.077478,90.790909,22.921379,0.0,3.082844,-0.782626,29.929502,29.403469,3.0,1.0,111.0,0.0,1.0,-77936.0,-25520.0,13979.0,-77615.0,25651.0,14062.0,-0.9377,-0.236203,0.254807,-0.305273,0.209901,-0.928843,0.165911,-0.948762,-0.26893,-0.933309,0.200786,0.29769,0.319743,0.087457,0.94346,0.163398,0.975723,-0.145824,-0.9377,-0.236203,0.254807,-0.305273,0.209901,-0.928843,0.165911,-0.948762,-0.26893,-0.933309,0.200786,0.29769,0.319743,0.087457,0.94346,0.163398,0.975723,-0.145824,-77936.0,-25520.0,13979.0,-77615.0,25651.0,14062.0,-4453029.0,-2143598.0,-1681.0,0.0,-4194886.0,-2098023.0,-511.0,-2134.0,-4457368.0,-2227968.0,-6290988.0,0.0,-4193868.0,-2244093.0,-4455537.0,-1018.0,49.0,164.0,-105.0,0.0,202.0,752.0,529.0,44.0,-50.0,-170.0,45.0,0.0,514.0,758.0,543.0,-505.0,-0.013285,-0.044563,0.028432,0.0,0.007395,0.027538,-0.019375,0.001639,-0.013536,-0.046227,0.012185,0.0,0.018832,0.027741,-0.019876,-0.018503,4096.350098,11547.720703,51534.359375,0.0,-17694.089844,-17716.681641,17979.75,-17452.890625,4096.439941,11564.730469,51567.121094,0.0,17745.210938,17721.541016,-17462.970703,17996.490234,0.0,0.0,0.0,0.0,0.0,0.0,0.0,0.0,0.0,0.0,0.0,0.0,0.0,0.0,0.0,0.0,0.0,0.0,0.0,0.0,0.0,0.0,0.0,0.0,0.0,0.0,0.0,0.0,0.0,0.0,0.0,0.0,4096.313477,11547.707031,51540.625,0.0,-17693.9375,-17714.816406,17979.789062,-17451.193359,4096.371582,11564.456055,51567.179688,0.0,17745.210938,17721.445312,-17462.826172,17997.089844,30.07655,90.650955,22.91024,0.0,4.332927,0.277729,29.051062,29.734406,30.076977,90.788727,22.921429,0.0,3.08298,-0.793031,29.950813,29.464911,1.022,1.035,4407514.0,2015290.0,-570923.0,0.0,-3998285.0,-1901171.0,-199264.0,191787.0,-4502884.0,-2356465.0,-6863956.0,0.0,-4391037.0,-2440999.0,4649570.0,-200979.0,0.0,0.0,0.0,0.0,0.0,0.0,0.0,0.0,0.0,0.0,0.0,0.0,0.0,0.0,0.0,0.0,0.0,0.0,0.0,0.0,0.0,0.0,0.0,0.0
19,1.2738909721374512,30.076817,90.651039,22.907337,0.0,4.304694,0.070463,29.150396,29.452011,30.077478,90.790909,22.921379,0.0,3.082844,-0.782626,29.929502,29.403469,3.0,1.0,111.0,0.0,1.0,-77936.0,-25520.0,13979.0,-77615.0,25651.0,14062.0,-0.937721,-0.23612,0.254807,-0.305254,0.209927,-0.928843,0.165828,-0.948777,-0.26893,-0.933309,0.200786,0.29769,0.319743,0.087457,0.94346,0.163398,0.975723,-0.145824,-0.937721,-0.23612,0.254807,-0.305254,0.209927,-0.928843,0.165828,-0.948777,-0.26893,-0.933309,0.200786,0.29769,0.319743,0.087457,0.94346,0.163398,0.975723,-0.145824,-77936.0,-25520.0,13979.0,-77615.0,25651.0,14062.0,-4453029.0,-2143598.0,-1681.0,0.0,-4194886.0,-2098023.0,-511.0,-2133.0,-4457368.0,-2227968.0,-6290988.0,0.0,-4193868.0,-2244093.0,-4455537.0,-1018.0,49.0,164.0,-105.0,0.0,202.0,755.0,529.0,45.0,-50.0,-170.0,45.0,0.0,514.0,757.0,542.0,-504.0,-0.013285,-0.044563,0.028432,0.0,0.007403,0.027642,-0.019373,0.001651,-0.013536,-0.046227,0.012185,0.0,0.018832,0.027735,-0.019868,-0.01847,4096.350098,11547.720703,51534.359375,0.0,-17694.089844,-17716.681641,17979.75,-17452.800781,4096.439941,11564.730469,51567.121094,0.0,17745.210938,17721.541016,-17462.970703,17996.490234,0.0,0.0,0.0,0.0,0.0,0.0,0.0,0.0,0.0,0.0,0.0,0.0,0.0,0.0,0.0,0.0,0.0,0.0,0.0,0.0,0.0,0.0,0.0,0.0,0.0,0.0,0.0,0.0,0.0,0.0,0.0,0.0,4096.313477,11547.707031,51540.625,0.0,-17693.9375,-17714.816406,17979.789062,-17451.193359,4096.371582,11564.456055,51567.179688,0.0,17745.210938,17721.445312,-17462.826172,17997.089844,30.07655,90.650955,22.91024,0.0,4.332927,0.277729,29.051062,29.734406,30.076977,90.788727,22.921429,0.0,3.08298,-0.793031,29.950813,29.464911,1.022,1.035,4407514.0,2015290.0,-570923.0,0.0,-3998285.0,-1901171.0,-199264.0,191787.0,-4502884.0,-2356465.0,-6863956.0,0.0,-4391037.0,-2440999.0,4649570.0,-200979.0,0.0,0.0,0.0,0.0,0.0,0.0,0.0,0.0,0.0,0.0,0.0,0.0,0.0,0.0,0.0,0.0,0.0,0.0,0.0,0.0,0.0,0.0,0.0,0.0
20,1.340907096862793,30.076817,90.651039,22.907337,0.0,4.321222,0.070463,29.150396,29.452011,30.077478,90.790909,22.921379,0.0,3.082844,-0.782626,29.929502,29.403469,3.0,1.0,111.0,0.0,1.0,-77936.0,-25520.0,13979.0,-77615.0,25651.0,14062.0,-0.937721,-0.236194,0.254738,-0.305254,0.210195,-0.928783,0.165828,-0.948699,-0.269204,-0.933309,0.200786,0.29769,0.319743,0.087457,0.94346,0.163398,0.975723,-0.145824,-0.937721,-0.236194,0.254738,-0.305254,0.210195,-0.928783,0.165828,-0.948699,-0.269204,-0.933309,0.200786,0.29769,0.319743,0.087457,0.94346,0.163398,0.975723,-0.145824,-77936.0,-25520.0,13979.0,-77615.0,25651.0,14062.0,-4453029.0,-2143598.0,-1681.0,0.0,-4194885.0,-2098023.0,-511.0,-2133.0,-4457368.0,-2227968.0,-6290988.0,0.0,-4193868.0,-2244093.0,-4455537.0,-1018.0,49.0,164.0,-105.0,0.0,198.0,758.0,529.0,47.0,-50.0,-170.0,45.0,0.0,514.0,757.0,542.0,-503.0,-0.013285,-0.044563,0.028432,0.0,0.007271,0.027751,-0.01937,0.001745,-0.013536,-0.046227,0.012185,0.0,0.018832,0.02773,-0.01986,-0.018435,4096.350098,11547.720703,51534.359375,0.0,-17694.0,-17716.681641,17979.75,-17452.800781,4096.439941,11564.730469,51567.121094,0.0,17745.210938,17721.541016,-17462.970703,17996.490234,0.0,0.0,0.0,0.0,0.0,0.0,0.0,0.0,0.0,0.0,0.0,0.0,0.0,0.0,0.0,0.0,0.0,0.0,0.0,0.0,0.0,0.0,0.0,0.0,0.0,0.0,0.0,0.0,0.0,0.0,0.0,0.0,4096.313477,11547.707031,51540.625,0.0,-17693.9375,-17714.816406,17979.789062,-17451.193359,4096.371582,11564.456055,51567.179688,0.0,17745.210938,17721.445312,-17462.826172,17997.089844,30.07655,90.650955,22.91024,0.0,4.332927,0.277729,29.051062,29.734406,30.076977,90.788727,22.921429,0.0,3.08298,-0.793031,29.950813,29.464911,1.022,1.035,4407514.0,2015290.0,-570923.0,0.0,-3998285.0,-1901171.0,-199264.0,191787.0,-4502884.0,-2356465.0,-6863956.0,0.0,-4391037.0,-2440999.0,4649570.0,-200979.0,0.0,0.0,0.0,0.0,0.0,0.0,0.0,0.0,0.0,0.0,0.0,0.0,0.0,0.0,0.0,0.0,0.0,0.0,0.0,0.0,0.0,0.0,0.0,0.0
21,1.4088470935821533,30.076817,90.651039,22.907295,0.0,4.315429,0.066986,29.155609,29.446796,30.077478,90.790909,22.921379,0.0,3.082844,-0.782626,29.929502,29.403469,3.0,1.0,111.0,0.0,1.0,-77936.0,-25521.0,13979.0,-77615.0,25651.0,14062.0,-0.937684,-0.236253,0.254819,-0.30533,0.210074,-0.928786,0.165898,-0.948711,-0.269118,-0.933309,0.200786,0.29769,0.319743,0.087457,0.94346,0.163398,0.975723,-0.145824,-0.937684,-0.236253,0.254819,-0.30533,0.210074,-0.928786,0.165898,-0.948711,-0.269118,-0.933309,0.200786,0.29769,0.319743,0.087457,0.94346,0.163398,0.975723,-0.145824,-77936.0,-25521.0,13979.0,-77615.0,25651.0,14062.0,-4453029.0,-2143598.0,-1680.0,0.0,-4194885.0,-2098023.0,-511.0,-2133.0,-4457368.0,-2227968.0,-6290988.0,0.0,-4193868.0,-2244093.0,-4455537.0,-1018.0,49.0,164.0,-105.0,0.0,200.0,762.0,530.0,51.0,-50.0,-170.0,45.0,0.0,514.0,757.0,542.0,-502.0,-0.013285,-0.044563,0.02867,0.0,0.007325,0.02789,-0.019397,0.00187,-0.013536,-0.046227,0.012185,0.0,0.018832,0.027724,-0.019851,-0.018399,4096.350098,11547.720703,51534.269531,0.0,-17694.0,-17716.681641,17979.75,-17452.800781,4096.439941,11564.730469,51567.121094,0.0,17745.210938,17721.541016,-17462.970703,17996.490234,0.0,0.0,0.0,0.0,0.0,0.0,0.0,0.0,0.0,0.0,0.0,0.0,0.0,0.0,0.0,0.0,0.0,0.0,0.0,0.0,0.0,0.0,0.0,0.0,0.0,0.0,0.0,0.0,0.0,0.0,0.0,0.0,4096.313477,11547.707031,51540.625,0.0,-17693.90625,-17714.785156,17979.757812,-17451.162109,4096.371582,11564.456055,51567.179688,0.0,17745.210938,17721.445312,-17462.826172,17997.089844,30.07655,90.650955,22.91024,0.0,4.332927,0.277729,29.051062,29.734406,30.076977,90.788727,22.921429,0.0,3.08298,-0.793031,29.950813,29.464911,1.022,1.035,4407514.0,2015290.0,-570923.0,0.0,-3998285.0,-1901171.0,-199264.0,191787.0,-4502884.0,-2356465.0,-6863956.0,0.0,-4391037.0,-2440999.0,4649570.0,-200979.0,0.0,0.0,0.0,0.0,0.0,0.0,0.0,0.0,0.0,0.0,0.0,0.0,0.0,0.0,0.0,0.0,0.0,0.0,0.0,0.0,0.0,0.0,0.0,0.0
22,1.4748880863189697,30.076817,90.651039,22.907295,0.0,4.315429,0.066986,29.155609,29.456715,30.077478,90.790909,22.921379,0.0,3.082844,-0.782626,29.929502,29.403469,3.0,1.0,111.0,0.0,1.0,-77936.0,-25521.0,13979.0,-77615.0,25651.0,14062.0,-0.937705,-0.236172,0.254819,-0.305311,0.2101,-0.928786,0.165816,-0.948726,-0.269118,-0.933309,0.200786,0.29769,0.319743,0.087457,0.94346,0.163398,0.975723,-0.145824,-0.937705,-0.236172,0.254819,-0.305311,0.2101,-0.928786,0.165816,-0.948726,-0.269118,-0.933309,0.200786,0.29769,0.319743,0.087457,0.94346,0.163398,0.975723,-0.145824,-77936.0,-25521.0,13979.0,-77615.0,25651.0,14062.0,-4453029.0,-2143598.0,-1680.0,0.0,-4194885.0,-2098023.0,-511.0,-2132.0,-4457368.0,-2227968.0,-6290988.0,0.0,-4193868.0,-2244093.0,-4455537.0,-1018.0,49.0,164.0,-105.0,0.0,200.0,765.0,530.0,51.0,-50.0,-170.0,45.0,0.0,514.0,757.0,542.0,-501.0,-0.013285,-0.044563,0.02867,0.0,0.007331,0.028,-0.019397,0.001886,-0.013536,-0.046227,0.012185,0.0,0.018832,0.027719,-0.019843,-0.018365,4096.350098,11547.720703,51534.269531,0.0,-17694.0,-17716.681641,17979.75,-17452.710938,4096.439941,11564.730469,51567.121094,0.0,17745.210938,17721.541016,-17462.970703,17996.490234,0.0,0.0,0.0,0.0,0.0,0.0,0.0,0.0,0.0,0.0,0.0,0.0,0.0,0.0,0.0,0.0,0.0,0.0,0.0,0.0,0.0,0.0,0.0,0.0,0.0,0.0,0.0,0.0,0.0,0.0,0.0,0.0,4096.313477,11547.707031,51540.625,0.0,-17693.90625,-17714.785156,17979.757812,-17451.162109,4096.371582,11564.456055,51567.179688,0.0,17745.210938,17721.445312,-17462.826172,17997.089844,30.07655,90.650955,22.91024,0.0,4.332927,0.277729,29.051062,29.734406,30.076977,90.788727,22.921429,0.0,3.08298,-0.793031,29.950813,29.464911,1.022,1.035,4407514.0,2015290.0,-570923.0,0.0,-3998285.0,-1901171.0,-199264.0,191787.0,-4502884.0,-2356465.0,-6863956.0,0.0,-4391037.0,-2440999.0,4649570.0,-200979.0,0.0,0.0,0.0,0.0,0.0,0.0,0.0,0.0,0.0,0.0,0.0,0.0,0.0,0.0,0.0,0.0,0.0,0.0,0.0,0.0,0.0,0.0,0.0,0.0
23,1.5438940525054932,30.076817,90.651039,22.907295,0.0,4.315429,0.077098,29.150555,29.461769,30.077478,90.790909,22.921379,0.0,3.082844,-0.782626,29.929502,29.403469,3.0,1.0,111.0,0.0,1.0,-77937.0,-25519.0,13980.0,-77615.0,25651.0,14062.0,-0.93777,-0.236089,0.254653,-0.305129,0.210127,-0.92884,0.16578,-0.94874,-0.269088,-0.933309,0.200786,0.29769,0.319743,0.087457,0.94346,0.163398,0.975723,-0.145824,-0.93777,-0.236089,0.254653,-0.305129,0.210127,-0.92884,0.16578,-0.94874,-0.269088,-0.933309,0.200786,0.29769,0.319743,0.087457,0.94346,0.163398,0.975723,-0.145824,-77937.0,-25519.0,13980.0,-77615.0,25651.0,14062.0,-4453029.0,-2143598.0,-1680.0,0.0,-4194885.0,-2098022.0,-511.0,-2132.0,-4457368.0,-2227968.0,-6290988.0,0.0,-4193868.0,-2244093.0,-4455537.0,-1018.0,49.0,164.0,-105.0,0.0,200.0,766.0,530.0,54.0,-50.0,-170.0,45.0,0.0,514.0,757.0,542.0,-500.0,-0.013285,-0.044563,0.02867,0.0,0.007337,0.02803,-0.019396,0.001979,-0.013536,-0.046227,0.012185,0.0,0.018832,0.027713,-0.019834,-0.018329,4096.350098,11547.720703,51534.269531,0.0,-17694.0,-17716.589844,17979.75,-17452.710938,4096.439941,11564.730469,51567.121094,0.0,17745.210938,17721.541016,-17462.970703,17996.490234,0.0,0.0,0.0,0.0,0.0,0.0,0.0,0.0,0.0,0.0,0.0,0.0,0.0,0.0,0.0,0.0,0.0,0.0,0.0,0.0,0.0,0.0,0.0,0.0,0.0,0.0,0.0,0.0,0.0,0.0,0.0,0.0,4096.313477,11547.707031,51540.625,0.0,-17693.90625,-17714.785156,17979.757812,-17451.162109,4096.371582,11564.456055,51567.179688,0.0,17745.210938,17721.445312,-17462.826172,17997.089844,30.07655,90.650955,22.91024,0.0,4.332927,0.277729,29.051062,29.734406,30.076977,90.788727,22.921429,0.0,3.08298,-0.793031,29.950813,29.464911,1.022,1.035,4407514.0,2015290.0,-570923.0,0.0,-3998285.0,-1901171.0,-199264.0,191787.0,-4502884.0,-2356465.0,-6863956.0,0.0,-4391037.0,-2440999.0,4649570.0,-200979.0,0.0,0.0,0.0,0.0,0.0,0.0,0.0,0.0,0.0,0.0,0.0,0.0,0.0,0.0,0.0,0.0,0.0,0.0,0.0,0.0,0.0,0.0,0.0,0.0
24,1.6148850917816162,30.076817,90.651039,22.907295,0.0,4.315429,0.077098,29.150555,29.461769,30.077478,90.790909,22.921379,0.0,3.082844,-0.782626,29.929502,29.403469,3.0,1.0,111.0,0.0,1.0,-77937.0,-25519.0,13980.0,-77615.0,25651.0,14062.0,-0.93777,-0.236089,0.254653,-0.305129,0.210127,-0.92884,0.16578,-0.94874,-0.269088,-0.933309,0.200786,0.29769,0.319743,0.087457,0.94346,0.163398,0.975723,-0.145824,-0.93777,-0.236089,0.254653,-0.305129,0.210127,-0.92884,0.16578,-0.94874,-0.269088,-0.933309,0.200786,0.29769,0.319743,0.087457,0.94346,0.163398,0.975723,-0.145824,-77937.0,-25519.0,13980.0,-77615.0,25651.0,14062.0,-4453029.0,-2143598.0,-1680.0,0.0,-4194885.0,-2098022.0,-511.0,-2132.0,-4457368.0,-2227968.0,-6290988.0,0.0,-4193868.0,-2244093.0,-4455537.0,-1018.0,49.0,164.0,-105.0,0.0,200.0,769.0,530.0,56.0,-50.0,-170.0,45.0,0.0,514.0,757.0,541.0,-499.0,-0.013285,-0.044563,0.02867,0.0,0.007343,0.028142,-0.019396,0.002075,-0.013536,-0.046227,0.012185,0.0,0.018832,0.027707,-0.019825,-0.018292,4096.350098,11547.720703,51534.269531,0.0,-17694.0,-17716.589844,17979.75,-17452.710938,4096.439941,11564.730469,51567.121094,0.0,17745.210938,17721.541016,-17462.970703,17996.490234,0.0,0.0,0.0,0.0,0.0,0.0,0.0,0.0,0.0,0.0,0.0,0.0,0.0,0.0,0.0,0.0,0.0,0.0,0.0,0.0,0.0,0.0,0.0,0.0,0.0,0.0,0.0,0.0,0.0,0.0,0.0,0.0,4096.313477,11547.707031,51540.625,0.0,-17693.90625,-17714.785156,17979.757812,-17451.162109,4096.371582,11564.456055,51567.179688,0.0,17745.210938,17721.445312,-17462.826172,17997.089844,30.07655,90.650955,22.91024,0.0,4.332927,0.277729,29.051062,29.734406,30.076977,90.788727,22.921429,0.0,3.08298,-0.793031,29.950813,29.464911,1.022,1.035,4407514.0,2015290.0,-570923.0,0.0,-3998285.0,-1901171.0,-199264.0,191787.0,-4502884.0,-2356465.0,-6863956.0,0.0,-4391037.0,-2440999.0,4649570.0,-200979.0,0.0,0.0,0.0,0.0,0.0,0.0,0.0,0.0,0.0,0.0,0.0,0.0,0.0,0.0,0.0,0.0,0.0,0.0,0.0,0.0,0.0,0.0,0.0,0.0
25,1.6798360347747803,30.076817,90.651039,22.907295,0.0,4.315429,0.077098,29.150555,29.461769,30.077478,90.790909,22.921379,0.0,3.082844,-0.782626,29.929502,29.403469,3.0,1.0,111.0,0.0,1.0,-77937.0,-25519.0,13980.0,-77615.0,25651.0,14062.0,-0.93777,-0.236089,0.254653,-0.305129,0.210127,-0.92884,0.16578,-0.94874,-0.269088,-0.933309,0.200786,0.29769,0.319743,0.087457,0.94346,0.163398,0.975723,-0.145824,-0.93777,-0.236089,0.254653,-0.305129,0.210127,-0.92884,0.16578,-0.94874,-0.269088,-0.933309,0.200786,0.29769,0.319743,0.087457,0.94346,0.163398,0.975723,-0.145824,-77937.0,-25519.0,13980.0,-77615.0,25651.0,14062.0,-4453029.0,-2143598.0,-1680.0,0.0,-4194885.0,-2098022.0,-511.0,-2132.0,-4457368.0,-2227968.0,-6290988.0,0.0,-4193868.0,-2244093.0,-4455537.0,-1018.0,49.0,164.0,-105.0,0.0,200.0,771.0,530.0,59.0,-50.0,-170.0,45.0,0.0,514.0,757.0,541.0,-498.0,-0.013285,-0.044563,0.02867,0.0,0.007348,0.028244,-0.019395,0.002163,-0.013536,-0.046227,0.012185,0.0,0.018832,0.027702,-0.019817,-0.018258,4096.350098,11547.720703,51534.269531,0.0,-17694.0,-17716.589844,17979.75,-17452.710938,4096.439941,11564.730469,51567.121094,0.0,17745.210938,17721.541016,-17462.970703,17996.490234,0.0,0.0,0.0,0.0,0.0,0.0,0.0,0.0,0.0,0.0,0.0,0.0,0.0,0.0,0.0,0.0,0.0,0.0,0.0,0.0,0.0,0.0,0.0,0.0,0.0,0.0,0.0,0.0,0.0,0.0,0.0,0.0,4096.313477,11547.707031,51540.625,0.0,-17693.90625,-17714.785156,17979.757812,-17451.162109,4096.371582,11564.456055,51567.179688,0.0,17745.210938,17721.445312,-17462.826172,17997.089844,30.07655,90.650955,22.91024,0.0,4.332927,0.277729,29.051062,29.734406,30.076977,90.788727,22.921429,0.0,3.08298,-0.793031,29.950813,29.464911,1.022,1.035,4407514.0,2015290.0,-570923.0,0.0,-3998285.0,-1901171.0,-199264.0,191787.0,-4502884.0,-2356465.0,-6863956.0,0.0,-4391037.0,-2440999.0,4649570.0,-200979.0,0.0,0.0,0.0,0.0,0.0,0.0,0.0,0.0,0.0,0.0,0.0,0.0,0.0,0.0,0.0,0.0,0.0,0.0,0.0,0.0,0.0,0.0,0.0,0.0
26,1.7448911666870117,30.076817,90.651039,22.907295,0.0,4.315429,0.077098,29.150555,29.47188,30.077478,90.790909,22.921379,0.0,3.082844,-0.782626,29.929502,29.403469,3.0,1.0,111.0,0.0,1.0,-77937.0,-25519.0,13980.0,-77615.0,25651.0,14062.0,-0.937791,-0.236007,0.254653,-0.30511,0.210154,-0.92884,0.165696,-0.948755,-0.269088,-0.933309,0.200786,0.29769,0.319743,0.087457,0.94346,0.163398,0.975723,-0.145824,-0.937791,-0.236007,0.254653,-0.30511,0.210154,-0.92884,0.165696,-0.948755,-0.269088,-0.933309,0.200786,0.29769,0.319743,0.087457,0.94346,0.163398,0.975723,-0.145824,-77937.0,-25519.0,13980.0,-77615.0,25651.0,14062.0,-4453029.0,-2143598.0,-1680.0,0.0,-4194885.0,-2098022.0,-511.0,-2131.0,-4457368.0,-2227968.0,-6290988.0,0.0,-4193868.0,-2244093.0,-4455537.0,-1018.0,49.0,164.0,-105.0,0.0,200.0,774.0,530.0,59.0,-50.0,-170.0,45.0,0.0,514.0,756.0,541.0,-498.0,-0.013285,-0.044563,0.02867,0.0,0.007353,0.028347,-0.019395,0.00217,-0.013536,-0.046227,0.012185,0.0,0.018832,0.027696,-0.019809,-0.018224,4096.350098,11547.720703,51534.269531,0.0,-17694.0,-17716.589844,17979.75,-17452.619141,4096.439941,11564.730469,51567.121094,0.0,17745.210938,17721.541016,-17462.970703,17996.490234,0.0,0.0,0.0,0.0,0.0,0.0,0.0,0.0,0.0,0.0,0.0,0.0,0.0,0.0,0.0,0.0,0.0,0.0,0.0,0.0,0.0,0.0,0.0,0.0,0.0,0.0,0.0,0.0,0.0,0.0,0.0,0.0,4096.313477,11547.707031,51540.625,0.0,-17693.90625,-17714.785156,17979.757812,-17451.162109,4096.371582,11564.456055,51567.179688,0.0,17745.210938,17721.445312,-17462.826172,17997.089844,30.07655,90.650955,22.91024,0.0,4.332927,0.277729,29.051062,29.734406,30.076977,90.788727,22.921429,0.0,3.08298,-0.793031,29.950813,29.464911,1.023,1.035,4407514.0,2015290.0,-570923.0,0.0,-3998285.0,-1901171.0,-199264.0,191787.0,-4502884.0,-2356465.0,-6863956.0,0.0,-4391037.0,-2440999.0,4649570.0,-200979.0,0.0,0.0,0.0,0.0,0.0,0.0,0.0,0.0,0.0,0.0,0.0,0.0,0.0,0.0,0.0,0.0,0.0,0.0,0.0,0.0,0.0,0.0,0.0,0.0
27,1.8149151802062988,30.076817,90.651039,22.907295,0.0,4.315429,0.077098,29.150555,29.47188,30.077478,90.790909,22.921379,0.0,3.082844,-0.782626,29.929502,29.403469,3.0,1.0,111.0,0.0,1.0,-77937.0,-25519.0,13980.0,-77615.0,25651.0,14062.0,-0.937791,-0.236007,0.254653,-0.30511,0.210154,-0.92884,0.165696,-0.948755,-0.269088,-0.933309,0.200786,0.29769,0.319743,0.087457,0.94346,0.163398,0.975723,-0.145824,-0.937791,-0.236007,0.254653,-0.30511,0.210154,-0.92884,0.165696,-0.948755,-0.269088,-0.933309,0.200786,0.29769,0.319743,0.087457,0.94346,0.163398,0.975723,-0.145824,-77937.0,-25519.0,13980.0,-77615.0,25651.0,14062.0,-4453029.0,-2143598.0,-1680.0,0.0,-4194885.0,-2098022.0,-511.0,-2131.0,-4457368.0,-2227968.0,-6290988.0,0.0,-4193868.0,-2244093.0,-4455537.0,-1018.0,49.0,164.0,-105.0,0.0,201.0,777.0,530.0,61.0,-50.0,-170.0,45.0,0.0,514.0,756.0,541.0,-497.0,-0.013285,-0.044563,0.02867,0.0,0.007359,0.028457,-0.019395,0.002259,-0.013536,-0.046227,0.012185,0.0,0.018832,0.02769,-0.0198,-0.018187,4096.350098,11547.720703,51534.269531,0.0,-17694.0,-17716.589844,17979.75,-17452.619141,4096.439941,11564.730469,51567.121094,0.0,17745.210938,17721.541016,-17462.970703,17996.490234,0.0,0.0,0.0,0.0,0.0,0.0,0.0,0.0,0.0,0.0,0.0,0.0,0.0,0.0,0.0,0.0,0.0,0.0,0.0,0.0,0.0,0.0,0.0,0.0,0.0,0.0,0.0,0.0,0.0,0.0,0.0,0.0,4096.313477,11547.707031,51540.625,0.0,-17693.90625,-17714.785156,17979.757812,-17451.162109,4096.371582,11564.456055,51567.179688,0.0,17745.210938,17721.445312,-17462.826172,17997.089844,30.07655,90.650955,22.91024,0.0,4.332927,0.277729,29.051062,29.734406,30.076977,90.788727,22.921429,0.0,3.08298,-0.793031,29.950813,29.464911,1.023,1.035,4407514.0,2015290.0,-570923.0,0.0,-3998285.0,-1901171.0,-199264.0,191787.0,-4502884.0,-2356465.0,-6863956.0,0.0,-4391037.0,-2440999.0,4649570.0,-200979.0,0.0,0.0,0.0,0.0,0.0,0.0,0.0,0.0,0.0,0.0,0.0,0.0,0.0,0.0,0.0,0.0,0.0,0.0,0.0,0.0,0.0,0.0,0.0,0.0
28,1.8798911571502686,30.076817,90.651039,22.907295,0.0,4.315429,0.077098,29.150555,29.47188,30.077478,90.790909,22.921379,0.0,3.082844,-0.782626,29.929502,29.403469,3.0,1.0,111.0,0.0,1.0,-77937.0,-25519.0,13980.0,-77615.0,25651.0,14062.0,-0.937791,-0.236007,0.254653,-0.30511,0.210154,-0.92884,0.165696,-0.948755,-0.269088,-0.933309,0.200786,0.29769,0.319743,0.087457,0.94346,0.163398,0.975723,-0.145824,-0.937791,-0.236007,0.254653,-0.30511,0.210154,-0.92884,0.165696,-0.948755,-0.269088,-0.933309,0.200786,0.29769,0.319743,0.087457,0.94346,0.163398,0.975723,-0.145824,-77937.0,-25519.0,13980.0,-77615.0,25651.0,14062.0,-4453029.0,-2143598.0,-1680.0,0.0,-4194885.0,-2098022.0,-511.0,-2131.0,-4457368.0,-2227968.0,-6290988.0,0.0,-4193868.0,-2244093.0,-4455537.0,-1018.0,49.0,164.0,-105.0,0.0,201.0,780.0,530.0,63.0,-50.0,-170.0,45.0,0.0,514.0,756.0,540.0,-496.0,-0.013285,-0.044563,0.02867,0.0,0.007364,0.028559,-0.019394,0.002342,-0.013536,-0.046227,0.012185,0.0,0.018832,0.027685,-0.019792,-0.018153,4096.350098,11547.720703,51534.269531,0.0,-17694.0,-17716.589844,17979.75,-17452.619141,4096.439941,11564.730469,51567.121094,0.0,17745.210938,17721.541016,-17462.970703,17996.490234,0.0,0.0,0.0,0.0,0.0,0.0,0.0,0.0,0.0,0.0,0.0,0.0,0.0,0.0,0.0,0.0,0.0,0.0,0.0,0.0,0.0,0.0,0.0,0.0,0.0,0.0,0.0,0.0,0.0,0.0,0.0,0.0,4096.313477,11547.707031,51540.625,0.0,-17693.90625,-17714.785156,17979.757812,-17451.162109,4096.371582,11564.456055,51567.179688,0.0,17745.210938,17721.445312,-17462.826172,17997.089844,30.07655,90.650955,22.91024,0.0,4.332927,0.277729,29.051062,29.734406,30.076977,90.788727,22.921429,0.0,3.08298,-0.793031,29.950813,29.464911,1.023,1.035,4407514.0,2015290.0,-570923.0,0.0,-3998285.0,-1901171.0,-199264.0,191787.0,-4502884.0,-2356465.0,-6863956.0,0.0,-4391037.0,-2440999.0,4649570.0,-200979.0,0.0,0.0,0.0,0.0,0.0,0.0,0.0,0.0,0.0,0.0,0.0,0.0,0.0,0.0,0.0,0.0,0.0,0.0,0.0,0.0,0.0,0.0,0.0,0.0
29,1.9458990097045898,30.076817,90.651039,22.907295,0.0,4.332282,0.077098,29.150555,29.47188,30.077478,90.790909,22.921379,0.0,3.082844,-0.782626,29.929502,29.403469,3.0,1.0,111.0,0.0,1.0,-77937.0,-25519.0,13980.0,-77615.0,25651.0,14062.0,-0.937791,-0.236082,0.254583,-0.30511,0.210427,-0.928778,0.165697,-0.948676,-0.269367,-0.933309,0.200786,0.29769,0.319743,0.087457,0.94346,0.163398,0.975723,-0.145824,-0.937791,-0.236082,0.254583,-0.30511,0.210427,-0.928778,0.165697,-0.948676,-0.269367,-0.933309,0.200786,0.29769,0.319743,0.087457,0.94346,0.163398,0.975723,-0.145824,-77937.0,-25519.0,13980.0,-77615.0,25651.0,14062.0,-4453029.0,-2143598.0,-1680.0,0.0,-4194884.0,-2098022.0,-511.0,-2131.0,-4457368.0,-2227968.0,-6290988.0,0.0,-4193868.0,-2244093.0,-4455537.0,-1018.0,49.0,164.0,-105.0,0.0,197.0,783.0,530.0,66.0,-50.0,-170.0,45.0,0.0,514.0,756.0,540.0,-495.0,-0.013285,-0.044563,0.02867,0.0,0.007222,0.028663,-0.019394,0.002426,-0.013536,-0.046227,0.012185,0.0,0.018832,0.027679,-0.019783,-0.018118,4096.350098,11547.720703,51534.269531,0.0,-17693.910156,-17716.589844,17979.75,-17452.619141,4096.439941,11564.730469,51567.121094,0.0,17745.210938,17721.541016,-17462.970703,17996.490234,0.0,0.0,0.0,0.0,0.0,0.0,0.0,0.0,0.0,0.0,0.0,0.0,0.0,0.0,0.0,0.0,0.0,0.0,0.0,0.0,0.0,0.0,0.0,0.0,0.0,0.0,0.0,0.0,0.0,0.0,0.0,0.0,4096.313477,11547.707031,51540.625,0.0,-17693.90625,-17714.785156,17979.757812,-17451.162109,4096.371582,11564.456055,51567.179688,0.0,17745.210938,17721.445312,-17462.826172,17997.089844,30.07655,90.650955,22.91024,0.0,4.332927,0.277729,29.051062,29.734406,30.076977,90.788727,22.921429,0.0,3.08298,-0.793031,29.950813,29.464911,1.023,1.035,4407514.0,2015290.0,-570923.0,0.0,-3998285.0,-1901171.0,-199264.0,191787.0,-4502884.0,-2356465.0,-6863956.0,0.0,-4391037.0,-2440999.0,4649570.0,-200979.0,0.0,0.0,0.0,0.0,0.0,0.0,0.0,0.0,0.0,0.0,0.0,0.0,0.0,0.0,0.0,0.0,0.0,0.0,0.0,0.0,0.0,0.0,0.0,0.0
30,2.0118870735168457,30.076817,90.651039,22.907253,0.0,4.326711,0.073755,29.155567,29.476784,30.077478,90.790909,22.921379,0.0,3.082844,-0.782626,29.929502,29.403469,3.0,1.0,111.0,0.0,1.0,-77937.0,-25520.0,13980.0,-77615.0,25651.0,14062.0,-0.937776,-0.236058,0.254661,-0.305164,0.210336,-0.928781,0.165682,-0.948702,-0.269285,-0.933309,0.200786,0.29769,0.319743,0.087457,0.94346,0.163398,0.975723,-0.145824,-0.937776,-0.236058,0.254661,-0.305164,0.210336,-0.928781,0.165682,-0.948702,-0.269285,-0.933309,0.200786,0.29769,0.319743,0.087457,0.94346,0.163398,0.975723,-0.145824,-77937.0,-25520.0,13980.0,-77615.0,25651.0,14062.0,-4453029.0,-2143598.0,-1679.0,0.0,-4194884.0,-2098022.0,-511.0,-2130.0,-4457368.0,-2227968.0,-6290988.0,0.0,-4193868.0,-2244093.0,-4455537.0,-1018.0,49.0,164.0,-106.0,0.0,198.0,786.0,530.0,67.0,-50.0,-170.0,45.0,0.0,514.0,756.0,540.0,-494.0,-0.013285,-0.044563,0.028899,0.0,0.007269,0.028793,-0.019419,0.002457,-0.013536,-0.046227,0.012185,0.0,0.018832,0.027674,-0.019775,-0.018084,4096.350098,11547.720703,51534.183594,0.0,-17693.910156,-17716.589844,17979.75,-17452.53125,4096.439941,11564.730469,51567.121094,0.0,17745.210938,17721.541016,-17462.970703,17996.490234,0.0,0.0,0.0,0.0,0.0,0.0,0.0,0.0,0.0,0.0,0.0,0.0,0.0,0.0,0.0,0.0,0.0,0.0,0.0,0.0,0.0,0.0,0.0,0.0,0.0,0.0,0.0,0.0,0.0,0.0,0.0,0.0,4096.313477,11547.707031,51540.625,0.0,-17693.876953,-17714.755859,17979.728516,-17451.132812,4096.371582,11564.456055,51567.179688,0.0,17745.210938,17721.445312,-17462.826172,17997.089844,30.07655,90.650955,22.91024,0.0,4.332927,0.277729,29.051062,29.734406,30.076977,90.788727,22.921429,0.0,3.08298,-0.793031,29.950813,29.464911,1.023,1.035,4407514.0,2015290.0,-570923.0,0.0,-3998285.0,-1901171.0,-199264.0,191787.0,-4502884.0,-2356465.0,-6863956.0,0.0,-4391037.0,-2440999.0,4649570.0,-200979.0,0.0,0.0,0.0,0.0,0.0,0.0,0.0,0.0,0.0,0.0,0.0,0.0,0.0,0.0,0.0,0.0,0.0,0.0,0.0,0.0,0.0,0.0,0.0,0.0
31,2.0778989791870117,30.076817,90.651039,22.907253,0.0,4.326711,0.073755,29.155567,29.476784,30.077478,90.790909,22.921379,0.0,3.082844,-0.782626,29.929502,29.403469,3.0,1.0,111.0,0.0,1.0,-77937.0,-25520.0,13980.0,-77615.0,25651.0,14062.0,-0.937776,-0.236058,0.254661,-0.305164,0.210336,-0.928781,0.165682,-0.948702,-0.269285,-0.933309,0.200786,0.29769,0.319743,0.087457,0.94346,0.163398,0.975723,-0.145824,-0.937776,-0.236058,0.254661,-0.305164,0.210336,-0.928781,0.165682,-0.948702,-0.269285,-0.933309,0.200786,0.29769,0.319743,0.087457,0.94346,0.163398,0.975723,-0.145824,-77937.0,-25520.0,13980.0,-77615.0,25651.0,14062.0,-4453029.0,-2143598.0,-1679.0,0.0,-4194884.0,-2098022.0,-511.0,-2130.0,-4457368.0,-2227968.0,-6290988.0,0.0,-4193868.0,-2244093.0,-4455537.0,-1018.0,49.0,164.0,-106.0,0.0,198.0,789.0,530.0,69.0,-50.0,-170.0,45.0,0.0,514.0,756.0,540.0,-493.0,-0.013285,-0.044563,0.028899,0.0,0.007271,0.028898,-0.019421,0.002537,-0.013536,-0.046227,0.012185,0.0,0.018832,0.027668,-0.019767,-0.018049,4096.350098,11547.720703,51534.183594,0.0,-17693.910156,-17716.589844,17979.75,-17452.53125,4096.439941,11564.730469,51567.121094,0.0,17745.210938,17721.541016,-17462.970703,17996.490234,0.0,0.0,0.0,0.0,0.0,0.0,0.0,0.0,0.0,0.0,0.0,0.0,0.0,0.0,0.0,0.0,0.0,0.0,0.0,0.0,0.0,0.0,0.0,0.0,0.0,0.0,0.0,0.0,0.0,0.0,0.0,0.0,4096.313477,11547.707031,51540.625,0.0,-17693.876953,-17714.755859,17979.728516,-17451.132812,4096.371582,11564.456055,51567.179688,0.0,17745.210938,17721.445312,-17462.826172,17997.089844,30.07655,90.650955,22.91024,0.0,4.332927,0.277729,29.051062,29.734406,30.076977,90.788727,22.921429,0.0,3.08298,-0.793031,29.950813,29.464911,1.023,1.035,4407514.0,2015290.0,-570923.0,0.0,-3998285.0,-1901171.0,-199264.0,191787.0,-4502884.0,-2356465.0,-6863956.0,0.0,-4391037.0,-2440999.0,4649570.0,-200979.0,0.0,0.0,0.0,0.0,0.0,0.0,0.0,0.0,0.0,0.0,0.0,0.0,0.0,0.0,0.0,0.0,0.0,0.0,0.0,0.0,0.0,0.0,0.0,0.0
32,2.1458401679992676,30.076817,90.651039,22.907253,0.0,4.326711,0.083672,29.150608,29.481743,30.077478,90.790909,22.921379,0.0,3.082844,-0.782626,29.929502,29.403469,3.0,1.0,111.0,0.0,1.0,-77938.0,-25518.0,13981.0,-77615.0,25651.0,14062.0,-0.937841,-0.235977,0.254499,-0.304985,0.210362,-0.928833,0.165646,-0.948716,-0.269256,-0.933309,0.200786,0.29769,0.319743,0.087457,0.94346,0.163398,0.975723,-0.145824,-0.937841,-0.235977,0.254499,-0.304985,0.210362,-0.928833,0.165646,-0.948716,-0.269256,-0.933309,0.200786,0.29769,0.319743,0.087457,0.94346,0.163398,0.975723,-0.145824,-77938.0,-25518.0,13981.0,-77615.0,25651.0,14062.0,-4453029.0,-2143598.0,-1679.0,0.0,-4194884.0,-2098021.0,-511.0,-2130.0,-4457368.0,-2227968.0,-6290988.0,0.0,-4193868.0,-2244093.0,-4455537.0,-1018.0,49.0,164.0,-106.0,0.0,198.0,790.0,530.0,71.0,-50.0,-170.0,45.0,0.0,514.0,755.0,539.0,-492.0,-0.013285,-0.044563,0.028899,0.0,0.007273,0.028925,-0.019422,0.00262,-0.013536,-0.046227,0.012185,0.0,0.018832,0.027663,-0.019758,-0.018014,4096.350098,11547.720703,51534.183594,0.0,-17693.910156,-17716.5,17979.75,-17452.53125,4096.439941,11564.730469,51567.121094,0.0,17745.210938,17721.541016,-17462.970703,17996.490234,0.0,0.0,0.0,0.0,0.0,0.0,0.0,0.0,0.0,0.0,0.0,0.0,0.0,0.0,0.0,0.0,0.0,0.0,0.0,0.0,0.0,0.0,0.0,0.0,0.0,0.0,0.0,0.0,0.0,0.0,0.0,0.0,4096.313477,11547.707031,51540.625,0.0,-17693.876953,-17714.755859,17979.728516,-17451.132812,4096.371582,11564.456055,51567.179688,0.0,17745.210938,17721.445312,-17462.826172,17997.089844,30.07655,90.650955,22.91024,0.0,4.332927,0.277729,29.051062,29.734406,30.076977,90.788727,22.921429,0.0,3.08298,-0.793031,29.950813,29.464911,1.023,1.035,4407514.0,2015290.0,-570923.0,0.0,-3998285.0,-1901171.0,-199264.0,191787.0,-4502884.0,-2356465.0,-6863956.0,0.0,-4391037.0,-2440999.0,4649570.0,-200979.0,0.0,0.0,0.0,0.0,0.0,0.0,0.0,0.0,0.0,0.0,0.0,0.0,0.0,0.0,0.0,0.0,0.0,0.0,0.0,0.0,0.0,0.0,0.0,0.0
33,2.2138991355895996,30.076817,90.651039,22.907253,0.0,4.326711,0.083672,29.150608,29.481743,30.077478,90.790909,22.921379,0.0,3.082844,-0.782626,29.929502,29.403469,3.0,1.0,111.0,0.0,1.0,-77938.0,-25518.0,13981.0,-77615.0,25651.0,14062.0,-0.937841,-0.235977,0.254499,-0.304985,0.210362,-0.928833,0.165646,-0.948716,-0.269256,-0.933309,0.200786,0.29769,0.319743,0.087457,0.94346,0.163398,0.975723,-0.145824,-0.937841,-0.235977,0.254499,-0.304985,0.210362,-0.928833,0.165646,-0.948716,-0.269256,-0.933309,0.200786,0.29769,0.319743,0.087457,0.94346,0.163398,0.975723,-0.145824,-77938.0,-25518.0,13981.0,-77615.0,25651.0,14062.0,-4453029.0,-2143598.0,-1679.0,0.0,-4194884.0,-2098021.0,-511.0,-2130.0,-4457368.0,-2227968.0,-6290988.0,0.0,-4193868.0,-2244093.0,-4455537.0,-1018.0,49.0,164.0,-106.0,0.0,198.0,793.0,530.0,73.0,-50.0,-170.0,45.0,0.0,514.0,755.0,539.0,-491.0,-0.013285,-0.044563,0.028899,0.0,0.007275,0.029028,-0.019423,0.002703,-0.013536,-0.046227,0.012185,0.0,0.018832,0.027657,-0.019749,-0.017978,4096.350098,11547.720703,51534.183594,0.0,-17693.910156,-17716.5,17979.75,-17452.53125,4096.439941,11564.730469,51567.121094,0.0,17745.210938,17721.541016,-17462.970703,17996.490234,0.0,0.0,0.0,0.0,0.0,0.0,0.0,0.0,0.0,0.0,0.0,0.0,0.0,0.0,0.0,0.0,0.0,0.0,0.0,0.0,0.0,0.0,0.0,0.0,0.0,0.0,0.0,0.0,0.0,0.0,0.0,0.0,4096.313477,11547.707031,51540.625,0.0,-17693.876953,-17714.755859,17979.728516,-17451.132812,4096.371582,11564.456055,51567.179688,0.0,17745.210938,17721.445312,-17462.826172,17997.089844,30.07655,90.650955,22.91024,0.0,4.332927,0.277729,29.051062,29.734406,30.076977,90.788727,22.921429,0.0,3.08298,-0.793031,29.950813,29.464911,1.023,1.035,4407514.0,2015290.0,-570923.0,0.0,-3998285.0,-1901171.0,-199264.0,191787.0,-4502884.0,-2356465.0,-6863956.0,0.0,-4391037.0,-2440999.0,4649570.0,-200979.0,0.0,0.0,0.0,0.0,0.0,0.0,0.0,0.0,0.0,0.0,0.0,0.0,0.0,0.0,0.0,0.0,0.0,0.0,0.0,0.0,0.0,0.0,0.0,0.0
34,2.277930974960327,30.076817,90.651039,22.907253,0.0,4.326711,0.083672,29.150608,29.491852,30.077478,90.790909,22.921379,0.0,3.082844,-0.782626,29.929502,29.403469,3.0,1.0,111.0,0.0,1.0,-77938.0,-25518.0,13981.0,-77615.0,25651.0,14062.0,-0.937862,-0.235894,0.254499,-0.304967,0.210389,-0.928833,0.165562,-0.948731,-0.269256,-0.933309,0.200786,0.29769,0.319743,0.087457,0.94346,0.163398,0.975723,-0.145824,-0.937862,-0.235894,0.254499,-0.304967,0.210389,-0.928833,0.165562,-0.948731,-0.269256,-0.933309,0.200786,0.29769,0.319743,0.087457,0.94346,0.163398,0.975723,-0.145824,-77938.0,-25518.0,13981.0,-77615.0,25651.0,14062.0,-4453029.0,-2143598.0,-1679.0,0.0,-4194884.0,-2098021.0,-511.0,-2129.0,-4457368.0,-2227968.0,-6290988.0,0.0,-4193868.0,-2244093.0,-4455537.0,-1018.0,49.0,164.0,-106.0,0.0,198.0,795.0,530.0,73.0,-50.0,-170.0,45.0,0.0,514.0,755.0,539.0,-490.0,-0.013285,-0.044563,0.028899,0.0,0.007276,0.029126,-0.019425,0.002701,-0.013536,-0.046227,0.012185,0.0,0.018832,0.027652,-0.019741,-0.017945,4096.350098,11547.720703,51534.183594,0.0,-17693.910156,-17716.5,17979.75,-17452.439453,4096.439941,11564.730469,51567.121094,0.0,17745.210938,17721.541016,-17462.970703,17996.490234,0.0,0.0,0.0,0.0,0.0,0.0,0.0,0.0,0.0,0.0,0.0,0.0,0.0,0.0,0.0,0.0,0.0,0.0,0.0,0.0,0.0,0.0,0.0,0.0,0.0,0.0,0.0,0.0,0.0,0.0,0.0,0.0,4096.313477,11547.707031,51540.625,0.0,-17693.876953,-17714.755859,17979.728516,-17451.132812,4096.371582,11564.456055,51567.179688,0.0,17745.210938,17721.445312,-17462.826172,17997.089844,30.07655,90.650955,22.91024,0.0,4.332927,0.277729,29.051062,29.734406,30.076977,90.788727,22.921429,0.0,3.08298,-0.793031,29.950813,29.464911,1.023,1.035,4407514.0,2015290.0,-570923.0,0.0,-3998285.0,-1901171.0,-199264.0,191787.0,-4502884.0,-2356465.0,-6863956.0,0.0,-4391037.0,-2440999.0,4649570.0,-200979.0,0.0,0.0,0.0,0.0,0.0,0.0,0.0,0.0,0.0,0.0,0.0,0.0,0.0,0.0,0.0,0.0,0.0,0.0,0.0,0.0,0.0,0.0,0.0,0.0
35,2.3468871116638184,30.076817,90.651039,22.907253,0.0,4.326711,0.083672,29.150608,29.491852,30.077478,90.790909,22.921379,0.0,3.082844,-0.782626,29.929502,29.403469,3.0,1.0,111.0,0.0,1.0,-77938.0,-25518.0,13981.0,-77615.0,25651.0,14062.0,-0.937862,-0.235894,0.254499,-0.304967,0.210389,-0.928833,0.165562,-0.948731,-0.269256,-0.933309,0.200786,0.29769,0.319743,0.087457,0.94346,0.163398,0.975723,-0.145824,-0.937862,-0.235894,0.254499,-0.304967,0.210389,-0.928833,0.165562,-0.948731,-0.269256,-0.933309,0.200786,0.29769,0.319743,0.087457,0.94346,0.163398,0.975723,-0.145824,-77938.0,-25518.0,13981.0,-77615.0,25651.0,14062.0,-4453029.0,-2143598.0,-1679.0,0.0,-4194884.0,-2098021.0,-511.0,-2129.0,-4457368.0,-2227968.0,-6290988.0,0.0,-4193868.0,-2244093.0,-4455537.0,-1018.0,49.0,164.0,-106.0,0.0,198.0,798.0,530.0,75.0,-50.0,-170.0,45.0,0.0,514.0,755.0,539.0,-489.0,-0.013285,-0.044563,0.028899,0.0,0.007278,0.029231,-0.019426,0.002779,-0.013536,-0.046227,0.012185,0.0,0.018832,0.027646,-0.019732,-0.017909,4096.350098,11547.720703,51534.183594,0.0,-17693.910156,-17716.5,17979.75,-17452.439453,4096.439941,11564.730469,51567.121094,0.0,17745.210938,17721.541016,-17462.970703,17996.490234,0.0,0.0,0.0,0.0,0.0,0.0,0.0,0.0,0.0,0.0,0.0,0.0,0.0,0.0,0.0,0.0,0.0,0.0,0.0,0.0,0.0,0.0,0.0,0.0,0.0,0.0,0.0,0.0,0.0,0.0,0.0,0.0,4096.313477,11547.707031,51540.625,0.0,-17693.876953,-17714.755859,17979.728516,-17451.132812,4096.371582,11564.456055,51567.179688,0.0,17745.210938,17721.445312,-17462.826172,17997.089844,30.07655,90.650955,22.91024,0.0,4.332927,0.277729,29.051062,29.734406,30.076977,90.788727,22.921429,0.0,3.08298,-0.793031,29.950813,29.464911,1.023,1.035,4407514.0,2015290.0,-570923.0,0.0,-3998285.0,-1901171.0,-199264.0,191787.0,-4502884.0,-2356465.0,-6863956.0,0.0,-4391037.0,-2440999.0,4649570.0,-200979.0,0.0,0.0,0.0,0.0,0.0,0.0,0.0,0.0,0.0,0.0,0.0,0.0,0.0,0.0,0.0,0.0,0.0,0.0,0.0,0.0,0.0,0.0,0.0,0.0
36,2.4118809700012207,30.076817,90.651039,22.907253,0.0,4.326711,0.083672,29.150608,29.491852,30.077478,90.790909,22.921379,0.0,3.082844,-0.782626,29.929502,29.403469,3.0,1.0,111.0,0.0,1.0,-77938.0,-25518.0,13981.0,-77615.0,25651.0,14062.0,-0.937862,-0.235894,0.254499,-0.304967,0.210389,-0.928833,0.165562,-0.948731,-0.269256,-0.933309,0.200786,0.29769,0.319743,0.087457,0.94346,0.163398,0.975723,-0.145824,-0.937862,-0.235894,0.254499,-0.304967,0.210389,-0.928833,0.165562,-0.948731,-0.269256,-0.933309,0.200786,0.29769,0.319743,0.087457,0.94346,0.163398,0.975723,-0.145824,-77938.0,-25518.0,13981.0,-77615.0,25651.0,14062.0,-4453029.0,-2143598.0,-1679.0,0.0,-4194884.0,-2098021.0,-511.0,-2129.0,-4457368.0,-2227968.0,-6290988.0,0.0,-4193868.0,-2244093.0,-4455537.0,-1018.0,49.0,164.0,-106.0,0.0,198.0,801.0,530.0,77.0,-50.0,-170.0,45.0,0.0,514.0,755.0,539.0,-488.0,-0.013285,-0.044563,0.028899,0.0,0.00728,0.02933,-0.019427,0.002854,-0.013536,-0.046227,0.012185,0.0,0.018832,0.02764,-0.019724,-0.017875,4096.350098,11547.720703,51534.183594,0.0,-17693.910156,-17716.5,17979.75,-17452.439453,4096.439941,11564.730469,51567.121094,0.0,17745.210938,17721.541016,-17462.970703,17996.490234,0.0,0.0,0.0,0.0,0.0,0.0,0.0,0.0,0.0,0.0,0.0,0.0,0.0,0.0,0.0,0.0,0.0,0.0,0.0,0.0,0.0,0.0,0.0,0.0,0.0,0.0,0.0,0.0,0.0,0.0,0.0,0.0,4096.313477,11547.707031,51540.625,0.0,-17693.876953,-17714.755859,17979.728516,-17451.132812,4096.371582,11564.456055,51567.179688,0.0,17745.210938,17721.445312,-17462.826172,17997.089844,30.07655,90.650955,22.91024,0.0,4.332927,0.277729,29.051062,29.734406,30.076977,90.788727,22.921429,0.0,3.08298,-0.793031,29.950813,29.464911,1.023,1.035,4407514.0,2015290.0,-570923.0,0.0,-3998285.0,-1901171.0,-199264.0,191787.0,-4502884.0,-2356465.0,-6863956.0,0.0,-4391037.0,-2440999.0,4649570.0,-200979.0,0.0,0.0,0.0,0.0,0.0,0.0,0.0,0.0,0.0,0.0,0.0,0.0,0.0,0.0,0.0,0.0,0.0,0.0,0.0,0.0,0.0,0.0,0.0,0.0
37,2.4819250106811523,30.076817,90.651039,22.907253,0.0,4.326711,0.083672,29.150608,29.491852,30.077478,90.790909,22.921379,0.0,3.082844,-0.782626,29.929502,29.403469,3.0,1.0,111.0,0.0,1.0,-77938.0,-25518.0,13981.0,-77615.0,25651.0,14062.0,-0.937862,-0.235894,0.254499,-0.304967,0.210389,-0.928833,0.165562,-0.948731,-0.269256,-0.933309,0.200786,0.29769,0.319743,0.087457,0.94346,0.163398,0.975723,-0.145824,-0.937862,-0.235894,0.254499,-0.304967,0.210389,-0.928833,0.165562,-0.948731,-0.269256,-0.933309,0.200786,0.29769,0.319743,0.087457,0.94346,0.163398,0.975723,-0.145824,-77938.0,-25518.0,13981.0,-77615.0,25651.0,14062.0,-4453029.0,-2143598.0,-1679.0,0.0,-4194884.0,-2098021.0,-511.0,-2129.0,-4457368.0,-2227968.0,-6290988.0,0.0,-4193868.0,-2244093.0,-4455537.0,-1018.0,49.0,164.0,-106.0,0.0,199.0,804.0,530.0,80.0,-50.0,-170.0,45.0,0.0,514.0,755.0,538.0,-487.0,-0.013285,-0.044563,0.028899,0.0,0.007282,0.029437,-0.019429,0.002933,-0.013536,-0.046227,0.012185,0.0,0.018832,0.027635,-0.019715,-0.017838,4096.350098,11547.720703,51534.183594,0.0,-17693.910156,-17716.5,17979.75,-17452.439453,4096.439941,11564.730469,51567.121094,0.0,17745.210938,17721.541016,-17462.970703,17996.490234,0.0,0.0,0.0,0.0,0.0,0.0,0.0,0.0,0.0,0.0,0.0,0.0,0.0,0.0,0.0,0.0,0.0,0.0,0.0,0.0,0.0,0.0,0.0,0.0,0.0,0.0,0.0,0.0,0.0,0.0,0.0,0.0,4096.313477,11547.707031,51540.625,0.0,-17693.876953,-17714.755859,17979.728516,-17451.132812,4096.371582,11564.456055,51567.179688,0.0,17745.210938,17721.445312,-17462.826172,17997.089844,30.07655,90.650955,22.91024,0.0,4.332927,0.277729,29.051062,29.734406,30.076977,90.788727,22.921429,0.0,3.08298,-0.793031,29.950813,29.464911,1.023,1.035,4407514.0,2015290.0,-570923.0,0.0,-3998285.0,-1901171.0,-199264.0,191787.0,-4502884.0,-2356465.0,-6863956.0,0.0,-4391037.0,-2440999.0,4649570.0,-200979.0,0.0,0.0,0.0,0.0,0.0,0.0,0.0,0.0,0.0,0.0,0.0,0.0,0.0,0.0,0.0,0.0,0.0,0.0,0.0,0.0,0.0,0.0,0.0,0.0
38,2.5508790016174316,30.076817,90.651039,22.907253,0.0,4.326711,0.083672,29.150608,29.50177,30.077478,90.790909,22.921379,0.0,3.082844,-0.782626,29.929502,29.403469,3.0,1.0,111.0,0.0,1.0,-77938.0,-25518.0,13981.0,-77615.0,25651.0,14062.0,-0.937882,-0.235813,0.254499,-0.304949,0.210416,-0.928833,0.16548,-0.948745,-0.269256,-0.933309,0.200786,0.29769,0.319743,0.087457,0.94346,0.163398,0.975723,-0.145824,-0.937882,-0.235813,0.254499,-0.304949,0.210416,-0.928833,0.16548,-0.948745,-0.269256,-0.933309,0.200786,0.29769,0.319743,0.087457,0.94346,0.163398,0.975723,-0.145824,-77938.0,-25518.0,13981.0,-77615.0,25651.0,14062.0,-4453029.0,-2143598.0,-1679.0,0.0,-4194884.0,-2098021.0,-511.0,-2128.0,-4457368.0,-2227968.0,-6290988.0,0.0,-4193868.0,-2244093.0,-4455537.0,-1018.0,49.0,164.0,-106.0,0.0,199.0,807.0,530.0,80.0,-50.0,-170.0,45.0,0.0,514.0,755.0,538.0,-486.0,-0.013285,-0.044563,0.028899,0.0,0.007284,0.029542,-0.01943,0.002931,-0.013536,-0.046227,0.012185,0.0,0.018832,0.027629,-0.019707,-0.017802,4096.350098,11547.720703,51534.183594,0.0,-17693.910156,-17716.5,17979.75,-17452.351562,4096.439941,11564.730469,51567.121094,0.0,17745.210938,17721.541016,-17462.970703,17996.490234,0.0,0.0,0.0,0.0,0.0,0.0,0.0,0.0,0.0,0.0,0.0,0.0,0.0,0.0,0.0,0.0,0.0,0.0,0.0,0.0,0.0,0.0,0.0,0.0,0.0,0.0,0.0,0.0,0.0,0.0,0.0,0.0,4096.313477,11547.707031,51540.625,0.0,-17693.876953,-17714.755859,17979.728516,-17451.132812,4096.371582,11564.456055,51567.179688,0.0,17745.210938,17721.445312,-17462.826172,17997.089844,30.07655,90.650955,22.91024,0.0,4.332927,0.277729,29.051062,29.734406,30.076977,90.788727,22.921429,0.0,3.08298,-0.793031,29.950813,29.464911,1.023,1.035,4407514.0,2015290.0,-570923.0,0.0,-3998285.0,-1901171.0,-199264.0,191787.0,-4502884.0,-2356465.0,-6863956.0,0.0,-4391037.0,-2440999.0,4649570.0,-200979.0,0.0,0.0,0.0,0.0,0.0,0.0,0.0,0.0,0.0,0.0,0.0,0.0,0.0,0.0,0.0,0.0,0.0,0.0,0.0,0.0,0.0,0.0,0.0,0.0
39,2.6158840656280518,30.076817,90.651039,22.907253,0.0,4.326711,0.083672,29.150608,29.50177,30.077478,90.790909,22.921379,0.0,3.082844,-0.782626,29.929502,29.403469,3.0,1.0,111.0,0.0,1.0,-77938.0,-25518.0,13981.0,-77615.0,25651.0,14062.0,-0.937882,-0.235813,0.254499,-0.304949,0.210416,-0.928833,0.16548,-0.948745,-0.269256,-0.933309,0.200786,0.29769,0.319743,0.087457,0.94346,0.163398,0.975723,-0.145824,-0.937882,-0.235813,0.254499,-0.304949,0.210416,-0.928833,0.16548,-0.948745,-0.269256,-0.933309,0.200786,0.29769,0.319743,0.087457,0.94346,0.163398,0.975723,-0.145824,-77938.0,-25518.0,13981.0,-77615.0,25651.0,14062.0,-4453029.0,-2143598.0,-1679.0,0.0,-4194884.0,-2098021.0,-511.0,-2128.0,-4457368.0,-2227968.0,-6290988.0,0.0,-4193868.0,-2244093.0,-4455537.0,-1018.0,49.0,164.0,-106.0,0.0,199.0,810.0,531.0,81.0,-50.0,-170.0,45.0,0.0,514.0,754.0,538.0,-485.0,-0.013285,-0.044563,0.028899,0.0,0.007286,0.029641,-0.019431,0.003,-0.013536,-0.046227,0.012185,0.0,0.018832,0.027623,-0.019698,-0.017768,4096.350098,11547.720703,51534.183594,0.0,-17693.910156,-17716.5,17979.75,-17452.351562,4096.439941,11564.730469,51567.121094,0.0,17745.210938,17721.541016,-17462.970703,17996.490234,0.0,0.0,0.0,0.0,0.0,0.0,0.0,0.0,0.0,0.0,0.0,0.0,0.0,0.0,0.0,0.0,0.0,0.0,0.0,0.0,0.0,0.0,0.0,0.0,0.0,0.0,0.0,0.0,0.0,0.0,0.0,0.0,4096.313477,11547.707031,51540.625,0.0,-17693.876953,-17714.755859,17979.728516,-17451.132812,4096.371582,11564.456055,51567.179688,0.0,17745.210938,17721.445312,-17462.826172,17997.089844,30.07655,90.650955,22.91024,0.0,4.332927,0.277729,29.051062,29.734406,30.076977,90.788727,22.921429,0.0,3.08298,-0.793031,29.950813,29.464911,1.023,1.035,4407514.0,2015290.0,-570923.0,0.0,-3998285.0,-1901171.0,-199264.0,191787.0,-4502884.0,-2356465.0,-6863956.0,0.0,-4391037.0,-2440999.0,4649570.0,-200979.0,0.0,0.0,0.0,0.0,0.0,0.0,0.0,0.0,0.0,0.0,0.0,0.0,0.0,0.0,0.0,0.0,0.0,0.0,0.0,0.0,0.0,0.0,0.0,0.0
40,2.6828811168670654,30.076817,90.651039,22.907213,0.0,4.320916,0.080196,29.155823,29.496557,30.077478,90.790909,22.921379,0.0,3.082844,-0.782626,29.929502,29.403469,3.0,1.0,111.0,0.0,1.0,-77939.0,-25519.0,13980.0,-77615.0,25651.0,14062.0,-0.937845,-0.235872,0.25458,-0.305024,0.210294,-0.928836,0.16555,-0.948757,-0.26917,-0.933309,0.200786,0.29769,0.319743,0.087457,0.94346,0.163398,0.975723,-0.145824,-0.937845,-0.235872,0.25458,-0.305024,0.210294,-0.928836,0.16555,-0.948757,-0.26917,-0.933309,0.200786,0.29769,0.319743,0.087457,0.94346,0.163398,0.975723,-0.145824,-77939.0,-25519.0,13980.0,-77615.0,25651.0,14062.0,-4453029.0,-2143598.0,-1678.0,0.0,-4194884.0,-2098021.0,-511.0,-2128.0,-4457368.0,-2227968.0,-6290988.0,0.0,-4193868.0,-2244093.0,-4455537.0,-1018.0,49.0,164.0,-107.0,0.0,200.0,813.0,531.0,84.0,-50.0,-170.0,45.0,0.0,514.0,754.0,538.0,-484.0,-0.013285,-0.044563,0.029137,0.0,0.007338,0.029771,-0.019461,0.003099,-0.013536,-0.046227,0.012185,0.0,0.018832,0.027618,-0.01969,-0.017733,4096.350098,11547.720703,51534.089844,0.0,-17693.910156,-17716.5,17979.75,-17452.351562,4096.439941,11564.730469,51567.121094,0.0,17745.210938,17721.541016,-17462.970703,17996.490234,0.0,0.0,0.0,0.0,0.0,0.0,0.0,0.0,0.0,0.0,0.0,0.0,0.0,0.0,0.0,0.0,0.0,0.0,0.0,0.0,0.0,0.0,0.0,0.0,0.0,0.0,0.0,0.0,0.0,0.0,0.0,0.0,4096.313477,11547.707031,51540.625,0.0,-17693.845703,-17714.724609,17979.697266,-17451.099609,4096.371582,11564.456055,51567.179688,0.0,17745.210938,17721.445312,-17462.826172,17997.089844,30.07655,90.650955,22.91024,0.0,4.332927,0.277729,29.051062,29.734406,30.076977,90.788727,22.921429,0.0,3.08298,-0.793031,29.950813,29.464911,1.023,1.035,4407514.0,2015290.0,-570923.0,0.0,-3998285.0,-1901171.0,-199264.0,191787.0,-4502884.0,-2356465.0,-6863956.0,0.0,-4391037.0,-2440999.0,4649570.0,-200979.0,0.0,0.0,0.0,0.0,0.0,0.0,0.0,0.0,0.0,0.0,0.0,0.0,0.0,0.0,0.0,0.0,0.0,0.0,0.0,0.0,0.0,0.0,0.0,0.0
41,2.746886968612671,30.076817,90.651039,22.907213,0.0,4.320916,0.090308,29.15077,29.511724,30.077478,90.790909,22.921379,0.0,3.082844,-0.782626,29.929502,29.403469,3.0,1.0,111.0,0.0,1.0,-77939.0,-25517.0,13981.0,-77615.0,25651.0,14062.0,-0.937932,-0.235707,0.254414,-0.304823,0.210347,-0.92889,0.16543,-0.948787,-0.26914,-0.933309,0.200786,0.29769,0.319743,0.087457,0.94346,0.163398,0.975723,-0.145824,-0.937932,-0.235707,0.254414,-0.304823,0.210347,-0.92889,0.16543,-0.948787,-0.26914,-0.933309,0.200786,0.29769,0.319743,0.087457,0.94346,0.163398,0.975723,-0.145824,-77939.0,-25517.0,13981.0,-77615.0,25651.0,14062.0,-4453029.0,-2143598.0,-1678.0,0.0,-4194884.0,-2098020.0,-511.0,-2127.0,-4457368.0,-2227968.0,-6290988.0,0.0,-4193868.0,-2244093.0,-4455537.0,-1018.0,49.0,164.0,-107.0,0.0,200.0,814.0,531.0,84.0,-50.0,-170.0,45.0,0.0,514.0,754.0,537.0,-483.0,-0.013285,-0.044563,0.029137,0.0,0.007342,0.029787,-0.019464,0.003088,-0.013536,-0.046227,0.012185,0.0,0.018832,0.027612,-0.019682,-0.017699,4096.350098,11547.720703,51534.089844,0.0,-17693.910156,-17716.410156,17979.75,-17452.259766,4096.439941,11564.730469,51567.121094,0.0,17745.210938,17721.541016,-17462.970703,17996.490234,0.0,0.0,0.0,0.0,0.0,0.0,0.0,0.0,0.0,0.0,0.0,0.0,0.0,0.0,0.0,0.0,0.0,0.0,0.0,0.0,0.0,0.0,0.0,0.0,0.0,0.0,0.0,0.0,0.0,0.0,0.0,0.0,4096.313477,11547.707031,51540.625,0.0,-17693.845703,-17714.724609,17979.697266,-17451.099609,4096.371582,11564.456055,51567.179688,0.0,17745.210938,17721.445312,-17462.826172,17997.089844,30.07655,90.650955,22.91024,0.0,4.332927,0.277729,29.051062,29.734406,30.076977,90.788727,22.921429,0.0,3.08298,-0.793031,29.950813,29.464911,1.023,1.035,4407514.0,2015290.0,-570923.0,0.0,-3998285.0,-1901171.0,-199264.0,191787.0,-4502884.0,-2356465.0,-6863956.0,0.0,-4391037.0,-2440999.0,4649570.0,-200979.0,0.0,0.0,0.0,0.0,0.0,0.0,0.0,0.0,0.0,0.0,0.0,0.0,0.0,0.0,0.0,0.0,0.0,0.0,0.0,0.0,0.0,0.0,0.0,0.0
42,2.8159170150756836,30.076817,90.651039,22.907213,0.0,4.320916,0.090308,29.15077,29.511724,30.077478,90.790909,22.921379,0.0,3.082844,-0.782626,29.929502,29.403469,3.0,1.0,111.0,0.0,1.0,-77939.0,-25517.0,13981.0,-77615.0,25651.0,14062.0,-0.937932,-0.235707,0.254414,-0.304823,0.210347,-0.92889,0.16543,-0.948787,-0.26914,-0.933309,0.200786,0.29769,0.319743,0.087457,0.94346,0.163398,0.975723,-0.145824,-0.937932,-0.235707,0.254414,-0.304823,0.210347,-0.92889,0.16543,-0.948787,-0.26914,-0.933309,0.200786,0.29769,0.319743,0.087457,0.94346,0.163398,0.975723,-0.145824,-77939.0,-25517.0,13981.0,-77615.0,25651.0,14062.0,-4453029.0,-2143598.0,-1678.0,0.0,-4194884.0,-2098020.0,-511.0,-2127.0,-4457368.0,-2227968.0,-6290988.0,0.0,-4193868.0,-2244093.0,-4455537.0,-1018.0,49.0,164.0,-107.0,0.0,200.0,816.0,531.0,86.0,-50.0,-170.0,45.0,0.0,514.0,754.0,537.0,-482.0,-0.013285,-0.044563,0.029137,0.0,0.007346,0.029888,-0.019467,0.003158,-0.013536,-0.046227,0.012185,0.0,0.018832,0.027607,-0.019673,-0.017663,4096.350098,11547.720703,51534.089844,0.0,-17693.910156,-17716.410156,17979.75,-17452.259766,4096.439941,11564.730469,51567.121094,0.0,17745.210938,17721.541016,-17462.970703,17996.490234,0.0,0.0,0.0,0.0,0.0,0.0,0.0,0.0,0.0,0.0,0.0,0.0,0.0,0.0,0.0,0.0,0.0,0.0,0.0,0.0,0.0,0.0,0.0,0.0,0.0,0.0,0.0,0.0,0.0,0.0,0.0,0.0,4096.313477,11547.707031,51540.625,0.0,-17693.845703,-17714.724609,17979.697266,-17451.099609,4096.371582,11564.456055,51567.179688,0.0,17745.210938,17721.445312,-17462.826172,17997.089844,30.07655,90.650955,22.91024,0.0,4.332927,0.277729,29.051062,29.734406,30.076977,90.788727,22.921429,0.0,3.08298,-0.793031,29.950813,29.464911,1.023,1.035,4407514.0,2015290.0,-570923.0,0.0,-3998285.0,-1901171.0,-199264.0,191787.0,-4502884.0,-2356465.0,-6863956.0,0.0,-4391037.0,-2440999.0,4649570.0,-200979.0,0.0,0.0,0.0,0.0,0.0,0.0,0.0,0.0,0.0,0.0,0.0,0.0,0.0,0.0,0.0,0.0,0.0,0.0,0.0,0.0,0.0,0.0,0.0,0.0
43,2.8818931579589844,30.076817,90.651039,22.907213,0.0,4.320916,0.090308,29.15077,29.511724,30.077478,90.790909,22.921379,0.0,3.082844,-0.782626,29.929502,29.403469,3.0,1.0,111.0,0.0,1.0,-77939.0,-25517.0,13981.0,-77615.0,25651.0,14062.0,-0.937932,-0.235707,0.254414,-0.304823,0.210347,-0.92889,0.16543,-0.948787,-0.26914,-0.933309,0.200786,0.29769,0.319743,0.087457,0.94346,0.163398,0.975723,-0.145824,-0.937932,-0.235707,0.254414,-0.304823,0.210347,-0.92889,0.16543,-0.948787,-0.26914,-0.933309,0.200786,0.29769,0.319743,0.087457,0.94346,0.163398,0.975723,-0.145824,-77939.0,-25517.0,13981.0,-77615.0,25651.0,14062.0,-4453029.0,-2143598.0,-1678.0,0.0,-4194884.0,-2098020.0,-511.0,-2127.0,-4457368.0,-2227968.0,-6290988.0,0.0,-4193868.0,-2244093.0,-4455537.0,-1018.0,49.0,164.0,-107.0,0.0,200.0,819.0,532.0,88.0,-50.0,-170.0,45.0,0.0,514.0,754.0,537.0,-481.0,-0.013285,-0.044563,0.029137,0.0,0.00735,0.029985,-0.01947,0.003225,-0.013536,-0.046227,0.012185,0.0,0.018832,0.027601,-0.019665,-0.017629,4096.350098,11547.720703,51534.089844,0.0,-17693.910156,-17716.410156,17979.75,-17452.259766,4096.439941,11564.730469,51567.121094,0.0,17745.210938,17721.541016,-17462.970703,17996.490234,0.0,0.0,0.0,0.0,0.0,0.0,0.0,0.0,0.0,0.0,0.0,0.0,0.0,0.0,0.0,0.0,0.0,0.0,0.0,0.0,0.0,0.0,0.0,0.0,0.0,0.0,0.0,0.0,0.0,0.0,0.0,0.0,4096.313477,11547.707031,51540.625,0.0,-17693.845703,-17714.724609,17979.697266,-17451.099609,4096.371582,11564.456055,51567.179688,0.0,17745.210938,17721.445312,-17462.826172,17997.089844,30.07655,90.650955,22.91024,0.0,4.332927,0.277729,29.051062,29.734406,30.076977,90.788727,22.921429,0.0,3.08298,-0.793031,29.950813,29.464911,1.023,1.035,4407514.0,2015290.0,-570923.0,0.0,-3998285.0,-1901171.0,-199264.0,191787.0,-4502884.0,-2356465.0,-6863956.0,0.0,-4391037.0,-2440999.0,4649570.0,-200979.0,0.0,0.0,0.0,0.0,0.0,0.0,0.0,0.0,0.0,0.0,0.0,0.0,0.0,0.0,0.0,0.0,0.0,0.0,0.0,0.0,0.0,0.0,0.0,0.0
44,2.947854995727539,30.076817,90.651039,22.907213,0.0,4.320916,0.090308,29.15077,29.511724,30.077478,90.790909,22.921379,0.0,3.082844,-0.782626,29.929502,29.403469,3.0,1.0,111.0,0.0,1.0,-77939.0,-25517.0,13981.0,-77615.0,25651.0,14062.0,-0.937932,-0.235707,0.254414,-0.304823,0.210347,-0.92889,0.16543,-0.948787,-0.26914,-0.933309,0.200786,0.29769,0.319743,0.087457,0.94346,0.163398,0.975723,-0.145824,-0.937932,-0.235707,0.254414,-0.304823,0.210347,-0.92889,0.16543,-0.948787,-0.26914,-0.933309,0.200786,0.29769,0.319743,0.087457,0.94346,0.163398,0.975723,-0.145824,-77939.0,-25517.0,13981.0,-77615.0,25651.0,14062.0,-4453029.0,-2143598.0,-1678.0,0.0,-4194884.0,-2098020.0,-511.0,-2127.0,-4457368.0,-2227968.0,-6290988.0,0.0,-4193868.0,-2244093.0,-4455537.0,-1018.0,49.0,164.0,-107.0,0.0,200.0,822.0,532.0,89.0,-50.0,-170.0,45.0,0.0,514.0,754.0,537.0,-480.0,-0.013285,-0.044563,0.029137,0.0,0.007353,0.030083,-0.019473,0.003292,-0.013536,-0.046227,0.012185,0.0,0.018832,0.027596,-0.019656,-0.017594,4096.350098,11547.720703,51534.089844,0.0,-17693.910156,-17716.410156,17979.75,-17452.259766,4096.439941,11564.730469,51567.121094,0.0,17745.210938,17721.541016,-17462.970703,17996.490234,0.0,0.0,0.0,0.0,0.0,0.0,0.0,0.0,0.0,0.0,0.0,0.0,0.0,0.0,0.0,0.0,0.0,0.0,0.0,0.0,0.0,0.0,0.0,0.0,0.0,0.0,0.0,0.0,0.0,0.0,0.0,0.0,4096.313477,11547.707031,51540.625,0.0,-17693.845703,-17714.724609,17979.697266,-17451.099609,4096.371582,11564.456055,51567.179688,0.0,17745.210938,17721.445312,-17462.826172,17997.089844,30.07655,90.650955,22.91024,0.0,4.332927,0.277729,29.051062,29.734406,30.076977,90.788727,22.921429,0.0,3.08298,-0.793031,29.950813,29.464911,1.023,1.035,4407514.0,2015290.0,-570923.0,0.0,-3998285.0,-1901171.0,-199264.0,191787.0,-4502884.0,-2356465.0,-6863956.0,0.0,-4391037.0,-2440999.0,4649570.0,-200979.0,0.0,0.0,0.0,0.0,0.0,0.0,0.0,0.0,0.0,0.0,0.0,0.0,0.0,0.0,0.0,0.0,0.0,0.0,0.0,0.0,0.0,0.0,0.0,0.0
45,3.0178990364074707,30.076817,90.651039,22.907213,0.0,4.320916,0.090308,29.15077,29.521641,30.077478,90.790909,22.921379,0.0,3.082844,-0.782626,29.929502,29.403469,3.0,1.0,111.0,0.0,1.0,-77939.0,-25517.0,13981.0,-77615.0,25651.0,14062.0,-0.937952,-0.235626,0.254414,-0.304805,0.210374,-0.92889,0.165348,-0.948801,-0.26914,-0.933309,0.200786,0.29769,0.319743,0.087457,0.94346,0.163398,0.975723,-0.145824,-0.937952,-0.235626,0.254414,-0.304805,0.210374,-0.92889,0.165348,-0.948801,-0.26914,-0.933309,0.200786,0.29769,0.319743,0.087457,0.94346,0.163398,0.975723,-0.145824,-77939.0,-25517.0,13981.0,-77615.0,25651.0,14062.0,-4453029.0,-2143598.0,-1678.0,0.0,-4194884.0,-2098020.0,-511.0,-2126.0,-4457368.0,-2227968.0,-6290988.0,0.0,-4193868.0,-2244093.0,-4455537.0,-1018.0,49.0,164.0,-107.0,0.0,201.0,824.0,532.0,89.0,-50.0,-170.0,45.0,0.0,514.0,753.0,536.0,-479.0,-0.013285,-0.044563,0.029137,0.0,0.007357,0.030186,-0.019477,0.003282,-0.013536,-0.046227,0.012185,0.0,0.018832,0.02759,-0.019647,-0.017558,4096.350098,11547.720703,51534.089844,0.0,-17693.910156,-17716.410156,17979.75,-17452.169922,4096.439941,11564.730469,51567.121094,0.0,17745.210938,17721.541016,-17462.970703,17996.490234,0.0,0.0,0.0,0.0,0.0,0.0,0.0,0.0,0.0,0.0,0.0,0.0,0.0,0.0,0.0,0.0,0.0,0.0,0.0,0.0,0.0,0.0,0.0,0.0,0.0,0.0,0.0,0.0,0.0,0.0,0.0,0.0,4096.313477,11547.707031,51540.625,0.0,-17693.845703,-17714.724609,17979.697266,-17451.099609,4096.371582,11564.456055,51567.179688,0.0,17745.210938,17721.445312,-17462.826172,17997.089844,30.07655,90.650955,22.91024,0.0,4.332927,0.277729,29.051062,29.734406,30.076977,90.788727,22.921429,0.0,3.08298,-0.793031,29.950813,29.464911,1.024,1.035,4407514.0,2015290.0,-570923.0,0.0,-3998285.0,-1901171.0,-199264.0,191787.0,-4502884.0,-2356465.0,-6863956.0,0.0,-4391037.0,-2440999.0,4649570.0,-200979.0,0.0,0.0,0.0,0.0,0.0,0.0,0.0,0.0,0.0,0.0,0.0,0.0,0.0,0.0,0.0,0.0,0.0,0.0,0.0,0.0,0.0,0.0,0.0,0.0
46,3.0838801860809326,30.076817,90.651039,22.907213,0.0,4.320916,0.090308,29.15077,29.521641,30.077478,90.790909,22.921379,0.0,3.082844,-0.782626,29.929502,29.403469,3.0,1.0,111.0,0.0,1.0,-77939.0,-25517.0,13981.0,-77615.0,25651.0,14062.0,-0.937952,-0.235626,0.254414,-0.304805,0.210374,-0.92889,0.165348,-0.948801,-0.26914,-0.933309,0.200786,0.29769,0.319743,0.087457,0.94346,0.163398,0.975723,-0.145824,-0.937952,-0.235626,0.254414,-0.304805,0.210374,-0.92889,0.165348,-0.948801,-0.26914,-0.933309,0.200786,0.29769,0.319743,0.087457,0.94346,0.163398,0.975723,-0.145824,-77939.0,-25517.0,13981.0,-77615.0,25651.0,14062.0,-4453029.0,-2143598.0,-1678.0,0.0,-4194884.0,-2098020.0,-511.0,-2126.0,-4457368.0,-2227968.0,-6290988.0,0.0,-4193868.0,-2244093.0,-4455537.0,-1018.0,49.0,164.0,-107.0,0.0,201.0,827.0,532.0,91.0,-50.0,-170.0,45.0,0.0,514.0,753.0,536.0,-478.0,-0.013285,-0.044563,0.029137,0.0,0.007361,0.030283,-0.01948,0.003344,-0.013536,-0.046227,0.012185,0.0,0.018832,0.027584,-0.019639,-0.017523,4096.350098,11547.720703,51534.089844,0.0,-17693.910156,-17716.410156,17979.75,-17452.169922,4096.439941,11564.730469,51567.121094,0.0,17745.210938,17721.541016,-17462.970703,17996.490234,0.0,0.0,0.0,0.0,0.0,0.0,0.0,0.0,0.0,0.0,0.0,0.0,0.0,0.0,0.0,0.0,0.0,0.0,0.0,0.0,0.0,0.0,0.0,0.0,0.0,0.0,0.0,0.0,0.0,0.0,0.0,0.0,4096.313477,11547.707031,51540.625,0.0,-17693.845703,-17714.724609,17979.697266,-17451.099609,4096.371582,11564.456055,51567.179688,0.0,17745.210938,17721.445312,-17462.826172,17997.089844,30.07655,90.650955,22.91024,0.0,4.332927,0.277729,29.051062,29.734406,30.076977,90.788727,22.921429,0.0,3.08298,-0.793031,29.950813,29.464911,1.024,1.035,4407514.0,2015290.0,-570923.0,0.0,-3998285.0,-1901171.0,-199264.0,191787.0,-4502884.0,-2356465.0,-6863956.0,0.0,-4391037.0,-2440999.0,4649570.0,-200979.0,0.0,0.0,0.0,0.0,0.0,0.0,0.0,0.0,0.0,0.0,0.0,0.0,0.0,0.0,0.0,0.0,0.0,0.0,0.0,0.0,0.0,0.0,0.0,0.0
47,3.1539011001586914,30.076817,90.651039,22.907213,0.0,4.320916,0.090308,29.15077,29.521641,30.077478,90.790909,22.921379,0.0,3.082844,-0.782626,29.929502,29.403469,3.0,1.0,111.0,0.0,1.0,-77939.0,-25517.0,13981.0,-77615.0,25651.0,14062.0,-0.937952,-0.235626,0.254414,-0.304805,0.210374,-0.92889,0.165348,-0.948801,-0.26914,-0.933309,0.200786,0.29769,0.319743,0.087457,0.94346,0.163398,0.975723,-0.145824,-0.937952,-0.235626,0.254414,-0.304805,0.210374,-0.92889,0.165348,-0.948801,-0.26914,-0.933309,0.200786,0.29769,0.319743,0.087457,0.94346,0.163398,0.975723,-0.145824,-77939.0,-25517.0,13981.0,-77615.0,25651.0,14062.0,-4453029.0,-2143598.0,-1678.0,0.0,-4194884.0,-2098020.0,-511.0,-2126.0,-4457368.0,-2227968.0,-6290988.0,0.0,-4193868.0,-2244093.0,-4455537.0,-1018.0,49.0,164.0,-107.0,0.0,201.0,830.0,532.0,93.0,-50.0,-170.0,45.0,0.0,514.0,753.0,536.0,-477.0,-0.013285,-0.044563,0.029137,0.0,0.007365,0.030386,-0.019483,0.003409,-0.013536,-0.046227,0.012185,0.0,0.018832,0.027578,-0.01963,-0.017487,4096.350098,11547.720703,51534.089844,0.0,-17693.910156,-17716.410156,17979.75,-17452.169922,4096.439941,11564.730469,51567.121094,0.0,17745.210938,17721.541016,-17462.970703,17996.490234,0.0,0.0,0.0,0.0,0.0,0.0,0.0,0.0,0.0,0.0,0.0,0.0,0.0,0.0,0.0,0.0,0.0,0.0,0.0,0.0,0.0,0.0,0.0,0.0,0.0,0.0,0.0,0.0,0.0,0.0,0.0,0.0,4096.313477,11547.707031,51540.625,0.0,-17693.845703,-17714.724609,17979.697266,-17451.099609,4096.371582,11564.456055,51567.179688,0.0,17745.210938,17721.445312,-17462.826172,17997.089844,30.07655,90.650955,22.91024,0.0,4.332927,0.277729,29.051062,29.734406,30.076977,90.788727,22.921429,0.0,3.08298,-0.793031,29.950813,29.464911,1.024,1.035,4407514.0,2015290.0,-570923.0,0.0,-3998285.0,-1901171.0,-199264.0,191787.0,-4502884.0,-2356465.0,-6863956.0,0.0,-4391037.0,-2440999.0,4649570.0,-200979.0,0.0,0.0,0.0,0.0,0.0,0.0,0.0,0.0,0.0,0.0,0.0,0.0,0.0,0.0,0.0,0.0,0.0,0.0,0.0,0.0,0.0,0.0,0.0,0.0
48,3.2248880863189697,30.076817,90.651039,22.907213,0.0,4.320916,0.090308,29.140657,29.521641,30.077478,90.790909,22.921379,0.0,3.082844,-0.782626,29.929502,29.403469,3.0,1.0,111.0,0.0,1.0,-77939.0,-25517.0,13981.0,-77615.0,25651.0,14062.0,-0.937973,-0.235543,0.254414,-0.304787,0.210401,-0.92889,0.165264,-0.948816,-0.26914,-0.933309,0.200786,0.29769,0.319743,0.087457,0.94346,0.163398,0.975723,-0.145824,-0.937973,-0.235543,0.254414,-0.304787,0.210401,-0.92889,0.165264,-0.948816,-0.26914,-0.933309,0.200786,0.29769,0.319743,0.087457,0.94346,0.163398,0.975723,-0.145824,-77939.0,-25517.0,13981.0,-77615.0,25651.0,14062.0,-4453029.0,-2143598.0,-1678.0,0.0,-4194884.0,-2098020.0,-510.0,-2126.0,-4457368.0,-2227968.0,-6290988.0,0.0,-4193868.0,-2244093.0,-4455537.0,-1018.0,49.0,164.0,-107.0,0.0,201.0,833.0,530.0,94.0,-50.0,-170.0,45.0,0.0,514.0,753.0,536.0,-476.0,-0.013285,-0.044563,0.029137,0.0,0.007369,0.03049,-0.019404,0.003476,-0.013536,-0.046227,0.012185,0.0,0.018832,0.027573,-0.019621,-0.017449,4096.350098,11547.720703,51534.089844,0.0,-17693.910156,-17716.410156,17979.660156,-17452.169922,4096.439941,11564.730469,51567.121094,0.0,17745.210938,17721.541016,-17462.970703,17996.490234,0.0,0.0,0.0,0.0,0.0,0.0,0.0,0.0,0.0,0.0,0.0,0.0,0.0,0.0,0.0,0.0,0.0,0.0,0.0,0.0,0.0,0.0,0.0,0.0,0.0,0.0,0.0,0.0,0.0,0.0,0.0,0.0,4096.313477,11547.707031,51540.625,0.0,-17693.845703,-17714.724609,17979.697266,-17451.099609,4096.371582,11564.456055,51567.179688,0.0,17745.210938,17721.445312,-17462.826172,17997.089844,30.07655,90.650955,22.91024,0.0,4.332927,0.277729,29.051062,29.734406,30.076977,90.788727,22.921429,0.0,3.08298,-0.793031,29.950813,29.464911,1.023,1.035,4407514.0,2015290.0,-570923.0,0.0,-3998285.0,-1901171.0,-199264.0,191787.0,-4502884.0,-2356465.0,-6863956.0,0.0,-4391037.0,-2440999.0,4649570.0,-200979.0,0.0,0.0,0.0,0.0,0.0,0.0,0.0,0.0,0.0,0.0,0.0,0.0,0.0,0.0,0.0,0.0,0.0,0.0,0.0,0.0,0.0,0.0,0.0,0.0
49,3.2939250469207764,30.101269,90.647476,22.907009,0.0,4.315123,0.086831,29.145872,29.526539,30.077478,90.790909,22.921379,0.0,3.082844,-0.782626,29.929502,29.403469,3.0,1.0,111.0,0.0,1.0,-77932.0,-25551.0,13977.0,-77615.0,25651.0,14062.0,-0.937837,-0.235573,0.254886,-0.305237,0.210256,-0.928775,0.165203,-0.94884,-0.269092,-0.933309,0.200786,0.29769,0.319743,0.087457,0.94346,0.163398,0.975723,-0.145824,-0.93786,-0.235563,0.254812,-0.305163,0.210266,-0.928797,0.165212,-0.948841,-0.269085,-0.933309,0.200786,0.29769,0.319743,0.087457,0.94346,0.163398,0.975723,-0.145824,-77934.0,-25545.0,13978.0,-77615.0,25651.0,14062.0,-4453066.0,-2143598.0,-1677.0,0.0,-4194884.0,-2098020.0,-510.0,-2125.0,-4457368.0,-2227968.0,-6290988.0,0.0,-4193868.0,-2244093.0,-4455537.0,-1018.0,-131.0,75.0,35.0,0.0,202.0,836.0,530.0,95.0,-50.0,-170.0,45.0,0.0,514.0,753.0,535.0,-475.0,0.035683,-0.020321,-0.009701,0.0,0.007423,0.03062,-0.019429,0.003483,-0.013536,-0.046227,0.012185,0.0,0.018832,0.027567,-0.019612,-0.017413,4099.680176,11547.720703,51534.0,0.0,-17693.910156,-17716.410156,17979.660156,-17452.080078,4096.439941,11564.730469,51567.121094,0.0,17745.210938,17721.541016,-17462.970703,17996.490234,180.098419,0.0,0.0,0.0,0.0,0.0,0.0,0.0,0.0,0.0,0.0,0.0,0.0,0.0,0.0,0.0,1.322345,-0.192335,-0.008757,0.0,0.0,0.0,0.0,0.0,0.0,0.0,0.0,0.0,0.0,0.0,0.0,0.0,4113.822266,11552.337891,51525.699219,0.0,-17693.814453,-17714.693359,17979.664062,-17451.068359,4096.371582,11564.456055,51567.179688,0.0,17745.210938,17721.445312,-17462.826172,17997.089844,30.205105,90.670364,22.902168,0.0,4.332927,0.277729,29.051062,29.734406,30.076977,90.788727,22.921429,0.0,3.08298,-0.793031,29.950813,29.464911,1.024,1.035,4407514.0,2015290.0,-570923.0,0.0,-3998285.0,-1901171.0,-199264.0,191787.0,-4502884.0,-2356465.0,-6863956.0,0.0,-4391037.0,-2440999.0,4649570.0,-200979.0,-0.003771,0.0,0.046311,0.025989,0.009322,-0.026787,0.0,0.0,0.0,0.0,0.0,0.0,-0.003771,0.0,0.046311,0.025989,0.009322,-0.026787,0.0,0.0,0.0,0.0,0.0,0.0
50,3.3678901195526123,30.284315,90.62085,22.901461,0.0,3.851997,-0.261047,29.667688,29.044779,30.077478,90.790909,22.921379,0.0,3.082844,-0.782626,29.929502,29.403469,3.0,1.0,111.0,0.0,1.0,-77927.0,-25899.0,13943.0,-77615.0,25651.0,14062.0,-0.933254,-0.242061,0.265412,-0.315601,0.19964,-0.927653,0.171561,-0.9495,-0.26271,-0.933309,0.200786,0.29769,0.319743,0.087457,0.94346,0.163398,0.975723,-0.145824,-0.933254,-0.242061,0.265412,-0.315601,0.19964,-0.927653,0.171561,-0.9495,-0.26271,-0.933309,0.200786,0.29769,0.319743,0.087457,0.94346,0.163398,0.975723,-0.145824,-77927.0,-25899.0,13943.0,-77615.0,25651.0,14062.0,-4453343.0,-2143598.0,-1573.0,0.0,-4194876.0,-2098019.0,-509.0,-2120.0,-4457368.0,-2227968.0,-6290988.0,0.0,-4193868.0,-2244093.0,-4455537.0,-1018.0,-213.0,374.0,163.0,0.0,311.0,916.0,607.0,164.0,-50.0,-170.0,45.0,0.0,514.0,753.0,535.0,-474.0,0.057797,-0.101359,-0.044164,0.0,0.011405,0.033527,-0.022225,0.006027,-0.013536,-0.046227,0.012185,0.0,0.018832,0.027561,-0.019603,-0.017375,4124.610352,11547.720703,51524.640625,0.0,-17693.191406,-17716.320312,17979.570312,-17451.630859,4096.439941,11564.730469,51567.121094,0.0,17745.210938,17721.541016,-17462.970703,17996.490234,540.295288,0.0,-178.349884,0.0,0.0,0.0,0.0,90.92347,0.0,0.0,0.0,0.0,0.0,0.0,0.0,0.0,3.967035,-0.577005,-0.108895,0.0,-11.364967,-6.81898,10.228471,-0.11683,0.0,0.0,0.0,0.0,0.0,0.0,0.0,0.0,4152.760254,11536.867188,51488.914062,0.0,-17690.595703,-17711.476562,17976.447266,-17447.851562,4096.371582,11564.456055,51567.179688,0.0,17745.210938,17721.445312,-17462.826172,17997.089844,30.491003,90.50148,22.884262,0.0,4.332927,0.277729,29.051062,29.734406,30.076977,90.788727,22.921429,0.0,3.08298,-0.793031,29.950813,29.464911,1.024,1.035,4407514.0,2015290.0,-570923.0,0.0,-3998285.0,-1901171.0,-199264.0,191787.0,-4502884.0,-2356465.0,-6863956.0,0.0,-4391037.0,-2440999.0,4649570.0,-200979.0,-0.011493,-0.119018,0.140376,0.020108,-0.074617,0.296919,0.0,0.0,0.0,0.0,0.0,0.0,-0.011493,-0.119018,0.140376,0.020108,-0.074617,0.296919,0.0,0.0,0.0,0.0,0.0,0.0
