MHC-RobotSimulators-Research/Data_Analysis_MotionReplication/mai_plotter/raven_data/with_offsets/leftarm_p5_phys3_2023-11-15 13_44_50.296597_rs.csv
,time,jpos0,jpos1,jpos2,jpos3,jpos4,jpos5,jpos6,jpos7,jpos8,jpos9,jpos10,jpos11,jpos12,jpos13,jpos14,jpos15,runlevel,sublevel,last_seq,type0,type1,pos0,pos1,pos2,pos3,pos4,pos5,ori0,ori1,ori2,ori3,ori4,ori5,ori6,ori7,ori8,ori9,ori10,ori11,ori12,ori13,ori14,ori15,ori16,ori17,ori_d0,ori_d1,ori_d2,ori_d3,ori_d4,ori_d5,ori_d6,ori_d7,ori_d8,ori_d9,ori_d10,ori_d11,ori_d12,ori_d13,ori_d14,ori_d15,ori_d16,ori_d17,pos_d0,pos_d1,pos_d2,pos_d3,pos_d4,pos_d5,encVals0,encVals1,encVals2,encVals3,encVals4,encVals5,encVals6,encVals7,encVals8,encVals9,encVals10,encVals11,encVals12,encVals13,encVals14,encVals15,dac_vals0,dac_vals1,dac_vals2,dac_vals3,dac_vals4,dac_vals5,dac_vals6,dac_vals7,dac_vals8,dac_vals9,dac_vals10,dac_vals11,dac_vals12,dac_vals13,dac_vals14,dac_vals15,Tau0,Tau1,Tau2,Tau3,Tau4,Tau5,Tau6,Tau7,Tau8,Tau9,Tau10,Tau11,Tau12,Tau13,Tau14,Tau15,mpos0,mpos1,mpos2,mpos3,mpos4,mpos5,mpos6,mpos7,mpos8,mpos9,mpos10,mpos11,mpos12,mpos13,mpos14,mpos15,mvel0,mvel1,mvel2,mvel3,mvel4,mvel5,mvel6,mvel7,mvel8,mvel9,mvel10,mvel11,mvel12,mvel13,mvel14,mvel15,jvel0,jvel1,jvel2,jvel3,jvel4,jvel5,jvel6,jvel7,jvel8,jvel9,jvel10,jvel11,jvel12,jvel13,jvel14,jvel15,mpos_d0,mpos_d1,mpos_d2,mpos_d3,mpos_d4,mpos_d5,mpos_d6,mpos_d7,mpos_d8,mpos_d9,mpos_d10,mpos_d11,mpos_d12,mpos_d13,mpos_d14,mpos_d15,jpos_d0,jpos_d1,jpos_d2,jpos_d3,jpos_d4,jpos_d5,jpos_d6,jpos_d7,jpos_d8,jpos_d9,jpos_d10,jpos_d11,jpos_d12,jpos_d13,jpos_d14,jpos_d15,grasp_d0,grasp_d1,encoffsets0,encoffsets1,encoffsets2,encoffsets3,encoffsets4,encoffsets5,encoffsets6,encoffsets7,encoffsets8,encoffsets9,encoffsets10,encoffsets11,encoffsets12,encoffsets13,encoffsets14,encoffsets15,jac_vel0,jac_vel1,jac_vel2,jac_vel3,jac_vel4,jac_vel5,jac_vel6,jac_vel7,jac_vel8,jac_vel9,jac_vel10,jac_vel11,jac_f0,jac_f1,jac_f2,jac_f3,jac_f4,jac_f5,jac_f6,jac_f7,jac_f8,jac_f9,jac_f10,jac_f11
0,0.0,30.68873,89.6222,22.795801,0.0,-88.259399,0.882434,27.051559,29.899149,30.191799,89.848526,22.904083,0.0,-2.071219,-0.091755,43.526295,43.28117,3.0,1.0,111.0,0.0,1.0,-79773.0,-26773.0,12946.0,-78126.0,25596.0,13092.0,-0.932643,0.297562,0.204044,-0.335154,-0.923911,-0.184556,0.133601,-0.24051,0.961408,-0.938581,0.218726,0.266879,0.308337,0.184438,0.933226,0.154898,0.958197,-0.240552,-0.932649,0.297435,0.204203,-0.335143,-0.923806,-0.185098,0.13359,-0.241069,0.96127,-0.938581,0.218726,0.266879,0.308337,0.184438,0.933226,0.154898,0.958197,-0.240552,-79773.0,-26773.0,12946.0,-78126.0,25596.0,13092.0,-1112.0,1581.0,-60641.0,0.0,-26102.0,-21166.0,-18708.0,-21700.0,411.0,-908.0,-2034.0,0.0,-354.0,-25.0,-352.0,-444.0,57.0,159.0,-45.0,0.0,-771.0,193.0,513.0,-418.0,-49.0,-159.0,44.0,0.0,274.0,580.0,-79.0,653.0,-0.015623,-0.043049,0.012324,0.0,-0.028222,0.007084,-0.018787,-0.015308,-0.013386,-0.043251,0.012131,0.0,0.010059,0.021251,0.002911,0.023931,4179.69043,11433.509766,51285.960938,0.0,-18108.091797,-17623.980469,17879.128906,-17367.03125,4112.009766,11452.230469,51515.28125,0.0,17699.580078,17709.929688,-17319.78125,18100.349609,0.0,0.0,0.0,0.0,0.0,0.0,0.0,0.0,0.0,0.0,0.0,0.0,0.0,0.0,0.0,0.0,0.0,0.0,0.0,0.0,0.0,0.0,0.0,0.0,0.0,0.0,0.0,0.0,0.0,0.0,0.0,0.0,4179.69873,11433.430664,51286.074219,0.0,-18107.912109,-17623.986328,17879.392578,-17366.765625,4111.993652,11452.161133,51515.308594,0.0,17699.582031,17709.927734,-17319.804688,18100.333984,30.688791,89.621536,22.795858,0.0,-88.226479,0.881924,27.080931,29.92837,30.191679,89.847969,22.904102,0.0,-2.070742,-0.091854,43.523651,43.279457,0.995,1.515,-45329.0,-128620.0,-509203.0,0.0,175099.0,174656.0,-179949.0,171267.0,-45278.0,-128155.0,-574426.0,0.0,-197016.0,-196802.0,192794.0,-201559.0,0.0,0.0,0.0,0.0,0.0,0.0,0.0,0.0,0.0,0.0,0.0,0.0,0.0,0.0,0.0,0.0,0.0,0.0,0.0,0.0,0.0,0.0,0.0,0.0
1,0.09449601173400879,30.68873,89.6222,22.795801,0.0,-88.259399,0.882434,27.051559,29.899149,30.191799,89.848526,22.904083,0.0,-2.071219,-0.091755,43.526295,43.28117,3.0,1.0,111.0,0.0,1.0,-79773.0,-26773.0,12946.0,-78126.0,25596.0,13092.0,-0.932643,0.297562,0.204044,-0.335154,-0.923911,-0.184556,0.133601,-0.24051,0.961408,-0.938581,0.218726,0.266879,0.308337,0.184438,0.933226,0.154898,0.958197,-0.240552,-0.932643,0.297562,0.204044,-0.335154,-0.923911,-0.184556,0.133601,-0.24051,0.961408,-0.938581,0.218726,0.266879,0.308337,0.184438,0.933226,0.154898,0.958197,-0.240552,-79773.0,-26773.0,12946.0,-78126.0,25596.0,13092.0,-1112.0,1581.0,-60641.0,0.0,-26102.0,-21166.0,-18708.0,-21700.0,411.0,-908.0,-2034.0,0.0,-354.0,-25.0,-352.0,-444.0,57.0,159.0,-45.0,0.0,-770.0,193.0,512.0,-417.0,-49.0,-159.0,44.0,0.0,274.0,580.0,-79.0,653.0,-0.015623,-0.043049,0.012324,0.0,-0.028208,0.007083,-0.018768,-0.015288,-0.013386,-0.043251,0.012131,0.0,0.01006,0.021251,0.00291,0.02393,4179.69043,11433.509766,51285.960938,0.0,-18108.091797,-17623.980469,17879.128906,-17367.03125,4112.009766,11452.230469,51515.28125,0.0,17699.580078,17709.929688,-17319.78125,18100.349609,0.0,0.0,0.0,0.0,0.0,0.0,0.0,0.0,0.0,0.0,0.0,0.0,0.0,0.0,0.0,0.0,0.0,0.0,0.0,0.0,0.0,0.0,0.0,0.0,0.0,0.0,0.0,0.0,0.0,0.0,0.0,0.0,4179.69873,11433.430664,51286.074219,0.0,-18107.912109,-17623.986328,17879.392578,-17366.765625,4111.993652,11452.161133,51515.308594,0.0,17699.582031,17709.927734,-17319.804688,18100.333984,30.688791,89.621536,22.795858,0.0,-88.226479,0.881924,27.080931,29.92837,30.191679,89.847969,22.904102,0.0,-2.070742,-0.091854,43.523651,43.279457,0.993,1.515,-45329.0,-128620.0,-509203.0,0.0,175099.0,174656.0,-179949.0,171267.0,-45278.0,-128155.0,-574426.0,0.0,-197016.0,-196802.0,192794.0,-201559.0,0.0,0.0,0.0,0.0,0.0,0.0,0.0,0.0,0.0,0.0,0.0,0.0,0.0,0.0,0.0,0.0,0.0,0.0,0.0,0.0,0.0,0.0,0.0,0.0
2,0.1645200252532959,30.68873,89.6222,22.795801,0.0,-88.259399,0.882434,27.051559,29.899149,30.191799,89.848526,22.904083,0.0,-2.071219,-0.091755,43.526295,43.28117,3.0,1.0,111.0,0.0,1.0,-79773.0,-26773.0,12946.0,-78126.0,25596.0,13092.0,-0.932643,0.297562,0.204044,-0.335154,-0.923911,-0.184556,0.133601,-0.24051,0.961408,-0.938581,0.218726,0.266879,0.308337,0.184438,0.933226,0.154898,0.958197,-0.240552,-0.932643,0.297562,0.204044,-0.335154,-0.923911,-0.184556,0.133601,-0.24051,0.961408,-0.938581,0.218726,0.266879,0.308337,0.184438,0.933226,0.154898,0.958197,-0.240552,-79773.0,-26773.0,12946.0,-78126.0,25596.0,13092.0,-1112.0,1581.0,-60641.0,0.0,-26102.0,-21166.0,-18708.0,-21700.0,411.0,-908.0,-2034.0,0.0,-354.0,-25.0,-352.0,-444.0,57.0,159.0,-45.0,0.0,-770.0,193.0,512.0,-417.0,-49.0,-159.0,44.0,0.0,274.0,580.0,-79.0,653.0,-0.015623,-0.043049,0.012324,0.0,-0.028198,0.007083,-0.018752,-0.015272,-0.013386,-0.043251,0.012131,0.0,0.01006,0.021251,0.002908,0.023929,4179.69043,11433.509766,51285.960938,0.0,-18108.091797,-17623.980469,17879.128906,-17367.03125,4112.009766,11452.230469,51515.28125,0.0,17699.580078,17709.929688,-17319.78125,18100.349609,0.0,0.0,0.0,0.0,0.0,0.0,0.0,0.0,0.0,0.0,0.0,0.0,0.0,0.0,0.0,0.0,0.0,0.0,0.0,0.0,0.0,0.0,0.0,0.0,0.0,0.0,0.0,0.0,0.0,0.0,0.0,0.0,4179.69873,11433.430664,51286.074219,0.0,-18107.912109,-17623.986328,17879.392578,-17366.765625,4111.993652,11452.161133,51515.308594,0.0,17699.582031,17709.927734,-17319.804688,18100.333984,30.688791,89.621536,22.795858,0.0,-88.226479,0.881924,27.080931,29.92837,30.191679,89.847969,22.904102,0.0,-2.070742,-0.091854,43.523651,43.279457,0.993,1.515,-45329.0,-128620.0,-509203.0,0.0,175099.0,174656.0,-179949.0,171267.0,-45278.0,-128155.0,-574426.0,0.0,-197016.0,-196802.0,192794.0,-201559.0,0.0,0.0,0.0,0.0,0.0,0.0,0.0,0.0,0.0,0.0,0.0,0.0,0.0,0.0,0.0,0.0,0.0,0.0,0.0,0.0,0.0,0.0,0.0,0.0
3,0.23952293395996094,30.68873,89.6222,22.795801,0.0,-88.259399,0.882434,27.051559,29.899149,30.191799,89.848526,22.904083,0.0,-2.071219,-0.091755,43.526295,43.28117,3.0,1.0,111.0,0.0,1.0,-79773.0,-26773.0,12946.0,-78126.0,25596.0,13092.0,-0.932643,0.297562,0.204044,-0.335154,-0.923911,-0.184556,0.133601,-0.24051,0.961408,-0.938581,0.218726,0.266879,0.308337,0.184438,0.933226,0.154898,0.958197,-0.240552,-0.932643,0.297562,0.204044,-0.335154,-0.923911,-0.184556,0.133601,-0.24051,0.961408,-0.938581,0.218726,0.266879,0.308337,0.184438,0.933226,0.154898,0.958197,-0.240552,-79773.0,-26773.0,12946.0,-78126.0,25596.0,13092.0,-1112.0,1581.0,-60641.0,0.0,-26102.0,-21166.0,-18708.0,-21700.0,411.0,-908.0,-2034.0,0.0,-354.0,-25.0,-352.0,-444.0,57.0,159.0,-45.0,0.0,-770.0,193.0,511.0,-416.0,-49.0,-159.0,44.0,0.0,274.0,580.0,-79.0,653.0,-0.015623,-0.043049,0.012324,0.0,-0.028186,0.007083,-0.018735,-0.015254,-0.013386,-0.043251,0.012131,0.0,0.01006,0.021251,0.002907,0.023928,4179.69043,11433.509766,51285.960938,0.0,-18108.091797,-17623.980469,17879.128906,-17367.03125,4112.009766,11452.230469,51515.28125,0.0,17699.580078,17709.929688,-17319.78125,18100.349609,0.0,0.0,0.0,0.0,0.0,0.0,0.0,0.0,0.0,0.0,0.0,0.0,0.0,0.0,0.0,0.0,0.0,0.0,0.0,0.0,0.0,0.0,0.0,0.0,0.0,0.0,0.0,0.0,0.0,0.0,0.0,0.0,4179.69873,11433.430664,51286.074219,0.0,-18107.912109,-17623.986328,17879.392578,-17366.765625,4111.993652,11452.161133,51515.308594,0.0,17699.582031,17709.927734,-17319.804688,18100.333984,30.688791,89.621536,22.795858,0.0,-88.226479,0.881924,27.080931,29.92837,30.191679,89.847969,22.904102,0.0,-2.070742,-0.091854,43.523651,43.279457,0.993,1.515,-45329.0,-128620.0,-509203.0,0.0,175099.0,174656.0,-179949.0,171267.0,-45278.0,-128155.0,-574426.0,0.0,-197016.0,-196802.0,192794.0,-201559.0,0.0,0.0,0.0,0.0,0.0,0.0,0.0,0.0,0.0,0.0,0.0,0.0,0.0,0.0,0.0,0.0,0.0,0.0,0.0,0.0,0.0,0.0,0.0,0.0
4,0.3125340938568115,30.68873,89.6222,22.795801,0.0,-88.259399,0.882434,27.051559,29.899149,30.191799,89.848526,22.904083,0.0,-2.071219,-0.091755,43.526295,43.28117,3.0,1.0,111.0,0.0,1.0,-79773.0,-26773.0,12946.0,-78126.0,25596.0,13092.0,-0.932643,0.297562,0.204044,-0.335154,-0.923911,-0.184556,0.133601,-0.24051,0.961408,-0.938581,0.218726,0.266879,0.308337,0.184438,0.933226,0.154898,0.958197,-0.240552,-0.932643,0.297562,0.204044,-0.335154,-0.923911,-0.184556,0.133601,-0.24051,0.961408,-0.938581,0.218726,0.266879,0.308337,0.184438,0.933226,0.154898,0.958197,-0.240552,-79773.0,-26773.0,12946.0,-78126.0,25596.0,13092.0,-1112.0,1581.0,-60641.0,0.0,-26102.0,-21166.0,-18708.0,-21700.0,411.0,-908.0,-2034.0,0.0,-354.0,-25.0,-352.0,-444.0,57.0,159.0,-45.0,0.0,-769.0,193.0,511.0,-416.0,-49.0,-159.0,44.0,0.0,274.0,580.0,-79.0,653.0,-0.015623,-0.043049,0.012324,0.0,-0.028175,0.007082,-0.018718,-0.015237,-0.013386,-0.043251,0.012131,0.0,0.01006,0.021251,0.002905,0.023927,4179.69043,11433.509766,51285.960938,0.0,-18108.091797,-17623.980469,17879.128906,-17367.03125,4112.009766,11452.230469,51515.28125,0.0,17699.580078,17709.929688,-17319.78125,18100.349609,0.0,0.0,0.0,0.0,0.0,0.0,0.0,0.0,0.0,0.0,0.0,0.0,0.0,0.0,0.0,0.0,0.0,0.0,0.0,0.0,0.0,0.0,0.0,0.0,0.0,0.0,0.0,0.0,0.0,0.0,0.0,0.0,4179.69873,11433.430664,51286.074219,0.0,-18107.912109,-17623.986328,17879.392578,-17366.765625,4111.993652,11452.161133,51515.308594,0.0,17699.582031,17709.927734,-17319.804688,18100.333984,30.688791,89.621536,22.795858,0.0,-88.226479,0.881924,27.080931,29.92837,30.191679,89.847969,22.904102,0.0,-2.070742,-0.091854,43.523651,43.279457,0.993,1.515,-45329.0,-128620.0,-509203.0,0.0,175099.0,174656.0,-179949.0,171267.0,-45278.0,-128155.0,-574426.0,0.0,-197016.0,-196802.0,192794.0,-201559.0,0.0,0.0,0.0,0.0,0.0,0.0,0.0,0.0,0.0,0.0,0.0,0.0,0.0,0.0,0.0,0.0,0.0,0.0,0.0,0.0,0.0,0.0,0.0,0.0
5,0.3875250816345215,30.68873,89.6222,22.795801,0.0,-88.259399,0.882434,27.051559,29.899149,30.191799,89.848526,22.904083,0.0,-2.071219,-0.091755,43.526295,43.28117,3.0,1.0,111.0,0.0,1.0,-79773.0,-26773.0,12946.0,-78126.0,25596.0,13092.0,-0.932643,0.297562,0.204044,-0.335154,-0.923911,-0.184556,0.133601,-0.24051,0.961408,-0.938581,0.218726,0.266879,0.308337,0.184438,0.933226,0.154898,0.958197,-0.240552,-0.932643,0.297562,0.204044,-0.335154,-0.923911,-0.184556,0.133601,-0.24051,0.961408,-0.938581,0.218726,0.266879,0.308337,0.184438,0.933226,0.154898,0.958197,-0.240552,-79773.0,-26773.0,12946.0,-78126.0,25596.0,13092.0,-1112.0,1581.0,-60641.0,0.0,-26102.0,-21166.0,-18708.0,-21700.0,411.0,-908.0,-2034.0,0.0,-354.0,-25.0,-352.0,-444.0,57.0,159.0,-45.0,0.0,-769.0,193.0,511.0,-415.0,-49.0,-159.0,44.0,0.0,274.0,580.0,-79.0,653.0,-0.015623,-0.043049,0.012324,0.0,-0.028163,0.007082,-0.018701,-0.01522,-0.013386,-0.043251,0.012131,0.0,0.01006,0.021251,0.002903,0.023926,4179.69043,11433.509766,51285.960938,0.0,-18108.091797,-17623.980469,17879.128906,-17367.03125,4112.009766,11452.230469,51515.28125,0.0,17699.580078,17709.929688,-17319.78125,18100.349609,0.0,0.0,0.0,0.0,0.0,0.0,0.0,0.0,0.0,0.0,0.0,0.0,0.0,0.0,0.0,0.0,0.0,0.0,0.0,0.0,0.0,0.0,0.0,0.0,0.0,0.0,0.0,0.0,0.0,0.0,0.0,0.0,4179.69873,11433.430664,51286.074219,0.0,-18107.912109,-17623.986328,17879.392578,-17366.765625,4111.993652,11452.161133,51515.308594,0.0,17699.582031,17709.927734,-17319.804688,18100.333984,30.688791,89.621536,22.795858,0.0,-88.226479,0.881924,27.080931,29.92837,30.191679,89.847969,22.904102,0.0,-2.070742,-0.091854,43.523651,43.279457,0.993,1.515,-45329.0,-128620.0,-509203.0,0.0,175099.0,174656.0,-179949.0,171267.0,-45278.0,-128155.0,-574426.0,0.0,-197016.0,-196802.0,192794.0,-201559.0,0.0,0.0,0.0,0.0,0.0,0.0,0.0,0.0,0.0,0.0,0.0,0.0,0.0,0.0,0.0,0.0,0.0,0.0,0.0,0.0,0.0,0.0,0.0,0.0
6,0.45754098892211914,30.68873,89.6222,22.795801,0.0,-88.259399,0.882434,27.051559,29.899149,30.191799,89.848526,22.904083,0.0,-2.071219,-0.091755,43.526295,43.28117,3.0,1.0,111.0,0.0,1.0,-79773.0,-26773.0,12946.0,-78126.0,25596.0,13092.0,-0.932643,0.297562,0.204044,-0.335154,-0.923911,-0.184556,0.133601,-0.24051,0.961408,-0.938581,0.218726,0.266879,0.308337,0.184438,0.933226,0.154898,0.958197,-0.240552,-0.932643,0.297562,0.204044,-0.335154,-0.923911,-0.184556,0.133601,-0.24051,0.961408,-0.938581,0.218726,0.266879,0.308337,0.184438,0.933226,0.154898,0.958197,-0.240552,-79773.0,-26773.0,12946.0,-78126.0,25596.0,13092.0,-1112.0,1581.0,-60641.0,0.0,-26102.0,-21166.0,-18708.0,-21700.0,411.0,-908.0,-2034.0,0.0,-354.0,-25.0,-352.0,-444.0,57.0,159.0,-45.0,0.0,-769.0,193.0,510.0,-415.0,-49.0,-159.0,44.0,0.0,274.0,580.0,-79.0,653.0,-0.015623,-0.043049,0.012324,0.0,-0.028152,0.007082,-0.018685,-0.015204,-0.013386,-0.043251,0.012131,0.0,0.01006,0.021251,0.002902,0.023925,4179.69043,11433.509766,51285.960938,0.0,-18108.091797,-17623.980469,17879.128906,-17367.03125,4112.009766,11452.230469,51515.28125,0.0,17699.580078,17709.929688,-17319.78125,18100.349609,0.0,0.0,0.0,0.0,0.0,0.0,0.0,0.0,0.0,0.0,0.0,0.0,0.0,0.0,0.0,0.0,0.0,0.0,0.0,0.0,0.0,0.0,0.0,0.0,0.0,0.0,0.0,0.0,0.0,0.0,0.0,0.0,4179.69873,11433.430664,51286.074219,0.0,-18107.912109,-17623.986328,17879.392578,-17366.765625,4111.993652,11452.161133,51515.308594,0.0,17699.582031,17709.927734,-17319.804688,18100.333984,30.688791,89.621536,22.795858,0.0,-88.226479,0.881924,27.080931,29.92837,30.191679,89.847969,22.904102,0.0,-2.070742,-0.091854,43.523651,43.279457,0.993,1.515,-45329.0,-128620.0,-509203.0,0.0,175099.0,174656.0,-179949.0,171267.0,-45278.0,-128155.0,-574426.0,0.0,-197016.0,-196802.0,192794.0,-201559.0,0.0,0.0,0.0,0.0,0.0,0.0,0.0,0.0,0.0,0.0,0.0,0.0,0.0,0.0,0.0,0.0,0.0,0.0,0.0,0.0,0.0,0.0,0.0,0.0
7,0.5335240364074707,30.68873,89.6222,22.795801,0.0,-88.259399,0.882434,27.051559,29.899149,30.191799,89.848526,22.904083,0.0,-2.071219,-0.091755,43.526295,43.28117,3.0,1.0,111.0,0.0,1.0,-79773.0,-26773.0,12946.0,-78126.0,25596.0,13092.0,-0.932643,0.297562,0.204044,-0.335154,-0.923911,-0.184556,0.133601,-0.24051,0.961408,-0.938581,0.218726,0.266879,0.308337,0.184438,0.933226,0.154898,0.958197,-0.240552,-0.932643,0.297562,0.204044,-0.335154,-0.923911,-0.184556,0.133601,-0.24051,0.961408,-0.938581,0.218726,0.266879,0.308337,0.184438,0.933226,0.154898,0.958197,-0.240552,-79773.0,-26773.0,12946.0,-78126.0,25596.0,13092.0,-1112.0,1581.0,-60641.0,0.0,-26102.0,-21166.0,-18708.0,-21700.0,411.0,-908.0,-2034.0,0.0,-354.0,-25.0,-352.0,-444.0,57.0,159.0,-45.0,0.0,-769.0,193.0,510.0,-415.0,-49.0,-159.0,44.0,0.0,274.0,580.0,-79.0,653.0,-0.015623,-0.043049,0.012324,0.0,-0.02814,0.007081,-0.018667,-0.015186,-0.013386,-0.043251,0.012131,0.0,0.01006,0.02125,0.0029,0.023924,4179.69043,11433.509766,51285.960938,0.0,-18108.091797,-17623.980469,17879.128906,-17367.03125,4112.009766,11452.230469,51515.28125,0.0,17699.580078,17709.929688,-17319.78125,18100.349609,0.0,0.0,0.0,0.0,0.0,0.0,0.0,0.0,0.0,0.0,0.0,0.0,0.0,0.0,0.0,0.0,0.0,0.0,0.0,0.0,0.0,0.0,0.0,0.0,0.0,0.0,0.0,0.0,0.0,0.0,0.0,0.0,4179.69873,11433.430664,51286.074219,0.0,-18107.912109,-17623.986328,17879.392578,-17366.765625,4111.993652,11452.161133,51515.308594,0.0,17699.582031,17709.927734,-17319.804688,18100.333984,30.688791,89.621536,22.795858,0.0,-88.226479,0.881924,27.080931,29.92837,30.191679,89.847969,22.904102,0.0,-2.070742,-0.091854,43.523651,43.279457,0.993,1.515,-45329.0,-128620.0,-509203.0,0.0,175099.0,174656.0,-179949.0,171267.0,-45278.0,-128155.0,-574426.0,0.0,-197016.0,-196802.0,192794.0,-201559.0,0.0,0.0,0.0,0.0,0.0,0.0,0.0,0.0,0.0,0.0,0.0,0.0,0.0,0.0,0.0,0.0,0.0,0.0,0.0,0.0,0.0,0.0,0.0,0.0
8,0.6125280857086182,30.68873,89.6222,22.795801,0.0,-88.259399,0.882434,27.051559,29.899149,30.191799,89.848526,22.904083,0.0,-2.071219,-0.091755,43.526295,43.28117,3.0,1.0,111.0,0.0,1.0,-79773.0,-26773.0,12946.0,-78126.0,25596.0,13092.0,-0.932643,0.297562,0.204044,-0.335154,-0.923911,-0.184556,0.133601,-0.24051,0.961408,-0.938581,0.218726,0.266879,0.308337,0.184438,0.933226,0.154898,0.958197,-0.240552,-0.932643,0.297562,0.204044,-0.335154,-0.923911,-0.184556,0.133601,-0.24051,0.961408,-0.938581,0.218726,0.266879,0.308337,0.184438,0.933226,0.154898,0.958197,-0.240552,-79773.0,-26773.0,12946.0,-78126.0,25596.0,13092.0,-1112.0,1581.0,-60641.0,0.0,-26102.0,-21166.0,-18708.0,-21700.0,411.0,-908.0,-2034.0,0.0,-354.0,-25.0,-352.0,-444.0,57.0,159.0,-45.0,0.0,-768.0,193.0,509.0,-414.0,-49.0,-159.0,44.0,0.0,274.0,580.0,-79.0,653.0,-0.015623,-0.043049,0.012324,0.0,-0.028128,0.007081,-0.018649,-0.015168,-0.013386,-0.043251,0.012131,0.0,0.01006,0.02125,0.002899,0.023923,4179.69043,11433.509766,51285.960938,0.0,-18108.091797,-17623.980469,17879.128906,-17367.03125,4112.009766,11452.230469,51515.28125,0.0,17699.580078,17709.929688,-17319.78125,18100.349609,0.0,0.0,0.0,0.0,0.0,0.0,0.0,0.0,0.0,0.0,0.0,0.0,0.0,0.0,0.0,0.0,0.0,0.0,0.0,0.0,0.0,0.0,0.0,0.0,0.0,0.0,0.0,0.0,0.0,0.0,0.0,0.0,4179.69873,11433.430664,51286.074219,0.0,-18107.912109,-17623.986328,17879.392578,-17366.765625,4111.993652,11452.161133,51515.308594,0.0,17699.582031,17709.927734,-17319.804688,18100.333984,30.688791,89.621536,22.795858,0.0,-88.226479,0.881924,27.080931,29.92837,30.191679,89.847969,22.904102,0.0,-2.070742,-0.091854,43.523651,43.279457,0.993,1.515,-45329.0,-128620.0,-509203.0,0.0,175099.0,174656.0,-179949.0,171267.0,-45278.0,-128155.0,-574426.0,0.0,-197016.0,-196802.0,192794.0,-201559.0,0.0,0.0,0.0,0.0,0.0,0.0,0.0,0.0,0.0,0.0,0.0,0.0,0.0,0.0,0.0,0.0,0.0,0.0,0.0,0.0,0.0,0.0,0.0,0.0
9,0.6824920177459717,30.68873,89.6222,22.795801,0.0,-88.259399,0.882434,27.051559,29.899149,30.191799,89.848526,22.904083,0.0,-2.071219,-0.091755,43.526295,43.28117,3.0,1.0,111.0,0.0,1.0,-79773.0,-26773.0,12946.0,-78126.0,25596.0,13092.0,-0.932643,0.297562,0.204044,-0.335154,-0.923911,-0.184556,0.133601,-0.24051,0.961408,-0.938581,0.218726,0.266879,0.308337,0.184438,0.933226,0.154898,0.958197,-0.240552,-0.932643,0.297562,0.204044,-0.335154,-0.923911,-0.184556,0.133601,-0.24051,0.961408,-0.938581,0.218726,0.266879,0.308337,0.184438,0.933226,0.154898,0.958197,-0.240552,-79773.0,-26773.0,12946.0,-78126.0,25596.0,13092.0,-1112.0,1581.0,-60641.0,0.0,-26102.0,-21166.0,-18708.0,-21700.0,411.0,-908.0,-2034.0,0.0,-354.0,-25.0,-352.0,-444.0,57.0,159.0,-45.0,0.0,-768.0,193.0,509.0,-414.0,-49.0,-159.0,44.0,0.0,274.0,580.0,-79.0,653.0,-0.015623,-0.043049,0.012324,0.0,-0.028117,0.007081,-0.018633,-0.015151,-0.013386,-0.043251,0.012131,0.0,0.01006,0.02125,0.002897,0.023922,4179.69043,11433.509766,51285.960938,0.0,-18108.091797,-17623.980469,17879.128906,-17367.03125,4112.009766,11452.230469,51515.28125,0.0,17699.580078,17709.929688,-17319.78125,18100.349609,0.0,0.0,0.0,0.0,0.0,0.0,0.0,0.0,0.0,0.0,0.0,0.0,0.0,0.0,0.0,0.0,0.0,0.0,0.0,0.0,0.0,0.0,0.0,0.0,0.0,0.0,0.0,0.0,0.0,0.0,0.0,0.0,4179.69873,11433.430664,51286.074219,0.0,-18107.912109,-17623.986328,17879.392578,-17366.765625,4111.993652,11452.161133,51515.308594,0.0,17699.582031,17709.927734,-17319.804688,18100.333984,30.688791,89.621536,22.795858,0.0,-88.226479,0.881924,27.080931,29.92837,30.191679,89.847969,22.904102,0.0,-2.070742,-0.091854,43.523651,43.279457,0.993,1.515,-45329.0,-128620.0,-509203.0,0.0,175099.0,174656.0,-179949.0,171267.0,-45278.0,-128155.0,-574426.0,0.0,-197016.0,-196802.0,192794.0,-201559.0,0.0,0.0,0.0,0.0,0.0,0.0,0.0,0.0,0.0,0.0,0.0,0.0,0.0,0.0,0.0,0.0,0.0,0.0,0.0,0.0,0.0,0.0,0.0,0.0
10,0.7535059452056885,30.68873,89.6222,22.795801,0.0,-88.259399,0.882434,27.051559,29.899149,30.191799,89.848526,22.904083,0.0,-2.071219,-0.091755,43.526295,43.28117,3.0,1.0,111.0,0.0,1.0,-79773.0,-26773.0,12946.0,-78126.0,25596.0,13092.0,-0.932643,0.297562,0.204044,-0.335154,-0.923911,-0.184556,0.133601,-0.24051,0.961408,-0.938581,0.218726,0.266879,0.308337,0.184438,0.933226,0.154898,0.958197,-0.240552,-0.932643,0.297562,0.204044,-0.335154,-0.923911,-0.184556,0.133601,-0.24051,0.961408,-0.938581,0.218726,0.266879,0.308337,0.184438,0.933226,0.154898,0.958197,-0.240552,-79773.0,-26773.0,12946.0,-78126.0,25596.0,13092.0,-1112.0,1581.0,-60641.0,0.0,-26102.0,-21166.0,-18708.0,-21700.0,411.0,-908.0,-2034.0,0.0,-354.0,-25.0,-352.0,-444.0,57.0,159.0,-45.0,0.0,-768.0,193.0,508.0,-413.0,-49.0,-159.0,44.0,0.0,274.0,580.0,-79.0,653.0,-0.015623,-0.043049,0.012324,0.0,-0.028106,0.00708,-0.018617,-0.015135,-0.013386,-0.043251,0.012131,0.0,0.010061,0.02125,0.002896,0.023921,4179.69043,11433.509766,51285.960938,0.0,-18108.091797,-17623.980469,17879.128906,-17367.03125,4112.009766,11452.230469,51515.28125,0.0,17699.580078,17709.929688,-17319.78125,18100.349609,0.0,0.0,0.0,0.0,0.0,0.0,0.0,0.0,0.0,0.0,0.0,0.0,0.0,0.0,0.0,0.0,0.0,0.0,0.0,0.0,0.0,0.0,0.0,0.0,0.0,0.0,0.0,0.0,0.0,0.0,0.0,0.0,4179.69873,11433.430664,51286.074219,0.0,-18107.912109,-17623.986328,17879.392578,-17366.765625,4111.993652,11452.161133,51515.308594,0.0,17699.582031,17709.927734,-17319.804688,18100.333984,30.688791,89.621536,22.795858,0.0,-88.226479,0.881924,27.080931,29.92837,30.191679,89.847969,22.904102,0.0,-2.070742,-0.091854,43.523651,43.279457,0.993,1.515,-45329.0,-128620.0,-509203.0,0.0,175099.0,174656.0,-179949.0,171267.0,-45278.0,-128155.0,-574426.0,0.0,-197016.0,-196802.0,192794.0,-201559.0,0.0,0.0,0.0,0.0,0.0,0.0,0.0,0.0,0.0,0.0,0.0,0.0,0.0,0.0,0.0,0.0,0.0,0.0,0.0,0.0,0.0,0.0,0.0,0.0
11,0.8266611099243164,30.68873,89.6222,22.795801,0.0,-88.259399,0.882434,27.051559,29.899149,30.191799,89.848526,22.904083,0.0,-2.071219,-0.091755,43.526295,43.28117,3.0,1.0,111.0,0.0,1.0,-79773.0,-26773.0,12946.0,-78126.0,25596.0,13092.0,-0.932643,0.297562,0.204044,-0.335154,-0.923911,-0.184556,0.133601,-0.24051,0.961408,-0.938581,0.218726,0.266879,0.308337,0.184438,0.933226,0.154898,0.958197,-0.240552,-0.932643,0.297562,0.204044,-0.335154,-0.923911,-0.184556,0.133601,-0.24051,0.961408,-0.938581,0.218726,0.266879,0.308337,0.184438,0.933226,0.154898,0.958197,-0.240552,-79773.0,-26773.0,12946.0,-78126.0,25596.0,13092.0,-1112.0,1581.0,-60641.0,0.0,-26102.0,-21166.0,-18708.0,-21700.0,411.0,-908.0,-2034.0,0.0,-354.0,-25.0,-352.0,-444.0,57.0,159.0,-45.0,0.0,-767.0,193.0,508.0,-413.0,-49.0,-159.0,44.0,0.0,274.0,580.0,-79.0,653.0,-0.015623,-0.043049,0.012324,0.0,-0.028095,0.00708,-0.0186,-0.015118,-0.013386,-0.043251,0.012131,0.0,0.010061,0.02125,0.002894,0.02392,4179.69043,11433.509766,51285.960938,0.0,-18108.091797,-17623.980469,17879.128906,-17367.03125,4112.009766,11452.230469,51515.28125,0.0,17699.580078,17709.929688,-17319.78125,18100.349609,0.0,0.0,0.0,0.0,0.0,0.0,0.0,0.0,0.0,0.0,0.0,0.0,0.0,0.0,0.0,0.0,0.0,0.0,0.0,0.0,0.0,0.0,0.0,0.0,0.0,0.0,0.0,0.0,0.0,0.0,0.0,0.0,4179.69873,11433.430664,51286.074219,0.0,-18107.912109,-17623.986328,17879.392578,-17366.765625,4111.993652,11452.161133,51515.308594,0.0,17699.582031,17709.927734,-17319.804688,18100.333984,30.688791,89.621536,22.795858,0.0,-88.226479,0.881924,27.080931,29.92837,30.191679,89.847969,22.904102,0.0,-2.070742,-0.091854,43.523651,43.279457,0.993,1.515,-45329.0,-128620.0,-509203.0,0.0,175099.0,174656.0,-179949.0,171267.0,-45278.0,-128155.0,-574426.0,0.0,-197016.0,-196802.0,192794.0,-201559.0,0.0,0.0,0.0,0.0,0.0,0.0,0.0,0.0,0.0,0.0,0.0,0.0,0.0,0.0,0.0,0.0,0.0,0.0,0.0,0.0,0.0,0.0,0.0,0.0
12,0.8996479511260986,30.68873,89.6222,22.795801,0.0,-88.259399,0.882434,27.051559,29.899149,30.191799,89.848526,22.904083,0.0,-2.071219,-0.091755,43.526295,43.28117,3.0,1.0,111.0,0.0,1.0,-79773.0,-26773.0,12946.0,-78126.0,25596.0,13092.0,-0.932643,0.297562,0.204044,-0.335154,-0.923911,-0.184556,0.133601,-0.24051,0.961408,-0.938581,0.218726,0.266879,0.308337,0.184438,0.933226,0.154898,0.958197,-0.240552,-0.932643,0.297562,0.204044,-0.335154,-0.923911,-0.184556,0.133601,-0.24051,0.961408,-0.938581,0.218726,0.266879,0.308337,0.184438,0.933226,0.154898,0.958197,-0.240552,-79773.0,-26773.0,12946.0,-78126.0,25596.0,13092.0,-1112.0,1581.0,-60641.0,0.0,-26102.0,-21166.0,-18708.0,-21700.0,411.0,-908.0,-2034.0,0.0,-354.0,-25.0,-352.0,-444.0,57.0,159.0,-45.0,0.0,-767.0,193.0,507.0,-412.0,-49.0,-159.0,44.0,0.0,274.0,580.0,-79.0,653.0,-0.015623,-0.043049,0.012324,0.0,-0.028084,0.00708,-0.018583,-0.015101,-0.013386,-0.043251,0.012131,0.0,0.010061,0.02125,0.002892,0.023919,4179.69043,11433.509766,51285.960938,0.0,-18108.091797,-17623.980469,17879.128906,-17367.03125,4112.009766,11452.230469,51515.28125,0.0,17699.580078,17709.929688,-17319.78125,18100.349609,0.0,0.0,0.0,0.0,0.0,0.0,0.0,0.0,0.0,0.0,0.0,0.0,0.0,0.0,0.0,0.0,0.0,0.0,0.0,0.0,0.0,0.0,0.0,0.0,0.0,0.0,0.0,0.0,0.0,0.0,0.0,0.0,4179.69873,11433.430664,51286.074219,0.0,-18107.912109,-17623.986328,17879.392578,-17366.765625,4111.993652,11452.161133,51515.308594,0.0,17699.582031,17709.927734,-17319.804688,18100.333984,30.688791,89.621536,22.795858,0.0,-88.226479,0.881924,27.080931,29.92837,30.191679,89.847969,22.904102,0.0,-2.070742,-0.091854,43.523651,43.279457,0.993,1.515,-45329.0,-128620.0,-509203.0,0.0,175099.0,174656.0,-179949.0,171267.0,-45278.0,-128155.0,-574426.0,0.0,-197016.0,-196802.0,192794.0,-201559.0,0.0,0.0,0.0,0.0,0.0,0.0,0.0,0.0,0.0,0.0,0.0,0.0,0.0,0.0,0.0,0.0,0.0,0.0,0.0,0.0,0.0,0.0,0.0,0.0
13,0.9735310077667236,30.68873,89.6222,22.795801,0.0,-88.259399,0.882434,27.051559,29.899149,30.191799,89.848526,22.904083,0.0,-2.071219,-0.091755,43.526295,43.28117,3.0,1.0,111.0,0.0,1.0,-79773.0,-26773.0,12946.0,-78126.0,25596.0,13092.0,-0.932643,0.297562,0.204044,-0.335154,-0.923911,-0.184556,0.133601,-0.24051,0.961408,-0.938581,0.218726,0.266879,0.308337,0.184438,0.933226,0.154898,0.958197,-0.240552,-0.932643,0.297562,0.204044,-0.335154,-0.923911,-0.184556,0.133601,-0.24051,0.961408,-0.938581,0.218726,0.266879,0.308337,0.184438,0.933226,0.154898,0.958197,-0.240552,-79773.0,-26773.0,12946.0,-78126.0,25596.0,13092.0,-1112.0,1581.0,-60641.0,0.0,-26102.0,-21166.0,-18708.0,-21700.0,411.0,-908.0,-2034.0,0.0,-354.0,-25.0,-352.0,-444.0,57.0,159.0,-45.0,0.0,-767.0,193.0,507.0,-412.0,-49.0,-159.0,44.0,0.0,274.0,580.0,-79.0,653.0,-0.015623,-0.043049,0.012324,0.0,-0.028072,0.007079,-0.018566,-0.015084,-0.013386,-0.043251,0.012131,0.0,0.010061,0.02125,0.002891,0.023918,4179.69043,11433.509766,51285.960938,0.0,-18108.091797,-17623.980469,17879.128906,-17367.03125,4112.009766,11452.230469,51515.28125,0.0,17699.580078,17709.929688,-17319.78125,18100.349609,0.0,0.0,0.0,0.0,0.0,0.0,0.0,0.0,0.0,0.0,0.0,0.0,0.0,0.0,0.0,0.0,0.0,0.0,0.0,0.0,0.0,0.0,0.0,0.0,0.0,0.0,0.0,0.0,0.0,0.0,0.0,0.0,4179.69873,11433.430664,51286.074219,0.0,-18107.912109,-17623.986328,17879.392578,-17366.765625,4111.993652,11452.161133,51515.308594,0.0,17699.582031,17709.927734,-17319.804688,18100.333984,30.688791,89.621536,22.795858,0.0,-88.226479,0.881924,27.080931,29.92837,30.191679,89.847969,22.904102,0.0,-2.070742,-0.091854,43.523651,43.279457,0.993,1.515,-45329.0,-128620.0,-509203.0,0.0,175099.0,174656.0,-179949.0,171267.0,-45278.0,-128155.0,-574426.0,0.0,-197016.0,-196802.0,192794.0,-201559.0,0.0,0.0,0.0,0.0,0.0,0.0,0.0,0.0,0.0,0.0,0.0,0.0,0.0,0.0,0.0,0.0,0.0,0.0,0.0,0.0,0.0,0.0,0.0,0.0
14,1.0455470085144043,30.68873,89.6222,22.795801,0.0,-88.259399,0.882434,27.051559,29.899149,30.191799,89.848526,22.904083,0.0,-2.071219,-0.091755,43.526295,43.28117,3.0,1.0,111.0,0.0,1.0,-79773.0,-26773.0,12946.0,-78126.0,25596.0,13092.0,-0.932643,0.297562,0.204044,-0.335154,-0.923911,-0.184556,0.133601,-0.24051,0.961408,-0.938581,0.218726,0.266879,0.308337,0.184438,0.933226,0.154898,0.958197,-0.240552,-0.932643,0.297562,0.204044,-0.335154,-0.923911,-0.184556,0.133601,-0.24051,0.961408,-0.938581,0.218726,0.266879,0.308337,0.184438,0.933226,0.154898,0.958197,-0.240552,-79773.0,-26773.0,12946.0,-78126.0,25596.0,13092.0,-1112.0,1581.0,-60641.0,0.0,-26102.0,-21166.0,-18708.0,-21700.0,411.0,-908.0,-2034.0,0.0,-354.0,-25.0,-352.0,-444.0,57.0,159.0,-45.0,0.0,-766.0,193.0,506.0,-411.0,-49.0,-159.0,44.0,0.0,274.0,580.0,-78.0,653.0,-0.015623,-0.043049,0.012324,0.0,-0.028061,0.007079,-0.01855,-0.015067,-0.013386,-0.043251,0.012131,0.0,0.010061,0.02125,0.002889,0.023917,4179.69043,11433.509766,51285.960938,0.0,-18108.091797,-17623.980469,17879.128906,-17367.03125,4112.009766,11452.230469,51515.28125,0.0,17699.580078,17709.929688,-17319.78125,18100.349609,0.0,0.0,0.0,0.0,0.0,0.0,0.0,0.0,0.0,0.0,0.0,0.0,0.0,0.0,0.0,0.0,0.0,0.0,0.0,0.0,0.0,0.0,0.0,0.0,0.0,0.0,0.0,0.0,0.0,0.0,0.0,0.0,4179.69873,11433.430664,51286.074219,0.0,-18107.912109,-17623.986328,17879.392578,-17366.765625,4111.993652,11452.161133,51515.308594,0.0,17699.582031,17709.927734,-17319.804688,18100.333984,30.688791,89.621536,22.795858,0.0,-88.226479,0.881924,27.080931,29.92837,30.191679,89.847969,22.904102,0.0,-2.070742,-0.091854,43.523651,43.279457,0.993,1.515,-45329.0,-128620.0,-509203.0,0.0,175099.0,174656.0,-179949.0,171267.0,-45278.0,-128155.0,-574426.0,0.0,-197016.0,-196802.0,192794.0,-201559.0,0.0,0.0,0.0,0.0,0.0,0.0,0.0,0.0,0.0,0.0,0.0,0.0,0.0,0.0,0.0,0.0,0.0,0.0,0.0,0.0,0.0,0.0,0.0,0.0
15,1.1235570907592773,30.68873,89.6222,22.795801,0.0,-88.259399,0.882434,27.051559,29.899149,30.191799,89.848526,22.904083,0.0,-2.071219,-0.091755,43.526295,43.28117,3.0,1.0,111.0,0.0,1.0,-79773.0,-26773.0,12946.0,-78126.0,25596.0,13092.0,-0.932643,0.297562,0.204044,-0.335154,-0.923911,-0.184556,0.133601,-0.24051,0.961408,-0.938581,0.218726,0.266879,0.308337,0.184438,0.933226,0.154898,0.958197,-0.240552,-0.932643,0.297562,0.204044,-0.335154,-0.923911,-0.184556,0.133601,-0.24051,0.961408,-0.938581,0.218726,0.266879,0.308337,0.184438,0.933226,0.154898,0.958197,-0.240552,-79773.0,-26773.0,12946.0,-78126.0,25596.0,13092.0,-1112.0,1581.0,-60641.0,0.0,-26102.0,-21166.0,-18708.0,-21700.0,411.0,-908.0,-2034.0,0.0,-354.0,-25.0,-352.0,-444.0,57.0,159.0,-45.0,0.0,-766.0,193.0,506.0,-411.0,-49.0,-159.0,44.0,0.0,274.0,580.0,-78.0,653.0,-0.015623,-0.043049,0.012324,0.0,-0.028049,0.007079,-0.018532,-0.015049,-0.013386,-0.043251,0.012131,0.0,0.010061,0.02125,0.002888,0.023916,4179.69043,11433.509766,51285.960938,0.0,-18108.091797,-17623.980469,17879.128906,-17367.03125,4112.009766,11452.230469,51515.28125,0.0,17699.580078,17709.929688,-17319.78125,18100.349609,0.0,0.0,0.0,0.0,0.0,0.0,0.0,0.0,0.0,0.0,0.0,0.0,0.0,0.0,0.0,0.0,0.0,0.0,0.0,0.0,0.0,0.0,0.0,0.0,0.0,0.0,0.0,0.0,0.0,0.0,0.0,0.0,4179.69873,11433.430664,51286.074219,0.0,-18107.912109,-17623.986328,17879.392578,-17366.765625,4111.993652,11452.161133,51515.308594,0.0,17699.582031,17709.927734,-17319.804688,18100.333984,30.688791,89.621536,22.795858,0.0,-88.226479,0.881924,27.080931,29.92837,30.191679,89.847969,22.904102,0.0,-2.070742,-0.091854,43.523651,43.279457,0.993,1.515,-45329.0,-128620.0,-509203.0,0.0,175099.0,174656.0,-179949.0,171267.0,-45278.0,-128155.0,-574426.0,0.0,-197016.0,-196802.0,192794.0,-201559.0,0.0,0.0,0.0,0.0,0.0,0.0,0.0,0.0,0.0,0.0,0.0,0.0,0.0,0.0,0.0,0.0,0.0,0.0,0.0,0.0,0.0,0.0,0.0,0.0
16,1.1935369968414307,30.68873,89.6222,22.795801,0.0,-88.259399,0.882434,27.051559,29.899149,30.191799,89.848526,22.904083,0.0,-2.071219,-0.091755,43.526295,43.28117,3.0,1.0,111.0,0.0,1.0,-79773.0,-26773.0,12946.0,-78126.0,25596.0,13092.0,-0.932643,0.297562,0.204044,-0.335154,-0.923911,-0.184556,0.133601,-0.24051,0.961408,-0.938581,0.218726,0.266879,0.308337,0.184438,0.933226,0.154898,0.958197,-0.240552,-0.932643,0.297562,0.204044,-0.335154,-0.923911,-0.184556,0.133601,-0.24051,0.961408,-0.938581,0.218726,0.266879,0.308337,0.184438,0.933226,0.154898,0.958197,-0.240552,-79773.0,-26773.0,12946.0,-78126.0,25596.0,13092.0,-1112.0,1581.0,-60641.0,0.0,-26102.0,-21166.0,-18708.0,-21700.0,411.0,-908.0,-2034.0,0.0,-354.0,-25.0,-352.0,-444.0,57.0,159.0,-45.0,0.0,-766.0,193.0,506.0,-410.0,-49.0,-159.0,44.0,0.0,274.0,580.0,-78.0,653.0,-0.015623,-0.043049,0.012324,0.0,-0.028038,0.007078,-0.018516,-0.015033,-0.013386,-0.043251,0.012131,0.0,0.010061,0.02125,0.002886,0.023915,4179.69043,11433.509766,51285.960938,0.0,-18108.091797,-17623.980469,17879.128906,-17367.03125,4112.009766,11452.230469,51515.28125,0.0,17699.580078,17709.929688,-17319.78125,18100.349609,0.0,0.0,0.0,0.0,0.0,0.0,0.0,0.0,0.0,0.0,0.0,0.0,0.0,0.0,0.0,0.0,0.0,0.0,0.0,0.0,0.0,0.0,0.0,0.0,0.0,0.0,0.0,0.0,0.0,0.0,0.0,0.0,4179.69873,11433.430664,51286.074219,0.0,-18107.912109,-17623.986328,17879.392578,-17366.765625,4111.993652,11452.161133,51515.308594,0.0,17699.582031,17709.927734,-17319.804688,18100.333984,30.688791,89.621536,22.795858,0.0,-88.226479,0.881924,27.080931,29.92837,30.191679,89.847969,22.904102,0.0,-2.070742,-0.091854,43.523651,43.279457,0.993,1.515,-45329.0,-128620.0,-509203.0,0.0,175099.0,174656.0,-179949.0,171267.0,-45278.0,-128155.0,-574426.0,0.0,-197016.0,-196802.0,192794.0,-201559.0,0.0,0.0,0.0,0.0,0.0,0.0,0.0,0.0,0.0,0.0,0.0,0.0,0.0,0.0,0.0,0.0,0.0,0.0,0.0,0.0,0.0,0.0,0.0,0.0
17,1.2635290622711182,30.68873,89.6222,22.795801,0.0,-88.259399,0.882434,27.051559,29.899149,30.191799,89.848526,22.904083,0.0,-2.071219,-0.091755,43.526295,43.28117,3.0,1.0,111.0,0.0,1.0,-79773.0,-26773.0,12946.0,-78126.0,25596.0,13092.0,-0.932643,0.297562,0.204044,-0.335154,-0.923911,-0.184556,0.133601,-0.24051,0.961408,-0.938581,0.218726,0.266879,0.308337,0.184438,0.933226,0.154898,0.958197,-0.240552,-0.932643,0.297562,0.204044,-0.335154,-0.923911,-0.184556,0.133601,-0.24051,0.961408,-0.938581,0.218726,0.266879,0.308337,0.184438,0.933226,0.154898,0.958197,-0.240552,-79773.0,-26773.0,12946.0,-78126.0,25596.0,13092.0,-1112.0,1581.0,-60641.0,0.0,-26102.0,-21166.0,-18708.0,-21700.0,411.0,-908.0,-2034.0,0.0,-354.0,-25.0,-352.0,-444.0,57.0,159.0,-45.0,0.0,-765.0,193.0,505.0,-410.0,-49.0,-159.0,44.0,0.0,274.0,580.0,-78.0,653.0,-0.015623,-0.043049,0.012324,0.0,-0.028027,0.007078,-0.0185,-0.015016,-0.013386,-0.043251,0.012131,0.0,0.010061,0.021249,0.002885,0.023914,4179.69043,11433.509766,51285.960938,0.0,-18108.091797,-17623.980469,17879.128906,-17367.03125,4112.009766,11452.230469,51515.28125,0.0,17699.580078,17709.929688,-17319.78125,18100.349609,0.0,0.0,0.0,0.0,0.0,0.0,0.0,0.0,0.0,0.0,0.0,0.0,0.0,0.0,0.0,0.0,0.0,0.0,0.0,0.0,0.0,0.0,0.0,0.0,0.0,0.0,0.0,0.0,0.0,0.0,0.0,0.0,4179.69873,11433.430664,51286.074219,0.0,-18107.912109,-17623.986328,17879.392578,-17366.765625,4111.993652,11452.161133,51515.308594,0.0,17699.582031,17709.927734,-17319.804688,18100.333984,30.688791,89.621536,22.795858,0.0,-88.226479,0.881924,27.080931,29.92837,30.191679,89.847969,22.904102,0.0,-2.070742,-0.091854,43.523651,43.279457,0.993,1.515,-45329.0,-128620.0,-509203.0,0.0,175099.0,174656.0,-179949.0,171267.0,-45278.0,-128155.0,-574426.0,0.0,-197016.0,-196802.0,192794.0,-201559.0,0.0,0.0,0.0,0.0,0.0,0.0,0.0,0.0,0.0,0.0,0.0,0.0,0.0,0.0,0.0,0.0,0.0,0.0,0.0,0.0,0.0,0.0,0.0,0.0
18,1.3355259895324707,30.68873,89.6222,22.795801,0.0,-88.259399,0.882434,27.051559,29.899149,30.191799,89.848526,22.904083,0.0,-2.071219,-0.091755,43.526295,43.28117,3.0,1.0,111.0,0.0,1.0,-79773.0,-26773.0,12946.0,-78126.0,25596.0,13092.0,-0.932643,0.297562,0.204044,-0.335154,-0.923911,-0.184556,0.133601,-0.24051,0.961408,-0.938581,0.218726,0.266879,0.308337,0.184438,0.933226,0.154898,0.958197,-0.240552,-0.932643,0.297562,0.204044,-0.335154,-0.923911,-0.184556,0.133601,-0.24051,0.961408,-0.938581,0.218726,0.266879,0.308337,0.184438,0.933226,0.154898,0.958197,-0.240552,-79773.0,-26773.0,12946.0,-78126.0,25596.0,13092.0,-1112.0,1581.0,-60641.0,0.0,-26102.0,-21166.0,-18708.0,-21700.0,411.0,-908.0,-2034.0,0.0,-354.0,-25.0,-352.0,-444.0,57.0,159.0,-45.0,0.0,-765.0,193.0,505.0,-409.0,-49.0,-159.0,44.0,0.0,274.0,580.0,-78.0,653.0,-0.015623,-0.043049,0.012324,0.0,-0.028016,0.007078,-0.018483,-0.015,-0.013386,-0.043251,0.012131,0.0,0.010061,0.021249,0.002883,0.023913,4179.69043,11433.509766,51285.960938,0.0,-18108.091797,-17623.980469,17879.128906,-17367.03125,4112.009766,11452.230469,51515.28125,0.0,17699.580078,17709.929688,-17319.78125,18100.349609,0.0,0.0,0.0,0.0,0.0,0.0,0.0,0.0,0.0,0.0,0.0,0.0,0.0,0.0,0.0,0.0,0.0,0.0,0.0,0.0,0.0,0.0,0.0,0.0,0.0,0.0,0.0,0.0,0.0,0.0,0.0,0.0,4179.69873,11433.430664,51286.074219,0.0,-18107.912109,-17623.986328,17879.392578,-17366.765625,4111.993652,11452.161133,51515.308594,0.0,17699.582031,17709.927734,-17319.804688,18100.333984,30.688791,89.621536,22.795858,0.0,-88.226479,0.881924,27.080931,29.92837,30.191679,89.847969,22.904102,0.0,-2.070742,-0.091854,43.523651,43.279457,0.993,1.515,-45329.0,-128620.0,-509203.0,0.0,175099.0,174656.0,-179949.0,171267.0,-45278.0,-128155.0,-574426.0,0.0,-197016.0,-196802.0,192794.0,-201559.0,0.0,0.0,0.0,0.0,0.0,0.0,0.0,0.0,0.0,0.0,0.0,0.0,0.0,0.0,0.0,0.0,0.0,0.0,0.0,0.0,0.0,0.0,0.0,0.0
19,1.4075310230255127,30.68873,89.6222,22.795801,0.0,-88.259399,0.882434,27.051559,29.899149,30.191799,89.848526,22.904083,0.0,-2.071219,-0.091755,43.526295,43.28117,3.0,1.0,111.0,0.0,1.0,-79773.0,-26773.0,12946.0,-78126.0,25596.0,13092.0,-0.932643,0.297562,0.204044,-0.335154,-0.923911,-0.184556,0.133601,-0.24051,0.961408,-0.938581,0.218726,0.266879,0.308337,0.184438,0.933226,0.154898,0.958197,-0.240552,-0.932643,0.297562,0.204044,-0.335154,-0.923911,-0.184556,0.133601,-0.24051,0.961408,-0.938581,0.218726,0.266879,0.308337,0.184438,0.933226,0.154898,0.958197,-0.240552,-79773.0,-26773.0,12946.0,-78126.0,25596.0,13092.0,-1112.0,1581.0,-60641.0,0.0,-26102.0,-21166.0,-18708.0,-21700.0,411.0,-908.0,-2034.0,0.0,-354.0,-25.0,-352.0,-444.0,57.0,159.0,-45.0,0.0,-765.0,193.0,504.0,-409.0,-49.0,-159.0,44.0,0.0,274.0,580.0,-78.0,653.0,-0.015623,-0.043049,0.012324,0.0,-0.028005,0.007077,-0.018467,-0.014983,-0.013386,-0.043251,0.012131,0.0,0.010062,0.021249,0.002882,0.023912,4179.69043,11433.509766,51285.960938,0.0,-18108.091797,-17623.980469,17879.128906,-17367.03125,4112.009766,11452.230469,51515.28125,0.0,17699.580078,17709.929688,-17319.78125,18100.349609,0.0,0.0,0.0,0.0,0.0,0.0,0.0,0.0,0.0,0.0,0.0,0.0,0.0,0.0,0.0,0.0,0.0,0.0,0.0,0.0,0.0,0.0,0.0,0.0,0.0,0.0,0.0,0.0,0.0,0.0,0.0,0.0,4179.69873,11433.430664,51286.074219,0.0,-18107.912109,-17623.986328,17879.392578,-17366.765625,4111.993652,11452.161133,51515.308594,0.0,17699.582031,17709.927734,-17319.804688,18100.333984,30.688791,89.621536,22.795858,0.0,-88.226479,0.881924,27.080931,29.92837,30.191679,89.847969,22.904102,0.0,-2.070742,-0.091854,43.523651,43.279457,0.993,1.515,-45329.0,-128620.0,-509203.0,0.0,175099.0,174656.0,-179949.0,171267.0,-45278.0,-128155.0,-574426.0,0.0,-197016.0,-196802.0,192794.0,-201559.0,0.0,0.0,0.0,0.0,0.0,0.0,0.0,0.0,0.0,0.0,0.0,0.0,0.0,0.0,0.0,0.0,0.0,0.0,0.0,0.0,0.0,0.0,0.0,0.0
20,1.4785330295562744,30.68873,89.6222,22.795801,0.0,-88.259399,0.882434,27.051559,29.899149,30.191799,89.848526,22.904083,0.0,-2.071219,-0.091755,43.526295,43.28117,3.0,1.0,111.0,0.0,1.0,-79773.0,-26773.0,12946.0,-78126.0,25596.0,13092.0,-0.932643,0.297562,0.204044,-0.335154,-0.923911,-0.184556,0.133601,-0.24051,0.961408,-0.938581,0.218726,0.266879,0.308337,0.184438,0.933226,0.154898,0.958197,-0.240552,-0.932643,0.297562,0.204044,-0.335154,-0.923911,-0.184556,0.133601,-0.24051,0.961408,-0.938581,0.218726,0.266879,0.308337,0.184438,0.933226,0.154898,0.958197,-0.240552,-79773.0,-26773.0,12946.0,-78126.0,25596.0,13092.0,-1112.0,1581.0,-60641.0,0.0,-26102.0,-21166.0,-18708.0,-21700.0,411.0,-908.0,-2034.0,0.0,-354.0,-25.0,-352.0,-444.0,57.0,159.0,-45.0,0.0,-765.0,193.0,504.0,-409.0,-49.0,-159.0,44.0,0.0,274.0,580.0,-78.0,653.0,-0.015623,-0.043049,0.012324,0.0,-0.027994,0.007077,-0.01845,-0.014966,-0.013386,-0.043251,0.012131,0.0,0.010062,0.021249,0.00288,0.023911,4179.69043,11433.509766,51285.960938,0.0,-18108.091797,-17623.980469,17879.128906,-17367.03125,4112.009766,11452.230469,51515.28125,0.0,17699.580078,17709.929688,-17319.78125,18100.349609,0.0,0.0,0.0,0.0,0.0,0.0,0.0,0.0,0.0,0.0,0.0,0.0,0.0,0.0,0.0,0.0,0.0,0.0,0.0,0.0,0.0,0.0,0.0,0.0,0.0,0.0,0.0,0.0,0.0,0.0,0.0,0.0,4179.69873,11433.430664,51286.074219,0.0,-18107.912109,-17623.986328,17879.392578,-17366.765625,4111.993652,11452.161133,51515.308594,0.0,17699.582031,17709.927734,-17319.804688,18100.333984,30.688791,89.621536,22.795858,0.0,-88.226479,0.881924,27.080931,29.92837,30.191679,89.847969,22.904102,0.0,-2.070742,-0.091854,43.523651,43.279457,0.993,1.515,-45329.0,-128620.0,-509203.0,0.0,175099.0,174656.0,-179949.0,171267.0,-45278.0,-128155.0,-574426.0,0.0,-197016.0,-196802.0,192794.0,-201559.0,0.0,0.0,0.0,0.0,0.0,0.0,0.0,0.0,0.0,0.0,0.0,0.0,0.0,0.0,0.0,0.0,0.0,0.0,0.0,0.0,0.0,0.0,0.0,0.0
21,1.5485310554504395,30.68873,89.6222,22.795801,0.0,-88.259399,0.882434,27.051559,29.899149,30.191799,89.848526,22.904083,0.0,-2.071219,-0.091755,43.526295,43.28117,3.0,1.0,111.0,0.0,1.0,-79773.0,-26773.0,12946.0,-78126.0,25596.0,13092.0,-0.932643,0.297562,0.204044,-0.335154,-0.923911,-0.184556,0.133601,-0.24051,0.961408,-0.938581,0.218726,0.266879,0.308337,0.184438,0.933226,0.154898,0.958197,-0.240552,-0.932643,0.297562,0.204044,-0.335154,-0.923911,-0.184556,0.133601,-0.24051,0.961408,-0.938581,0.218726,0.266879,0.308337,0.184438,0.933226,0.154898,0.958197,-0.240552,-79773.0,-26773.0,12946.0,-78126.0,25596.0,13092.0,-1112.0,1581.0,-60641.0,0.0,-26102.0,-21166.0,-18708.0,-21700.0,411.0,-908.0,-2034.0,0.0,-354.0,-25.0,-352.0,-444.0,57.0,159.0,-45.0,0.0,-764.0,193.0,503.0,-408.0,-49.0,-159.0,44.0,0.0,274.0,580.0,-78.0,653.0,-0.015623,-0.043049,0.012324,0.0,-0.027983,0.007077,-0.018434,-0.01495,-0.013386,-0.043251,0.012131,0.0,0.010062,0.021249,0.002879,0.02391,4179.69043,11433.509766,51285.960938,0.0,-18108.091797,-17623.980469,17879.128906,-17367.03125,4112.009766,11452.230469,51515.28125,0.0,17699.580078,17709.929688,-17319.78125,18100.349609,0.0,0.0,0.0,0.0,0.0,0.0,0.0,0.0,0.0,0.0,0.0,0.0,0.0,0.0,0.0,0.0,0.0,0.0,0.0,0.0,0.0,0.0,0.0,0.0,0.0,0.0,0.0,0.0,0.0,0.0,0.0,0.0,4179.69873,11433.430664,51286.074219,0.0,-18107.912109,-17623.986328,17879.392578,-17366.765625,4111.993652,11452.161133,51515.308594,0.0,17699.582031,17709.927734,-17319.804688,18100.333984,30.688791,89.621536,22.795858,0.0,-88.226479,0.881924,27.080931,29.92837,30.191679,89.847969,22.904102,0.0,-2.070742,-0.091854,43.523651,43.279457,0.993,1.515,-45329.0,-128620.0,-509203.0,0.0,175099.0,174656.0,-179949.0,171267.0,-45278.0,-128155.0,-574426.0,0.0,-197016.0,-196802.0,192794.0,-201559.0,0.0,0.0,0.0,0.0,0.0,0.0,0.0,0.0,0.0,0.0,0.0,0.0,0.0,0.0,0.0,0.0,0.0,0.0,0.0,0.0,0.0,0.0,0.0,0.0
22,1.6205239295959473,30.68873,89.6222,22.795801,0.0,-88.259399,0.882434,27.051559,29.899149,30.191799,89.848526,22.904083,0.0,-2.071219,-0.091755,43.526295,43.28117,3.0,1.0,111.0,0.0,1.0,-79773.0,-26773.0,12946.0,-78126.0,25596.0,13092.0,-0.932643,0.297562,0.204044,-0.335154,-0.923911,-0.184556,0.133601,-0.24051,0.961408,-0.938581,0.218726,0.266879,0.308337,0.184438,0.933226,0.154898,0.958197,-0.240552,-0.932643,0.297562,0.204044,-0.335154,-0.923911,-0.184556,0.133601,-0.24051,0.961408,-0.938581,0.218726,0.266879,0.308337,0.184438,0.933226,0.154898,0.958197,-0.240552,-79773.0,-26773.0,12946.0,-78126.0,25596.0,13092.0,-1112.0,1581.0,-60641.0,0.0,-26102.0,-21166.0,-18708.0,-21700.0,411.0,-908.0,-2034.0,0.0,-354.0,-25.0,-352.0,-444.0,57.0,159.0,-45.0,0.0,-764.0,193.0,503.0,-408.0,-49.0,-159.0,44.0,0.0,274.0,580.0,-78.0,653.0,-0.015623,-0.043049,0.012324,0.0,-0.027972,0.007076,-0.018418,-0.014933,-0.013386,-0.043251,0.012131,0.0,0.010062,0.021249,0.002877,0.023909,4179.69043,11433.509766,51285.960938,0.0,-18108.091797,-17623.980469,17879.128906,-17367.03125,4112.009766,11452.230469,51515.28125,0.0,17699.580078,17709.929688,-17319.78125,18100.349609,0.0,0.0,0.0,0.0,0.0,0.0,0.0,0.0,0.0,0.0,0.0,0.0,0.0,0.0,0.0,0.0,0.0,0.0,0.0,0.0,0.0,0.0,0.0,0.0,0.0,0.0,0.0,0.0,0.0,0.0,0.0,0.0,4179.69873,11433.430664,51286.074219,0.0,-18107.912109,-17623.986328,17879.392578,-17366.765625,4111.993652,11452.161133,51515.308594,0.0,17699.582031,17709.927734,-17319.804688,18100.333984,30.688791,89.621536,22.795858,0.0,-88.226479,0.881924,27.080931,29.92837,30.191679,89.847969,22.904102,0.0,-2.070742,-0.091854,43.523651,43.279457,0.993,1.515,-45329.0,-128620.0,-509203.0,0.0,175099.0,174656.0,-179949.0,171267.0,-45278.0,-128155.0,-574426.0,0.0,-197016.0,-196802.0,192794.0,-201559.0,0.0,0.0,0.0,0.0,0.0,0.0,0.0,0.0,0.0,0.0,0.0,0.0,0.0,0.0,0.0,0.0,0.0,0.0,0.0,0.0,0.0,0.0,0.0,0.0
23,1.6925349235534668,30.68873,89.6222,22.795801,0.0,-88.259399,0.882434,27.051559,29.899149,30.191799,89.848526,22.904083,0.0,-2.071219,-0.091755,43.526295,43.28117,3.0,1.0,111.0,0.0,1.0,-79773.0,-26773.0,12946.0,-78126.0,25596.0,13092.0,-0.932643,0.297562,0.204044,-0.335154,-0.923911,-0.184556,0.133601,-0.24051,0.961408,-0.938581,0.218726,0.266879,0.308337,0.184438,0.933226,0.154898,0.958197,-0.240552,-0.932643,0.297562,0.204044,-0.335154,-0.923911,-0.184556,0.133601,-0.24051,0.961408,-0.938581,0.218726,0.266879,0.308337,0.184438,0.933226,0.154898,0.958197,-0.240552,-79773.0,-26773.0,12946.0,-78126.0,25596.0,13092.0,-1112.0,1581.0,-60641.0,0.0,-26102.0,-21166.0,-18708.0,-21700.0,411.0,-908.0,-2034.0,0.0,-354.0,-25.0,-352.0,-444.0,57.0,159.0,-45.0,0.0,-764.0,193.0,502.0,-407.0,-49.0,-159.0,44.0,0.0,274.0,580.0,-78.0,653.0,-0.015623,-0.043049,0.012324,0.0,-0.027961,0.007076,-0.018401,-0.014917,-0.013386,-0.043251,0.012131,0.0,0.010062,0.021249,0.002875,0.023908,4179.69043,11433.509766,51285.960938,0.0,-18108.091797,-17623.980469,17879.128906,-17367.03125,4112.009766,11452.230469,51515.28125,0.0,17699.580078,17709.929688,-17319.78125,18100.349609,0.0,0.0,0.0,0.0,0.0,0.0,0.0,0.0,0.0,0.0,0.0,0.0,0.0,0.0,0.0,0.0,0.0,0.0,0.0,0.0,0.0,0.0,0.0,0.0,0.0,0.0,0.0,0.0,0.0,0.0,0.0,0.0,4179.69873,11433.430664,51286.074219,0.0,-18107.912109,-17623.986328,17879.392578,-17366.765625,4111.993652,11452.161133,51515.308594,0.0,17699.582031,17709.927734,-17319.804688,18100.333984,30.688791,89.621536,22.795858,0.0,-88.226479,0.881924,27.080931,29.92837,30.191679,89.847969,22.904102,0.0,-2.070742,-0.091854,43.523651,43.279457,0.993,1.515,-45329.0,-128620.0,-509203.0,0.0,175099.0,174656.0,-179949.0,171267.0,-45278.0,-128155.0,-574426.0,0.0,-197016.0,-196802.0,192794.0,-201559.0,0.0,0.0,0.0,0.0,0.0,0.0,0.0,0.0,0.0,0.0,0.0,0.0,0.0,0.0,0.0,0.0,0.0,0.0,0.0,0.0,0.0,0.0,0.0,0.0
24,1.763530969619751,30.68873,89.6222,22.795801,0.0,-88.259399,0.882434,27.051559,29.899149,30.191799,89.848526,22.904083,0.0,-2.071219,-0.091755,43.526295,43.28117,3.0,1.0,111.0,0.0,1.0,-79773.0,-26773.0,12946.0,-78126.0,25596.0,13092.0,-0.932643,0.297562,0.204044,-0.335154,-0.923911,-0.184556,0.133601,-0.24051,0.961408,-0.938581,0.218726,0.266879,0.308337,0.184438,0.933226,0.154898,0.958197,-0.240552,-0.932643,0.297562,0.204044,-0.335154,-0.923911,-0.184556,0.133601,-0.24051,0.961408,-0.938581,0.218726,0.266879,0.308337,0.184438,0.933226,0.154898,0.958197,-0.240552,-79773.0,-26773.0,12946.0,-78126.0,25596.0,13092.0,-1112.0,1581.0,-60641.0,0.0,-26102.0,-21166.0,-18708.0,-21700.0,411.0,-908.0,-2034.0,0.0,-354.0,-25.0,-352.0,-444.0,57.0,159.0,-45.0,0.0,-763.0,193.0,502.0,-407.0,-49.0,-159.0,44.0,0.0,274.0,580.0,-78.0,653.0,-0.015623,-0.043049,0.012324,0.0,-0.02795,0.007076,-0.018385,-0.0149,-0.013386,-0.043251,0.012131,0.0,0.010062,0.021249,0.002874,0.023907,4179.69043,11433.509766,51285.960938,0.0,-18108.091797,-17623.980469,17879.128906,-17367.03125,4112.009766,11452.230469,51515.28125,0.0,17699.580078,17709.929688,-17319.78125,18100.349609,0.0,0.0,0.0,0.0,0.0,0.0,0.0,0.0,0.0,0.0,0.0,0.0,0.0,0.0,0.0,0.0,0.0,0.0,0.0,0.0,0.0,0.0,0.0,0.0,0.0,0.0,0.0,0.0,0.0,0.0,0.0,0.0,4179.69873,11433.430664,51286.074219,0.0,-18107.912109,-17623.986328,17879.392578,-17366.765625,4111.993652,11452.161133,51515.308594,0.0,17699.582031,17709.927734,-17319.804688,18100.333984,30.688791,89.621536,22.795858,0.0,-88.226479,0.881924,27.080931,29.92837,30.191679,89.847969,22.904102,0.0,-2.070742,-0.091854,43.523651,43.279457,0.993,1.515,-45329.0,-128620.0,-509203.0,0.0,175099.0,174656.0,-179949.0,171267.0,-45278.0,-128155.0,-574426.0,0.0,-197016.0,-196802.0,192794.0,-201559.0,0.0,0.0,0.0,0.0,0.0,0.0,0.0,0.0,0.0,0.0,0.0,0.0,0.0,0.0,0.0,0.0,0.0,0.0,0.0,0.0,0.0,0.0,0.0,0.0
25,1.832529067993164,30.68873,89.6222,22.795801,0.0,-88.259399,0.882434,27.051559,29.899149,30.191799,89.848526,22.904083,0.0,-2.071219,-0.091755,43.526295,43.28117,3.0,1.0,111.0,0.0,1.0,-79773.0,-26773.0,12946.0,-78126.0,25596.0,13092.0,-0.932643,0.297562,0.204044,-0.335154,-0.923911,-0.184556,0.133601,-0.24051,0.961408,-0.938581,0.218726,0.266879,0.308337,0.184438,0.933226,0.154898,0.958197,-0.240552,-0.932643,0.297562,0.204044,-0.335154,-0.923911,-0.184556,0.133601,-0.24051,0.961408,-0.938581,0.218726,0.266879,0.308337,0.184438,0.933226,0.154898,0.958197,-0.240552,-79773.0,-26773.0,12946.0,-78126.0,25596.0,13092.0,-1112.0,1581.0,-60641.0,0.0,-26102.0,-21166.0,-18708.0,-21700.0,411.0,-908.0,-2034.0,0.0,-354.0,-25.0,-352.0,-444.0,57.0,159.0,-45.0,0.0,-763.0,193.0,501.0,-406.0,-49.0,-159.0,44.0,0.0,274.0,580.0,-78.0,653.0,-0.015623,-0.043049,0.012324,0.0,-0.027939,0.007075,-0.018369,-0.014884,-0.013386,-0.043251,0.012131,0.0,0.010062,0.021249,0.002872,0.023907,4179.69043,11433.509766,51285.960938,0.0,-18108.091797,-17623.980469,17879.128906,-17367.03125,4112.009766,11452.230469,51515.28125,0.0,17699.580078,17709.929688,-17319.78125,18100.349609,0.0,0.0,0.0,0.0,0.0,0.0,0.0,0.0,0.0,0.0,0.0,0.0,0.0,0.0,0.0,0.0,0.0,0.0,0.0,0.0,0.0,0.0,0.0,0.0,0.0,0.0,0.0,0.0,0.0,0.0,0.0,0.0,4179.69873,11433.430664,51286.074219,0.0,-18107.912109,-17623.986328,17879.392578,-17366.765625,4111.993652,11452.161133,51515.308594,0.0,17699.582031,17709.927734,-17319.804688,18100.333984,30.688791,89.621536,22.795858,0.0,-88.226479,0.881924,27.080931,29.92837,30.191679,89.847969,22.904102,0.0,-2.070742,-0.091854,43.523651,43.279457,0.993,1.515,-45329.0,-128620.0,-509203.0,0.0,175099.0,174656.0,-179949.0,171267.0,-45278.0,-128155.0,-574426.0,0.0,-197016.0,-196802.0,192794.0,-201559.0,0.0,0.0,0.0,0.0,0.0,0.0,0.0,0.0,0.0,0.0,0.0,0.0,0.0,0.0,0.0,0.0,0.0,0.0,0.0,0.0,0.0,0.0,0.0,0.0
26,1.9045779705047607,30.68873,89.6222,22.795801,0.0,-88.259399,0.882434,27.051559,29.899149,30.191799,89.848526,22.904083,0.0,-2.071219,-0.091755,43.526295,43.28117,3.0,1.0,111.0,0.0,1.0,-79773.0,-26773.0,12946.0,-78126.0,25596.0,13092.0,-0.932643,0.297562,0.204044,-0.335154,-0.923911,-0.184556,0.133601,-0.24051,0.961408,-0.938581,0.218726,0.266879,0.308337,0.184438,0.933226,0.154898,0.958197,-0.240552,-0.932643,0.297562,0.204044,-0.335154,-0.923911,-0.184556,0.133601,-0.24051,0.961408,-0.938581,0.218726,0.266879,0.308337,0.184438,0.933226,0.154898,0.958197,-0.240552,-79773.0,-26773.0,12946.0,-78126.0,25596.0,13092.0,-1112.0,1581.0,-60641.0,0.0,-26102.0,-21166.0,-18708.0,-21700.0,411.0,-908.0,-2034.0,0.0,-354.0,-25.0,-352.0,-444.0,57.0,159.0,-45.0,0.0,-763.0,193.0,501.0,-406.0,-49.0,-159.0,44.0,0.0,274.0,580.0,-78.0,653.0,-0.015623,-0.043049,0.012324,0.0,-0.027928,0.007075,-0.018352,-0.014867,-0.013386,-0.043251,0.012131,0.0,0.010062,0.021248,0.002871,0.023906,4179.69043,11433.509766,51285.960938,0.0,-18108.091797,-17623.980469,17879.128906,-17367.03125,4112.009766,11452.230469,51515.28125,0.0,17699.580078,17709.929688,-17319.78125,18100.349609,0.0,0.0,0.0,0.0,0.0,0.0,0.0,0.0,0.0,0.0,0.0,0.0,0.0,0.0,0.0,0.0,0.0,0.0,0.0,0.0,0.0,0.0,0.0,0.0,0.0,0.0,0.0,0.0,0.0,0.0,0.0,0.0,4179.69873,11433.430664,51286.074219,0.0,-18107.912109,-17623.986328,17879.392578,-17366.765625,4111.993652,11452.161133,51515.308594,0.0,17699.582031,17709.927734,-17319.804688,18100.333984,30.688791,89.621536,22.795858,0.0,-88.226479,0.881924,27.080931,29.92837,30.191679,89.847969,22.904102,0.0,-2.070742,-0.091854,43.523651,43.279457,0.993,1.515,-45329.0,-128620.0,-509203.0,0.0,175099.0,174656.0,-179949.0,171267.0,-45278.0,-128155.0,-574426.0,0.0,-197016.0,-196802.0,192794.0,-201559.0,0.0,0.0,0.0,0.0,0.0,0.0,0.0,0.0,0.0,0.0,0.0,0.0,0.0,0.0,0.0,0.0,0.0,0.0,0.0,0.0,0.0,0.0,0.0,0.0
27,1.9765260219573975,30.68873,89.6222,22.795801,0.0,-88.259399,0.882434,27.051559,29.899149,30.191799,89.848526,22.904083,0.0,-2.071219,-0.091755,43.526295,43.28117,3.0,1.0,111.0,0.0,1.0,-79773.0,-26773.0,12946.0,-78126.0,25596.0,13092.0,-0.932643,0.297562,0.204044,-0.335154,-0.923911,-0.184556,0.133601,-0.24051,0.961408,-0.938581,0.218726,0.266879,0.308337,0.184438,0.933226,0.154898,0.958197,-0.240552,-0.932643,0.297562,0.204044,-0.335154,-0.923911,-0.184556,0.133601,-0.24051,0.961408,-0.938581,0.218726,0.266879,0.308337,0.184438,0.933226,0.154898,0.958197,-0.240552,-79773.0,-26773.0,12946.0,-78126.0,25596.0,13092.0,-1112.0,1581.0,-60641.0,0.0,-26102.0,-21166.0,-18708.0,-21700.0,411.0,-908.0,-2034.0,0.0,-354.0,-25.0,-352.0,-444.0,57.0,159.0,-45.0,0.0,-762.0,193.0,501.0,-405.0,-49.0,-159.0,44.0,0.0,274.0,580.0,-78.0,653.0,-0.015623,-0.043049,0.012324,0.0,-0.027917,0.007075,-0.018336,-0.014851,-0.013386,-0.043251,0.012131,0.0,0.010062,0.021248,0.002869,0.023905,4179.69043,11433.509766,51285.960938,0.0,-18108.091797,-17623.980469,17879.128906,-17367.03125,4112.009766,11452.230469,51515.28125,0.0,17699.580078,17709.929688,-17319.78125,18100.349609,0.0,0.0,0.0,0.0,0.0,0.0,0.0,0.0,0.0,0.0,0.0,0.0,0.0,0.0,0.0,0.0,0.0,0.0,0.0,0.0,0.0,0.0,0.0,0.0,0.0,0.0,0.0,0.0,0.0,0.0,0.0,0.0,4179.69873,11433.430664,51286.074219,0.0,-18107.912109,-17623.986328,17879.392578,-17366.765625,4111.993652,11452.161133,51515.308594,0.0,17699.582031,17709.927734,-17319.804688,18100.333984,30.688791,89.621536,22.795858,0.0,-88.226479,0.881924,27.080931,29.92837,30.191679,89.847969,22.904102,0.0,-2.070742,-0.091854,43.523651,43.279457,0.993,1.515,-45329.0,-128620.0,-509203.0,0.0,175099.0,174656.0,-179949.0,171267.0,-45278.0,-128155.0,-574426.0,0.0,-197016.0,-196802.0,192794.0,-201559.0,0.0,0.0,0.0,0.0,0.0,0.0,0.0,0.0,0.0,0.0,0.0,0.0,0.0,0.0,0.0,0.0,0.0,0.0,0.0,0.0,0.0,0.0,0.0,0.0
28,2.0575950145721436,30.68873,89.6222,22.795801,0.0,-88.259399,0.882434,27.051559,29.899149,30.191799,89.848526,22.904083,0.0,-2.071219,-0.091755,43.526295,43.28117,3.0,1.0,111.0,0.0,1.0,-79773.0,-26773.0,12946.0,-78126.0,25596.0,13092.0,-0.932643,0.297562,0.204044,-0.335154,-0.923911,-0.184556,0.133601,-0.24051,0.961408,-0.938581,0.218726,0.266879,0.308337,0.184438,0.933226,0.154898,0.958197,-0.240552,-0.932643,0.297562,0.204044,-0.335154,-0.923911,-0.184556,0.133601,-0.24051,0.961408,-0.938581,0.218726,0.266879,0.308337,0.184438,0.933226,0.154898,0.958197,-0.240552,-79773.0,-26773.0,12946.0,-78126.0,25596.0,13092.0,-1112.0,1581.0,-60641.0,0.0,-26102.0,-21166.0,-18708.0,-21700.0,411.0,-908.0,-2034.0,0.0,-354.0,-25.0,-352.0,-444.0,57.0,159.0,-45.0,0.0,-762.0,193.0,500.0,-405.0,-49.0,-159.0,44.0,0.0,274.0,580.0,-78.0,653.0,-0.015623,-0.043049,0.012324,0.0,-0.027904,0.007074,-0.018317,-0.014832,-0.013386,-0.043251,0.012131,0.0,0.010063,0.021248,0.002868,0.023903,4179.69043,11433.509766,51285.960938,0.0,-18108.091797,-17623.980469,17879.128906,-17367.03125,4112.009766,11452.230469,51515.28125,0.0,17699.580078,17709.929688,-17319.78125,18100.349609,0.0,0.0,0.0,0.0,0.0,0.0,0.0,0.0,0.0,0.0,0.0,0.0,0.0,0.0,0.0,0.0,0.0,0.0,0.0,0.0,0.0,0.0,0.0,0.0,0.0,0.0,0.0,0.0,0.0,0.0,0.0,0.0,4179.69873,11433.430664,51286.074219,0.0,-18107.912109,-17623.986328,17879.392578,-17366.765625,4111.993652,11452.161133,51515.308594,0.0,17699.582031,17709.927734,-17319.804688,18100.333984,30.688791,89.621536,22.795858,0.0,-88.226479,0.881924,27.080931,29.92837,30.191679,89.847969,22.904102,0.0,-2.070742,-0.091854,43.523651,43.279457,0.993,1.515,-45329.0,-128620.0,-509203.0,0.0,175099.0,174656.0,-179949.0,171267.0,-45278.0,-128155.0,-574426.0,0.0,-197016.0,-196802.0,192794.0,-201559.0,0.0,0.0,0.0,0.0,0.0,0.0,0.0,0.0,0.0,0.0,0.0,0.0,0.0,0.0,0.0,0.0,0.0,0.0,0.0,0.0,0.0,0.0,0.0,0.0
29,2.135535955429077,30.68873,89.6222,22.795801,0.0,-88.259399,0.882434,27.051559,29.899149,30.191799,89.848526,22.904083,0.0,-2.071219,-0.091755,43.526295,43.28117,3.0,1.0,111.0,0.0,1.0,-79773.0,-26773.0,12946.0,-78126.0,25596.0,13092.0,-0.932643,0.297562,0.204044,-0.335154,-0.923911,-0.184556,0.133601,-0.24051,0.961408,-0.938581,0.218726,0.266879,0.308337,0.184438,0.933226,0.154898,0.958197,-0.240552,-0.932643,0.297562,0.204044,-0.335154,-0.923911,-0.184556,0.133601,-0.24051,0.961408,-0.938581,0.218726,0.266879,0.308337,0.184438,0.933226,0.154898,0.958197,-0.240552,-79773.0,-26773.0,12946.0,-78126.0,25596.0,13092.0,-1112.0,1581.0,-60641.0,0.0,-26102.0,-21166.0,-18708.0,-21700.0,411.0,-908.0,-2034.0,0.0,-354.0,-25.0,-352.0,-444.0,57.0,159.0,-45.0,0.0,-762.0,193.0,500.0,-404.0,-49.0,-159.0,44.0,0.0,274.0,580.0,-78.0,653.0,-0.015623,-0.043049,0.012324,0.0,-0.027892,0.007074,-0.018299,-0.014814,-0.013386,-0.043251,0.012131,0.0,0.010063,0.021248,0.002866,0.023902,4179.69043,11433.509766,51285.960938,0.0,-18108.091797,-17623.980469,17879.128906,-17367.03125,4112.009766,11452.230469,51515.28125,0.0,17699.580078,17709.929688,-17319.78125,18100.349609,0.0,0.0,0.0,0.0,0.0,0.0,0.0,0.0,0.0,0.0,0.0,0.0,0.0,0.0,0.0,0.0,0.0,0.0,0.0,0.0,0.0,0.0,0.0,0.0,0.0,0.0,0.0,0.0,0.0,0.0,0.0,0.0,4179.69873,11433.430664,51286.074219,0.0,-18107.912109,-17623.986328,17879.392578,-17366.765625,4111.993652,11452.161133,51515.308594,0.0,17699.582031,17709.927734,-17319.804688,18100.333984,30.688791,89.621536,22.795858,0.0,-88.226479,0.881924,27.080931,29.92837,30.191679,89.847969,22.904102,0.0,-2.070742,-0.091854,43.523651,43.279457,0.993,1.515,-45329.0,-128620.0,-509203.0,0.0,175099.0,174656.0,-179949.0,171267.0,-45278.0,-128155.0,-574426.0,0.0,-197016.0,-196802.0,192794.0,-201559.0,0.0,0.0,0.0,0.0,0.0,0.0,0.0,0.0,0.0,0.0,0.0,0.0,0.0,0.0,0.0,0.0,0.0,0.0,0.0,0.0,0.0,0.0,0.0,0.0
30,2.208523988723755,30.68873,89.6222,22.795801,0.0,-88.259399,0.882434,27.051559,29.899149,30.191799,89.848526,22.904083,0.0,-2.071219,-0.091755,43.526295,43.28117,3.0,1.0,111.0,0.0,1.0,-79773.0,-26773.0,12946.0,-78126.0,25596.0,13092.0,-0.932643,0.297562,0.204044,-0.335154,-0.923911,-0.184556,0.133601,-0.24051,0.961408,-0.938581,0.218726,0.266879,0.308337,0.184438,0.933226,0.154898,0.958197,-0.240552,-0.932643,0.297562,0.204044,-0.335154,-0.923911,-0.184556,0.133601,-0.24051,0.961408,-0.938581,0.218726,0.266879,0.308337,0.184438,0.933226,0.154898,0.958197,-0.240552,-79773.0,-26773.0,12946.0,-78126.0,25596.0,13092.0,-1112.0,1581.0,-60641.0,0.0,-26102.0,-21166.0,-18708.0,-21700.0,411.0,-908.0,-2034.0,0.0,-354.0,-25.0,-352.0,-444.0,57.0,159.0,-45.0,0.0,-761.0,193.0,499.0,-404.0,-49.0,-159.0,44.0,0.0,274.0,580.0,-78.0,653.0,-0.015623,-0.043049,0.012324,0.0,-0.027881,0.007074,-0.018283,-0.014797,-0.013386,-0.043251,0.012131,0.0,0.010063,0.021248,0.002864,0.023901,4179.69043,11433.509766,51285.960938,0.0,-18108.091797,-17623.980469,17879.128906,-17367.03125,4112.009766,11452.230469,51515.28125,0.0,17699.580078,17709.929688,-17319.78125,18100.349609,0.0,0.0,0.0,0.0,0.0,0.0,0.0,0.0,0.0,0.0,0.0,0.0,0.0,0.0,0.0,0.0,0.0,0.0,0.0,0.0,0.0,0.0,0.0,0.0,0.0,0.0,0.0,0.0,0.0,0.0,0.0,0.0,4179.69873,11433.430664,51286.074219,0.0,-18107.912109,-17623.986328,17879.392578,-17366.765625,4111.993652,11452.161133,51515.308594,0.0,17699.582031,17709.927734,-17319.804688,18100.333984,30.688791,89.621536,22.795858,0.0,-88.226479,0.881924,27.080931,29.92837,30.191679,89.847969,22.904102,0.0,-2.070742,-0.091854,43.523651,43.279457,0.993,1.515,-45329.0,-128620.0,-509203.0,0.0,175099.0,174656.0,-179949.0,171267.0,-45278.0,-128155.0,-574426.0,0.0,-197016.0,-196802.0,192794.0,-201559.0,0.0,0.0,0.0,0.0,0.0,0.0,0.0,0.0,0.0,0.0,0.0,0.0,0.0,0.0,0.0,0.0,0.0,0.0,0.0,0.0,0.0,0.0,0.0,0.0
31,2.2815449237823486,30.68873,89.6222,22.795801,0.0,-88.259399,0.882434,27.051559,29.899149,30.191799,89.848526,22.904083,0.0,-2.071219,-0.091755,43.526295,43.28117,3.0,1.0,111.0,0.0,1.0,-79773.0,-26773.0,12946.0,-78126.0,25596.0,13092.0,-0.932643,0.297562,0.204044,-0.335154,-0.923911,-0.184556,0.133601,-0.24051,0.961408,-0.938581,0.218726,0.266879,0.308337,0.184438,0.933226,0.154898,0.958197,-0.240552,-0.932643,0.297562,0.204044,-0.335154,-0.923911,-0.184556,0.133601,-0.24051,0.961408,-0.938581,0.218726,0.266879,0.308337,0.184438,0.933226,0.154898,0.958197,-0.240552,-79773.0,-26773.0,12946.0,-78126.0,25596.0,13092.0,-1112.0,1581.0,-60641.0,0.0,-26102.0,-21166.0,-18708.0,-21700.0,411.0,-908.0,-2034.0,0.0,-354.0,-25.0,-352.0,-444.0,57.0,159.0,-45.0,0.0,-761.0,193.0,499.0,-403.0,-49.0,-159.0,44.0,0.0,275.0,580.0,-78.0,653.0,-0.015623,-0.043049,0.012324,0.0,-0.027869,0.007073,-0.018266,-0.01478,-0.013386,-0.043251,0.012131,0.0,0.010063,0.021248,0.002863,0.0239,4179.69043,11433.509766,51285.960938,0.0,-18108.091797,-17623.980469,17879.128906,-17367.03125,4112.009766,11452.230469,51515.28125,0.0,17699.580078,17709.929688,-17319.78125,18100.349609,0.0,0.0,0.0,0.0,0.0,0.0,0.0,0.0,0.0,0.0,0.0,0.0,0.0,0.0,0.0,0.0,0.0,0.0,0.0,0.0,0.0,0.0,0.0,0.0,0.0,0.0,0.0,0.0,0.0,0.0,0.0,0.0,4179.69873,11433.430664,51286.074219,0.0,-18107.912109,-17623.986328,17879.392578,-17366.765625,4111.993652,11452.161133,51515.308594,0.0,17699.582031,17709.927734,-17319.804688,18100.333984,30.688791,89.621536,22.795858,0.0,-88.226479,0.881924,27.080931,29.92837,30.191679,89.847969,22.904102,0.0,-2.070742,-0.091854,43.523651,43.279457,0.993,1.515,-45329.0,-128620.0,-509203.0,0.0,175099.0,174656.0,-179949.0,171267.0,-45278.0,-128155.0,-574426.0,0.0,-197016.0,-196802.0,192794.0,-201559.0,0.0,0.0,0.0,0.0,0.0,0.0,0.0,0.0,0.0,0.0,0.0,0.0,0.0,0.0,0.0,0.0,0.0,0.0,0.0,0.0,0.0,0.0,0.0,0.0
32,2.352499008178711,30.68873,89.6222,22.795801,0.0,-88.259399,0.882434,27.051559,29.899149,30.191799,89.848526,22.904083,0.0,-2.071219,-0.091755,43.526295,43.28117,3.0,1.0,111.0,0.0,1.0,-79773.0,-26773.0,12946.0,-78126.0,25596.0,13092.0,-0.932643,0.297562,0.204044,-0.335154,-0.923911,-0.184556,0.133601,-0.24051,0.961408,-0.938581,0.218726,0.266879,0.308337,0.184438,0.933226,0.154898,0.958197,-0.240552,-0.932643,0.297562,0.204044,-0.335154,-0.923911,-0.184556,0.133601,-0.24051,0.961408,-0.938581,0.218726,0.266879,0.308337,0.184438,0.933226,0.154898,0.958197,-0.240552,-79773.0,-26773.0,12946.0,-78126.0,25596.0,13092.0,-1112.0,1581.0,-60641.0,0.0,-26102.0,-21166.0,-18708.0,-21700.0,411.0,-908.0,-2034.0,0.0,-354.0,-25.0,-352.0,-444.0,57.0,159.0,-45.0,0.0,-761.0,193.0,498.0,-403.0,-49.0,-159.0,44.0,0.0,275.0,580.0,-78.0,653.0,-0.015623,-0.043049,0.012324,0.0,-0.027858,0.007073,-0.01825,-0.014763,-0.013386,-0.043251,0.012131,0.0,0.010063,0.021248,0.002861,0.0239,4179.69043,11433.509766,51285.960938,0.0,-18108.091797,-17623.980469,17879.128906,-17367.03125,4112.009766,11452.230469,51515.28125,0.0,17699.580078,17709.929688,-17319.78125,18100.349609,0.0,0.0,0.0,0.0,0.0,0.0,0.0,0.0,0.0,0.0,0.0,0.0,0.0,0.0,0.0,0.0,0.0,0.0,0.0,0.0,0.0,0.0,0.0,0.0,0.0,0.0,0.0,0.0,0.0,0.0,0.0,0.0,4179.69873,11433.430664,51286.074219,0.0,-18107.912109,-17623.986328,17879.392578,-17366.765625,4111.993652,11452.161133,51515.308594,0.0,17699.582031,17709.927734,-17319.804688,18100.333984,30.688791,89.621536,22.795858,0.0,-88.226479,0.881924,27.080931,29.92837,30.191679,89.847969,22.904102,0.0,-2.070742,-0.091854,43.523651,43.279457,0.993,1.515,-45329.0,-128620.0,-509203.0,0.0,175099.0,174656.0,-179949.0,171267.0,-45278.0,-128155.0,-574426.0,0.0,-197016.0,-196802.0,192794.0,-201559.0,0.0,0.0,0.0,0.0,0.0,0.0,0.0,0.0,0.0,0.0,0.0,0.0,0.0,0.0,0.0,0.0,0.0,0.0,0.0,0.0,0.0,0.0,0.0,0.0
33,2.4225311279296875,30.68873,89.6222,22.795801,0.0,-88.259399,0.882434,27.051559,29.899149,30.191799,89.848526,22.904083,0.0,-2.071219,-0.091755,43.526295,43.28117,3.0,1.0,111.0,0.0,1.0,-79773.0,-26773.0,12946.0,-78126.0,25596.0,13092.0,-0.932643,0.297562,0.204044,-0.335154,-0.923911,-0.184556,0.133601,-0.24051,0.961408,-0.938581,0.218726,0.266879,0.308337,0.184438,0.933226,0.154898,0.958197,-0.240552,-0.932643,0.297562,0.204044,-0.335154,-0.923911,-0.184556,0.133601,-0.24051,0.961408,-0.938581,0.218726,0.266879,0.308337,0.184438,0.933226,0.154898,0.958197,-0.240552,-79773.0,-26773.0,12946.0,-78126.0,25596.0,13092.0,-1112.0,1581.0,-60641.0,0.0,-26102.0,-21166.0,-18708.0,-21700.0,411.0,-908.0,-2034.0,0.0,-354.0,-25.0,-352.0,-444.0,57.0,159.0,-45.0,0.0,-761.0,193.0,498.0,-403.0,-49.0,-159.0,44.0,0.0,275.0,580.0,-78.0,653.0,-0.015623,-0.043049,0.012324,0.0,-0.027848,0.007073,-0.018234,-0.014747,-0.013386,-0.043251,0.012131,0.0,0.010063,0.021248,0.00286,0.023899,4179.69043,11433.509766,51285.960938,0.0,-18108.091797,-17623.980469,17879.128906,-17367.03125,4112.009766,11452.230469,51515.28125,0.0,17699.580078,17709.929688,-17319.78125,18100.349609,0.0,0.0,0.0,0.0,0.0,0.0,0.0,0.0,0.0,0.0,0.0,0.0,0.0,0.0,0.0,0.0,0.0,0.0,0.0,0.0,0.0,0.0,0.0,0.0,0.0,0.0,0.0,0.0,0.0,0.0,0.0,0.0,4179.69873,11433.430664,51286.074219,0.0,-18107.912109,-17623.986328,17879.392578,-17366.765625,4111.993652,11452.161133,51515.308594,0.0,17699.582031,17709.927734,-17319.804688,18100.333984,30.688791,89.621536,22.795858,0.0,-88.226479,0.881924,27.080931,29.92837,30.191679,89.847969,22.904102,0.0,-2.070742,-0.091854,43.523651,43.279457,0.993,1.515,-45329.0,-128620.0,-509203.0,0.0,175099.0,174656.0,-179949.0,171267.0,-45278.0,-128155.0,-574426.0,0.0,-197016.0,-196802.0,192794.0,-201559.0,0.0,0.0,0.0,0.0,0.0,0.0,0.0,0.0,0.0,0.0,0.0,0.0,0.0,0.0,0.0,0.0,0.0,0.0,0.0,0.0,0.0,0.0,0.0,0.0
34,2.496530055999756,30.68873,89.6222,22.795801,0.0,-88.259399,0.882434,27.051559,29.899149,30.191799,89.848526,22.904083,0.0,-2.071219,-0.091755,43.526295,43.28117,3.0,1.0,111.0,0.0,1.0,-79773.0,-26773.0,12946.0,-78126.0,25596.0,13092.0,-0.932643,0.297562,0.204044,-0.335154,-0.923911,-0.184556,0.133601,-0.24051,0.961408,-0.938581,0.218726,0.266879,0.308337,0.184438,0.933226,0.154898,0.958197,-0.240552,-0.932643,0.297562,0.204044,-0.335154,-0.923911,-0.184556,0.133601,-0.24051,0.961408,-0.938581,0.218726,0.266879,0.308337,0.184438,0.933226,0.154898,0.958197,-0.240552,-79773.0,-26773.0,12946.0,-78126.0,25596.0,13092.0,-1112.0,1581.0,-60641.0,0.0,-26102.0,-21166.0,-18708.0,-21700.0,411.0,-908.0,-2034.0,0.0,-354.0,-25.0,-352.0,-444.0,57.0,159.0,-45.0,0.0,-760.0,193.0,497.0,-402.0,-49.0,-159.0,44.0,0.0,275.0,580.0,-78.0,653.0,-0.015623,-0.043049,0.012324,0.0,-0.027836,0.007072,-0.018217,-0.01473,-0.013386,-0.043251,0.012131,0.0,0.010063,0.021248,0.002858,0.023898,4179.69043,11433.509766,51285.960938,0.0,-18108.091797,-17623.980469,17879.128906,-17367.03125,4112.009766,11452.230469,51515.28125,0.0,17699.580078,17709.929688,-17319.78125,18100.349609,0.0,0.0,0.0,0.0,0.0,0.0,0.0,0.0,0.0,0.0,0.0,0.0,0.0,0.0,0.0,0.0,0.0,0.0,0.0,0.0,0.0,0.0,0.0,0.0,0.0,0.0,0.0,0.0,0.0,0.0,0.0,0.0,4179.69873,11433.430664,51286.074219,0.0,-18107.912109,-17623.986328,17879.392578,-17366.765625,4111.993652,11452.161133,51515.308594,0.0,17699.582031,17709.927734,-17319.804688,18100.333984,30.688791,89.621536,22.795858,0.0,-88.226479,0.881924,27.080931,29.92837,30.191679,89.847969,22.904102,0.0,-2.070742,-0.091854,43.523651,43.279457,0.993,1.515,-45329.0,-128620.0,-509203.0,0.0,175099.0,174656.0,-179949.0,171267.0,-45278.0,-128155.0,-574426.0,0.0,-197016.0,-196802.0,192794.0,-201559.0,0.0,0.0,0.0,0.0,0.0,0.0,0.0,0.0,0.0,0.0,0.0,0.0,0.0,0.0,0.0,0.0,0.0,0.0,0.0,0.0,0.0,0.0,0.0,0.0
35,2.576529026031494,30.68873,89.6222,22.795801,0.0,-88.259399,0.882434,27.051559,29.899149,30.191799,89.848526,22.904083,0.0,-2.071219,-0.091755,43.526295,43.28117,3.0,1.0,111.0,0.0,1.0,-79773.0,-26773.0,12946.0,-78126.0,25596.0,13092.0,-0.932643,0.297562,0.204044,-0.335154,-0.923911,-0.184556,0.133601,-0.24051,0.961408,-0.938581,0.218726,0.266879,0.308337,0.184438,0.933226,0.154898,0.958197,-0.240552,-0.932643,0.297562,0.204044,-0.335154,-0.923911,-0.184556,0.133601,-0.24051,0.961408,-0.938581,0.218726,0.266879,0.308337,0.184438,0.933226,0.154898,0.958197,-0.240552,-79773.0,-26773.0,12946.0,-78126.0,25596.0,13092.0,-1112.0,1581.0,-60641.0,0.0,-26102.0,-21166.0,-18708.0,-21700.0,411.0,-908.0,-2034.0,0.0,-354.0,-25.0,-352.0,-444.0,57.0,159.0,-45.0,0.0,-760.0,193.0,497.0,-402.0,-49.0,-159.0,44.0,0.0,275.0,580.0,-78.0,653.0,-0.015623,-0.043049,0.012324,0.0,-0.027824,0.007072,-0.018198,-0.014711,-0.013386,-0.043251,0.012131,0.0,0.010063,0.021247,0.002857,0.023897,4179.69043,11433.509766,51285.960938,0.0,-18108.091797,-17623.980469,17879.128906,-17367.03125,4112.009766,11452.230469,51515.28125,0.0,17699.580078,17709.929688,-17319.78125,18100.349609,0.0,0.0,0.0,0.0,0.0,0.0,0.0,0.0,0.0,0.0,0.0,0.0,0.0,0.0,0.0,0.0,0.0,0.0,0.0,0.0,0.0,0.0,0.0,0.0,0.0,0.0,0.0,0.0,0.0,0.0,0.0,0.0,4179.69873,11433.430664,51286.074219,0.0,-18107.912109,-17623.986328,17879.392578,-17366.765625,4111.993652,11452.161133,51515.308594,0.0,17699.582031,17709.927734,-17319.804688,18100.333984,30.688791,89.621536,22.795858,0.0,-88.226479,0.881924,27.080931,29.92837,30.191679,89.847969,22.904102,0.0,-2.070742,-0.091854,43.523651,43.279457,0.993,1.515,-45329.0,-128620.0,-509203.0,0.0,175099.0,174656.0,-179949.0,171267.0,-45278.0,-128155.0,-574426.0,0.0,-197016.0,-196802.0,192794.0,-201559.0,0.0,0.0,0.0,0.0,0.0,0.0,0.0,0.0,0.0,0.0,0.0,0.0,0.0,0.0,0.0,0.0,0.0,0.0,0.0,0.0,0.0,0.0,0.0,0.0
36,2.6465320587158203,30.68873,89.6222,22.795801,0.0,-88.259399,0.882434,27.051559,29.899149,30.191799,89.848526,22.904083,0.0,-2.071219,-0.091755,43.526295,43.28117,3.0,1.0,111.0,0.0,1.0,-79773.0,-26773.0,12946.0,-78126.0,25596.0,13092.0,-0.932643,0.297562,0.204044,-0.335154,-0.923911,-0.184556,0.133601,-0.24051,0.961408,-0.938581,0.218726,0.266879,0.308337,0.184438,0.933226,0.154898,0.958197,-0.240552,-0.932643,0.297562,0.204044,-0.335154,-0.923911,-0.184556,0.133601,-0.24051,0.961408,-0.938581,0.218726,0.266879,0.308337,0.184438,0.933226,0.154898,0.958197,-0.240552,-79773.0,-26773.0,12946.0,-78126.0,25596.0,13092.0,-1112.0,1581.0,-60641.0,0.0,-26102.0,-21166.0,-18708.0,-21700.0,411.0,-908.0,-2034.0,0.0,-354.0,-25.0,-352.0,-444.0,57.0,159.0,-45.0,0.0,-760.0,193.0,496.0,-401.0,-49.0,-159.0,44.0,0.0,275.0,580.0,-78.0,653.0,-0.015623,-0.043049,0.012324,0.0,-0.027813,0.007072,-0.018182,-0.014695,-0.013386,-0.043251,0.012131,0.0,0.010063,0.021247,0.002855,0.023896,4179.69043,11433.509766,51285.960938,0.0,-18108.091797,-17623.980469,17879.128906,-17367.03125,4112.009766,11452.230469,51515.28125,0.0,17699.580078,17709.929688,-17319.78125,18100.349609,0.0,0.0,0.0,0.0,0.0,0.0,0.0,0.0,0.0,0.0,0.0,0.0,0.0,0.0,0.0,0.0,0.0,0.0,0.0,0.0,0.0,0.0,0.0,0.0,0.0,0.0,0.0,0.0,0.0,0.0,0.0,0.0,4179.69873,11433.430664,51286.074219,0.0,-18107.912109,-17623.986328,17879.392578,-17366.765625,4111.993652,11452.161133,51515.308594,0.0,17699.582031,17709.927734,-17319.804688,18100.333984,30.688791,89.621536,22.795858,0.0,-88.226479,0.881924,27.080931,29.92837,30.191679,89.847969,22.904102,0.0,-2.070742,-0.091854,43.523651,43.279457,0.993,1.515,-45329.0,-128620.0,-509203.0,0.0,175099.0,174656.0,-179949.0,171267.0,-45278.0,-128155.0,-574426.0,0.0,-197016.0,-196802.0,192794.0,-201559.0,0.0,0.0,0.0,0.0,0.0,0.0,0.0,0.0,0.0,0.0,0.0,0.0,0.0,0.0,0.0,0.0,0.0,0.0,0.0,0.0,0.0,0.0,0.0,0.0
37,2.7165300846099854,30.68873,89.6222,22.795801,0.0,-88.259399,0.882434,27.051559,29.899149,30.191799,89.848526,22.904083,0.0,-2.071219,-0.091755,43.526295,43.28117,3.0,1.0,111.0,0.0,1.0,-79773.0,-26773.0,12946.0,-78126.0,25596.0,13092.0,-0.932643,0.297562,0.204044,-0.335154,-0.923911,-0.184556,0.133601,-0.24051,0.961408,-0.938581,0.218726,0.266879,0.308337,0.184438,0.933226,0.154898,0.958197,-0.240552,-0.932643,0.297562,0.204044,-0.335154,-0.923911,-0.184556,0.133601,-0.24051,0.961408,-0.938581,0.218726,0.266879,0.308337,0.184438,0.933226,0.154898,0.958197,-0.240552,-79773.0,-26773.0,12946.0,-78126.0,25596.0,13092.0,-1112.0,1581.0,-60641.0,0.0,-26102.0,-21166.0,-18708.0,-21700.0,411.0,-908.0,-2034.0,0.0,-354.0,-25.0,-352.0,-444.0,57.0,159.0,-45.0,0.0,-759.0,193.0,496.0,-401.0,-49.0,-159.0,44.0,0.0,275.0,580.0,-77.0,653.0,-0.015623,-0.043049,0.012324,0.0,-0.027802,0.007071,-0.018166,-0.014679,-0.013386,-0.043251,0.012131,0.0,0.010064,0.021247,0.002854,0.023895,4179.69043,11433.509766,51285.960938,0.0,-18108.091797,-17623.980469,17879.128906,-17367.03125,4112.009766,11452.230469,51515.28125,0.0,17699.580078,17709.929688,-17319.78125,18100.349609,0.0,0.0,0.0,0.0,0.0,0.0,0.0,0.0,0.0,0.0,0.0,0.0,0.0,0.0,0.0,0.0,0.0,0.0,0.0,0.0,0.0,0.0,0.0,0.0,0.0,0.0,0.0,0.0,0.0,0.0,0.0,0.0,4179.69873,11433.430664,51286.074219,0.0,-18107.912109,-17623.986328,17879.392578,-17366.765625,4111.993652,11452.161133,51515.308594,0.0,17699.582031,17709.927734,-17319.804688,18100.333984,30.688791,89.621536,22.795858,0.0,-88.226479,0.881924,27.080931,29.92837,30.191679,89.847969,22.904102,0.0,-2.070742,-0.091854,43.523651,43.279457,0.993,1.515,-45329.0,-128620.0,-509203.0,0.0,175099.0,174656.0,-179949.0,171267.0,-45278.0,-128155.0,-574426.0,0.0,-197016.0,-196802.0,192794.0,-201559.0,0.0,0.0,0.0,0.0,0.0,0.0,0.0,0.0,0.0,0.0,0.0,0.0,0.0,0.0,0.0,0.0,0.0,0.0,0.0,0.0,0.0,0.0,0.0,0.0
38,2.7965290546417236,30.68873,89.6222,22.795801,0.0,-88.259399,0.882434,27.051559,29.899149,30.191799,89.848526,22.904083,0.0,-2.071219,-0.091755,43.526295,43.28117,3.0,1.0,111.0,0.0,1.0,-79773.0,-26773.0,12946.0,-78126.0,25596.0,13092.0,-0.932643,0.297562,0.204044,-0.335154,-0.923911,-0.184556,0.133601,-0.24051,0.961408,-0.938581,0.218726,0.266879,0.308337,0.184438,0.933226,0.154898,0.958197,-0.240552,-0.932643,0.297562,0.204044,-0.335154,-0.923911,-0.184556,0.133601,-0.24051,0.961408,-0.938581,0.218726,0.266879,0.308337,0.184438,0.933226,0.154898,0.958197,-0.240552,-79773.0,-26773.0,12946.0,-78126.0,25596.0,13092.0,-1112.0,1581.0,-60641.0,0.0,-26102.0,-21166.0,-18708.0,-21700.0,411.0,-908.0,-2034.0,0.0,-354.0,-25.0,-352.0,-444.0,57.0,159.0,-45.0,0.0,-759.0,193.0,495.0,-400.0,-49.0,-159.0,44.0,0.0,275.0,580.0,-77.0,652.0,-0.015623,-0.043049,0.012324,0.0,-0.02779,0.007071,-0.018148,-0.01466,-0.013386,-0.043251,0.012131,0.0,0.010064,0.021247,0.002852,0.023894,4179.69043,11433.509766,51285.960938,0.0,-18108.091797,-17623.980469,17879.128906,-17367.03125,4112.009766,11452.230469,51515.28125,0.0,17699.580078,17709.929688,-17319.78125,18100.349609,0.0,0.0,0.0,0.0,0.0,0.0,0.0,0.0,0.0,0.0,0.0,0.0,0.0,0.0,0.0,0.0,0.0,0.0,0.0,0.0,0.0,0.0,0.0,0.0,0.0,0.0,0.0,0.0,0.0,0.0,0.0,0.0,4179.69873,11433.430664,51286.074219,0.0,-18107.912109,-17623.986328,17879.392578,-17366.765625,4111.993652,11452.161133,51515.308594,0.0,17699.582031,17709.927734,-17319.804688,18100.333984,30.688791,89.621536,22.795858,0.0,-88.226479,0.881924,27.080931,29.92837,30.191679,89.847969,22.904102,0.0,-2.070742,-0.091854,43.523651,43.279457,0.993,1.515,-45329.0,-128620.0,-509203.0,0.0,175099.0,174656.0,-179949.0,171267.0,-45278.0,-128155.0,-574426.0,0.0,-197016.0,-196802.0,192794.0,-201559.0,0.0,0.0,0.0,0.0,0.0,0.0,0.0,0.0,0.0,0.0,0.0,0.0,0.0,0.0,0.0,0.0,0.0,0.0,0.0,0.0,0.0,0.0,0.0,0.0
39,2.8655309677124023,30.68873,89.6222,22.795801,0.0,-88.259399,0.882434,27.051559,29.899149,30.191799,89.848526,22.904083,0.0,-2.071219,-0.091755,43.526295,43.28117,3.0,1.0,111.0,0.0,1.0,-79773.0,-26773.0,12946.0,-78126.0,25596.0,13092.0,-0.932643,0.297562,0.204044,-0.335154,-0.923911,-0.184556,0.133601,-0.24051,0.961408,-0.938581,0.218726,0.266879,0.308337,0.184438,0.933226,0.154898,0.958197,-0.240552,-0.932643,0.297562,0.204044,-0.335154,-0.923911,-0.184556,0.133601,-0.24051,0.961408,-0.938581,0.218726,0.266879,0.308337,0.184438,0.933226,0.154898,0.958197,-0.240552,-79773.0,-26773.0,12946.0,-78126.0,25596.0,13092.0,-1112.0,1581.0,-60641.0,0.0,-26102.0,-21166.0,-18708.0,-21700.0,411.0,-908.0,-2034.0,0.0,-354.0,-25.0,-352.0,-444.0,57.0,159.0,-45.0,0.0,-759.0,193.0,495.0,-400.0,-49.0,-159.0,44.0,0.0,275.0,580.0,-77.0,652.0,-0.015623,-0.043049,0.012324,0.0,-0.027779,0.007071,-0.018132,-0.014644,-0.013386,-0.043251,0.012131,0.0,0.010064,0.021247,0.00285,0.023893,4179.69043,11433.509766,51285.960938,0.0,-18108.091797,-17623.980469,17879.128906,-17367.03125,4112.009766,11452.230469,51515.28125,0.0,17699.580078,17709.929688,-17319.78125,18100.349609,0.0,0.0,0.0,0.0,0.0,0.0,0.0,0.0,0.0,0.0,0.0,0.0,0.0,0.0,0.0,0.0,0.0,0.0,0.0,0.0,0.0,0.0,0.0,0.0,0.0,0.0,0.0,0.0,0.0,0.0,0.0,0.0,4179.69873,11433.430664,51286.074219,0.0,-18107.912109,-17623.986328,17879.392578,-17366.765625,4111.993652,11452.161133,51515.308594,0.0,17699.582031,17709.927734,-17319.804688,18100.333984,30.688791,89.621536,22.795858,0.0,-88.226479,0.881924,27.080931,29.92837,30.191679,89.847969,22.904102,0.0,-2.070742,-0.091854,43.523651,43.279457,0.993,1.515,-45329.0,-128620.0,-509203.0,0.0,175099.0,174656.0,-179949.0,171267.0,-45278.0,-128155.0,-574426.0,0.0,-197016.0,-196802.0,192794.0,-201559.0,0.0,0.0,0.0,0.0,0.0,0.0,0.0,0.0,0.0,0.0,0.0,0.0,0.0,0.0,0.0,0.0,0.0,0.0,0.0,0.0,0.0,0.0,0.0,0.0
40,2.937507152557373,30.68873,89.6222,22.795801,0.0,-88.259399,0.882434,27.051559,29.899149,30.191799,89.848526,22.904083,0.0,-2.071219,-0.091755,43.526295,43.28117,3.0,1.0,111.0,0.0,1.0,-79773.0,-26773.0,12946.0,-78126.0,25596.0,13092.0,-0.932643,0.297562,0.204044,-0.335154,-0.923911,-0.184556,0.133601,-0.24051,0.961408,-0.938581,0.218726,0.266879,0.308337,0.184438,0.933226,0.154898,0.958197,-0.240552,-0.932643,0.297562,0.204044,-0.335154,-0.923911,-0.184556,0.133601,-0.24051,0.961408,-0.938581,0.218726,0.266879,0.308337,0.184438,0.933226,0.154898,0.958197,-0.240552,-79773.0,-26773.0,12946.0,-78126.0,25596.0,13092.0,-1112.0,1581.0,-60641.0,0.0,-26102.0,-21166.0,-18708.0,-21700.0,411.0,-908.0,-2034.0,0.0,-354.0,-25.0,-352.0,-444.0,57.0,159.0,-45.0,0.0,-758.0,193.0,495.0,-399.0,-49.0,-159.0,44.0,0.0,275.0,580.0,-77.0,652.0,-0.015623,-0.043049,0.012324,0.0,-0.027768,0.007071,-0.018115,-0.014627,-0.013386,-0.043251,0.012131,0.0,0.010064,0.021247,0.002849,0.023892,4179.69043,11433.509766,51285.960938,0.0,-18108.091797,-17623.980469,17879.128906,-17367.03125,4112.009766,11452.230469,51515.28125,0.0,17699.580078,17709.929688,-17319.78125,18100.349609,0.0,0.0,0.0,0.0,0.0,0.0,0.0,0.0,0.0,0.0,0.0,0.0,0.0,0.0,0.0,0.0,0.0,0.0,0.0,0.0,0.0,0.0,0.0,0.0,0.0,0.0,0.0,0.0,0.0,0.0,0.0,0.0,4179.69873,11433.430664,51286.074219,0.0,-18107.912109,-17623.986328,17879.392578,-17366.765625,4111.993652,11452.161133,51515.308594,0.0,17699.582031,17709.927734,-17319.804688,18100.333984,30.688791,89.621536,22.795858,0.0,-88.226479,0.881924,27.080931,29.92837,30.191679,89.847969,22.904102,0.0,-2.070742,-0.091854,43.523651,43.279457,0.993,1.515,-45329.0,-128620.0,-509203.0,0.0,175099.0,174656.0,-179949.0,171267.0,-45278.0,-128155.0,-574426.0,0.0,-197016.0,-196802.0,192794.0,-201559.0,0.0,0.0,0.0,0.0,0.0,0.0,0.0,0.0,0.0,0.0,0.0,0.0,0.0,0.0,0.0,0.0,0.0,0.0,0.0,0.0,0.0,0.0,0.0,0.0
41,3.0115230083465576,30.68873,89.6222,22.795801,0.0,-88.259399,0.882434,27.051559,29.899149,30.191799,89.848526,22.904083,0.0,-2.071219,-0.091755,43.526295,43.28117,3.0,1.0,111.0,0.0,1.0,-79773.0,-26773.0,12946.0,-78126.0,25596.0,13092.0,-0.932643,0.297562,0.204044,-0.335154,-0.923911,-0.184556,0.133601,-0.24051,0.961408,-0.938581,0.218726,0.266879,0.308337,0.184438,0.933226,0.154898,0.958197,-0.240552,-0.932643,0.297562,0.204044,-0.335154,-0.923911,-0.184556,0.133601,-0.24051,0.961408,-0.938581,0.218726,0.266879,0.308337,0.184438,0.933226,0.154898,0.958197,-0.240552,-79773.0,-26773.0,12946.0,-78126.0,25596.0,13092.0,-1112.0,1581.0,-60641.0,0.0,-26102.0,-21166.0,-18708.0,-21700.0,411.0,-908.0,-2034.0,0.0,-354.0,-25.0,-352.0,-444.0,57.0,159.0,-45.0,0.0,-758.0,193.0,494.0,-399.0,-49.0,-159.0,44.0,0.0,275.0,580.0,-77.0,652.0,-0.015623,-0.043049,0.012324,0.0,-0.027756,0.00707,-0.018098,-0.01461,-0.013386,-0.043251,0.012131,0.0,0.010064,0.021247,0.002847,0.023891,4179.69043,11433.509766,51285.960938,0.0,-18108.091797,-17623.980469,17879.128906,-17367.03125,4112.009766,11452.230469,51515.28125,0.0,17699.580078,17709.929688,-17319.78125,18100.349609,0.0,0.0,0.0,0.0,0.0,0.0,0.0,0.0,0.0,0.0,0.0,0.0,0.0,0.0,0.0,0.0,0.0,0.0,0.0,0.0,0.0,0.0,0.0,0.0,0.0,0.0,0.0,0.0,0.0,0.0,0.0,0.0,4179.69873,11433.430664,51286.074219,0.0,-18107.912109,-17623.986328,17879.392578,-17366.765625,4111.993652,11452.161133,51515.308594,0.0,17699.582031,17709.927734,-17319.804688,18100.333984,30.688791,89.621536,22.795858,0.0,-88.226479,0.881924,27.080931,29.92837,30.191679,89.847969,22.904102,0.0,-2.070742,-0.091854,43.523651,43.279457,0.993,1.515,-45329.0,-128620.0,-509203.0,0.0,175099.0,174656.0,-179949.0,171267.0,-45278.0,-128155.0,-574426.0,0.0,-197016.0,-196802.0,192794.0,-201559.0,0.0,0.0,0.0,0.0,0.0,0.0,0.0,0.0,0.0,0.0,0.0,0.0,0.0,0.0,0.0,0.0,0.0,0.0,0.0,0.0,0.0,0.0,0.0,0.0
42,3.082555055618286,30.68873,89.6222,22.795801,0.0,-88.259399,0.882434,27.051559,29.899149,30.191799,89.848526,22.904083,0.0,-2.071219,-0.091755,43.526295,43.28117,3.0,1.0,111.0,0.0,1.0,-79773.0,-26773.0,12946.0,-78126.0,25596.0,13092.0,-0.932643,0.297562,0.204044,-0.335154,-0.923911,-0.184556,0.133601,-0.24051,0.961408,-0.938581,0.218726,0.266879,0.308337,0.184438,0.933226,0.154898,0.958197,-0.240552,-0.932643,0.297562,0.204044,-0.335154,-0.923911,-0.184556,0.133601,-0.24051,0.961408,-0.938581,0.218726,0.266879,0.308337,0.184438,0.933226,0.154898,0.958197,-0.240552,-79773.0,-26773.0,12946.0,-78126.0,25596.0,13092.0,-1112.0,1581.0,-60641.0,0.0,-26102.0,-21166.0,-18708.0,-21700.0,411.0,-908.0,-2034.0,0.0,-354.0,-25.0,-352.0,-444.0,57.0,159.0,-45.0,0.0,-758.0,193.0,494.0,-398.0,-49.0,-159.0,44.0,0.0,275.0,580.0,-77.0,652.0,-0.015623,-0.043049,0.012324,0.0,-0.027745,0.00707,-0.018082,-0.014594,-0.013386,-0.043251,0.012131,0.0,0.010064,0.021247,0.002846,0.02389,4179.69043,11433.509766,51285.960938,0.0,-18108.091797,-17623.980469,17879.128906,-17367.03125,4112.009766,11452.230469,51515.28125,0.0,17699.580078,17709.929688,-17319.78125,18100.349609,0.0,0.0,0.0,0.0,0.0,0.0,0.0,0.0,0.0,0.0,0.0,0.0,0.0,0.0,0.0,0.0,0.0,0.0,0.0,0.0,0.0,0.0,0.0,0.0,0.0,0.0,0.0,0.0,0.0,0.0,0.0,0.0,4179.69873,11433.430664,51286.074219,0.0,-18107.912109,-17623.986328,17879.392578,-17366.765625,4111.993652,11452.161133,51515.308594,0.0,17699.582031,17709.927734,-17319.804688,18100.333984,30.688791,89.621536,22.795858,0.0,-88.226479,0.881924,27.080931,29.92837,30.191679,89.847969,22.904102,0.0,-2.070742,-0.091854,43.523651,43.279457,0.993,1.515,-45329.0,-128620.0,-509203.0,0.0,175099.0,174656.0,-179949.0,171267.0,-45278.0,-128155.0,-574426.0,0.0,-197016.0,-196802.0,192794.0,-201559.0,0.0,0.0,0.0,0.0,0.0,0.0,0.0,0.0,0.0,0.0,0.0,0.0,0.0,0.0,0.0,0.0,0.0,0.0,0.0,0.0,0.0,0.0,0.0,0.0
43,3.162524938583374,30.68873,89.6222,22.795801,0.0,-88.259399,0.882434,27.051559,29.899149,30.191799,89.848526,22.904083,0.0,-2.071219,-0.091755,43.526295,43.28117,3.0,1.0,111.0,0.0,1.0,-79773.0,-26773.0,12946.0,-78126.0,25596.0,13092.0,-0.932643,0.297562,0.204044,-0.335154,-0.923911,-0.184556,0.133601,-0.24051,0.961408,-0.938581,0.218726,0.266879,0.308337,0.184438,0.933226,0.154898,0.958197,-0.240552,-0.932643,0.297562,0.204044,-0.335154,-0.923911,-0.184556,0.133601,-0.24051,0.961408,-0.938581,0.218726,0.266879,0.308337,0.184438,0.933226,0.154898,0.958197,-0.240552,-79773.0,-26773.0,12946.0,-78126.0,25596.0,13092.0,-1112.0,1581.0,-60641.0,0.0,-26102.0,-21166.0,-18708.0,-21700.0,411.0,-908.0,-2034.0,0.0,-354.0,-25.0,-352.0,-444.0,57.0,159.0,-45.0,0.0,-757.0,193.0,493.0,-398.0,-49.0,-159.0,44.0,0.0,275.0,580.0,-77.0,652.0,-0.015623,-0.043049,0.012324,0.0,-0.027733,0.007069,-0.018064,-0.014575,-0.013386,-0.043251,0.012131,0.0,0.010064,0.021247,0.002844,0.023889,4179.69043,11433.509766,51285.960938,0.0,-18108.091797,-17623.980469,17879.128906,-17367.03125,4112.009766,11452.230469,51515.28125,0.0,17699.580078,17709.929688,-17319.78125,18100.349609,0.0,0.0,0.0,0.0,0.0,0.0,0.0,0.0,0.0,0.0,0.0,0.0,0.0,0.0,0.0,0.0,0.0,0.0,0.0,0.0,0.0,0.0,0.0,0.0,0.0,0.0,0.0,0.0,0.0,0.0,0.0,0.0,4179.69873,11433.430664,51286.074219,0.0,-18107.912109,-17623.986328,17879.392578,-17366.765625,4111.993652,11452.161133,51515.308594,0.0,17699.582031,17709.927734,-17319.804688,18100.333984,30.688791,89.621536,22.795858,0.0,-88.226479,0.881924,27.080931,29.92837,30.191679,89.847969,22.904102,0.0,-2.070742,-0.091854,43.523651,43.279457,0.993,1.515,-45329.0,-128620.0,-509203.0,0.0,175099.0,174656.0,-179949.0,171267.0,-45278.0,-128155.0,-574426.0,0.0,-197016.0,-196802.0,192794.0,-201559.0,0.0,0.0,0.0,0.0,0.0,0.0,0.0,0.0,0.0,0.0,0.0,0.0,0.0,0.0,0.0,0.0,0.0,0.0,0.0,0.0,0.0,0.0,0.0,0.0
44,3.232564926147461,30.68873,89.6222,22.795801,0.0,-88.259399,0.882434,27.051559,29.899149,30.191799,89.848526,22.904083,0.0,-2.071219,-0.091755,43.526295,43.28117,3.0,1.0,111.0,0.0,1.0,-79773.0,-26773.0,12946.0,-78126.0,25596.0,13092.0,-0.932643,0.297562,0.204044,-0.335154,-0.923911,-0.184556,0.133601,-0.24051,0.961408,-0.938581,0.218726,0.266879,0.308337,0.184438,0.933226,0.154898,0.958197,-0.240552,-0.932643,0.297562,0.204044,-0.335154,-0.923911,-0.184556,0.133601,-0.24051,0.961408,-0.938581,0.218726,0.266879,0.308337,0.184438,0.933226,0.154898,0.958197,-0.240552,-79773.0,-26773.0,12946.0,-78126.0,25596.0,13092.0,-1112.0,1581.0,-60641.0,0.0,-26102.0,-21166.0,-18708.0,-21700.0,411.0,-908.0,-2034.0,0.0,-354.0,-25.0,-352.0,-444.0,57.0,159.0,-45.0,0.0,-757.0,193.0,493.0,-397.0,-49.0,-159.0,44.0,0.0,275.0,580.0,-77.0,652.0,-0.015623,-0.043049,0.012324,0.0,-0.027722,0.007069,-0.018048,-0.014559,-0.013386,-0.043251,0.012131,0.0,0.010064,0.021246,0.002842,0.023888,4179.69043,11433.509766,51285.960938,0.0,-18108.091797,-17623.980469,17879.128906,-17367.03125,4112.009766,11452.230469,51515.28125,0.0,17699.580078,17709.929688,-17319.78125,18100.349609,0.0,0.0,0.0,0.0,0.0,0.0,0.0,0.0,0.0,0.0,0.0,0.0,0.0,0.0,0.0,0.0,0.0,0.0,0.0,0.0,0.0,0.0,0.0,0.0,0.0,0.0,0.0,0.0,0.0,0.0,0.0,0.0,4179.69873,11433.430664,51286.074219,0.0,-18107.912109,-17623.986328,17879.392578,-17366.765625,4111.993652,11452.161133,51515.308594,0.0,17699.582031,17709.927734,-17319.804688,18100.333984,30.688791,89.621536,22.795858,0.0,-88.226479,0.881924,27.080931,29.92837,30.191679,89.847969,22.904102,0.0,-2.070742,-0.091854,43.523651,43.279457,0.993,1.515,-45329.0,-128620.0,-509203.0,0.0,175099.0,174656.0,-179949.0,171267.0,-45278.0,-128155.0,-574426.0,0.0,-197016.0,-196802.0,192794.0,-201559.0,0.0,0.0,0.0,0.0,0.0,0.0,0.0,0.0,0.0,0.0,0.0,0.0,0.0,0.0,0.0,0.0,0.0,0.0,0.0,0.0,0.0,0.0,0.0,0.0
45,3.305530071258545,30.68873,89.6222,22.795801,0.0,-88.259399,0.882434,27.051559,29.899149,30.191799,89.848526,22.904083,0.0,-2.071219,-0.091755,43.526295,43.28117,3.0,1.0,111.0,0.0,1.0,-79773.0,-26773.0,12946.0,-78126.0,25596.0,13092.0,-0.932643,0.297562,0.204044,-0.335154,-0.923911,-0.184556,0.133601,-0.24051,0.961408,-0.938581,0.218726,0.266879,0.308337,0.184438,0.933226,0.154898,0.958197,-0.240552,-0.932643,0.297562,0.204044,-0.335154,-0.923911,-0.184556,0.133601,-0.24051,0.961408,-0.938581,0.218726,0.266879,0.308337,0.184438,0.933226,0.154898,0.958197,-0.240552,-79773.0,-26773.0,12946.0,-78126.0,25596.0,13092.0,-1112.0,1581.0,-60641.0,0.0,-26102.0,-21166.0,-18708.0,-21700.0,411.0,-908.0,-2034.0,0.0,-354.0,-25.0,-352.0,-444.0,57.0,159.0,-45.0,0.0,-757.0,193.0,492.0,-397.0,-49.0,-159.0,44.0,0.0,275.0,580.0,-77.0,652.0,-0.015623,-0.043049,0.012324,0.0,-0.027711,0.007069,-0.018031,-0.014542,-0.013386,-0.043251,0.012131,0.0,0.010064,0.021246,0.002841,0.023887,4179.69043,11433.509766,51285.960938,0.0,-18108.091797,-17623.980469,17879.128906,-17367.03125,4112.009766,11452.230469,51515.28125,0.0,17699.580078,17709.929688,-17319.78125,18100.349609,0.0,0.0,0.0,0.0,0.0,0.0,0.0,0.0,0.0,0.0,0.0,0.0,0.0,0.0,0.0,0.0,0.0,0.0,0.0,0.0,0.0,0.0,0.0,0.0,0.0,0.0,0.0,0.0,0.0,0.0,0.0,0.0,4179.69873,11433.430664,51286.074219,0.0,-18107.912109,-17623.986328,17879.392578,-17366.765625,4111.993652,11452.161133,51515.308594,0.0,17699.582031,17709.927734,-17319.804688,18100.333984,30.688791,89.621536,22.795858,0.0,-88.226479,0.881924,27.080931,29.92837,30.191679,89.847969,22.904102,0.0,-2.070742,-0.091854,43.523651,43.279457,0.993,1.515,-45329.0,-128620.0,-509203.0,0.0,175099.0,174656.0,-179949.0,171267.0,-45278.0,-128155.0,-574426.0,0.0,-197016.0,-196802.0,192794.0,-201559.0,0.0,0.0,0.0,0.0,0.0,0.0,0.0,0.0,0.0,0.0,0.0,0.0,0.0,0.0,0.0,0.0,0.0,0.0,0.0,0.0,0.0,0.0,0.0,0.0
46,3.3825230598449707,30.68873,89.6222,22.795801,0.0,-88.259399,0.882434,27.051559,29.899149,30.191799,89.848526,22.904083,0.0,-2.071219,-0.091755,43.526295,43.28117,3.0,1.0,111.0,0.0,1.0,-79773.0,-26773.0,12946.0,-78126.0,25596.0,13092.0,-0.932643,0.297562,0.204044,-0.335154,-0.923911,-0.184556,0.133601,-0.24051,0.961408,-0.938581,0.218726,0.266879,0.308337,0.184438,0.933226,0.154898,0.958197,-0.240552,-0.932643,0.297562,0.204044,-0.335154,-0.923911,-0.184556,0.133601,-0.24051,0.961408,-0.938581,0.218726,0.266879,0.308337,0.184438,0.933226,0.154898,0.958197,-0.240552,-79773.0,-26773.0,12946.0,-78126.0,25596.0,13092.0,-1112.0,1581.0,-60641.0,0.0,-26102.0,-21166.0,-18708.0,-21700.0,411.0,-908.0,-2034.0,0.0,-354.0,-25.0,-352.0,-444.0,57.0,159.0,-45.0,0.0,-756.0,193.0,492.0,-396.0,-49.0,-159.0,44.0,0.0,275.0,580.0,-77.0,652.0,-0.015623,-0.043049,0.012324,0.0,-0.027699,0.007069,-0.018013,-0.014524,-0.013386,-0.043251,0.012131,0.0,0.010064,0.021246,0.002839,0.023886,4179.69043,11433.509766,51285.960938,0.0,-18108.091797,-17623.980469,17879.128906,-17367.03125,4112.009766,11452.230469,51515.28125,0.0,17699.580078,17709.929688,-17319.78125,18100.349609,0.0,0.0,0.0,0.0,0.0,0.0,0.0,0.0,0.0,0.0,0.0,0.0,0.0,0.0,0.0,0.0,0.0,0.0,0.0,0.0,0.0,0.0,0.0,0.0,0.0,0.0,0.0,0.0,0.0,0.0,0.0,0.0,4179.69873,11433.430664,51286.074219,0.0,-18107.912109,-17623.986328,17879.392578,-17366.765625,4111.993652,11452.161133,51515.308594,0.0,17699.582031,17709.927734,-17319.804688,18100.333984,30.688791,89.621536,22.795858,0.0,-88.226479,0.881924,27.080931,29.92837,30.191679,89.847969,22.904102,0.0,-2.070742,-0.091854,43.523651,43.279457,0.993,1.515,-45329.0,-128620.0,-509203.0,0.0,175099.0,174656.0,-179949.0,171267.0,-45278.0,-128155.0,-574426.0,0.0,-197016.0,-196802.0,192794.0,-201559.0,0.0,0.0,0.0,0.0,0.0,0.0,0.0,0.0,0.0,0.0,0.0,0.0,0.0,0.0,0.0,0.0,0.0,0.0,0.0,0.0,0.0,0.0,0.0,0.0
47,3.454667091369629,30.68873,89.6222,22.795801,0.0,-88.259399,0.882434,27.051559,29.899149,30.191799,89.848526,22.904083,0.0,-2.071219,-0.091755,43.526295,43.28117,3.0,1.0,111.0,0.0,1.0,-79773.0,-26773.0,12946.0,-78126.0,25596.0,13092.0,-0.932643,0.297562,0.204044,-0.335154,-0.923911,-0.184556,0.133601,-0.24051,0.961408,-0.938581,0.218726,0.266879,0.308337,0.184438,0.933226,0.154898,0.958197,-0.240552,-0.932643,0.297562,0.204044,-0.335154,-0.923911,-0.184556,0.133601,-0.24051,0.961408,-0.938581,0.218726,0.266879,0.308337,0.184438,0.933226,0.154898,0.958197,-0.240552,-79773.0,-26773.0,12946.0,-78126.0,25596.0,13092.0,-1112.0,1581.0,-60641.0,0.0,-26102.0,-21166.0,-18708.0,-21700.0,411.0,-908.0,-2034.0,0.0,-354.0,-25.0,-352.0,-444.0,57.0,159.0,-45.0,0.0,-756.0,193.0,491.0,-396.0,-49.0,-159.0,44.0,0.0,275.0,580.0,-77.0,652.0,-0.015623,-0.043049,0.012324,0.0,-0.027688,0.007068,-0.017997,-0.014507,-0.013386,-0.043251,0.012131,0.0,0.010065,0.021246,0.002838,0.023885,4179.69043,11433.509766,51285.960938,0.0,-18108.091797,-17623.980469,17879.128906,-17367.03125,4112.009766,11452.230469,51515.28125,0.0,17699.580078,17709.929688,-17319.78125,18100.349609,0.0,0.0,0.0,0.0,0.0,0.0,0.0,0.0,0.0,0.0,0.0,0.0,0.0,0.0,0.0,0.0,0.0,0.0,0.0,0.0,0.0,0.0,0.0,0.0,0.0,0.0,0.0,0.0,0.0,0.0,0.0,0.0,4179.69873,11433.430664,51286.074219,0.0,-18107.912109,-17623.986328,17879.392578,-17366.765625,4111.993652,11452.161133,51515.308594,0.0,17699.582031,17709.927734,-17319.804688,18100.333984,30.688791,89.621536,22.795858,0.0,-88.226479,0.881924,27.080931,29.92837,30.191679,89.847969,22.904102,0.0,-2.070742,-0.091854,43.523651,43.279457,0.993,1.515,-45329.0,-128620.0,-509203.0,0.0,175099.0,174656.0,-179949.0,171267.0,-45278.0,-128155.0,-574426.0,0.0,-197016.0,-196802.0,192794.0,-201559.0,0.0,0.0,0.0,0.0,0.0,0.0,0.0,0.0,0.0,0.0,0.0,0.0,0.0,0.0,0.0,0.0,0.0,0.0,0.0,0.0,0.0,0.0,0.0,0.0
48,3.5265300273895264,30.68873,89.6222,22.795801,0.0,-88.259399,0.882434,27.051559,29.899149,30.191799,89.848526,22.904083,0.0,-2.071219,-0.091755,43.526295,43.28117,3.0,1.0,111.0,0.0,1.0,-79773.0,-26773.0,12946.0,-78126.0,25596.0,13092.0,-0.932643,0.297562,0.204044,-0.335154,-0.923911,-0.184556,0.133601,-0.24051,0.961408,-0.938581,0.218726,0.266879,0.308337,0.184438,0.933226,0.154898,0.958197,-0.240552,-0.932643,0.297562,0.204044,-0.335154,-0.923911,-0.184556,0.133601,-0.24051,0.961408,-0.938581,0.218726,0.266879,0.308337,0.184438,0.933226,0.154898,0.958197,-0.240552,-79773.0,-26773.0,12946.0,-78126.0,25596.0,13092.0,-1112.0,1581.0,-60641.0,0.0,-26102.0,-21166.0,-18708.0,-21700.0,411.0,-908.0,-2034.0,0.0,-354.0,-25.0,-352.0,-444.0,57.0,159.0,-45.0,0.0,-756.0,193.0,491.0,-395.0,-49.0,-159.0,44.0,0.0,275.0,580.0,-77.0,652.0,-0.015623,-0.043049,0.012324,0.0,-0.027677,0.007068,-0.01798,-0.01449,-0.013386,-0.043251,0.012131,0.0,0.010065,0.021246,0.002836,0.023884,4179.69043,11433.509766,51285.960938,0.0,-18108.091797,-17623.980469,17879.128906,-17367.03125,4112.009766,11452.230469,51515.28125,0.0,17699.580078,17709.929688,-17319.78125,18100.349609,0.0,0.0,0.0,0.0,0.0,0.0,0.0,0.0,0.0,0.0,0.0,0.0,0.0,0.0,0.0,0.0,0.0,0.0,0.0,0.0,0.0,0.0,0.0,0.0,0.0,0.0,0.0,0.0,0.0,0.0,0.0,0.0,4179.69873,11433.430664,51286.074219,0.0,-18107.912109,-17623.986328,17879.392578,-17366.765625,4111.993652,11452.161133,51515.308594,0.0,17699.582031,17709.927734,-17319.804688,18100.333984,30.688791,89.621536,22.795858,0.0,-88.226479,0.881924,27.080931,29.92837,30.191679,89.847969,22.904102,0.0,-2.070742,-0.091854,43.523651,43.279457,0.993,1.515,-45329.0,-128620.0,-509203.0,0.0,175099.0,174656.0,-179949.0,171267.0,-45278.0,-128155.0,-574426.0,0.0,-197016.0,-196802.0,192794.0,-201559.0,0.0,0.0,0.0,0.0,0.0,0.0,0.0,0.0,0.0,0.0,0.0,0.0,0.0,0.0,0.0,0.0,0.0,0.0,0.0,0.0,0.0,0.0,0.0,0.0
49,3.5984840393066406,30.68873,89.6222,22.795801,0.0,-88.259399,0.882434,27.051559,29.899149,30.191799,89.848526,22.904083,0.0,-2.071219,-0.091755,43.526295,43.28117,3.0,1.0,111.0,0.0,1.0,-79773.0,-26773.0,12946.0,-78126.0,25596.0,13092.0,-0.932643,0.297562,0.204044,-0.335154,-0.923911,-0.184556,0.133601,-0.24051,0.961408,-0.938581,0.218726,0.266879,0.308337,0.184438,0.933226,0.154898,0.958197,-0.240552,-0.932643,0.297562,0.204044,-0.335154,-0.923911,-0.184556,0.133601,-0.24051,0.961408,-0.938581,0.218726,0.266879,0.308337,0.184438,0.933226,0.154898,0.958197,-0.240552,-79773.0,-26773.0,12946.0,-78126.0,25596.0,13092.0,-1112.0,1581.0,-60641.0,0.0,-26102.0,-21166.0,-18708.0,-21700.0,411.0,-908.0,-2034.0,0.0,-354.0,-25.0,-352.0,-444.0,57.0,159.0,-45.0,0.0,-756.0,193.0,490.0,-395.0,-49.0,-159.0,44.0,0.0,275.0,580.0,-77.0,652.0,-0.015623,-0.043049,0.012324,0.0,-0.027665,0.007068,-0.017964,-0.014474,-0.013386,-0.043251,0.012131,0.0,0.010065,0.021246,0.002835,0.023883,4179.69043,11433.509766,51285.960938,0.0,-18108.091797,-17623.980469,17879.128906,-17367.03125,4112.009766,11452.230469,51515.28125,0.0,17699.580078,17709.929688,-17319.78125,18100.349609,0.0,0.0,0.0,0.0,0.0,0.0,0.0,0.0,0.0,0.0,0.0,0.0,0.0,0.0,0.0,0.0,0.0,0.0,0.0,0.0,0.0,0.0,0.0,0.0,0.0,0.0,0.0,0.0,0.0,0.0,0.0,0.0,4179.69873,11433.430664,51286.074219,0.0,-18107.912109,-17623.986328,17879.392578,-17366.765625,4111.993652,11452.161133,51515.308594,0.0,17699.582031,17709.927734,-17319.804688,18100.333984,30.688791,89.621536,22.795858,0.0,-88.226479,0.881924,27.080931,29.92837,30.191679,89.847969,22.904102,0.0,-2.070742,-0.091854,43.523651,43.279457,0.993,1.515,-45329.0,-128620.0,-509203.0,0.0,175099.0,174656.0,-179949.0,171267.0,-45278.0,-128155.0,-574426.0,0.0,-197016.0,-196802.0,192794.0,-201559.0,0.0,0.0,0.0,0.0,0.0,0.0,0.0,0.0,0.0,0.0,0.0,0.0,0.0,0.0,0.0,0.0,0.0,0.0,0.0,0.0,0.0,0.0,0.0,0.0
50,3.668520927429199,30.68873,89.6222,22.795801,0.0,-88.259399,0.882434,27.051559,29.899149,30.191799,89.848526,22.904083,0.0,-2.071219,-0.091755,43.526295,43.28117,3.0,1.0,111.0,0.0,1.0,-79773.0,-26773.0,12946.0,-78126.0,25596.0,13092.0,-0.932643,0.297562,0.204044,-0.335154,-0.923911,-0.184556,0.133601,-0.24051,0.961408,-0.938581,0.218726,0.266879,0.308337,0.184438,0.933226,0.154898,0.958197,-0.240552,-0.932643,0.297562,0.204044,-0.335154,-0.923911,-0.184556,0.133601,-0.24051,0.961408,-0.938581,0.218726,0.266879,0.308337,0.184438,0.933226,0.154898,0.958197,-0.240552,-79773.0,-26773.0,12946.0,-78126.0,25596.0,13092.0,-1112.0,1581.0,-60641.0,0.0,-26102.0,-21166.0,-18708.0,-21700.0,411.0,-908.0,-2034.0,0.0,-354.0,-25.0,-352.0,-444.0,57.0,159.0,-45.0,0.0,-755.0,193.0,490.0,-395.0,-49.0,-159.0,44.0,0.0,275.0,580.0,-77.0,652.0,-0.015623,-0.043049,0.012324,0.0,-0.027655,0.007067,-0.017948,-0.014457,-0.013386,-0.043251,0.012131,0.0,0.010065,0.021246,0.002833,0.023882,4179.69043,11433.509766,51285.960938,0.0,-18108.091797,-17623.980469,17879.128906,-17367.03125,4112.009766,11452.230469,51515.28125,0.0,17699.580078,17709.929688,-17319.78125,18100.349609,0.0,0.0,0.0,0.0,0.0,0.0,0.0,0.0,0.0,0.0,0.0,0.0,0.0,0.0,0.0,0.0,0.0,0.0,0.0,0.0,0.0,0.0,0.0,0.0,0.0,0.0,0.0,0.0,0.0,0.0,0.0,0.0,4179.69873,11433.430664,51286.074219,0.0,-18107.912109,-17623.986328,17879.392578,-17366.765625,4111.993652,11452.161133,51515.308594,0.0,17699.582031,17709.927734,-17319.804688,18100.333984,30.688791,89.621536,22.795858,0.0,-88.226479,0.881924,27.080931,29.92837,30.191679,89.847969,22.904102,0.0,-2.070742,-0.091854,43.523651,43.279457,0.993,1.515,-45329.0,-128620.0,-509203.0,0.0,175099.0,174656.0,-179949.0,171267.0,-45278.0,-128155.0,-574426.0,0.0,-197016.0,-196802.0,192794.0,-201559.0,0.0,0.0,0.0,0.0,0.0,0.0,0.0,0.0,0.0,0.0,0.0,0.0,0.0,0.0,0.0,0.0,0.0,0.0,0.0,0.0,0.0,0.0,0.0,0.0
51,3.7384891510009766,30.68873,89.6222,22.795801,0.0,-88.259399,0.882434,27.051559,29.899149,30.191799,89.848526,22.904083,0.0,-2.071219,-0.091755,43.526295,43.28117,3.0,1.0,111.0,0.0,1.0,-79773.0,-26773.0,12946.0,-78126.0,25596.0,13092.0,-0.932643,0.297562,0.204044,-0.335154,-0.923911,-0.184556,0.133601,-0.24051,0.961408,-0.938581,0.218726,0.266879,0.308337,0.184438,0.933226,0.154898,0.958197,-0.240552,-0.932643,0.297562,0.204044,-0.335154,-0.923911,-0.184556,0.133601,-0.24051,0.961408,-0.938581,0.218726,0.266879,0.308337,0.184438,0.933226,0.154898,0.958197,-0.240552,-79773.0,-26773.0,12946.0,-78126.0,25596.0,13092.0,-1112.0,1581.0,-60641.0,0.0,-26102.0,-21166.0,-18708.0,-21700.0,411.0,-908.0,-2034.0,0.0,-354.0,-25.0,-352.0,-444.0,57.0,159.0,-45.0,0.0,-755.0,193.0,490.0,-394.0,-49.0,-159.0,44.0,0.0,275.0,580.0,-77.0,652.0,-0.015623,-0.043049,0.012324,0.0,-0.027644,0.007067,-0.017932,-0.014441,-0.013386,-0.043251,0.012131,0.0,0.010065,0.021246,0.002832,0.023881,4179.69043,11433.509766,51285.960938,0.0,-18108.091797,-17623.980469,17879.128906,-17367.03125,4112.009766,11452.230469,51515.28125,0.0,17699.580078,17709.929688,-17319.78125,18100.349609,0.0,0.0,0.0,0.0,0.0,0.0,0.0,0.0,0.0,0.0,0.0,0.0,0.0,0.0,0.0,0.0,0.0,0.0,0.0,0.0,0.0,0.0,0.0,0.0,0.0,0.0,0.0,0.0,0.0,0.0,0.0,0.0,4179.69873,11433.430664,51286.074219,0.0,-18107.912109,-17623.986328,17879.392578,-17366.765625,4111.993652,11452.161133,51515.308594,0.0,17699.582031,17709.927734,-17319.804688,18100.333984,30.688791,89.621536,22.795858,0.0,-88.226479,0.881924,27.080931,29.92837,30.191679,89.847969,22.904102,0.0,-2.070742,-0.091854,43.523651,43.279457,0.993,1.515,-45329.0,-128620.0,-509203.0,0.0,175099.0,174656.0,-179949.0,171267.0,-45278.0,-128155.0,-574426.0,0.0,-197016.0,-196802.0,192794.0,-201559.0,0.0,0.0,0.0,0.0,0.0,0.0,0.0,0.0,0.0,0.0,0.0,0.0,0.0,0.0,0.0,0.0,0.0,0.0,0.0,0.0,0.0,0.0,0.0,0.0
