MHC-RobotSimulators-Research/Data_Analysis_MotionReplication/mai_plotter/raven_data/with_offsets/leftarm_p5_phys1_2023-11-15 13_36_00.735557_rs.csv
,time,jpos0,jpos1,jpos2,jpos3,jpos4,jpos5,jpos6,jpos7,jpos8,jpos9,jpos10,jpos11,jpos12,jpos13,jpos14,jpos15,runlevel,sublevel,last_seq,type0,type1,pos0,pos1,pos2,pos3,pos4,pos5,ori0,ori1,ori2,ori3,ori4,ori5,ori6,ori7,ori8,ori9,ori10,ori11,ori12,ori13,ori14,ori15,ori16,ori17,ori_d0,ori_d1,ori_d2,ori_d3,ori_d4,ori_d5,ori_d6,ori_d7,ori_d8,ori_d9,ori_d10,ori_d11,ori_d12,ori_d13,ori_d14,ori_d15,ori_d16,ori_d17,pos_d0,pos_d1,pos_d2,pos_d3,pos_d4,pos_d5,encVals0,encVals1,encVals2,encVals3,encVals4,encVals5,encVals6,encVals7,encVals8,encVals9,encVals10,encVals11,encVals12,encVals13,encVals14,encVals15,dac_vals0,dac_vals1,dac_vals2,dac_vals3,dac_vals4,dac_vals5,dac_vals6,dac_vals7,dac_vals8,dac_vals9,dac_vals10,dac_vals11,dac_vals12,dac_vals13,dac_vals14,dac_vals15,Tau0,Tau1,Tau2,Tau3,Tau4,Tau5,Tau6,Tau7,Tau8,Tau9,Tau10,Tau11,Tau12,Tau13,Tau14,Tau15,mpos0,mpos1,mpos2,mpos3,mpos4,mpos5,mpos6,mpos7,mpos8,mpos9,mpos10,mpos11,mpos12,mpos13,mpos14,mpos15,mvel0,mvel1,mvel2,mvel3,mvel4,mvel5,mvel6,mvel7,mvel8,mvel9,mvel10,mvel11,mvel12,mvel13,mvel14,mvel15,jvel0,jvel1,jvel2,jvel3,jvel4,jvel5,jvel6,jvel7,jvel8,jvel9,jvel10,jvel11,jvel12,jvel13,jvel14,jvel15,mpos_d0,mpos_d1,mpos_d2,mpos_d3,mpos_d4,mpos_d5,mpos_d6,mpos_d7,mpos_d8,mpos_d9,mpos_d10,mpos_d11,mpos_d12,mpos_d13,mpos_d14,mpos_d15,jpos_d0,jpos_d1,jpos_d2,jpos_d3,jpos_d4,jpos_d5,jpos_d6,jpos_d7,jpos_d8,jpos_d9,jpos_d10,jpos_d11,jpos_d12,jpos_d13,jpos_d14,jpos_d15,grasp_d0,grasp_d1,encoffsets0,encoffsets1,encoffsets2,encoffsets3,encoffsets4,encoffsets5,encoffsets6,encoffsets7,encoffsets8,encoffsets9,encoffsets10,encoffsets11,encoffsets12,encoffsets13,encoffsets14,encoffsets15,jac_vel0,jac_vel1,jac_vel2,jac_vel3,jac_vel4,jac_vel5,jac_vel6,jac_vel7,jac_vel8,jac_vel9,jac_vel10,jac_vel11,jac_f0,jac_f1,jac_f2,jac_f3,jac_f4,jac_f5,jac_f6,jac_f7,jac_f8,jac_f9,jac_f10,jac_f11
0,0.0,30.372202,89.741562,22.848213,0.0,-80.606018,2.301544,33.68074,31.797581,30.471321,89.673073,22.864338,0.0,-70.00766,-1.308354,33.010132,38.003147,3.0,1.0,111.0,0.0,1.0,-79113.0,-25945.0,12649.0,-78725.0,26195.0,12720.0,-0.951045,0.222254,0.21475,-0.282737,-0.906283,-0.314184,0.124795,-0.35952,0.924755,-0.92426,0.373057,-0.081071,0.355799,0.918729,0.171303,0.138389,0.129484,-0.981877,-0.951083,0.222088,0.21475,-0.282579,-0.906332,-0.314184,0.124858,-0.359498,0.924755,-0.924353,0.372897,-0.080743,0.355698,0.918788,0.171193,0.138023,0.129523,-0.981923,-79113.0,-25945.0,12649.0,-78726.0,26196.0,12715.0,-633.0,1482.0,-61862.0,0.0,-26063.0,-21444.0,-19861.0,-22001.0,834.0,-1090.0,-2969.0,0.0,-4748.0,-468.0,438.0,-1232.0,53.0,160.0,-44.0,0.0,-812.0,-724.0,393.0,-449.0,-54.0,-159.0,44.0,0.0,-525.0,356.0,688.0,-565.0,-0.014391,-0.043319,0.012159,0.0,-0.029716,-0.026503,-0.014383,-0.016441,-0.014666,-0.04308,0.012173,0.0,-0.019238,0.01304,-0.025184,-0.020678,4136.580078,11442.420898,51395.851562,0.0,-18104.580078,-17649.0,17982.900391,-17394.121094,4150.080078,11435.850586,51431.132812,0.0,17304.121094,17670.060547,-17390.880859,18029.429688,0.0,0.0,0.0,0.0,0.0,0.0,0.0,0.0,0.0,0.0,0.0,0.0,0.0,0.0,0.0,0.0,0.0,0.0,0.0,0.0,0.0,0.0,0.0,0.0,0.0,0.0,0.0,0.0,0.0,0.0,0.0,0.0,4136.530273,11442.308594,51395.894531,0.0,-18104.583984,-17649.007812,17983.033203,-17394.158203,4150.07373,11435.770508,51431.179688,0.0,17304.123047,17669.882812,-17390.730469,18029.580078,30.371836,89.740692,22.848244,0.0,-80.606636,2.30074,33.695908,31.793167,30.471273,89.672417,22.864367,0.0,-70.007225,-1.327902,33.036667,38.010101,1.143,1.24,-45329.0,-128620.0,-509203.0,0.0,175099.0,174656.0,-179949.0,171267.0,-45278.0,-128155.0,-574426.0,0.0,-197016.0,-196802.0,192794.0,-201559.0,0.0,0.0,0.0,0.0,0.0,0.0,0.0,0.0,0.0,0.0,0.0,0.0,0.0,0.0,0.0,0.0,0.0,0.0,0.0,0.0,0.0,0.0,0.0,0.0
1,0.08060693740844727,30.372202,89.741562,22.848213,0.0,-80.606018,2.301544,33.68074,31.797581,30.471321,89.673073,22.864338,0.0,-70.00766,-1.308354,33.010132,38.003147,3.0,1.0,111.0,0.0,1.0,-79113.0,-25945.0,12649.0,-78725.0,26195.0,12720.0,-0.951045,0.222254,0.21475,-0.282737,-0.906283,-0.314184,0.124795,-0.35952,0.924755,-0.92426,0.373057,-0.081071,0.355799,0.918729,0.171303,0.138389,0.129484,-0.981877,-0.951045,0.222254,0.21475,-0.282737,-0.906283,-0.314184,0.124795,-0.35952,0.924755,-0.92426,0.373057,-0.081071,0.355799,0.918729,0.171303,0.138389,0.129484,-0.981877,-79113.0,-25945.0,12649.0,-78725.0,26195.0,12720.0,-633.0,1482.0,-61862.0,0.0,-26063.0,-21444.0,-19861.0,-22001.0,834.0,-1090.0,-2969.0,0.0,-4748.0,-468.0,438.0,-1232.0,53.0,160.0,-44.0,0.0,-812.0,-724.0,392.0,-449.0,-54.0,-159.0,44.0,0.0,-525.0,356.0,687.0,-564.0,-0.014391,-0.043319,0.012159,0.0,-0.029716,-0.026503,-0.014374,-0.016444,-0.014666,-0.04308,0.012173,0.0,-0.019238,0.013029,-0.025174,-0.020668,4136.580078,11442.420898,51395.851562,0.0,-18104.580078,-17649.0,17982.900391,-17394.121094,4150.080078,11435.850586,51431.132812,0.0,17304.121094,17670.060547,-17390.880859,18029.429688,0.0,0.0,0.0,0.0,0.0,0.0,0.0,0.0,0.0,0.0,0.0,0.0,0.0,0.0,0.0,0.0,0.0,0.0,0.0,0.0,0.0,0.0,0.0,0.0,0.0,0.0,0.0,0.0,0.0,0.0,0.0,0.0,4136.530273,11442.308594,51395.894531,0.0,-18104.583984,-17649.007812,17983.033203,-17394.158203,4150.07373,11435.770508,51431.179688,0.0,17304.123047,17669.882812,-17390.730469,18029.580078,30.371836,89.740692,22.848244,0.0,-80.606636,2.30074,33.695908,31.793167,30.471273,89.672417,22.864367,0.0,-70.007225,-1.327902,33.036667,38.010101,1.142,1.239,-45329.0,-128620.0,-509203.0,0.0,175099.0,174656.0,-179949.0,171267.0,-45278.0,-128155.0,-574426.0,0.0,-197016.0,-196802.0,192794.0,-201559.0,0.0,0.0,0.0,0.0,0.0,0.0,0.0,0.0,0.0,0.0,0.0,0.0,0.0,0.0,0.0,0.0,0.0,0.0,0.0,0.0,0.0,0.0,0.0,0.0
2,0.15258407592773438,30.372202,89.741562,22.848213,0.0,-80.606018,2.301544,33.68074,31.797581,30.471321,89.673073,22.864338,0.0,-70.00766,-1.308354,33.010132,38.003147,3.0,1.0,111.0,0.0,1.0,-79113.0,-25945.0,12649.0,-78725.0,26195.0,12720.0,-0.951045,0.222254,0.21475,-0.282737,-0.906283,-0.314184,0.124795,-0.35952,0.924755,-0.92426,0.373057,-0.081071,0.355799,0.918729,0.171303,0.138389,0.129484,-0.981877,-0.951045,0.222254,0.21475,-0.282737,-0.906283,-0.314184,0.124795,-0.35952,0.924755,-0.92426,0.373057,-0.081071,0.355799,0.918729,0.171303,0.138389,0.129484,-0.981877,-79113.0,-25945.0,12649.0,-78725.0,26195.0,12720.0,-633.0,1482.0,-61862.0,0.0,-26063.0,-21444.0,-19861.0,-22001.0,834.0,-1090.0,-2969.0,0.0,-4748.0,-468.0,438.0,-1232.0,53.0,160.0,-44.0,0.0,-812.0,-724.0,392.0,-449.0,-54.0,-159.0,44.0,0.0,-525.0,355.0,687.0,-564.0,-0.014391,-0.043319,0.012159,0.0,-0.029716,-0.026504,-0.014366,-0.016446,-0.014666,-0.04308,0.012173,0.0,-0.019238,0.013018,-0.025165,-0.020659,4136.580078,11442.420898,51395.851562,0.0,-18104.580078,-17649.0,17982.900391,-17394.121094,4150.080078,11435.850586,51431.132812,0.0,17304.121094,17670.060547,-17390.880859,18029.429688,0.0,0.0,0.0,0.0,0.0,0.0,0.0,0.0,0.0,0.0,0.0,0.0,0.0,0.0,0.0,0.0,0.0,0.0,0.0,0.0,0.0,0.0,0.0,0.0,0.0,0.0,0.0,0.0,0.0,0.0,0.0,0.0,4136.530273,11442.308594,51395.894531,0.0,-18104.583984,-17649.007812,17983.033203,-17394.158203,4150.07373,11435.770508,51431.179688,0.0,17304.123047,17669.882812,-17390.730469,18029.580078,30.371836,89.740692,22.848244,0.0,-80.606636,2.30074,33.695908,31.793167,30.471273,89.672417,22.864367,0.0,-70.007225,-1.327902,33.036667,38.010101,1.142,1.239,-45329.0,-128620.0,-509203.0,0.0,175099.0,174656.0,-179949.0,171267.0,-45278.0,-128155.0,-574426.0,0.0,-197016.0,-196802.0,192794.0,-201559.0,0.0,0.0,0.0,0.0,0.0,0.0,0.0,0.0,0.0,0.0,0.0,0.0,0.0,0.0,0.0,0.0,0.0,0.0,0.0,0.0,0.0,0.0,0.0,0.0
3,0.2235698699951172,30.372202,89.741562,22.848213,0.0,-80.606018,2.301544,33.68074,31.797581,30.471321,89.673073,22.864338,0.0,-70.00766,-1.308354,33.010132,38.003147,3.0,1.0,111.0,0.0,1.0,-79113.0,-25945.0,12649.0,-78725.0,26195.0,12720.0,-0.951045,0.222254,0.21475,-0.282737,-0.906283,-0.314184,0.124795,-0.35952,0.924755,-0.92426,0.373057,-0.081071,0.355799,0.918729,0.171303,0.138389,0.129484,-0.981877,-0.951045,0.222254,0.21475,-0.282737,-0.906283,-0.314184,0.124795,-0.35952,0.924755,-0.92426,0.373057,-0.081071,0.355799,0.918729,0.171303,0.138389,0.129484,-0.981877,-79113.0,-25945.0,12649.0,-78725.0,26195.0,12720.0,-633.0,1482.0,-61862.0,0.0,-26063.0,-21444.0,-19861.0,-22001.0,834.0,-1090.0,-2969.0,0.0,-4748.0,-468.0,438.0,-1232.0,53.0,160.0,-44.0,0.0,-812.0,-724.0,392.0,-449.0,-54.0,-159.0,44.0,0.0,-525.0,355.0,687.0,-564.0,-0.014391,-0.043319,0.012159,0.0,-0.029716,-0.026504,-0.014358,-0.016448,-0.014666,-0.04308,0.012173,0.0,-0.019238,0.013007,-0.025155,-0.020649,4136.580078,11442.420898,51395.851562,0.0,-18104.580078,-17649.0,17982.900391,-17394.121094,4150.080078,11435.850586,51431.132812,0.0,17304.121094,17670.060547,-17390.880859,18029.429688,0.0,0.0,0.0,0.0,0.0,0.0,0.0,0.0,0.0,0.0,0.0,0.0,0.0,0.0,0.0,0.0,0.0,0.0,0.0,0.0,0.0,0.0,0.0,0.0,0.0,0.0,0.0,0.0,0.0,0.0,0.0,0.0,4136.530273,11442.308594,51395.894531,0.0,-18104.583984,-17649.007812,17983.033203,-17394.158203,4150.07373,11435.770508,51431.179688,0.0,17304.123047,17669.882812,-17390.730469,18029.580078,30.371836,89.740692,22.848244,0.0,-80.606636,2.30074,33.695908,31.793167,30.471273,89.672417,22.864367,0.0,-70.007225,-1.327902,33.036667,38.010101,1.142,1.239,-45329.0,-128620.0,-509203.0,0.0,175099.0,174656.0,-179949.0,171267.0,-45278.0,-128155.0,-574426.0,0.0,-197016.0,-196802.0,192794.0,-201559.0,0.0,0.0,0.0,0.0,0.0,0.0,0.0,0.0,0.0,0.0,0.0,0.0,0.0,0.0,0.0,0.0,0.0,0.0,0.0,0.0,0.0,0.0,0.0,0.0
4,0.29949188232421875,30.372202,89.741562,22.848213,0.0,-80.606018,2.301544,33.68074,31.797581,30.471321,89.673073,22.864338,0.0,-70.00766,-1.308354,33.010132,38.003147,3.0,1.0,111.0,0.0,1.0,-79113.0,-25945.0,12649.0,-78725.0,26195.0,12720.0,-0.951045,0.222254,0.21475,-0.282737,-0.906283,-0.314184,0.124795,-0.35952,0.924755,-0.92426,0.373057,-0.081071,0.355799,0.918729,0.171303,0.138389,0.129484,-0.981877,-0.951045,0.222254,0.21475,-0.282737,-0.906283,-0.314184,0.124795,-0.35952,0.924755,-0.92426,0.373057,-0.081071,0.355799,0.918729,0.171303,0.138389,0.129484,-0.981877,-79113.0,-25945.0,12649.0,-78725.0,26195.0,12720.0,-633.0,1482.0,-61862.0,0.0,-26063.0,-21444.0,-19861.0,-22001.0,834.0,-1090.0,-2969.0,0.0,-4748.0,-468.0,438.0,-1232.0,53.0,160.0,-44.0,0.0,-812.0,-724.0,392.0,-449.0,-54.0,-159.0,44.0,0.0,-525.0,355.0,687.0,-564.0,-0.014391,-0.043319,0.012159,0.0,-0.029717,-0.026505,-0.014349,-0.016451,-0.014666,-0.04308,0.012173,0.0,-0.019238,0.012995,-0.025146,-0.020639,4136.580078,11442.420898,51395.851562,0.0,-18104.580078,-17649.0,17982.900391,-17394.121094,4150.080078,11435.850586,51431.132812,0.0,17304.121094,17670.060547,-17390.880859,18029.429688,0.0,0.0,0.0,0.0,0.0,0.0,0.0,0.0,0.0,0.0,0.0,0.0,0.0,0.0,0.0,0.0,0.0,0.0,0.0,0.0,0.0,0.0,0.0,0.0,0.0,0.0,0.0,0.0,0.0,0.0,0.0,0.0,4136.530273,11442.308594,51395.894531,0.0,-18104.583984,-17649.007812,17983.033203,-17394.158203,4150.07373,11435.770508,51431.179688,0.0,17304.123047,17669.882812,-17390.730469,18029.580078,30.371836,89.740692,22.848244,0.0,-80.606636,2.30074,33.695908,31.793167,30.471273,89.672417,22.864367,0.0,-70.007225,-1.327902,33.036667,38.010101,1.142,1.239,-45329.0,-128620.0,-509203.0,0.0,175099.0,174656.0,-179949.0,171267.0,-45278.0,-128155.0,-574426.0,0.0,-197016.0,-196802.0,192794.0,-201559.0,0.0,0.0,0.0,0.0,0.0,0.0,0.0,0.0,0.0,0.0,0.0,0.0,0.0,0.0,0.0,0.0,0.0,0.0,0.0,0.0,0.0,0.0,0.0,0.0
5,0.369520902633667,30.372202,89.741562,22.848213,0.0,-80.606018,2.301544,33.68074,31.797581,30.471321,89.673073,22.864338,0.0,-70.00766,-1.308354,33.010132,38.003147,3.0,1.0,111.0,0.0,1.0,-79113.0,-25945.0,12649.0,-78725.0,26195.0,12720.0,-0.951045,0.222254,0.21475,-0.282737,-0.906283,-0.314184,0.124795,-0.35952,0.924755,-0.92426,0.373057,-0.081071,0.355799,0.918729,0.171303,0.138389,0.129484,-0.981877,-0.951045,0.222254,0.21475,-0.282737,-0.906283,-0.314184,0.124795,-0.35952,0.924755,-0.92426,0.373057,-0.081071,0.355799,0.918729,0.171303,0.138389,0.129484,-0.981877,-79113.0,-25945.0,12649.0,-78725.0,26195.0,12720.0,-633.0,1482.0,-61862.0,0.0,-26063.0,-21444.0,-19861.0,-22001.0,834.0,-1090.0,-2969.0,0.0,-4748.0,-468.0,438.0,-1232.0,53.0,160.0,-44.0,0.0,-812.0,-724.0,391.0,-449.0,-54.0,-159.0,44.0,0.0,-525.0,354.0,686.0,-563.0,-0.014391,-0.043319,0.012159,0.0,-0.029717,-0.026505,-0.014341,-0.016453,-0.014666,-0.04308,0.012173,0.0,-0.019238,0.012984,-0.025136,-0.02063,4136.580078,11442.420898,51395.851562,0.0,-18104.580078,-17649.0,17982.900391,-17394.121094,4150.080078,11435.850586,51431.132812,0.0,17304.121094,17670.060547,-17390.880859,18029.429688,0.0,0.0,0.0,0.0,0.0,0.0,0.0,0.0,0.0,0.0,0.0,0.0,0.0,0.0,0.0,0.0,0.0,0.0,0.0,0.0,0.0,0.0,0.0,0.0,0.0,0.0,0.0,0.0,0.0,0.0,0.0,0.0,4136.530273,11442.308594,51395.894531,0.0,-18104.583984,-17649.007812,17983.033203,-17394.158203,4150.07373,11435.770508,51431.179688,0.0,17304.123047,17669.882812,-17390.730469,18029.580078,30.371836,89.740692,22.848244,0.0,-80.606636,2.30074,33.695908,31.793167,30.471273,89.672417,22.864367,0.0,-70.007225,-1.327902,33.036667,38.010101,1.142,1.239,-45329.0,-128620.0,-509203.0,0.0,175099.0,174656.0,-179949.0,171267.0,-45278.0,-128155.0,-574426.0,0.0,-197016.0,-196802.0,192794.0,-201559.0,0.0,0.0,0.0,0.0,0.0,0.0,0.0,0.0,0.0,0.0,0.0,0.0,0.0,0.0,0.0,0.0,0.0,0.0,0.0,0.0,0.0,0.0,0.0,0.0
6,0.4414479732513428,30.372202,89.741562,22.848213,0.0,-80.606018,2.301544,33.68074,31.797581,30.471321,89.673073,22.864338,0.0,-70.00766,-1.308354,33.010132,38.003147,3.0,1.0,111.0,0.0,1.0,-79113.0,-25945.0,12649.0,-78725.0,26195.0,12720.0,-0.951045,0.222254,0.21475,-0.282737,-0.906283,-0.314184,0.124795,-0.35952,0.924755,-0.92426,0.373057,-0.081071,0.355799,0.918729,0.171303,0.138389,0.129484,-0.981877,-0.951045,0.222254,0.21475,-0.282737,-0.906283,-0.314184,0.124795,-0.35952,0.924755,-0.92426,0.373057,-0.081071,0.355799,0.918729,0.171303,0.138389,0.129484,-0.981877,-79113.0,-25945.0,12649.0,-78725.0,26195.0,12720.0,-633.0,1482.0,-61862.0,0.0,-26063.0,-21444.0,-19861.0,-22001.0,834.0,-1090.0,-2969.0,0.0,-4748.0,-468.0,438.0,-1232.0,53.0,160.0,-44.0,0.0,-812.0,-724.0,391.0,-449.0,-54.0,-159.0,44.0,0.0,-525.0,354.0,686.0,-563.0,-0.014391,-0.043319,0.012159,0.0,-0.029717,-0.026506,-0.014332,-0.016455,-0.014666,-0.04308,0.012173,0.0,-0.019238,0.012973,-0.025127,-0.020621,4136.580078,11442.420898,51395.851562,0.0,-18104.580078,-17649.0,17982.900391,-17394.121094,4150.080078,11435.850586,51431.132812,0.0,17304.121094,17670.060547,-17390.880859,18029.429688,0.0,0.0,0.0,0.0,0.0,0.0,0.0,0.0,0.0,0.0,0.0,0.0,0.0,0.0,0.0,0.0,0.0,0.0,0.0,0.0,0.0,0.0,0.0,0.0,0.0,0.0,0.0,0.0,0.0,0.0,0.0,0.0,4136.530273,11442.308594,51395.894531,0.0,-18104.583984,-17649.007812,17983.033203,-17394.158203,4150.07373,11435.770508,51431.179688,0.0,17304.123047,17669.882812,-17390.730469,18029.580078,30.371836,89.740692,22.848244,0.0,-80.606636,2.30074,33.695908,31.793167,30.471273,89.672417,22.864367,0.0,-70.007225,-1.327902,33.036667,38.010101,1.142,1.239,-45329.0,-128620.0,-509203.0,0.0,175099.0,174656.0,-179949.0,171267.0,-45278.0,-128155.0,-574426.0,0.0,-197016.0,-196802.0,192794.0,-201559.0,0.0,0.0,0.0,0.0,0.0,0.0,0.0,0.0,0.0,0.0,0.0,0.0,0.0,0.0,0.0,0.0,0.0,0.0,0.0,0.0,0.0,0.0,0.0,0.0
7,0.5136358737945557,30.372202,89.741562,22.848213,0.0,-80.606018,2.301544,33.68074,31.797581,30.471321,89.673073,22.864338,0.0,-70.00766,-1.308354,33.010132,38.003147,3.0,1.0,111.0,0.0,1.0,-79113.0,-25945.0,12649.0,-78725.0,26195.0,12720.0,-0.951045,0.222254,0.21475,-0.282737,-0.906283,-0.314184,0.124795,-0.35952,0.924755,-0.92426,0.373057,-0.081071,0.355799,0.918729,0.171303,0.138389,0.129484,-0.981877,-0.951045,0.222254,0.21475,-0.282737,-0.906283,-0.314184,0.124795,-0.35952,0.924755,-0.92426,0.373057,-0.081071,0.355799,0.918729,0.171303,0.138389,0.129484,-0.981877,-79113.0,-25945.0,12649.0,-78725.0,26195.0,12720.0,-633.0,1482.0,-61862.0,0.0,-26063.0,-21444.0,-19861.0,-22001.0,834.0,-1090.0,-2969.0,0.0,-4748.0,-468.0,438.0,-1232.0,53.0,160.0,-44.0,0.0,-812.0,-724.0,391.0,-449.0,-54.0,-159.0,44.0,0.0,-525.0,354.0,686.0,-563.0,-0.014391,-0.043319,0.012159,0.0,-0.029717,-0.026506,-0.014324,-0.016458,-0.014666,-0.04308,0.012173,0.0,-0.019237,0.012962,-0.025117,-0.020611,4136.580078,11442.420898,51395.851562,0.0,-18104.580078,-17649.0,17982.900391,-17394.121094,4150.080078,11435.850586,51431.132812,0.0,17304.121094,17670.060547,-17390.880859,18029.429688,0.0,0.0,0.0,0.0,0.0,0.0,0.0,0.0,0.0,0.0,0.0,0.0,0.0,0.0,0.0,0.0,0.0,0.0,0.0,0.0,0.0,0.0,0.0,0.0,0.0,0.0,0.0,0.0,0.0,0.0,0.0,0.0,4136.530273,11442.308594,51395.894531,0.0,-18104.583984,-17649.007812,17983.033203,-17394.158203,4150.07373,11435.770508,51431.179688,0.0,17304.123047,17669.882812,-17390.730469,18029.580078,30.371836,89.740692,22.848244,0.0,-80.606636,2.30074,33.695908,31.793167,30.471273,89.672417,22.864367,0.0,-70.007225,-1.327902,33.036667,38.010101,1.142,1.239,-45329.0,-128620.0,-509203.0,0.0,175099.0,174656.0,-179949.0,171267.0,-45278.0,-128155.0,-574426.0,0.0,-197016.0,-196802.0,192794.0,-201559.0,0.0,0.0,0.0,0.0,0.0,0.0,0.0,0.0,0.0,0.0,0.0,0.0,0.0,0.0,0.0,0.0,0.0,0.0,0.0,0.0,0.0,0.0,0.0,0.0
8,0.5834488868713379,30.372202,89.741562,22.848213,0.0,-80.606018,2.301544,33.68074,31.797581,30.471321,89.673073,22.864338,0.0,-70.00766,-1.308354,33.010132,38.003147,3.0,1.0,111.0,0.0,1.0,-79113.0,-25945.0,12649.0,-78725.0,26195.0,12720.0,-0.951045,0.222254,0.21475,-0.282737,-0.906283,-0.314184,0.124795,-0.35952,0.924755,-0.92426,0.373057,-0.081071,0.355799,0.918729,0.171303,0.138389,0.129484,-0.981877,-0.951045,0.222254,0.21475,-0.282737,-0.906283,-0.314184,0.124795,-0.35952,0.924755,-0.92426,0.373057,-0.081071,0.355799,0.918729,0.171303,0.138389,0.129484,-0.981877,-79113.0,-25945.0,12649.0,-78725.0,26195.0,12720.0,-633.0,1482.0,-61862.0,0.0,-26063.0,-21444.0,-19861.0,-22001.0,834.0,-1090.0,-2969.0,0.0,-4748.0,-468.0,438.0,-1232.0,53.0,160.0,-44.0,0.0,-812.0,-724.0,391.0,-449.0,-54.0,-159.0,44.0,0.0,-525.0,353.0,686.0,-563.0,-0.014391,-0.043319,0.012159,0.0,-0.029717,-0.026506,-0.014316,-0.01646,-0.014666,-0.04308,0.012173,0.0,-0.019237,0.012952,-0.025108,-0.020602,4136.580078,11442.420898,51395.851562,0.0,-18104.580078,-17649.0,17982.900391,-17394.121094,4150.080078,11435.850586,51431.132812,0.0,17304.121094,17670.060547,-17390.880859,18029.429688,0.0,0.0,0.0,0.0,0.0,0.0,0.0,0.0,0.0,0.0,0.0,0.0,0.0,0.0,0.0,0.0,0.0,0.0,0.0,0.0,0.0,0.0,0.0,0.0,0.0,0.0,0.0,0.0,0.0,0.0,0.0,0.0,4136.530273,11442.308594,51395.894531,0.0,-18104.583984,-17649.007812,17983.033203,-17394.158203,4150.07373,11435.770508,51431.179688,0.0,17304.123047,17669.882812,-17390.730469,18029.580078,30.371836,89.740692,22.848244,0.0,-80.606636,2.30074,33.695908,31.793167,30.471273,89.672417,22.864367,0.0,-70.007225,-1.327902,33.036667,38.010101,1.142,1.239,-45329.0,-128620.0,-509203.0,0.0,175099.0,174656.0,-179949.0,171267.0,-45278.0,-128155.0,-574426.0,0.0,-197016.0,-196802.0,192794.0,-201559.0,0.0,0.0,0.0,0.0,0.0,0.0,0.0,0.0,0.0,0.0,0.0,0.0,0.0,0.0,0.0,0.0,0.0,0.0,0.0,0.0,0.0,0.0,0.0,0.0
9,0.655587911605835,30.372202,89.741562,22.848213,0.0,-80.606018,2.301544,33.68074,31.797581,30.471321,89.673073,22.864338,0.0,-70.00766,-1.308354,33.010132,38.003147,3.0,1.0,111.0,0.0,1.0,-79113.0,-25945.0,12649.0,-78725.0,26195.0,12720.0,-0.951045,0.222254,0.21475,-0.282737,-0.906283,-0.314184,0.124795,-0.35952,0.924755,-0.92426,0.373057,-0.081071,0.355799,0.918729,0.171303,0.138389,0.129484,-0.981877,-0.951045,0.222254,0.21475,-0.282737,-0.906283,-0.314184,0.124795,-0.35952,0.924755,-0.92426,0.373057,-0.081071,0.355799,0.918729,0.171303,0.138389,0.129484,-0.981877,-79113.0,-25945.0,12649.0,-78725.0,26195.0,12720.0,-633.0,1482.0,-61862.0,0.0,-26063.0,-21444.0,-19861.0,-22001.0,834.0,-1090.0,-2969.0,0.0,-4748.0,-468.0,438.0,-1232.0,53.0,160.0,-44.0,0.0,-812.0,-724.0,391.0,-449.0,-54.0,-159.0,44.0,0.0,-525.0,353.0,685.0,-562.0,-0.014391,-0.043319,0.012159,0.0,-0.029718,-0.026507,-0.014308,-0.016463,-0.014666,-0.04308,0.012173,0.0,-0.019237,0.012941,-0.025099,-0.020593,4136.580078,11442.420898,51395.851562,0.0,-18104.580078,-17649.0,17982.900391,-17394.121094,4150.080078,11435.850586,51431.132812,0.0,17304.121094,17670.060547,-17390.880859,18029.429688,0.0,0.0,0.0,0.0,0.0,0.0,0.0,0.0,0.0,0.0,0.0,0.0,0.0,0.0,0.0,0.0,0.0,0.0,0.0,0.0,0.0,0.0,0.0,0.0,0.0,0.0,0.0,0.0,0.0,0.0,0.0,0.0,4136.530273,11442.308594,51395.894531,0.0,-18104.583984,-17649.007812,17983.033203,-17394.158203,4150.07373,11435.770508,51431.179688,0.0,17304.123047,17669.882812,-17390.730469,18029.580078,30.371836,89.740692,22.848244,0.0,-80.606636,2.30074,33.695908,31.793167,30.471273,89.672417,22.864367,0.0,-70.007225,-1.327902,33.036667,38.010101,1.142,1.239,-45329.0,-128620.0,-509203.0,0.0,175099.0,174656.0,-179949.0,171267.0,-45278.0,-128155.0,-574426.0,0.0,-197016.0,-196802.0,192794.0,-201559.0,0.0,0.0,0.0,0.0,0.0,0.0,0.0,0.0,0.0,0.0,0.0,0.0,0.0,0.0,0.0,0.0,0.0,0.0,0.0,0.0,0.0,0.0,0.0,0.0
10,0.733443021774292,30.372202,89.741562,22.848213,0.0,-80.606018,2.301544,33.68074,31.797581,30.471321,89.673073,22.864338,0.0,-70.00766,-1.308354,33.010132,38.003147,3.0,1.0,111.0,0.0,1.0,-79113.0,-25945.0,12649.0,-78725.0,26195.0,12720.0,-0.951045,0.222254,0.21475,-0.282737,-0.906283,-0.314184,0.124795,-0.35952,0.924755,-0.92426,0.373057,-0.081071,0.355799,0.918729,0.171303,0.138389,0.129484,-0.981877,-0.951045,0.222254,0.21475,-0.282737,-0.906283,-0.314184,0.124795,-0.35952,0.924755,-0.92426,0.373057,-0.081071,0.355799,0.918729,0.171303,0.138389,0.129484,-0.981877,-79113.0,-25945.0,12649.0,-78725.0,26195.0,12720.0,-633.0,1482.0,-61862.0,0.0,-26063.0,-21444.0,-19861.0,-22001.0,834.0,-1090.0,-2969.0,0.0,-4748.0,-468.0,438.0,-1232.0,53.0,160.0,-44.0,0.0,-812.0,-724.0,390.0,-449.0,-54.0,-159.0,44.0,0.0,-525.0,353.0,685.0,-562.0,-0.014391,-0.043319,0.012159,0.0,-0.029718,-0.026507,-0.014298,-0.016465,-0.014666,-0.04308,0.012173,0.0,-0.019237,0.012929,-0.025089,-0.020582,4136.580078,11442.420898,51395.851562,0.0,-18104.580078,-17649.0,17982.900391,-17394.121094,4150.080078,11435.850586,51431.132812,0.0,17304.121094,17670.060547,-17390.880859,18029.429688,0.0,0.0,0.0,0.0,0.0,0.0,0.0,0.0,0.0,0.0,0.0,0.0,0.0,0.0,0.0,0.0,0.0,0.0,0.0,0.0,0.0,0.0,0.0,0.0,0.0,0.0,0.0,0.0,0.0,0.0,0.0,0.0,4136.530273,11442.308594,51395.894531,0.0,-18104.583984,-17649.007812,17983.033203,-17394.158203,4150.07373,11435.770508,51431.179688,0.0,17304.123047,17669.882812,-17390.730469,18029.580078,30.371836,89.740692,22.848244,0.0,-80.606636,2.30074,33.695908,31.793167,30.471273,89.672417,22.864367,0.0,-70.007225,-1.327902,33.036667,38.010101,1.142,1.239,-45329.0,-128620.0,-509203.0,0.0,175099.0,174656.0,-179949.0,171267.0,-45278.0,-128155.0,-574426.0,0.0,-197016.0,-196802.0,192794.0,-201559.0,0.0,0.0,0.0,0.0,0.0,0.0,0.0,0.0,0.0,0.0,0.0,0.0,0.0,0.0,0.0,0.0,0.0,0.0,0.0,0.0,0.0,0.0,0.0,0.0
11,0.8095769882202148,30.372202,89.741562,22.848213,0.0,-80.606018,2.301544,33.68074,31.797581,30.471321,89.673073,22.864338,0.0,-70.00766,-1.308354,33.010132,38.003147,3.0,1.0,111.0,0.0,1.0,-79113.0,-25945.0,12649.0,-78725.0,26195.0,12720.0,-0.951045,0.222254,0.21475,-0.282737,-0.906283,-0.314184,0.124795,-0.35952,0.924755,-0.92426,0.373057,-0.081071,0.355799,0.918729,0.171303,0.138389,0.129484,-0.981877,-0.951045,0.222254,0.21475,-0.282737,-0.906283,-0.314184,0.124795,-0.35952,0.924755,-0.92426,0.373057,-0.081071,0.355799,0.918729,0.171303,0.138389,0.129484,-0.981877,-79113.0,-25945.0,12649.0,-78725.0,26195.0,12720.0,-633.0,1482.0,-61862.0,0.0,-26063.0,-21444.0,-19861.0,-22001.0,834.0,-1090.0,-2969.0,0.0,-4748.0,-468.0,438.0,-1232.0,53.0,160.0,-44.0,0.0,-812.0,-724.0,390.0,-450.0,-54.0,-159.0,44.0,0.0,-525.0,352.0,685.0,-562.0,-0.014391,-0.043319,0.012159,0.0,-0.029718,-0.026508,-0.01429,-0.016468,-0.014666,-0.04308,0.012173,0.0,-0.019236,0.012917,-0.025079,-0.020572,4136.580078,11442.420898,51395.851562,0.0,-18104.580078,-17649.0,17982.900391,-17394.121094,4150.080078,11435.850586,51431.132812,0.0,17304.121094,17670.060547,-17390.880859,18029.429688,0.0,0.0,0.0,0.0,0.0,0.0,0.0,0.0,0.0,0.0,0.0,0.0,0.0,0.0,0.0,0.0,0.0,0.0,0.0,0.0,0.0,0.0,0.0,0.0,0.0,0.0,0.0,0.0,0.0,0.0,0.0,0.0,4136.530273,11442.308594,51395.894531,0.0,-18104.583984,-17649.007812,17983.033203,-17394.158203,4150.07373,11435.770508,51431.179688,0.0,17304.123047,17669.882812,-17390.730469,18029.580078,30.371836,89.740692,22.848244,0.0,-80.606636,2.30074,33.695908,31.793167,30.471273,89.672417,22.864367,0.0,-70.007225,-1.327902,33.036667,38.010101,1.142,1.239,-45329.0,-128620.0,-509203.0,0.0,175099.0,174656.0,-179949.0,171267.0,-45278.0,-128155.0,-574426.0,0.0,-197016.0,-196802.0,192794.0,-201559.0,0.0,0.0,0.0,0.0,0.0,0.0,0.0,0.0,0.0,0.0,0.0,0.0,0.0,0.0,0.0,0.0,0.0,0.0,0.0,0.0,0.0,0.0,0.0,0.0
12,0.8815789222717285,30.372202,89.741562,22.848213,0.0,-80.606018,2.301544,33.68074,31.797581,30.471321,89.673073,22.864338,0.0,-70.00766,-1.308354,33.010132,38.003147,3.0,1.0,111.0,0.0,1.0,-79113.0,-25945.0,12649.0,-78725.0,26195.0,12720.0,-0.951045,0.222254,0.21475,-0.282737,-0.906283,-0.314184,0.124795,-0.35952,0.924755,-0.92426,0.373057,-0.081071,0.355799,0.918729,0.171303,0.138389,0.129484,-0.981877,-0.951045,0.222254,0.21475,-0.282737,-0.906283,-0.314184,0.124795,-0.35952,0.924755,-0.92426,0.373057,-0.081071,0.355799,0.918729,0.171303,0.138389,0.129484,-0.981877,-79113.0,-25945.0,12649.0,-78725.0,26195.0,12720.0,-633.0,1482.0,-61862.0,0.0,-26063.0,-21444.0,-19861.0,-22001.0,834.0,-1090.0,-2969.0,0.0,-4748.0,-468.0,438.0,-1232.0,53.0,160.0,-44.0,0.0,-812.0,-724.0,390.0,-450.0,-54.0,-159.0,44.0,0.0,-525.0,352.0,685.0,-561.0,-0.014391,-0.043319,0.012159,0.0,-0.029718,-0.026508,-0.014281,-0.01647,-0.014666,-0.04308,0.012173,0.0,-0.019236,0.012906,-0.025069,-0.020563,4136.580078,11442.420898,51395.851562,0.0,-18104.580078,-17649.0,17982.900391,-17394.121094,4150.080078,11435.850586,51431.132812,0.0,17304.121094,17670.060547,-17390.880859,18029.429688,0.0,0.0,0.0,0.0,0.0,0.0,0.0,0.0,0.0,0.0,0.0,0.0,0.0,0.0,0.0,0.0,0.0,0.0,0.0,0.0,0.0,0.0,0.0,0.0,0.0,0.0,0.0,0.0,0.0,0.0,0.0,0.0,4136.530273,11442.308594,51395.894531,0.0,-18104.583984,-17649.007812,17983.033203,-17394.158203,4150.07373,11435.770508,51431.179688,0.0,17304.123047,17669.882812,-17390.730469,18029.580078,30.371836,89.740692,22.848244,0.0,-80.606636,2.30074,33.695908,31.793167,30.471273,89.672417,22.864367,0.0,-70.007225,-1.327902,33.036667,38.010101,1.142,1.239,-45329.0,-128620.0,-509203.0,0.0,175099.0,174656.0,-179949.0,171267.0,-45278.0,-128155.0,-574426.0,0.0,-197016.0,-196802.0,192794.0,-201559.0,0.0,0.0,0.0,0.0,0.0,0.0,0.0,0.0,0.0,0.0,0.0,0.0,0.0,0.0,0.0,0.0,0.0,0.0,0.0,0.0,0.0,0.0,0.0,0.0
13,0.9585418701171875,30.372202,89.741562,22.848213,0.0,-80.606018,2.301544,33.68074,31.797581,30.471321,89.673073,22.864338,0.0,-70.00766,-1.308354,33.010132,38.003147,3.0,1.0,111.0,0.0,1.0,-79113.0,-25945.0,12649.0,-78725.0,26195.0,12720.0,-0.951045,0.222254,0.21475,-0.282737,-0.906283,-0.314184,0.124795,-0.35952,0.924755,-0.92426,0.373057,-0.081071,0.355799,0.918729,0.171303,0.138389,0.129484,-0.981877,-0.951045,0.222254,0.21475,-0.282737,-0.906283,-0.314184,0.124795,-0.35952,0.924755,-0.92426,0.373057,-0.081071,0.355799,0.918729,0.171303,0.138389,0.129484,-0.981877,-79113.0,-25945.0,12649.0,-78725.0,26195.0,12720.0,-633.0,1482.0,-61862.0,0.0,-26063.0,-21444.0,-19861.0,-22001.0,834.0,-1090.0,-2969.0,0.0,-4748.0,-468.0,438.0,-1232.0,53.0,160.0,-44.0,0.0,-812.0,-724.0,390.0,-450.0,-54.0,-159.0,44.0,0.0,-525.0,352.0,684.0,-561.0,-0.014391,-0.043319,0.012159,0.0,-0.029719,-0.026509,-0.014272,-0.016472,-0.014666,-0.04308,0.012173,0.0,-0.019236,0.012894,-0.025059,-0.020553,4136.580078,11442.420898,51395.851562,0.0,-18104.580078,-17649.0,17982.900391,-17394.121094,4150.080078,11435.850586,51431.132812,0.0,17304.121094,17670.060547,-17390.880859,18029.429688,0.0,0.0,0.0,0.0,0.0,0.0,0.0,0.0,0.0,0.0,0.0,0.0,0.0,0.0,0.0,0.0,0.0,0.0,0.0,0.0,0.0,0.0,0.0,0.0,0.0,0.0,0.0,0.0,0.0,0.0,0.0,0.0,4136.530273,11442.308594,51395.894531,0.0,-18104.583984,-17649.007812,17983.033203,-17394.158203,4150.07373,11435.770508,51431.179688,0.0,17304.123047,17669.882812,-17390.730469,18029.580078,30.371836,89.740692,22.848244,0.0,-80.606636,2.30074,33.695908,31.793167,30.471273,89.672417,22.864367,0.0,-70.007225,-1.327902,33.036667,38.010101,1.142,1.239,-45329.0,-128620.0,-509203.0,0.0,175099.0,174656.0,-179949.0,171267.0,-45278.0,-128155.0,-574426.0,0.0,-197016.0,-196802.0,192794.0,-201559.0,0.0,0.0,0.0,0.0,0.0,0.0,0.0,0.0,0.0,0.0,0.0,0.0,0.0,0.0,0.0,0.0,0.0,0.0,0.0,0.0,0.0,0.0,0.0,0.0
14,1.0284669399261475,30.372202,89.741562,22.848213,0.0,-80.606018,2.301544,33.68074,31.797581,30.471321,89.673073,22.864338,0.0,-70.00766,-1.308354,33.010132,38.003147,3.0,1.0,111.0,0.0,1.0,-79113.0,-25945.0,12649.0,-78725.0,26195.0,12720.0,-0.951045,0.222254,0.21475,-0.282737,-0.906283,-0.314184,0.124795,-0.35952,0.924755,-0.92426,0.373057,-0.081071,0.355799,0.918729,0.171303,0.138389,0.129484,-0.981877,-0.951045,0.222254,0.21475,-0.282737,-0.906283,-0.314184,0.124795,-0.35952,0.924755,-0.92426,0.373057,-0.081071,0.355799,0.918729,0.171303,0.138389,0.129484,-0.981877,-79113.0,-25945.0,12649.0,-78725.0,26195.0,12720.0,-633.0,1482.0,-61862.0,0.0,-26063.0,-21444.0,-19861.0,-22001.0,834.0,-1090.0,-2969.0,0.0,-4748.0,-468.0,438.0,-1232.0,53.0,160.0,-44.0,0.0,-812.0,-724.0,389.0,-450.0,-54.0,-159.0,44.0,0.0,-525.0,352.0,684.0,-561.0,-0.014391,-0.043319,0.012159,0.0,-0.029719,-0.026509,-0.014264,-0.016475,-0.014666,-0.04308,0.012173,0.0,-0.019236,0.012883,-0.02505,-0.020544,4136.580078,11442.420898,51395.851562,0.0,-18104.580078,-17649.0,17982.900391,-17394.121094,4150.080078,11435.850586,51431.132812,0.0,17304.121094,17670.060547,-17390.880859,18029.429688,0.0,0.0,0.0,0.0,0.0,0.0,0.0,0.0,0.0,0.0,0.0,0.0,0.0,0.0,0.0,0.0,0.0,0.0,0.0,0.0,0.0,0.0,0.0,0.0,0.0,0.0,0.0,0.0,0.0,0.0,0.0,0.0,4136.530273,11442.308594,51395.894531,0.0,-18104.583984,-17649.007812,17983.033203,-17394.158203,4150.07373,11435.770508,51431.179688,0.0,17304.123047,17669.882812,-17390.730469,18029.580078,30.371836,89.740692,22.848244,0.0,-80.606636,2.30074,33.695908,31.793167,30.471273,89.672417,22.864367,0.0,-70.007225,-1.327902,33.036667,38.010101,1.142,1.239,-45329.0,-128620.0,-509203.0,0.0,175099.0,174656.0,-179949.0,171267.0,-45278.0,-128155.0,-574426.0,0.0,-197016.0,-196802.0,192794.0,-201559.0,0.0,0.0,0.0,0.0,0.0,0.0,0.0,0.0,0.0,0.0,0.0,0.0,0.0,0.0,0.0,0.0,0.0,0.0,0.0,0.0,0.0,0.0,0.0,0.0
15,1.105463981628418,30.372202,89.741562,22.848213,0.0,-80.606018,2.301544,33.68074,31.797581,30.471321,89.673073,22.864338,0.0,-70.00766,-1.308354,33.010132,38.003147,3.0,1.0,111.0,0.0,1.0,-79113.0,-25945.0,12649.0,-78725.0,26195.0,12720.0,-0.951045,0.222254,0.21475,-0.282737,-0.906283,-0.314184,0.124795,-0.35952,0.924755,-0.92426,0.373057,-0.081071,0.355799,0.918729,0.171303,0.138389,0.129484,-0.981877,-0.951045,0.222254,0.21475,-0.282737,-0.906283,-0.314184,0.124795,-0.35952,0.924755,-0.92426,0.373057,-0.081071,0.355799,0.918729,0.171303,0.138389,0.129484,-0.981877,-79113.0,-25945.0,12649.0,-78725.0,26195.0,12720.0,-633.0,1482.0,-61862.0,0.0,-26063.0,-21444.0,-19861.0,-22001.0,834.0,-1090.0,-2969.0,0.0,-4748.0,-468.0,438.0,-1232.0,53.0,160.0,-44.0,0.0,-812.0,-724.0,389.0,-450.0,-54.0,-159.0,44.0,0.0,-525.0,351.0,684.0,-561.0,-0.014391,-0.043319,0.012159,0.0,-0.029719,-0.02651,-0.014255,-0.016477,-0.014666,-0.04308,0.012173,0.0,-0.019235,0.012871,-0.02504,-0.020534,4136.580078,11442.420898,51395.851562,0.0,-18104.580078,-17649.0,17982.900391,-17394.121094,4150.080078,11435.850586,51431.132812,0.0,17304.121094,17670.060547,-17390.880859,18029.429688,0.0,0.0,0.0,0.0,0.0,0.0,0.0,0.0,0.0,0.0,0.0,0.0,0.0,0.0,0.0,0.0,0.0,0.0,0.0,0.0,0.0,0.0,0.0,0.0,0.0,0.0,0.0,0.0,0.0,0.0,0.0,0.0,4136.530273,11442.308594,51395.894531,0.0,-18104.583984,-17649.007812,17983.033203,-17394.158203,4150.07373,11435.770508,51431.179688,0.0,17304.123047,17669.882812,-17390.730469,18029.580078,30.371836,89.740692,22.848244,0.0,-80.606636,2.30074,33.695908,31.793167,30.471273,89.672417,22.864367,0.0,-70.007225,-1.327902,33.036667,38.010101,1.142,1.239,-45329.0,-128620.0,-509203.0,0.0,175099.0,174656.0,-179949.0,171267.0,-45278.0,-128155.0,-574426.0,0.0,-197016.0,-196802.0,192794.0,-201559.0,0.0,0.0,0.0,0.0,0.0,0.0,0.0,0.0,0.0,0.0,0.0,0.0,0.0,0.0,0.0,0.0,0.0,0.0,0.0,0.0,0.0,0.0,0.0,0.0
16,1.184459924697876,30.372202,89.741562,22.848213,0.0,-80.606018,2.301544,33.68074,31.797581,30.471321,89.673073,22.864338,0.0,-70.00766,-1.308354,33.010132,38.003147,3.0,1.0,111.0,0.0,1.0,-79113.0,-25945.0,12649.0,-78725.0,26195.0,12720.0,-0.951045,0.222254,0.21475,-0.282737,-0.906283,-0.314184,0.124795,-0.35952,0.924755,-0.92426,0.373057,-0.081071,0.355799,0.918729,0.171303,0.138389,0.129484,-0.981877,-0.951045,0.222254,0.21475,-0.282737,-0.906283,-0.314184,0.124795,-0.35952,0.924755,-0.92426,0.373057,-0.081071,0.355799,0.918729,0.171303,0.138389,0.129484,-0.981877,-79113.0,-25945.0,12649.0,-78725.0,26195.0,12720.0,-633.0,1482.0,-61862.0,0.0,-26063.0,-21444.0,-19861.0,-22001.0,834.0,-1090.0,-2969.0,0.0,-4748.0,-468.0,438.0,-1232.0,53.0,160.0,-44.0,0.0,-812.0,-724.0,389.0,-450.0,-54.0,-159.0,44.0,0.0,-525.0,351.0,684.0,-560.0,-0.014391,-0.043319,0.012159,0.0,-0.029719,-0.02651,-0.014246,-0.01648,-0.014666,-0.04308,0.012173,0.0,-0.019235,0.012859,-0.025029,-0.020523,4136.580078,11442.420898,51395.851562,0.0,-18104.580078,-17649.0,17982.900391,-17394.121094,4150.080078,11435.850586,51431.132812,0.0,17304.121094,17670.060547,-17390.880859,18029.429688,0.0,0.0,0.0,0.0,0.0,0.0,0.0,0.0,0.0,0.0,0.0,0.0,0.0,0.0,0.0,0.0,0.0,0.0,0.0,0.0,0.0,0.0,0.0,0.0,0.0,0.0,0.0,0.0,0.0,0.0,0.0,0.0,4136.530273,11442.308594,51395.894531,0.0,-18104.583984,-17649.007812,17983.033203,-17394.158203,4150.07373,11435.770508,51431.179688,0.0,17304.123047,17669.882812,-17390.730469,18029.580078,30.371836,89.740692,22.848244,0.0,-80.606636,2.30074,33.695908,31.793167,30.471273,89.672417,22.864367,0.0,-70.007225,-1.327902,33.036667,38.010101,1.142,1.239,-45329.0,-128620.0,-509203.0,0.0,175099.0,174656.0,-179949.0,171267.0,-45278.0,-128155.0,-574426.0,0.0,-197016.0,-196802.0,192794.0,-201559.0,0.0,0.0,0.0,0.0,0.0,0.0,0.0,0.0,0.0,0.0,0.0,0.0,0.0,0.0,0.0,0.0,0.0,0.0,0.0,0.0,0.0,0.0,0.0,0.0
17,1.2576220035552979,30.372202,89.741562,22.848213,0.0,-80.606018,2.301544,33.68074,31.797581,30.471321,89.673073,22.864338,0.0,-70.00766,-1.308354,33.010132,38.003147,3.0,1.0,111.0,0.0,1.0,-79113.0,-25945.0,12649.0,-78725.0,26195.0,12720.0,-0.951045,0.222254,0.21475,-0.282737,-0.906283,-0.314184,0.124795,-0.35952,0.924755,-0.92426,0.373057,-0.081071,0.355799,0.918729,0.171303,0.138389,0.129484,-0.981877,-0.951045,0.222254,0.21475,-0.282737,-0.906283,-0.314184,0.124795,-0.35952,0.924755,-0.92426,0.373057,-0.081071,0.355799,0.918729,0.171303,0.138389,0.129484,-0.981877,-79113.0,-25945.0,12649.0,-78725.0,26195.0,12720.0,-633.0,1482.0,-61862.0,0.0,-26063.0,-21444.0,-19861.0,-22001.0,834.0,-1090.0,-2969.0,0.0,-4748.0,-468.0,438.0,-1232.0,53.0,160.0,-44.0,0.0,-812.0,-724.0,389.0,-450.0,-54.0,-159.0,44.0,0.0,-525.0,351.0,683.0,-560.0,-0.014391,-0.043319,0.012159,0.0,-0.029719,-0.02651,-0.014238,-0.016482,-0.014666,-0.04308,0.012173,0.0,-0.019235,0.012848,-0.02502,-0.020514,4136.580078,11442.420898,51395.851562,0.0,-18104.580078,-17649.0,17982.900391,-17394.121094,4150.080078,11435.850586,51431.132812,0.0,17304.121094,17670.060547,-17390.880859,18029.429688,0.0,0.0,0.0,0.0,0.0,0.0,0.0,0.0,0.0,0.0,0.0,0.0,0.0,0.0,0.0,0.0,0.0,0.0,0.0,0.0,0.0,0.0,0.0,0.0,0.0,0.0,0.0,0.0,0.0,0.0,0.0,0.0,4136.530273,11442.308594,51395.894531,0.0,-18104.583984,-17649.007812,17983.033203,-17394.158203,4150.07373,11435.770508,51431.179688,0.0,17304.123047,17669.882812,-17390.730469,18029.580078,30.371836,89.740692,22.848244,0.0,-80.606636,2.30074,33.695908,31.793167,30.471273,89.672417,22.864367,0.0,-70.007225,-1.327902,33.036667,38.010101,1.142,1.239,-45329.0,-128620.0,-509203.0,0.0,175099.0,174656.0,-179949.0,171267.0,-45278.0,-128155.0,-574426.0,0.0,-197016.0,-196802.0,192794.0,-201559.0,0.0,0.0,0.0,0.0,0.0,0.0,0.0,0.0,0.0,0.0,0.0,0.0,0.0,0.0,0.0,0.0,0.0,0.0,0.0,0.0,0.0,0.0,0.0,0.0
18,1.3336169719696045,30.372202,89.741562,22.848213,0.0,-80.606018,2.301544,33.68074,31.797581,30.471321,89.673073,22.864338,0.0,-70.00766,-1.308354,33.010132,38.003147,3.0,1.0,111.0,0.0,1.0,-79113.0,-25945.0,12649.0,-78725.0,26195.0,12720.0,-0.951045,0.222254,0.21475,-0.282737,-0.906283,-0.314184,0.124795,-0.35952,0.924755,-0.92426,0.373057,-0.081071,0.355799,0.918729,0.171303,0.138389,0.129484,-0.981877,-0.951045,0.222254,0.21475,-0.282737,-0.906283,-0.314184,0.124795,-0.35952,0.924755,-0.92426,0.373057,-0.081071,0.355799,0.918729,0.171303,0.138389,0.129484,-0.981877,-79113.0,-25945.0,12649.0,-78725.0,26195.0,12720.0,-633.0,1482.0,-61862.0,0.0,-26063.0,-21444.0,-19861.0,-22001.0,834.0,-1090.0,-2969.0,0.0,-4748.0,-468.0,438.0,-1232.0,53.0,160.0,-44.0,0.0,-812.0,-724.0,388.0,-450.0,-54.0,-159.0,44.0,0.0,-525.0,350.0,683.0,-560.0,-0.014391,-0.043319,0.012159,0.0,-0.02972,-0.026511,-0.014229,-0.016485,-0.014666,-0.04308,0.012173,0.0,-0.019235,0.012836,-0.02501,-0.020504,4136.580078,11442.420898,51395.851562,0.0,-18104.580078,-17649.0,17982.900391,-17394.121094,4150.080078,11435.850586,51431.132812,0.0,17304.121094,17670.060547,-17390.880859,18029.429688,0.0,0.0,0.0,0.0,0.0,0.0,0.0,0.0,0.0,0.0,0.0,0.0,0.0,0.0,0.0,0.0,0.0,0.0,0.0,0.0,0.0,0.0,0.0,0.0,0.0,0.0,0.0,0.0,0.0,0.0,0.0,0.0,4136.530273,11442.308594,51395.894531,0.0,-18104.583984,-17649.007812,17983.033203,-17394.158203,4150.07373,11435.770508,51431.179688,0.0,17304.123047,17669.882812,-17390.730469,18029.580078,30.371836,89.740692,22.848244,0.0,-80.606636,2.30074,33.695908,31.793167,30.471273,89.672417,22.864367,0.0,-70.007225,-1.327902,33.036667,38.010101,1.142,1.239,-45329.0,-128620.0,-509203.0,0.0,175099.0,174656.0,-179949.0,171267.0,-45278.0,-128155.0,-574426.0,0.0,-197016.0,-196802.0,192794.0,-201559.0,0.0,0.0,0.0,0.0,0.0,0.0,0.0,0.0,0.0,0.0,0.0,0.0,0.0,0.0,0.0,0.0,0.0,0.0,0.0,0.0,0.0,0.0,0.0,0.0
19,1.4065799713134766,30.372202,89.741562,22.848213,0.0,-80.606018,2.301544,33.68074,31.797581,30.471321,89.673073,22.864338,0.0,-70.00766,-1.308354,33.010132,38.003147,3.0,1.0,111.0,0.0,1.0,-79113.0,-25945.0,12649.0,-78725.0,26195.0,12720.0,-0.951045,0.222254,0.21475,-0.282737,-0.906283,-0.314184,0.124795,-0.35952,0.924755,-0.92426,0.373057,-0.081071,0.355799,0.918729,0.171303,0.138389,0.129484,-0.981877,-0.951045,0.222254,0.21475,-0.282737,-0.906283,-0.314184,0.124795,-0.35952,0.924755,-0.92426,0.373057,-0.081071,0.355799,0.918729,0.171303,0.138389,0.129484,-0.981877,-79113.0,-25945.0,12649.0,-78725.0,26195.0,12720.0,-633.0,1482.0,-61862.0,0.0,-26063.0,-21444.0,-19861.0,-22001.0,834.0,-1090.0,-2969.0,0.0,-4748.0,-468.0,438.0,-1232.0,53.0,160.0,-44.0,0.0,-812.0,-724.0,388.0,-450.0,-54.0,-159.0,44.0,0.0,-525.0,350.0,683.0,-560.0,-0.014391,-0.043319,0.012159,0.0,-0.02972,-0.026511,-0.01422,-0.016487,-0.014666,-0.04308,0.012173,0.0,-0.019235,0.012825,-0.025,-0.020494,4136.580078,11442.420898,51395.851562,0.0,-18104.580078,-17649.0,17982.900391,-17394.121094,4150.080078,11435.850586,51431.132812,0.0,17304.121094,17670.060547,-17390.880859,18029.429688,0.0,0.0,0.0,0.0,0.0,0.0,0.0,0.0,0.0,0.0,0.0,0.0,0.0,0.0,0.0,0.0,0.0,0.0,0.0,0.0,0.0,0.0,0.0,0.0,0.0,0.0,0.0,0.0,0.0,0.0,0.0,0.0,4136.530273,11442.308594,51395.894531,0.0,-18104.583984,-17649.007812,17983.033203,-17394.158203,4150.07373,11435.770508,51431.179688,0.0,17304.123047,17669.882812,-17390.730469,18029.580078,30.371836,89.740692,22.848244,0.0,-80.606636,2.30074,33.695908,31.793167,30.471273,89.672417,22.864367,0.0,-70.007225,-1.327902,33.036667,38.010101,1.142,1.239,-45329.0,-128620.0,-509203.0,0.0,175099.0,174656.0,-179949.0,171267.0,-45278.0,-128155.0,-574426.0,0.0,-197016.0,-196802.0,192794.0,-201559.0,0.0,0.0,0.0,0.0,0.0,0.0,0.0,0.0,0.0,0.0,0.0,0.0,0.0,0.0,0.0,0.0,0.0,0.0,0.0,0.0,0.0,0.0,0.0,0.0
20,1.478416919708252,30.372202,89.741562,22.848213,0.0,-80.606018,2.301544,33.68074,31.797581,30.471321,89.673073,22.864338,0.0,-70.00766,-1.308354,33.010132,38.003147,3.0,1.0,111.0,0.0,1.0,-79113.0,-25945.0,12649.0,-78725.0,26195.0,12720.0,-0.951045,0.222254,0.21475,-0.282737,-0.906283,-0.314184,0.124795,-0.35952,0.924755,-0.92426,0.373057,-0.081071,0.355799,0.918729,0.171303,0.138389,0.129484,-0.981877,-0.951045,0.222254,0.21475,-0.282737,-0.906283,-0.314184,0.124795,-0.35952,0.924755,-0.92426,0.373057,-0.081071,0.355799,0.918729,0.171303,0.138389,0.129484,-0.981877,-79113.0,-25945.0,12649.0,-78725.0,26195.0,12720.0,-633.0,1482.0,-61862.0,0.0,-26063.0,-21444.0,-19861.0,-22001.0,834.0,-1090.0,-2969.0,0.0,-4748.0,-468.0,438.0,-1232.0,53.0,160.0,-44.0,0.0,-812.0,-724.0,388.0,-450.0,-54.0,-159.0,44.0,0.0,-525.0,350.0,682.0,-559.0,-0.014391,-0.043319,0.012159,0.0,-0.02972,-0.026512,-0.014212,-0.016489,-0.014666,-0.04308,0.012173,0.0,-0.019235,0.012814,-0.024991,-0.020485,4136.580078,11442.420898,51395.851562,0.0,-18104.580078,-17649.0,17982.900391,-17394.121094,4150.080078,11435.850586,51431.132812,0.0,17304.121094,17670.060547,-17390.880859,18029.429688,0.0,0.0,0.0,0.0,0.0,0.0,0.0,0.0,0.0,0.0,0.0,0.0,0.0,0.0,0.0,0.0,0.0,0.0,0.0,0.0,0.0,0.0,0.0,0.0,0.0,0.0,0.0,0.0,0.0,0.0,0.0,0.0,4136.530273,11442.308594,51395.894531,0.0,-18104.583984,-17649.007812,17983.033203,-17394.158203,4150.07373,11435.770508,51431.179688,0.0,17304.123047,17669.882812,-17390.730469,18029.580078,30.371836,89.740692,22.848244,0.0,-80.606636,2.30074,33.695908,31.793167,30.471273,89.672417,22.864367,0.0,-70.007225,-1.327902,33.036667,38.010101,1.142,1.239,-45329.0,-128620.0,-509203.0,0.0,175099.0,174656.0,-179949.0,171267.0,-45278.0,-128155.0,-574426.0,0.0,-197016.0,-196802.0,192794.0,-201559.0,0.0,0.0,0.0,0.0,0.0,0.0,0.0,0.0,0.0,0.0,0.0,0.0,0.0,0.0,0.0,0.0,0.0,0.0,0.0,0.0,0.0,0.0,0.0,0.0
21,1.553452968597412,30.372202,89.741562,22.848213,0.0,-80.606018,2.301544,33.68074,31.797581,30.471321,89.673073,22.864338,0.0,-70.00766,-1.308354,33.010132,38.003147,3.0,1.0,111.0,0.0,1.0,-79113.0,-25945.0,12649.0,-78725.0,26195.0,12720.0,-0.951045,0.222254,0.21475,-0.282737,-0.906283,-0.314184,0.124795,-0.35952,0.924755,-0.92426,0.373057,-0.081071,0.355799,0.918729,0.171303,0.138389,0.129484,-0.981877,-0.951045,0.222254,0.21475,-0.282737,-0.906283,-0.314184,0.124795,-0.35952,0.924755,-0.92426,0.373057,-0.081071,0.355799,0.918729,0.171303,0.138389,0.129484,-0.981877,-79113.0,-25945.0,12649.0,-78725.0,26195.0,12720.0,-633.0,1482.0,-61862.0,0.0,-26063.0,-21444.0,-19861.0,-22001.0,834.0,-1090.0,-2969.0,0.0,-4748.0,-468.0,438.0,-1232.0,53.0,160.0,-44.0,0.0,-812.0,-724.0,388.0,-450.0,-54.0,-159.0,44.0,0.0,-525.0,349.0,682.0,-559.0,-0.014391,-0.043319,0.012159,0.0,-0.02972,-0.026512,-0.014203,-0.016492,-0.014666,-0.04308,0.012173,0.0,-0.019235,0.012803,-0.024981,-0.020475,4136.580078,11442.420898,51395.851562,0.0,-18104.580078,-17649.0,17982.900391,-17394.121094,4150.080078,11435.850586,51431.132812,0.0,17304.121094,17670.060547,-17390.880859,18029.429688,0.0,0.0,0.0,0.0,0.0,0.0,0.0,0.0,0.0,0.0,0.0,0.0,0.0,0.0,0.0,0.0,0.0,0.0,0.0,0.0,0.0,0.0,0.0,0.0,0.0,0.0,0.0,0.0,0.0,0.0,0.0,0.0,4136.530273,11442.308594,51395.894531,0.0,-18104.583984,-17649.007812,17983.033203,-17394.158203,4150.07373,11435.770508,51431.179688,0.0,17304.123047,17669.882812,-17390.730469,18029.580078,30.371836,89.740692,22.848244,0.0,-80.606636,2.30074,33.695908,31.793167,30.471273,89.672417,22.864367,0.0,-70.007225,-1.327902,33.036667,38.010101,1.142,1.239,-45329.0,-128620.0,-509203.0,0.0,175099.0,174656.0,-179949.0,171267.0,-45278.0,-128155.0,-574426.0,0.0,-197016.0,-196802.0,192794.0,-201559.0,0.0,0.0,0.0,0.0,0.0,0.0,0.0,0.0,0.0,0.0,0.0,0.0,0.0,0.0,0.0,0.0,0.0,0.0,0.0,0.0,0.0,0.0,0.0,0.0
22,1.6254169940948486,30.372202,89.741562,22.848213,0.0,-80.606018,2.301544,33.68074,31.797581,30.471321,89.673073,22.864338,0.0,-70.00766,-1.308354,33.010132,38.003147,3.0,1.0,111.0,0.0,1.0,-79113.0,-25945.0,12649.0,-78725.0,26195.0,12720.0,-0.951045,0.222254,0.21475,-0.282737,-0.906283,-0.314184,0.124795,-0.35952,0.924755,-0.92426,0.373057,-0.081071,0.355799,0.918729,0.171303,0.138389,0.129484,-0.981877,-0.951045,0.222254,0.21475,-0.282737,-0.906283,-0.314184,0.124795,-0.35952,0.924755,-0.92426,0.373057,-0.081071,0.355799,0.918729,0.171303,0.138389,0.129484,-0.981877,-79113.0,-25945.0,12649.0,-78725.0,26195.0,12720.0,-633.0,1482.0,-61862.0,0.0,-26063.0,-21444.0,-19861.0,-22001.0,834.0,-1090.0,-2969.0,0.0,-4748.0,-468.0,438.0,-1232.0,53.0,160.0,-44.0,0.0,-812.0,-724.0,387.0,-450.0,-54.0,-159.0,44.0,0.0,-525.0,349.0,682.0,-559.0,-0.014391,-0.043319,0.012159,0.0,-0.029721,-0.026513,-0.014195,-0.016494,-0.014666,-0.04308,0.012173,0.0,-0.019235,0.012792,-0.024972,-0.020465,4136.580078,11442.420898,51395.851562,0.0,-18104.580078,-17649.0,17982.900391,-17394.121094,4150.080078,11435.850586,51431.132812,0.0,17304.121094,17670.060547,-17390.880859,18029.429688,0.0,0.0,0.0,0.0,0.0,0.0,0.0,0.0,0.0,0.0,0.0,0.0,0.0,0.0,0.0,0.0,0.0,0.0,0.0,0.0,0.0,0.0,0.0,0.0,0.0,0.0,0.0,0.0,0.0,0.0,0.0,0.0,4136.530273,11442.308594,51395.894531,0.0,-18104.583984,-17649.007812,17983.033203,-17394.158203,4150.07373,11435.770508,51431.179688,0.0,17304.123047,17669.882812,-17390.730469,18029.580078,30.371836,89.740692,22.848244,0.0,-80.606636,2.30074,33.695908,31.793167,30.471273,89.672417,22.864367,0.0,-70.007225,-1.327902,33.036667,38.010101,1.142,1.239,-45329.0,-128620.0,-509203.0,0.0,175099.0,174656.0,-179949.0,171267.0,-45278.0,-128155.0,-574426.0,0.0,-197016.0,-196802.0,192794.0,-201559.0,0.0,0.0,0.0,0.0,0.0,0.0,0.0,0.0,0.0,0.0,0.0,0.0,0.0,0.0,0.0,0.0,0.0,0.0,0.0,0.0,0.0,0.0,0.0,0.0
23,1.698462963104248,30.372202,89.741562,22.848213,0.0,-80.606018,2.301544,33.68074,31.797581,30.471321,89.673073,22.864338,0.0,-70.00766,-1.308354,33.010132,38.003147,3.0,1.0,111.0,0.0,1.0,-79113.0,-25945.0,12649.0,-78725.0,26195.0,12720.0,-0.951045,0.222254,0.21475,-0.282737,-0.906283,-0.314184,0.124795,-0.35952,0.924755,-0.92426,0.373057,-0.081071,0.355799,0.918729,0.171303,0.138389,0.129484,-0.981877,-0.951045,0.222254,0.21475,-0.282737,-0.906283,-0.314184,0.124795,-0.35952,0.924755,-0.92426,0.373057,-0.081071,0.355799,0.918729,0.171303,0.138389,0.129484,-0.981877,-79113.0,-25945.0,12649.0,-78725.0,26195.0,12720.0,-633.0,1482.0,-61862.0,0.0,-26063.0,-21444.0,-19861.0,-22001.0,834.0,-1090.0,-2969.0,0.0,-4748.0,-468.0,438.0,-1232.0,53.0,160.0,-44.0,0.0,-812.0,-724.0,387.0,-450.0,-54.0,-159.0,44.0,0.0,-525.0,349.0,682.0,-559.0,-0.014391,-0.043319,0.012159,0.0,-0.029721,-0.026513,-0.014186,-0.016497,-0.014666,-0.04308,0.012173,0.0,-0.019235,0.01278,-0.024962,-0.020456,4136.580078,11442.420898,51395.851562,0.0,-18104.580078,-17649.0,17982.900391,-17394.121094,4150.080078,11435.850586,51431.132812,0.0,17304.121094,17670.060547,-17390.880859,18029.429688,0.0,0.0,0.0,0.0,0.0,0.0,0.0,0.0,0.0,0.0,0.0,0.0,0.0,0.0,0.0,0.0,0.0,0.0,0.0,0.0,0.0,0.0,0.0,0.0,0.0,0.0,0.0,0.0,0.0,0.0,0.0,0.0,4136.530273,11442.308594,51395.894531,0.0,-18104.583984,-17649.007812,17983.033203,-17394.158203,4150.07373,11435.770508,51431.179688,0.0,17304.123047,17669.882812,-17390.730469,18029.580078,30.371836,89.740692,22.848244,0.0,-80.606636,2.30074,33.695908,31.793167,30.471273,89.672417,22.864367,0.0,-70.007225,-1.327902,33.036667,38.010101,1.142,1.239,-45329.0,-128620.0,-509203.0,0.0,175099.0,174656.0,-179949.0,171267.0,-45278.0,-128155.0,-574426.0,0.0,-197016.0,-196802.0,192794.0,-201559.0,0.0,0.0,0.0,0.0,0.0,0.0,0.0,0.0,0.0,0.0,0.0,0.0,0.0,0.0,0.0,0.0,0.0,0.0,0.0,0.0,0.0,0.0,0.0,0.0
24,1.7704179286956787,30.372202,89.741562,22.848213,0.0,-80.606018,2.301544,33.68074,31.797581,30.471321,89.673073,22.864338,0.0,-70.00766,-1.308354,33.010132,38.003147,3.0,1.0,111.0,0.0,1.0,-79113.0,-25945.0,12649.0,-78725.0,26195.0,12720.0,-0.951045,0.222254,0.21475,-0.282737,-0.906283,-0.314184,0.124795,-0.35952,0.924755,-0.92426,0.373057,-0.081071,0.355799,0.918729,0.171303,0.138389,0.129484,-0.981877,-0.951045,0.222254,0.21475,-0.282737,-0.906283,-0.314184,0.124795,-0.35952,0.924755,-0.92426,0.373057,-0.081071,0.355799,0.918729,0.171303,0.138389,0.129484,-0.981877,-79113.0,-25945.0,12649.0,-78725.0,26195.0,12720.0,-633.0,1482.0,-61862.0,0.0,-26063.0,-21444.0,-19861.0,-22001.0,834.0,-1090.0,-2969.0,0.0,-4748.0,-468.0,438.0,-1232.0,53.0,160.0,-44.0,0.0,-812.0,-724.0,387.0,-450.0,-54.0,-159.0,44.0,0.0,-525.0,348.0,681.0,-558.0,-0.014391,-0.043319,0.012159,0.0,-0.029721,-0.026514,-0.014178,-0.016499,-0.014666,-0.04308,0.012173,0.0,-0.019234,0.012769,-0.024953,-0.020446,4136.580078,11442.420898,51395.851562,0.0,-18104.580078,-17649.0,17982.900391,-17394.121094,4150.080078,11435.850586,51431.132812,0.0,17304.121094,17670.060547,-17390.880859,18029.429688,0.0,0.0,0.0,0.0,0.0,0.0,0.0,0.0,0.0,0.0,0.0,0.0,0.0,0.0,0.0,0.0,0.0,0.0,0.0,0.0,0.0,0.0,0.0,0.0,0.0,0.0,0.0,0.0,0.0,0.0,0.0,0.0,4136.530273,11442.308594,51395.894531,0.0,-18104.583984,-17649.007812,17983.033203,-17394.158203,4150.07373,11435.770508,51431.179688,0.0,17304.123047,17669.882812,-17390.730469,18029.580078,30.371836,89.740692,22.848244,0.0,-80.606636,2.30074,33.695908,31.793167,30.471273,89.672417,22.864367,0.0,-70.007225,-1.327902,33.036667,38.010101,1.142,1.239,-45329.0,-128620.0,-509203.0,0.0,175099.0,174656.0,-179949.0,171267.0,-45278.0,-128155.0,-574426.0,0.0,-197016.0,-196802.0,192794.0,-201559.0,0.0,0.0,0.0,0.0,0.0,0.0,0.0,0.0,0.0,0.0,0.0,0.0,0.0,0.0,0.0,0.0,0.0,0.0,0.0,0.0,0.0,0.0,0.0,0.0
25,1.8425800800323486,30.372202,89.741562,22.848213,0.0,-80.606018,2.301544,33.68074,31.797581,30.471321,89.673073,22.864338,0.0,-70.00766,-1.308354,33.010132,38.003147,3.0,1.0,111.0,0.0,1.0,-79113.0,-25945.0,12649.0,-78725.0,26195.0,12720.0,-0.951045,0.222254,0.21475,-0.282737,-0.906283,-0.314184,0.124795,-0.35952,0.924755,-0.92426,0.373057,-0.081071,0.355799,0.918729,0.171303,0.138389,0.129484,-0.981877,-0.951045,0.222254,0.21475,-0.282737,-0.906283,-0.314184,0.124795,-0.35952,0.924755,-0.92426,0.373057,-0.081071,0.355799,0.918729,0.171303,0.138389,0.129484,-0.981877,-79113.0,-25945.0,12649.0,-78725.0,26195.0,12720.0,-633.0,1482.0,-61862.0,0.0,-26063.0,-21444.0,-19861.0,-22001.0,834.0,-1090.0,-2969.0,0.0,-4748.0,-468.0,438.0,-1232.0,53.0,160.0,-44.0,0.0,-812.0,-724.0,387.0,-450.0,-54.0,-159.0,44.0,0.0,-525.0,348.0,681.0,-558.0,-0.014391,-0.043319,0.012159,0.0,-0.029721,-0.026514,-0.01417,-0.016501,-0.014666,-0.04308,0.012173,0.0,-0.019234,0.012758,-0.024943,-0.020437,4136.580078,11442.420898,51395.851562,0.0,-18104.580078,-17649.0,17982.900391,-17394.121094,4150.080078,11435.850586,51431.132812,0.0,17304.121094,17670.060547,-17390.880859,18029.429688,0.0,0.0,0.0,0.0,0.0,0.0,0.0,0.0,0.0,0.0,0.0,0.0,0.0,0.0,0.0,0.0,0.0,0.0,0.0,0.0,0.0,0.0,0.0,0.0,0.0,0.0,0.0,0.0,0.0,0.0,0.0,0.0,4136.530273,11442.308594,51395.894531,0.0,-18104.583984,-17649.007812,17983.033203,-17394.158203,4150.07373,11435.770508,51431.179688,0.0,17304.123047,17669.882812,-17390.730469,18029.580078,30.371836,89.740692,22.848244,0.0,-80.606636,2.30074,33.695908,31.793167,30.471273,89.672417,22.864367,0.0,-70.007225,-1.327902,33.036667,38.010101,1.142,1.239,-45329.0,-128620.0,-509203.0,0.0,175099.0,174656.0,-179949.0,171267.0,-45278.0,-128155.0,-574426.0,0.0,-197016.0,-196802.0,192794.0,-201559.0,0.0,0.0,0.0,0.0,0.0,0.0,0.0,0.0,0.0,0.0,0.0,0.0,0.0,0.0,0.0,0.0,0.0,0.0,0.0,0.0,0.0,0.0,0.0,0.0
26,1.9176180362701416,30.372202,89.741562,22.848213,0.0,-80.606018,2.301544,33.68074,31.797581,30.471321,89.673073,22.864338,0.0,-70.00766,-1.308354,33.010132,38.003147,3.0,1.0,111.0,0.0,1.0,-79113.0,-25945.0,12649.0,-78725.0,26195.0,12720.0,-0.951045,0.222254,0.21475,-0.282737,-0.906283,-0.314184,0.124795,-0.35952,0.924755,-0.92426,0.373057,-0.081071,0.355799,0.918729,0.171303,0.138389,0.129484,-0.981877,-0.951045,0.222254,0.21475,-0.282737,-0.906283,-0.314184,0.124795,-0.35952,0.924755,-0.92426,0.373057,-0.081071,0.355799,0.918729,0.171303,0.138389,0.129484,-0.981877,-79113.0,-25945.0,12649.0,-78725.0,26195.0,12720.0,-633.0,1482.0,-61862.0,0.0,-26063.0,-21444.0,-19861.0,-22001.0,834.0,-1090.0,-2969.0,0.0,-4748.0,-468.0,438.0,-1232.0,53.0,160.0,-44.0,0.0,-812.0,-724.0,386.0,-451.0,-54.0,-159.0,44.0,0.0,-525.0,348.0,681.0,-558.0,-0.014391,-0.043319,0.012159,0.0,-0.029721,-0.026514,-0.014161,-0.016504,-0.014666,-0.04308,0.012173,0.0,-0.019234,0.012747,-0.024933,-0.020427,4136.580078,11442.420898,51395.851562,0.0,-18104.580078,-17649.0,17982.900391,-17394.121094,4150.080078,11435.850586,51431.132812,0.0,17304.121094,17670.060547,-17390.880859,18029.429688,0.0,0.0,0.0,0.0,0.0,0.0,0.0,0.0,0.0,0.0,0.0,0.0,0.0,0.0,0.0,0.0,0.0,0.0,0.0,0.0,0.0,0.0,0.0,0.0,0.0,0.0,0.0,0.0,0.0,0.0,0.0,0.0,4136.530273,11442.308594,51395.894531,0.0,-18104.583984,-17649.007812,17983.033203,-17394.158203,4150.07373,11435.770508,51431.179688,0.0,17304.123047,17669.882812,-17390.730469,18029.580078,30.371836,89.740692,22.848244,0.0,-80.606636,2.30074,33.695908,31.793167,30.471273,89.672417,22.864367,0.0,-70.007225,-1.327902,33.036667,38.010101,1.142,1.239,-45329.0,-128620.0,-509203.0,0.0,175099.0,174656.0,-179949.0,171267.0,-45278.0,-128155.0,-574426.0,0.0,-197016.0,-196802.0,192794.0,-201559.0,0.0,0.0,0.0,0.0,0.0,0.0,0.0,0.0,0.0,0.0,0.0,0.0,0.0,0.0,0.0,0.0,0.0,0.0,0.0,0.0,0.0,0.0,0.0,0.0
27,1.989509105682373,30.372202,89.741562,22.848213,0.0,-80.606018,2.301544,33.68074,31.797581,30.471321,89.673073,22.864338,0.0,-70.00766,-1.308354,33.010132,38.003147,3.0,1.0,111.0,0.0,1.0,-79113.0,-25945.0,12649.0,-78725.0,26195.0,12720.0,-0.951045,0.222254,0.21475,-0.282737,-0.906283,-0.314184,0.124795,-0.35952,0.924755,-0.92426,0.373057,-0.081071,0.355799,0.918729,0.171303,0.138389,0.129484,-0.981877,-0.951045,0.222254,0.21475,-0.282737,-0.906283,-0.314184,0.124795,-0.35952,0.924755,-0.92426,0.373057,-0.081071,0.355799,0.918729,0.171303,0.138389,0.129484,-0.981877,-79113.0,-25945.0,12649.0,-78725.0,26195.0,12720.0,-633.0,1482.0,-61862.0,0.0,-26063.0,-21444.0,-19861.0,-22001.0,834.0,-1090.0,-2969.0,0.0,-4748.0,-468.0,438.0,-1232.0,53.0,160.0,-44.0,0.0,-812.0,-724.0,386.0,-451.0,-54.0,-159.0,44.0,0.0,-525.0,348.0,681.0,-557.0,-0.014391,-0.043319,0.012159,0.0,-0.029722,-0.026515,-0.014153,-0.016506,-0.014666,-0.04308,0.012173,0.0,-0.019234,0.012736,-0.024924,-0.020418,4136.580078,11442.420898,51395.851562,0.0,-18104.580078,-17649.0,17982.900391,-17394.121094,4150.080078,11435.850586,51431.132812,0.0,17304.121094,17670.060547,-17390.880859,18029.429688,0.0,0.0,0.0,0.0,0.0,0.0,0.0,0.0,0.0,0.0,0.0,0.0,0.0,0.0,0.0,0.0,0.0,0.0,0.0,0.0,0.0,0.0,0.0,0.0,0.0,0.0,0.0,0.0,0.0,0.0,0.0,0.0,4136.530273,11442.308594,51395.894531,0.0,-18104.583984,-17649.007812,17983.033203,-17394.158203,4150.07373,11435.770508,51431.179688,0.0,17304.123047,17669.882812,-17390.730469,18029.580078,30.371836,89.740692,22.848244,0.0,-80.606636,2.30074,33.695908,31.793167,30.471273,89.672417,22.864367,0.0,-70.007225,-1.327902,33.036667,38.010101,1.142,1.239,-45329.0,-128620.0,-509203.0,0.0,175099.0,174656.0,-179949.0,171267.0,-45278.0,-128155.0,-574426.0,0.0,-197016.0,-196802.0,192794.0,-201559.0,0.0,0.0,0.0,0.0,0.0,0.0,0.0,0.0,0.0,0.0,0.0,0.0,0.0,0.0,0.0,0.0,0.0,0.0,0.0,0.0,0.0,0.0,0.0,0.0
28,2.060497999191284,30.372202,89.741562,22.848213,0.0,-80.606018,2.301544,33.68074,31.797581,30.471321,89.673073,22.864338,0.0,-70.00766,-1.308354,33.010132,38.003147,3.0,1.0,111.0,0.0,1.0,-79113.0,-25945.0,12649.0,-78725.0,26195.0,12720.0,-0.951045,0.222254,0.21475,-0.282737,-0.906283,-0.314184,0.124795,-0.35952,0.924755,-0.92426,0.373057,-0.081071,0.355799,0.918729,0.171303,0.138389,0.129484,-0.981877,-0.951045,0.222254,0.21475,-0.282737,-0.906283,-0.314184,0.124795,-0.35952,0.924755,-0.92426,0.373057,-0.081071,0.355799,0.918729,0.171303,0.138389,0.129484,-0.981877,-79113.0,-25945.0,12649.0,-78725.0,26195.0,12720.0,-633.0,1482.0,-61862.0,0.0,-26063.0,-21444.0,-19861.0,-22001.0,834.0,-1090.0,-2969.0,0.0,-4748.0,-468.0,438.0,-1232.0,53.0,160.0,-44.0,0.0,-812.0,-724.0,386.0,-451.0,-54.0,-159.0,44.0,0.0,-525.0,347.0,680.0,-557.0,-0.014391,-0.043319,0.012159,0.0,-0.029722,-0.026515,-0.014144,-0.016509,-0.014666,-0.04308,0.012173,0.0,-0.019234,0.012725,-0.024915,-0.020408,4136.580078,11442.420898,51395.851562,0.0,-18104.580078,-17649.0,17982.900391,-17394.121094,4150.080078,11435.850586,51431.132812,0.0,17304.121094,17670.060547,-17390.880859,18029.429688,0.0,0.0,0.0,0.0,0.0,0.0,0.0,0.0,0.0,0.0,0.0,0.0,0.0,0.0,0.0,0.0,0.0,0.0,0.0,0.0,0.0,0.0,0.0,0.0,0.0,0.0,0.0,0.0,0.0,0.0,0.0,0.0,4136.530273,11442.308594,51395.894531,0.0,-18104.583984,-17649.007812,17983.033203,-17394.158203,4150.07373,11435.770508,51431.179688,0.0,17304.123047,17669.882812,-17390.730469,18029.580078,30.371836,89.740692,22.848244,0.0,-80.606636,2.30074,33.695908,31.793167,30.471273,89.672417,22.864367,0.0,-70.007225,-1.327902,33.036667,38.010101,1.142,1.239,-45329.0,-128620.0,-509203.0,0.0,175099.0,174656.0,-179949.0,171267.0,-45278.0,-128155.0,-574426.0,0.0,-197016.0,-196802.0,192794.0,-201559.0,0.0,0.0,0.0,0.0,0.0,0.0,0.0,0.0,0.0,0.0,0.0,0.0,0.0,0.0,0.0,0.0,0.0,0.0,0.0,0.0,0.0,0.0,0.0,0.0
29,2.132533073425293,30.372202,89.741562,22.848213,0.0,-80.606018,2.301544,33.68074,31.797581,30.471321,89.673073,22.864338,0.0,-70.00766,-1.308354,33.010132,38.003147,3.0,1.0,111.0,0.0,1.0,-79113.0,-25945.0,12649.0,-78725.0,26195.0,12720.0,-0.951045,0.222254,0.21475,-0.282737,-0.906283,-0.314184,0.124795,-0.35952,0.924755,-0.92426,0.373057,-0.081071,0.355799,0.918729,0.171303,0.138389,0.129484,-0.981877,-0.951045,0.222254,0.21475,-0.282737,-0.906283,-0.314184,0.124795,-0.35952,0.924755,-0.92426,0.373057,-0.081071,0.355799,0.918729,0.171303,0.138389,0.129484,-0.981877,-79113.0,-25945.0,12649.0,-78725.0,26195.0,12720.0,-633.0,1482.0,-61862.0,0.0,-26063.0,-21444.0,-19861.0,-22001.0,834.0,-1090.0,-2969.0,0.0,-4748.0,-468.0,438.0,-1232.0,53.0,160.0,-44.0,0.0,-812.0,-724.0,386.0,-451.0,-54.0,-159.0,44.0,0.0,-525.0,347.0,680.0,-557.0,-0.014391,-0.043319,0.012159,0.0,-0.029722,-0.026516,-0.014136,-0.016511,-0.014666,-0.04308,0.012173,0.0,-0.019234,0.012714,-0.024905,-0.020399,4136.580078,11442.420898,51395.851562,0.0,-18104.580078,-17649.0,17982.900391,-17394.121094,4150.080078,11435.850586,51431.132812,0.0,17304.121094,17670.060547,-17390.880859,18029.429688,0.0,0.0,0.0,0.0,0.0,0.0,0.0,0.0,0.0,0.0,0.0,0.0,0.0,0.0,0.0,0.0,0.0,0.0,0.0,0.0,0.0,0.0,0.0,0.0,0.0,0.0,0.0,0.0,0.0,0.0,0.0,0.0,4136.530273,11442.308594,51395.894531,0.0,-18104.583984,-17649.007812,17983.033203,-17394.158203,4150.07373,11435.770508,51431.179688,0.0,17304.123047,17669.882812,-17390.730469,18029.580078,30.371836,89.740692,22.848244,0.0,-80.606636,2.30074,33.695908,31.793167,30.471273,89.672417,22.864367,0.0,-70.007225,-1.327902,33.036667,38.010101,1.142,1.239,-45329.0,-128620.0,-509203.0,0.0,175099.0,174656.0,-179949.0,171267.0,-45278.0,-128155.0,-574426.0,0.0,-197016.0,-196802.0,192794.0,-201559.0,0.0,0.0,0.0,0.0,0.0,0.0,0.0,0.0,0.0,0.0,0.0,0.0,0.0,0.0,0.0,0.0,0.0,0.0,0.0,0.0,0.0,0.0,0.0,0.0
30,2.2065188884735107,30.372202,89.741562,22.848213,0.0,-80.606018,2.301544,33.68074,31.797581,30.471321,89.673073,22.864338,0.0,-70.00766,-1.308354,33.010132,38.003147,3.0,1.0,111.0,0.0,1.0,-79113.0,-25945.0,12649.0,-78725.0,26195.0,12720.0,-0.951045,0.222254,0.21475,-0.282737,-0.906283,-0.314184,0.124795,-0.35952,0.924755,-0.92426,0.373057,-0.081071,0.355799,0.918729,0.171303,0.138389,0.129484,-0.981877,-0.951045,0.222254,0.21475,-0.282737,-0.906283,-0.314184,0.124795,-0.35952,0.924755,-0.92426,0.373057,-0.081071,0.355799,0.918729,0.171303,0.138389,0.129484,-0.981877,-79113.0,-25945.0,12649.0,-78725.0,26195.0,12720.0,-633.0,1482.0,-61862.0,0.0,-26063.0,-21444.0,-19861.0,-22001.0,834.0,-1090.0,-2969.0,0.0,-4748.0,-468.0,438.0,-1232.0,53.0,160.0,-44.0,0.0,-812.0,-724.0,386.0,-451.0,-54.0,-159.0,44.0,0.0,-525.0,347.0,680.0,-557.0,-0.014391,-0.043319,0.012159,0.0,-0.029722,-0.026516,-0.014127,-0.016513,-0.014666,-0.04308,0.012173,0.0,-0.019234,0.012702,-0.024895,-0.020389,4136.580078,11442.420898,51395.851562,0.0,-18104.580078,-17649.0,17982.900391,-17394.121094,4150.080078,11435.850586,51431.132812,0.0,17304.121094,17670.060547,-17390.880859,18029.429688,0.0,0.0,0.0,0.0,0.0,0.0,0.0,0.0,0.0,0.0,0.0,0.0,0.0,0.0,0.0,0.0,0.0,0.0,0.0,0.0,0.0,0.0,0.0,0.0,0.0,0.0,0.0,0.0,0.0,0.0,0.0,0.0,4136.530273,11442.308594,51395.894531,0.0,-18104.583984,-17649.007812,17983.033203,-17394.158203,4150.07373,11435.770508,51431.179688,0.0,17304.123047,17669.882812,-17390.730469,18029.580078,30.371836,89.740692,22.848244,0.0,-80.606636,2.30074,33.695908,31.793167,30.471273,89.672417,22.864367,0.0,-70.007225,-1.327902,33.036667,38.010101,1.142,1.239,-45329.0,-128620.0,-509203.0,0.0,175099.0,174656.0,-179949.0,171267.0,-45278.0,-128155.0,-574426.0,0.0,-197016.0,-196802.0,192794.0,-201559.0,0.0,0.0,0.0,0.0,0.0,0.0,0.0,0.0,0.0,0.0,0.0,0.0,0.0,0.0,0.0,0.0,0.0,0.0,0.0,0.0,0.0,0.0,0.0,0.0
31,2.2804999351501465,30.372202,89.741562,22.848213,0.0,-80.606018,2.301544,33.68074,31.797581,30.471321,89.673073,22.864338,0.0,-70.00766,-1.308354,33.010132,38.003147,3.0,1.0,111.0,0.0,1.0,-79113.0,-25945.0,12649.0,-78725.0,26195.0,12720.0,-0.951045,0.222254,0.21475,-0.282737,-0.906283,-0.314184,0.124795,-0.35952,0.924755,-0.92426,0.373057,-0.081071,0.355799,0.918729,0.171303,0.138389,0.129484,-0.981877,-0.951045,0.222254,0.21475,-0.282737,-0.906283,-0.314184,0.124795,-0.35952,0.924755,-0.92426,0.373057,-0.081071,0.355799,0.918729,0.171303,0.138389,0.129484,-0.981877,-79113.0,-25945.0,12649.0,-78725.0,26195.0,12720.0,-633.0,1482.0,-61862.0,0.0,-26063.0,-21444.0,-19861.0,-22001.0,834.0,-1090.0,-2969.0,0.0,-4748.0,-468.0,438.0,-1232.0,53.0,160.0,-44.0,0.0,-812.0,-724.0,385.0,-451.0,-54.0,-159.0,44.0,0.0,-525.0,346.0,680.0,-556.0,-0.014391,-0.043319,0.012159,0.0,-0.029723,-0.026517,-0.014119,-0.016516,-0.014666,-0.04308,0.012173,0.0,-0.019234,0.012691,-0.024886,-0.02038,4136.580078,11442.420898,51395.851562,0.0,-18104.580078,-17649.0,17982.900391,-17394.121094,4150.080078,11435.850586,51431.132812,0.0,17304.121094,17670.060547,-17390.880859,18029.429688,0.0,0.0,0.0,0.0,0.0,0.0,0.0,0.0,0.0,0.0,0.0,0.0,0.0,0.0,0.0,0.0,0.0,0.0,0.0,0.0,0.0,0.0,0.0,0.0,0.0,0.0,0.0,0.0,0.0,0.0,0.0,0.0,4136.530273,11442.308594,51395.894531,0.0,-18104.583984,-17649.007812,17983.033203,-17394.158203,4150.07373,11435.770508,51431.179688,0.0,17304.123047,17669.882812,-17390.730469,18029.580078,30.371836,89.740692,22.848244,0.0,-80.606636,2.30074,33.695908,31.793167,30.471273,89.672417,22.864367,0.0,-70.007225,-1.327902,33.036667,38.010101,1.142,1.239,-45329.0,-128620.0,-509203.0,0.0,175099.0,174656.0,-179949.0,171267.0,-45278.0,-128155.0,-574426.0,0.0,-197016.0,-196802.0,192794.0,-201559.0,0.0,0.0,0.0,0.0,0.0,0.0,0.0,0.0,0.0,0.0,0.0,0.0,0.0,0.0,0.0,0.0,0.0,0.0,0.0,0.0,0.0,0.0,0.0,0.0
32,2.3505330085754395,30.372202,89.741562,22.848213,0.0,-80.606018,2.301544,33.68074,31.797581,30.471321,89.673073,22.864338,0.0,-70.00766,-1.308354,33.010132,38.003147,3.0,1.0,111.0,0.0,1.0,-79113.0,-25945.0,12649.0,-78725.0,26195.0,12720.0,-0.951045,0.222254,0.21475,-0.282737,-0.906283,-0.314184,0.124795,-0.35952,0.924755,-0.92426,0.373057,-0.081071,0.355799,0.918729,0.171303,0.138389,0.129484,-0.981877,-0.951045,0.222254,0.21475,-0.282737,-0.906283,-0.314184,0.124795,-0.35952,0.924755,-0.92426,0.373057,-0.081071,0.355799,0.918729,0.171303,0.138389,0.129484,-0.981877,-79113.0,-25945.0,12649.0,-78725.0,26195.0,12720.0,-633.0,1482.0,-61862.0,0.0,-26063.0,-21444.0,-19861.0,-22001.0,834.0,-1090.0,-2969.0,0.0,-4748.0,-468.0,438.0,-1232.0,53.0,160.0,-44.0,0.0,-812.0,-724.0,385.0,-451.0,-54.0,-159.0,44.0,0.0,-525.0,346.0,679.0,-556.0,-0.014391,-0.043319,0.012159,0.0,-0.029723,-0.026517,-0.014111,-0.016518,-0.014666,-0.04308,0.012173,0.0,-0.019234,0.01268,-0.024877,-0.02037,4136.580078,11442.420898,51395.851562,0.0,-18104.580078,-17649.0,17982.900391,-17394.121094,4150.080078,11435.850586,51431.132812,0.0,17304.121094,17670.060547,-17390.880859,18029.429688,0.0,0.0,0.0,0.0,0.0,0.0,0.0,0.0,0.0,0.0,0.0,0.0,0.0,0.0,0.0,0.0,0.0,0.0,0.0,0.0,0.0,0.0,0.0,0.0,0.0,0.0,0.0,0.0,0.0,0.0,0.0,0.0,4136.530273,11442.308594,51395.894531,0.0,-18104.583984,-17649.007812,17983.033203,-17394.158203,4150.07373,11435.770508,51431.179688,0.0,17304.123047,17669.882812,-17390.730469,18029.580078,30.371836,89.740692,22.848244,0.0,-80.606636,2.30074,33.695908,31.793167,30.471273,89.672417,22.864367,0.0,-70.007225,-1.327902,33.036667,38.010101,1.142,1.239,-45329.0,-128620.0,-509203.0,0.0,175099.0,174656.0,-179949.0,171267.0,-45278.0,-128155.0,-574426.0,0.0,-197016.0,-196802.0,192794.0,-201559.0,0.0,0.0,0.0,0.0,0.0,0.0,0.0,0.0,0.0,0.0,0.0,0.0,0.0,0.0,0.0,0.0,0.0,0.0,0.0,0.0,0.0,0.0,0.0,0.0
33,2.4245009422302246,30.372202,89.741562,22.848213,0.0,-80.606018,2.301544,33.68074,31.797581,30.471321,89.673073,22.864338,0.0,-70.00766,-1.308354,33.010132,38.003147,3.0,1.0,111.0,0.0,1.0,-79113.0,-25945.0,12649.0,-78725.0,26195.0,12720.0,-0.951045,0.222254,0.21475,-0.282737,-0.906283,-0.314184,0.124795,-0.35952,0.924755,-0.92426,0.373057,-0.081071,0.355799,0.918729,0.171303,0.138389,0.129484,-0.981877,-0.951045,0.222254,0.21475,-0.282737,-0.906283,-0.314184,0.124795,-0.35952,0.924755,-0.92426,0.373057,-0.081071,0.355799,0.918729,0.171303,0.138389,0.129484,-0.981877,-79113.0,-25945.0,12649.0,-78725.0,26195.0,12720.0,-633.0,1482.0,-61862.0,0.0,-26063.0,-21444.0,-19861.0,-22001.0,834.0,-1090.0,-2969.0,0.0,-4748.0,-468.0,438.0,-1232.0,53.0,160.0,-44.0,0.0,-812.0,-724.0,385.0,-451.0,-54.0,-159.0,44.0,0.0,-525.0,346.0,679.0,-556.0,-0.014391,-0.043319,0.012159,0.0,-0.029723,-0.026517,-0.014102,-0.01652,-0.014666,-0.04308,0.012173,0.0,-0.019233,0.012669,-0.024867,-0.020361,4136.580078,11442.420898,51395.851562,0.0,-18104.580078,-17649.0,17982.900391,-17394.121094,4150.080078,11435.850586,51431.132812,0.0,17304.121094,17670.060547,-17390.880859,18029.429688,0.0,0.0,0.0,0.0,0.0,0.0,0.0,0.0,0.0,0.0,0.0,0.0,0.0,0.0,0.0,0.0,0.0,0.0,0.0,0.0,0.0,0.0,0.0,0.0,0.0,0.0,0.0,0.0,0.0,0.0,0.0,0.0,4136.530273,11442.308594,51395.894531,0.0,-18104.583984,-17649.007812,17983.033203,-17394.158203,4150.07373,11435.770508,51431.179688,0.0,17304.123047,17669.882812,-17390.730469,18029.580078,30.371836,89.740692,22.848244,0.0,-80.606636,2.30074,33.695908,31.793167,30.471273,89.672417,22.864367,0.0,-70.007225,-1.327902,33.036667,38.010101,1.142,1.239,-45329.0,-128620.0,-509203.0,0.0,175099.0,174656.0,-179949.0,171267.0,-45278.0,-128155.0,-574426.0,0.0,-197016.0,-196802.0,192794.0,-201559.0,0.0,0.0,0.0,0.0,0.0,0.0,0.0,0.0,0.0,0.0,0.0,0.0,0.0,0.0,0.0,0.0,0.0,0.0,0.0,0.0,0.0,0.0,0.0,0.0
34,2.502445936203003,30.372202,89.741562,22.848213,0.0,-80.606018,2.301544,33.68074,31.797581,30.471321,89.673073,22.864338,0.0,-70.00766,-1.308354,33.010132,38.003147,3.0,1.0,111.0,0.0,1.0,-79113.0,-25945.0,12649.0,-78725.0,26195.0,12720.0,-0.951045,0.222254,0.21475,-0.282737,-0.906283,-0.314184,0.124795,-0.35952,0.924755,-0.92426,0.373057,-0.081071,0.355799,0.918729,0.171303,0.138389,0.129484,-0.981877,-0.951045,0.222254,0.21475,-0.282737,-0.906283,-0.314184,0.124795,-0.35952,0.924755,-0.92426,0.373057,-0.081071,0.355799,0.918729,0.171303,0.138389,0.129484,-0.981877,-79113.0,-25945.0,12649.0,-78725.0,26195.0,12720.0,-633.0,1482.0,-61862.0,0.0,-26063.0,-21444.0,-19861.0,-22001.0,834.0,-1090.0,-2969.0,0.0,-4748.0,-468.0,438.0,-1232.0,53.0,160.0,-44.0,0.0,-812.0,-724.0,385.0,-451.0,-54.0,-159.0,44.0,0.0,-525.0,345.0,679.0,-556.0,-0.014391,-0.043319,0.012159,0.0,-0.029723,-0.026518,-0.014093,-0.016523,-0.014666,-0.04308,0.012173,0.0,-0.019233,0.012657,-0.024857,-0.02035,4136.580078,11442.420898,51395.851562,0.0,-18104.580078,-17649.0,17982.900391,-17394.121094,4150.080078,11435.850586,51431.132812,0.0,17304.121094,17670.060547,-17390.880859,18029.429688,0.0,0.0,0.0,0.0,0.0,0.0,0.0,0.0,0.0,0.0,0.0,0.0,0.0,0.0,0.0,0.0,0.0,0.0,0.0,0.0,0.0,0.0,0.0,0.0,0.0,0.0,0.0,0.0,0.0,0.0,0.0,0.0,4136.530273,11442.308594,51395.894531,0.0,-18104.583984,-17649.007812,17983.033203,-17394.158203,4150.07373,11435.770508,51431.179688,0.0,17304.123047,17669.882812,-17390.730469,18029.580078,30.371836,89.740692,22.848244,0.0,-80.606636,2.30074,33.695908,31.793167,30.471273,89.672417,22.864367,0.0,-70.007225,-1.327902,33.036667,38.010101,1.142,1.239,-45329.0,-128620.0,-509203.0,0.0,175099.0,174656.0,-179949.0,171267.0,-45278.0,-128155.0,-574426.0,0.0,-197016.0,-196802.0,192794.0,-201559.0,0.0,0.0,0.0,0.0,0.0,0.0,0.0,0.0,0.0,0.0,0.0,0.0,0.0,0.0,0.0,0.0,0.0,0.0,0.0,0.0,0.0,0.0,0.0,0.0
35,2.5795559883117676,30.372202,89.741562,22.848213,0.0,-80.606018,2.301544,33.68074,31.797581,30.471321,89.673073,22.864338,0.0,-70.00766,-1.308354,33.010132,38.003147,3.0,1.0,111.0,0.0,1.0,-79113.0,-25945.0,12649.0,-78725.0,26195.0,12720.0,-0.951045,0.222254,0.21475,-0.282737,-0.906283,-0.314184,0.124795,-0.35952,0.924755,-0.92426,0.373057,-0.081071,0.355799,0.918729,0.171303,0.138389,0.129484,-0.981877,-0.951045,0.222254,0.21475,-0.282737,-0.906283,-0.314184,0.124795,-0.35952,0.924755,-0.92426,0.373057,-0.081071,0.355799,0.918729,0.171303,0.138389,0.129484,-0.981877,-79113.0,-25945.0,12649.0,-78725.0,26195.0,12720.0,-633.0,1482.0,-61862.0,0.0,-26063.0,-21444.0,-19861.0,-22001.0,834.0,-1090.0,-2969.0,0.0,-4748.0,-468.0,438.0,-1232.0,53.0,160.0,-44.0,0.0,-812.0,-724.0,384.0,-451.0,-54.0,-159.0,44.0,0.0,-525.0,345.0,679.0,-555.0,-0.014391,-0.043319,0.012159,0.0,-0.029723,-0.026518,-0.014084,-0.016526,-0.014666,-0.04308,0.012173,0.0,-0.019233,0.012645,-0.024847,-0.02034,4136.580078,11442.420898,51395.851562,0.0,-18104.580078,-17649.0,17982.900391,-17394.121094,4150.080078,11435.850586,51431.132812,0.0,17304.121094,17670.060547,-17390.880859,18029.429688,0.0,0.0,0.0,0.0,0.0,0.0,0.0,0.0,0.0,0.0,0.0,0.0,0.0,0.0,0.0,0.0,0.0,0.0,0.0,0.0,0.0,0.0,0.0,0.0,0.0,0.0,0.0,0.0,0.0,0.0,0.0,0.0,4136.530273,11442.308594,51395.894531,0.0,-18104.583984,-17649.007812,17983.033203,-17394.158203,4150.07373,11435.770508,51431.179688,0.0,17304.123047,17669.882812,-17390.730469,18029.580078,30.371836,89.740692,22.848244,0.0,-80.606636,2.30074,33.695908,31.793167,30.471273,89.672417,22.864367,0.0,-70.007225,-1.327902,33.036667,38.010101,1.142,1.239,-45329.0,-128620.0,-509203.0,0.0,175099.0,174656.0,-179949.0,171267.0,-45278.0,-128155.0,-574426.0,0.0,-197016.0,-196802.0,192794.0,-201559.0,0.0,0.0,0.0,0.0,0.0,0.0,0.0,0.0,0.0,0.0,0.0,0.0,0.0,0.0,0.0,0.0,0.0,0.0,0.0,0.0,0.0,0.0,0.0,0.0
36,2.651505947113037,30.372202,89.741562,22.848213,0.0,-80.606018,2.301544,33.68074,31.797581,30.471321,89.673073,22.864338,0.0,-70.00766,-1.308354,33.010132,38.003147,3.0,1.0,111.0,0.0,1.0,-79113.0,-25945.0,12649.0,-78725.0,26195.0,12720.0,-0.951045,0.222254,0.21475,-0.282737,-0.906283,-0.314184,0.124795,-0.35952,0.924755,-0.92426,0.373057,-0.081071,0.355799,0.918729,0.171303,0.138389,0.129484,-0.981877,-0.951045,0.222254,0.21475,-0.282737,-0.906283,-0.314184,0.124795,-0.35952,0.924755,-0.92426,0.373057,-0.081071,0.355799,0.918729,0.171303,0.138389,0.129484,-0.981877,-79113.0,-25945.0,12649.0,-78725.0,26195.0,12720.0,-633.0,1482.0,-61862.0,0.0,-26063.0,-21444.0,-19861.0,-22001.0,834.0,-1090.0,-2969.0,0.0,-4748.0,-468.0,438.0,-1232.0,53.0,160.0,-44.0,0.0,-812.0,-724.0,384.0,-451.0,-54.0,-159.0,44.0,0.0,-525.0,345.0,678.0,-555.0,-0.014391,-0.043319,0.012159,0.0,-0.029724,-0.026519,-0.014076,-0.016528,-0.014666,-0.04308,0.012173,0.0,-0.019233,0.012634,-0.024837,-0.020331,4136.580078,11442.420898,51395.851562,0.0,-18104.580078,-17649.0,17982.900391,-17394.121094,4150.080078,11435.850586,51431.132812,0.0,17304.121094,17670.060547,-17390.880859,18029.429688,0.0,0.0,0.0,0.0,0.0,0.0,0.0,0.0,0.0,0.0,0.0,0.0,0.0,0.0,0.0,0.0,0.0,0.0,0.0,0.0,0.0,0.0,0.0,0.0,0.0,0.0,0.0,0.0,0.0,0.0,0.0,0.0,4136.530273,11442.308594,51395.894531,0.0,-18104.583984,-17649.007812,17983.033203,-17394.158203,4150.07373,11435.770508,51431.179688,0.0,17304.123047,17669.882812,-17390.730469,18029.580078,30.371836,89.740692,22.848244,0.0,-80.606636,2.30074,33.695908,31.793167,30.471273,89.672417,22.864367,0.0,-70.007225,-1.327902,33.036667,38.010101,1.142,1.239,-45329.0,-128620.0,-509203.0,0.0,175099.0,174656.0,-179949.0,171267.0,-45278.0,-128155.0,-574426.0,0.0,-197016.0,-196802.0,192794.0,-201559.0,0.0,0.0,0.0,0.0,0.0,0.0,0.0,0.0,0.0,0.0,0.0,0.0,0.0,0.0,0.0,0.0,0.0,0.0,0.0,0.0,0.0,0.0,0.0,0.0
37,2.727573871612549,30.372202,89.741562,22.848213,0.0,-80.606018,2.301544,33.68074,31.797581,30.471321,89.673073,22.864338,0.0,-70.00766,-1.308354,33.010132,38.003147,3.0,1.0,111.0,0.0,1.0,-79113.0,-25945.0,12649.0,-78725.0,26195.0,12720.0,-0.951045,0.222254,0.21475,-0.282737,-0.906283,-0.314184,0.124795,-0.35952,0.924755,-0.92426,0.373057,-0.081071,0.355799,0.918729,0.171303,0.138389,0.129484,-0.981877,-0.951045,0.222254,0.21475,-0.282737,-0.906283,-0.314184,0.124795,-0.35952,0.924755,-0.92426,0.373057,-0.081071,0.355799,0.918729,0.171303,0.138389,0.129484,-0.981877,-79113.0,-25945.0,12649.0,-78725.0,26195.0,12720.0,-633.0,1482.0,-61862.0,0.0,-26063.0,-21444.0,-19861.0,-22001.0,834.0,-1090.0,-2969.0,0.0,-4748.0,-468.0,438.0,-1232.0,53.0,160.0,-44.0,0.0,-812.0,-724.0,384.0,-451.0,-54.0,-159.0,44.0,0.0,-525.0,344.0,678.0,-555.0,-0.014391,-0.043319,0.012159,0.0,-0.029724,-0.026519,-0.014067,-0.01653,-0.014666,-0.04308,0.012173,0.0,-0.019233,0.012622,-0.024827,-0.020321,4136.580078,11442.420898,51395.851562,0.0,-18104.580078,-17649.0,17982.900391,-17394.121094,4150.080078,11435.850586,51431.132812,0.0,17304.121094,17670.060547,-17390.880859,18029.429688,0.0,0.0,0.0,0.0,0.0,0.0,0.0,0.0,0.0,0.0,0.0,0.0,0.0,0.0,0.0,0.0,0.0,0.0,0.0,0.0,0.0,0.0,0.0,0.0,0.0,0.0,0.0,0.0,0.0,0.0,0.0,0.0,4136.530273,11442.308594,51395.894531,0.0,-18104.583984,-17649.007812,17983.033203,-17394.158203,4150.07373,11435.770508,51431.179688,0.0,17304.123047,17669.882812,-17390.730469,18029.580078,30.371836,89.740692,22.848244,0.0,-80.606636,2.30074,33.695908,31.793167,30.471273,89.672417,22.864367,0.0,-70.007225,-1.327902,33.036667,38.010101,1.142,1.239,-45329.0,-128620.0,-509203.0,0.0,175099.0,174656.0,-179949.0,171267.0,-45278.0,-128155.0,-574426.0,0.0,-197016.0,-196802.0,192794.0,-201559.0,0.0,0.0,0.0,0.0,0.0,0.0,0.0,0.0,0.0,0.0,0.0,0.0,0.0,0.0,0.0,0.0,0.0,0.0,0.0,0.0,0.0,0.0,0.0,0.0
38,2.7995920181274414,30.372202,89.741562,22.848213,0.0,-80.606018,2.301544,33.68074,31.797581,30.471321,89.673073,22.864338,0.0,-70.00766,-1.308354,33.010132,38.003147,3.0,1.0,111.0,0.0,1.0,-79113.0,-25945.0,12649.0,-78725.0,26195.0,12720.0,-0.951045,0.222254,0.21475,-0.282737,-0.906283,-0.314184,0.124795,-0.35952,0.924755,-0.92426,0.373057,-0.081071,0.355799,0.918729,0.171303,0.138389,0.129484,-0.981877,-0.951045,0.222254,0.21475,-0.282737,-0.906283,-0.314184,0.124795,-0.35952,0.924755,-0.92426,0.373057,-0.081071,0.355799,0.918729,0.171303,0.138389,0.129484,-0.981877,-79113.0,-25945.0,12649.0,-78725.0,26195.0,12720.0,-633.0,1482.0,-61862.0,0.0,-26063.0,-21444.0,-19861.0,-22001.0,834.0,-1090.0,-2969.0,0.0,-4748.0,-468.0,438.0,-1232.0,53.0,160.0,-44.0,0.0,-812.0,-724.0,384.0,-451.0,-54.0,-159.0,44.0,0.0,-525.0,344.0,678.0,-555.0,-0.014391,-0.043319,0.012159,0.0,-0.029724,-0.02652,-0.014058,-0.016533,-0.014666,-0.04308,0.012173,0.0,-0.019233,0.012611,-0.024818,-0.020312,4136.580078,11442.420898,51395.851562,0.0,-18104.580078,-17649.0,17982.900391,-17394.121094,4150.080078,11435.850586,51431.132812,0.0,17304.121094,17670.060547,-17390.880859,18029.429688,0.0,0.0,0.0,0.0,0.0,0.0,0.0,0.0,0.0,0.0,0.0,0.0,0.0,0.0,0.0,0.0,0.0,0.0,0.0,0.0,0.0,0.0,0.0,0.0,0.0,0.0,0.0,0.0,0.0,0.0,0.0,0.0,4136.530273,11442.308594,51395.894531,0.0,-18104.583984,-17649.007812,17983.033203,-17394.158203,4150.07373,11435.770508,51431.179688,0.0,17304.123047,17669.882812,-17390.730469,18029.580078,30.371836,89.740692,22.848244,0.0,-80.606636,2.30074,33.695908,31.793167,30.471273,89.672417,22.864367,0.0,-70.007225,-1.327902,33.036667,38.010101,1.142,1.239,-45329.0,-128620.0,-509203.0,0.0,175099.0,174656.0,-179949.0,171267.0,-45278.0,-128155.0,-574426.0,0.0,-197016.0,-196802.0,192794.0,-201559.0,0.0,0.0,0.0,0.0,0.0,0.0,0.0,0.0,0.0,0.0,0.0,0.0,0.0,0.0,0.0,0.0,0.0,0.0,0.0,0.0,0.0,0.0,0.0,0.0
39,2.8755850791931152,30.372202,89.741562,22.848213,0.0,-80.606018,2.301544,33.68074,31.797581,30.471321,89.673073,22.864338,0.0,-70.00766,-1.308354,33.010132,38.003147,3.0,1.0,111.0,0.0,1.0,-79113.0,-25945.0,12649.0,-78725.0,26195.0,12720.0,-0.951045,0.222254,0.21475,-0.282737,-0.906283,-0.314184,0.124795,-0.35952,0.924755,-0.92426,0.373057,-0.081071,0.355799,0.918729,0.171303,0.138389,0.129484,-0.981877,-0.951045,0.222254,0.21475,-0.282737,-0.906283,-0.314184,0.124795,-0.35952,0.924755,-0.92426,0.373057,-0.081071,0.355799,0.918729,0.171303,0.138389,0.129484,-0.981877,-79113.0,-25945.0,12649.0,-78725.0,26195.0,12720.0,-633.0,1482.0,-61862.0,0.0,-26063.0,-21444.0,-19861.0,-22001.0,834.0,-1090.0,-2969.0,0.0,-4748.0,-468.0,438.0,-1232.0,53.0,160.0,-44.0,0.0,-812.0,-724.0,383.0,-451.0,-54.0,-159.0,44.0,0.0,-525.0,344.0,677.0,-554.0,-0.014391,-0.043319,0.012159,0.0,-0.029724,-0.02652,-0.01405,-0.016535,-0.014666,-0.04308,0.012173,0.0,-0.019233,0.0126,-0.024808,-0.020302,4136.580078,11442.420898,51395.851562,0.0,-18104.580078,-17649.0,17982.900391,-17394.121094,4150.080078,11435.850586,51431.132812,0.0,17304.121094,17670.060547,-17390.880859,18029.429688,0.0,0.0,0.0,0.0,0.0,0.0,0.0,0.0,0.0,0.0,0.0,0.0,0.0,0.0,0.0,0.0,0.0,0.0,0.0,0.0,0.0,0.0,0.0,0.0,0.0,0.0,0.0,0.0,0.0,0.0,0.0,0.0,4136.530273,11442.308594,51395.894531,0.0,-18104.583984,-17649.007812,17983.033203,-17394.158203,4150.07373,11435.770508,51431.179688,0.0,17304.123047,17669.882812,-17390.730469,18029.580078,30.371836,89.740692,22.848244,0.0,-80.606636,2.30074,33.695908,31.793167,30.471273,89.672417,22.864367,0.0,-70.007225,-1.327902,33.036667,38.010101,1.142,1.239,-45329.0,-128620.0,-509203.0,0.0,175099.0,174656.0,-179949.0,171267.0,-45278.0,-128155.0,-574426.0,0.0,-197016.0,-196802.0,192794.0,-201559.0,0.0,0.0,0.0,0.0,0.0,0.0,0.0,0.0,0.0,0.0,0.0,0.0,0.0,0.0,0.0,0.0,0.0,0.0,0.0,0.0,0.0,0.0,0.0,0.0
40,2.9465839862823486,30.372202,89.741562,22.848213,0.0,-80.606018,2.301544,33.68074,31.797581,30.471321,89.673073,22.864338,0.0,-70.00766,-1.308354,33.010132,38.003147,3.0,1.0,111.0,0.0,1.0,-79113.0,-25945.0,12649.0,-78725.0,26195.0,12720.0,-0.951045,0.222254,0.21475,-0.282737,-0.906283,-0.314184,0.124795,-0.35952,0.924755,-0.92426,0.373057,-0.081071,0.355799,0.918729,0.171303,0.138389,0.129484,-0.981877,-0.951045,0.222254,0.21475,-0.282737,-0.906283,-0.314184,0.124795,-0.35952,0.924755,-0.92426,0.373057,-0.081071,0.355799,0.918729,0.171303,0.138389,0.129484,-0.981877,-79113.0,-25945.0,12649.0,-78725.0,26195.0,12720.0,-633.0,1482.0,-61862.0,0.0,-26063.0,-21444.0,-19861.0,-22001.0,834.0,-1090.0,-2969.0,0.0,-4748.0,-468.0,438.0,-1232.0,53.0,160.0,-44.0,0.0,-812.0,-724.0,383.0,-451.0,-54.0,-159.0,44.0,0.0,-525.0,344.0,677.0,-554.0,-0.014391,-0.043319,0.012159,0.0,-0.029725,-0.026521,-0.014041,-0.016538,-0.014666,-0.04308,0.012173,0.0,-0.019233,0.012589,-0.024798,-0.020292,4136.580078,11442.420898,51395.851562,0.0,-18104.580078,-17649.0,17982.900391,-17394.121094,4150.080078,11435.850586,51431.132812,0.0,17304.121094,17670.060547,-17390.880859,18029.429688,0.0,0.0,0.0,0.0,0.0,0.0,0.0,0.0,0.0,0.0,0.0,0.0,0.0,0.0,0.0,0.0,0.0,0.0,0.0,0.0,0.0,0.0,0.0,0.0,0.0,0.0,0.0,0.0,0.0,0.0,0.0,0.0,4136.530273,11442.308594,51395.894531,0.0,-18104.583984,-17649.007812,17983.033203,-17394.158203,4150.07373,11435.770508,51431.179688,0.0,17304.123047,17669.882812,-17390.730469,18029.580078,30.371836,89.740692,22.848244,0.0,-80.606636,2.30074,33.695908,31.793167,30.471273,89.672417,22.864367,0.0,-70.007225,-1.327902,33.036667,38.010101,1.142,1.239,-45329.0,-128620.0,-509203.0,0.0,175099.0,174656.0,-179949.0,171267.0,-45278.0,-128155.0,-574426.0,0.0,-197016.0,-196802.0,192794.0,-201559.0,0.0,0.0,0.0,0.0,0.0,0.0,0.0,0.0,0.0,0.0,0.0,0.0,0.0,0.0,0.0,0.0,0.0,0.0,0.0,0.0,0.0,0.0,0.0,0.0
41,3.015592098236084,30.372202,89.741562,22.848213,0.0,-80.606018,2.301544,33.68074,31.797581,30.471321,89.673073,22.864338,0.0,-70.00766,-1.308354,33.010132,38.003147,3.0,1.0,111.0,0.0,1.0,-79113.0,-25945.0,12649.0,-78725.0,26195.0,12720.0,-0.951045,0.222254,0.21475,-0.282737,-0.906283,-0.314184,0.124795,-0.35952,0.924755,-0.92426,0.373057,-0.081071,0.355799,0.918729,0.171303,0.138389,0.129484,-0.981877,-0.951045,0.222254,0.21475,-0.282737,-0.906283,-0.314184,0.124795,-0.35952,0.924755,-0.92426,0.373057,-0.081071,0.355799,0.918729,0.171303,0.138389,0.129484,-0.981877,-79113.0,-25945.0,12649.0,-78725.0,26195.0,12720.0,-633.0,1482.0,-61862.0,0.0,-26063.0,-21444.0,-19861.0,-22001.0,834.0,-1090.0,-2969.0,0.0,-4748.0,-468.0,438.0,-1232.0,53.0,160.0,-44.0,0.0,-812.0,-724.0,383.0,-452.0,-54.0,-159.0,44.0,0.0,-525.0,343.0,677.0,-554.0,-0.014391,-0.043319,0.012159,0.0,-0.029725,-0.026521,-0.014033,-0.01654,-0.014666,-0.04308,0.012173,0.0,-0.019231,0.012578,-0.024789,-0.020283,4136.580078,11442.420898,51395.851562,0.0,-18104.580078,-17649.0,17982.900391,-17394.121094,4150.080078,11435.850586,51431.132812,0.0,17304.121094,17670.060547,-17390.880859,18029.429688,0.0,0.0,0.0,0.0,0.0,0.0,0.0,0.0,0.0,0.0,0.0,0.0,0.0,0.0,0.0,0.0,0.0,0.0,0.0,0.0,0.0,0.0,0.0,0.0,0.0,0.0,0.0,0.0,0.0,0.0,0.0,0.0,4136.530273,11442.308594,51395.894531,0.0,-18104.583984,-17649.007812,17983.033203,-17394.158203,4150.07373,11435.770508,51431.179688,0.0,17304.123047,17669.882812,-17390.730469,18029.580078,30.371836,89.740692,22.848244,0.0,-80.606636,2.30074,33.695908,31.793167,30.471273,89.672417,22.864367,0.0,-70.007225,-1.327902,33.036667,38.010101,1.142,1.239,-45329.0,-128620.0,-509203.0,0.0,175099.0,174656.0,-179949.0,171267.0,-45278.0,-128155.0,-574426.0,0.0,-197016.0,-196802.0,192794.0,-201559.0,0.0,0.0,0.0,0.0,0.0,0.0,0.0,0.0,0.0,0.0,0.0,0.0,0.0,0.0,0.0,0.0,0.0,0.0,0.0,0.0,0.0,0.0,0.0,0.0
42,3.0875959396362305,30.372202,89.741562,22.848213,0.0,-80.606018,2.301544,33.68074,31.797581,30.471321,89.673073,22.864338,0.0,-70.00766,-1.308354,33.010132,38.003147,3.0,1.0,111.0,0.0,1.0,-79113.0,-25945.0,12649.0,-78725.0,26195.0,12720.0,-0.951045,0.222254,0.21475,-0.282737,-0.906283,-0.314184,0.124795,-0.35952,0.924755,-0.92426,0.373057,-0.081071,0.355799,0.918729,0.171303,0.138389,0.129484,-0.981877,-0.951045,0.222254,0.21475,-0.282737,-0.906283,-0.314184,0.124795,-0.35952,0.924755,-0.92426,0.373057,-0.081071,0.355799,0.918729,0.171303,0.138389,0.129484,-0.981877,-79113.0,-25945.0,12649.0,-78725.0,26195.0,12720.0,-633.0,1482.0,-61862.0,0.0,-26063.0,-21444.0,-19861.0,-22001.0,834.0,-1090.0,-2969.0,0.0,-4748.0,-468.0,438.0,-1232.0,53.0,160.0,-44.0,0.0,-812.0,-724.0,383.0,-452.0,-54.0,-159.0,44.0,0.0,-525.0,343.0,677.0,-554.0,-0.014391,-0.043319,0.012159,0.0,-0.029725,-0.026521,-0.014025,-0.016542,-0.014666,-0.04308,0.012173,0.0,-0.019231,0.012567,-0.02478,-0.020274,4136.580078,11442.420898,51395.851562,0.0,-18104.580078,-17649.0,17982.900391,-17394.121094,4150.080078,11435.850586,51431.132812,0.0,17304.121094,17670.060547,-17390.880859,18029.429688,0.0,0.0,0.0,0.0,0.0,0.0,0.0,0.0,0.0,0.0,0.0,0.0,0.0,0.0,0.0,0.0,0.0,0.0,0.0,0.0,0.0,0.0,0.0,0.0,0.0,0.0,0.0,0.0,0.0,0.0,0.0,0.0,4136.530273,11442.308594,51395.894531,0.0,-18104.583984,-17649.007812,17983.033203,-17394.158203,4150.07373,11435.770508,51431.179688,0.0,17304.123047,17669.882812,-17390.730469,18029.580078,30.371836,89.740692,22.848244,0.0,-80.606636,2.30074,33.695908,31.793167,30.471273,89.672417,22.864367,0.0,-70.007225,-1.327902,33.036667,38.010101,1.142,1.239,-45329.0,-128620.0,-509203.0,0.0,175099.0,174656.0,-179949.0,171267.0,-45278.0,-128155.0,-574426.0,0.0,-197016.0,-196802.0,192794.0,-201559.0,0.0,0.0,0.0,0.0,0.0,0.0,0.0,0.0,0.0,0.0,0.0,0.0,0.0,0.0,0.0,0.0,0.0,0.0,0.0,0.0,0.0,0.0,0.0,0.0
43,3.159585952758789,30.372202,89.741562,22.848213,0.0,-80.606018,2.301544,33.68074,31.797581,30.471321,89.673073,22.864338,0.0,-70.00766,-1.308354,33.010132,38.003147,3.0,1.0,111.0,0.0,1.0,-79113.0,-25945.0,12649.0,-78725.0,26195.0,12720.0,-0.951045,0.222254,0.21475,-0.282737,-0.906283,-0.314184,0.124795,-0.35952,0.924755,-0.92426,0.373057,-0.081071,0.355799,0.918729,0.171303,0.138389,0.129484,-0.981877,-0.951045,0.222254,0.21475,-0.282737,-0.906283,-0.314184,0.124795,-0.35952,0.924755,-0.92426,0.373057,-0.081071,0.355799,0.918729,0.171303,0.138389,0.129484,-0.981877,-79113.0,-25945.0,12649.0,-78725.0,26195.0,12720.0,-633.0,1482.0,-61862.0,0.0,-26063.0,-21444.0,-19861.0,-22001.0,834.0,-1090.0,-2969.0,0.0,-4748.0,-468.0,438.0,-1232.0,53.0,160.0,-44.0,0.0,-812.0,-724.0,383.0,-452.0,-54.0,-159.0,44.0,0.0,-525.0,343.0,676.0,-553.0,-0.014391,-0.043319,0.012159,0.0,-0.029725,-0.026522,-0.014017,-0.016545,-0.014666,-0.04308,0.012173,0.0,-0.019231,0.012556,-0.02477,-0.020264,4136.580078,11442.420898,51395.851562,0.0,-18104.580078,-17649.0,17982.900391,-17394.121094,4150.080078,11435.850586,51431.132812,0.0,17304.121094,17670.060547,-17390.880859,18029.429688,0.0,0.0,0.0,0.0,0.0,0.0,0.0,0.0,0.0,0.0,0.0,0.0,0.0,0.0,0.0,0.0,0.0,0.0,0.0,0.0,0.0,0.0,0.0,0.0,0.0,0.0,0.0,0.0,0.0,0.0,0.0,0.0,4136.530273,11442.308594,51395.894531,0.0,-18104.583984,-17649.007812,17983.033203,-17394.158203,4150.07373,11435.770508,51431.179688,0.0,17304.123047,17669.882812,-17390.730469,18029.580078,30.371836,89.740692,22.848244,0.0,-80.606636,2.30074,33.695908,31.793167,30.471273,89.672417,22.864367,0.0,-70.007225,-1.327902,33.036667,38.010101,1.142,1.239,-45329.0,-128620.0,-509203.0,0.0,175099.0,174656.0,-179949.0,171267.0,-45278.0,-128155.0,-574426.0,0.0,-197016.0,-196802.0,192794.0,-201559.0,0.0,0.0,0.0,0.0,0.0,0.0,0.0,0.0,0.0,0.0,0.0,0.0,0.0,0.0,0.0,0.0,0.0,0.0,0.0,0.0,0.0,0.0,0.0,0.0
44,3.231592893600464,30.372202,89.741562,22.848213,0.0,-80.606018,2.301544,33.68074,31.797581,30.471321,89.673073,22.864338,0.0,-70.00766,-1.308354,33.010132,38.003147,3.0,1.0,111.0,0.0,1.0,-79113.0,-25945.0,12649.0,-78725.0,26195.0,12720.0,-0.951045,0.222254,0.21475,-0.282737,-0.906283,-0.314184,0.124795,-0.35952,0.924755,-0.92426,0.373057,-0.081071,0.355799,0.918729,0.171303,0.138389,0.129484,-0.981877,-0.951045,0.222254,0.21475,-0.282737,-0.906283,-0.314184,0.124795,-0.35952,0.924755,-0.92426,0.373057,-0.081071,0.355799,0.918729,0.171303,0.138389,0.129484,-0.981877,-79113.0,-25945.0,12649.0,-78725.0,26195.0,12720.0,-633.0,1482.0,-61862.0,0.0,-26063.0,-21444.0,-19861.0,-22001.0,834.0,-1090.0,-2969.0,0.0,-4748.0,-468.0,438.0,-1232.0,53.0,160.0,-44.0,0.0,-812.0,-724.0,382.0,-452.0,-54.0,-159.0,44.0,0.0,-525.0,342.0,676.0,-553.0,-0.014391,-0.043319,0.012159,0.0,-0.029725,-0.026522,-0.014008,-0.016547,-0.014666,-0.04308,0.012173,0.0,-0.019231,0.012545,-0.024761,-0.020255,4136.580078,11442.420898,51395.851562,0.0,-18104.580078,-17649.0,17982.900391,-17394.121094,4150.080078,11435.850586,51431.132812,0.0,17304.121094,17670.060547,-17390.880859,18029.429688,0.0,0.0,0.0,0.0,0.0,0.0,0.0,0.0,0.0,0.0,0.0,0.0,0.0,0.0,0.0,0.0,0.0,0.0,0.0,0.0,0.0,0.0,0.0,0.0,0.0,0.0,0.0,0.0,0.0,0.0,0.0,0.0,4136.530273,11442.308594,51395.894531,0.0,-18104.583984,-17649.007812,17983.033203,-17394.158203,4150.07373,11435.770508,51431.179688,0.0,17304.123047,17669.882812,-17390.730469,18029.580078,30.371836,89.740692,22.848244,0.0,-80.606636,2.30074,33.695908,31.793167,30.471273,89.672417,22.864367,0.0,-70.007225,-1.327902,33.036667,38.010101,1.142,1.239,-45329.0,-128620.0,-509203.0,0.0,175099.0,174656.0,-179949.0,171267.0,-45278.0,-128155.0,-574426.0,0.0,-197016.0,-196802.0,192794.0,-201559.0,0.0,0.0,0.0,0.0,0.0,0.0,0.0,0.0,0.0,0.0,0.0,0.0,0.0,0.0,0.0,0.0,0.0,0.0,0.0,0.0,0.0,0.0,0.0,0.0
45,3.305586099624634,30.372202,89.741562,22.848213,0.0,-80.606018,2.301544,33.68074,31.797581,30.471321,89.673073,22.864338,0.0,-70.00766,-1.308354,33.010132,38.003147,3.0,1.0,111.0,0.0,1.0,-79113.0,-25945.0,12649.0,-78725.0,26195.0,12720.0,-0.951045,0.222254,0.21475,-0.282737,-0.906283,-0.314184,0.124795,-0.35952,0.924755,-0.92426,0.373057,-0.081071,0.355799,0.918729,0.171303,0.138389,0.129484,-0.981877,-0.951045,0.222254,0.21475,-0.282737,-0.906283,-0.314184,0.124795,-0.35952,0.924755,-0.92426,0.373057,-0.081071,0.355799,0.918729,0.171303,0.138389,0.129484,-0.981877,-79113.0,-25945.0,12649.0,-78725.0,26195.0,12720.0,-633.0,1482.0,-61862.0,0.0,-26063.0,-21444.0,-19861.0,-22001.0,834.0,-1090.0,-2969.0,0.0,-4748.0,-468.0,438.0,-1232.0,53.0,160.0,-44.0,0.0,-812.0,-724.0,382.0,-452.0,-54.0,-159.0,44.0,0.0,-568.0,342.0,676.0,-553.0,-0.014391,-0.043319,0.012159,0.0,-0.029726,-0.026523,-0.014,-0.016549,-0.014666,-0.04308,0.012173,0.0,-0.020817,0.012534,-0.024751,-0.020245,4136.580078,11442.420898,51395.851562,0.0,-18104.580078,-17649.0,17982.900391,-17394.121094,4150.080078,11435.850586,51431.132812,0.0,17304.121094,17670.060547,-17390.880859,18029.429688,0.0,0.0,0.0,0.0,0.0,0.0,0.0,0.0,0.0,0.0,0.0,0.0,90.92347,0.0,0.0,0.0,0.0,0.0,0.0,0.0,0.0,0.0,0.0,0.0,0.0,0.0,0.0,0.0,16.852734,0.0,0.0,0.0,4136.530273,11442.308594,51395.894531,0.0,-18104.583984,-17649.007812,17983.033203,-17394.158203,4150.07373,11435.770508,51431.179688,0.0,17304.123047,17669.882812,-17390.730469,18029.580078,30.371836,89.740692,22.848244,0.0,-80.606636,2.30074,33.695908,31.793167,30.471273,89.672417,22.864367,0.0,-70.007225,-1.327902,33.036667,38.010101,1.142,1.239,-45329.0,-128620.0,-509203.0,0.0,175099.0,174656.0,-179949.0,171267.0,-45278.0,-128155.0,-574426.0,0.0,-197016.0,-196802.0,192794.0,-201559.0,0.0,0.0,0.0,0.0,0.0,0.0,0.0,0.0,0.0,-0.005632,0.003659,-0.294059,0.0,0.0,0.0,0.0,0.0,0.0,0.0,0.0,0.0,-0.005632,0.003659,-0.294059
46,3.375464916229248,30.372202,89.741562,22.848213,0.0,-80.606018,2.301544,33.68074,31.797581,30.471321,89.673073,22.864338,0.0,-70.024513,-1.308354,33.010132,38.003147,3.0,1.0,111.0,0.0,1.0,-79113.0,-25945.0,12649.0,-78725.0,26195.0,12720.0,-0.951045,0.222254,0.21475,-0.282737,-0.906283,-0.314184,0.124795,-0.35952,0.924755,-0.924263,0.373027,-0.081169,0.355795,0.918781,0.171029,0.138375,0.129196,-0.981917,-0.951045,0.222254,0.21475,-0.282737,-0.906283,-0.314184,0.124795,-0.35952,0.924755,-0.924263,0.373027,-0.081169,0.355795,0.918781,0.171029,0.138375,0.129196,-0.981917,-79113.0,-25945.0,12649.0,-78725.0,26195.0,12720.0,-633.0,1482.0,-61862.0,0.0,-26063.0,-21444.0,-19861.0,-22001.0,834.0,-1090.0,-2969.0,0.0,-4749.0,-468.0,438.0,-1232.0,53.0,160.0,-44.0,0.0,-812.0,-724.0,382.0,-452.0,-54.0,-159.0,44.0,0.0,-478.0,342.0,676.0,-553.0,-0.014391,-0.043319,0.012159,0.0,-0.029726,-0.026523,-0.013991,-0.016552,-0.014666,-0.04308,0.012173,0.0,-0.017499,0.012523,-0.024742,-0.020236,4136.580078,11442.420898,51395.851562,0.0,-18104.580078,-17649.0,17982.900391,-17394.121094,4150.080078,11435.850586,51431.132812,0.0,17304.029297,17670.060547,-17390.880859,18029.429688,0.0,0.0,0.0,0.0,0.0,0.0,0.0,0.0,0.0,0.0,0.0,0.0,-90.92347,0.0,0.0,0.0,0.0,0.0,0.0,0.0,0.0,0.0,0.0,0.0,0.0,0.0,0.0,0.0,-16.852734,0.0,0.0,0.0,4136.530273,11442.308594,51395.894531,0.0,-18104.583984,-17649.007812,17983.033203,-17394.158203,4150.07373,11435.770508,51431.179688,0.0,17304.123047,17669.882812,-17390.730469,18029.580078,30.371836,89.740692,22.848244,0.0,-80.606636,2.30074,33.695908,31.793167,30.471273,89.672417,22.864367,0.0,-70.007225,-1.327902,33.036667,38.010101,1.142,1.239,-45329.0,-128620.0,-509203.0,0.0,175099.0,174656.0,-179949.0,171267.0,-45278.0,-128155.0,-574426.0,0.0,-197016.0,-196802.0,192794.0,-201559.0,0.0,0.0,0.0,0.0,0.0,0.0,0.0,0.0,0.0,0.005632,-0.003659,0.294059,0.0,0.0,0.0,0.0,0.0,0.0,0.0,0.0,0.0,0.005632,-0.003659,0.294059
47,3.446484088897705,30.372202,89.741562,22.848213,0.0,-80.606018,2.301544,33.68074,31.797581,30.471321,89.673073,22.864338,0.0,-70.00766,-1.308354,33.010132,38.003147,3.0,1.0,111.0,0.0,1.0,-79113.0,-25945.0,12649.0,-78725.0,26195.0,12720.0,-0.951045,0.222254,0.21475,-0.282737,-0.906283,-0.314184,0.124795,-0.35952,0.924755,-0.92426,0.373057,-0.081071,0.355799,0.918729,0.171303,0.138389,0.129484,-0.981877,-0.951045,0.222254,0.21475,-0.282737,-0.906283,-0.314184,0.124795,-0.35952,0.924755,-0.92426,0.373057,-0.081071,0.355799,0.918729,0.171303,0.138389,0.129484,-0.981877,-79113.0,-25945.0,12649.0,-78725.0,26195.0,12720.0,-633.0,1482.0,-61862.0,0.0,-26063.0,-21444.0,-19861.0,-22001.0,834.0,-1090.0,-2969.0,0.0,-4748.0,-468.0,438.0,-1232.0,53.0,160.0,-44.0,0.0,-812.0,-724.0,382.0,-452.0,-54.0,-159.0,44.0,0.0,-525.0,341.0,675.0,-552.0,-0.014391,-0.043319,0.012159,0.0,-0.029726,-0.026524,-0.013983,-0.016554,-0.014666,-0.04308,0.012173,0.0,-0.019228,0.012512,-0.024733,-0.020227,4136.580078,11442.420898,51395.851562,0.0,-18104.580078,-17649.0,17982.900391,-17394.121094,4150.080078,11435.850586,51431.132812,0.0,17304.121094,17670.060547,-17390.880859,18029.429688,0.0,0.0,0.0,0.0,0.0,0.0,0.0,0.0,0.0,0.0,0.0,0.0,0.0,0.0,0.0,0.0,0.0,0.0,0.0,0.0,0.0,0.0,0.0,0.0,0.0,0.0,0.0,0.0,0.0,0.0,0.0,0.0,4136.530273,11442.308594,51395.894531,0.0,-18104.583984,-17649.007812,17983.033203,-17394.158203,4150.07373,11435.770508,51431.179688,0.0,17304.123047,17669.882812,-17390.730469,18029.580078,30.371836,89.740692,22.848244,0.0,-80.606636,2.30074,33.695908,31.793167,30.471273,89.672417,22.864367,0.0,-70.007225,-1.327902,33.036667,38.010101,1.142,1.239,-45329.0,-128620.0,-509203.0,0.0,175099.0,174656.0,-179949.0,171267.0,-45278.0,-128155.0,-574426.0,0.0,-197016.0,-196802.0,192794.0,-201559.0,0.0,0.0,0.0,0.0,0.0,0.0,0.0,0.0,0.0,0.0,0.0,0.0,0.0,0.0,0.0,0.0,0.0,0.0,0.0,0.0,0.0,0.0,0.0,0.0
48,3.515486001968384,30.372202,89.741562,22.848213,0.0,-80.606018,2.301544,33.68074,31.797581,30.471321,89.673073,22.864338,0.0,-70.00766,-1.308354,33.010132,38.003147,3.0,1.0,111.0,0.0,1.0,-79113.0,-25945.0,12649.0,-78725.0,26195.0,12720.0,-0.951045,0.222254,0.21475,-0.282737,-0.906283,-0.314184,0.124795,-0.35952,0.924755,-0.92426,0.373057,-0.081071,0.355799,0.918729,0.171303,0.138389,0.129484,-0.981877,-0.951045,0.222254,0.21475,-0.282737,-0.906283,-0.314184,0.124795,-0.35952,0.924755,-0.92426,0.373057,-0.081071,0.355799,0.918729,0.171303,0.138389,0.129484,-0.981877,-79113.0,-25945.0,12649.0,-78725.0,26195.0,12720.0,-633.0,1482.0,-61862.0,0.0,-26063.0,-21444.0,-19861.0,-22001.0,834.0,-1090.0,-2969.0,0.0,-4748.0,-468.0,438.0,-1232.0,53.0,160.0,-44.0,0.0,-812.0,-724.0,381.0,-452.0,-54.0,-159.0,44.0,0.0,-525.0,341.0,675.0,-552.0,-0.014391,-0.043319,0.012159,0.0,-0.029726,-0.026524,-0.013975,-0.016556,-0.014666,-0.04308,0.012173,0.0,-0.019228,0.012502,-0.024724,-0.020218,4136.580078,11442.420898,51395.851562,0.0,-18104.580078,-17649.0,17982.900391,-17394.121094,4150.080078,11435.850586,51431.132812,0.0,17304.121094,17670.060547,-17390.880859,18029.429688,0.0,0.0,0.0,0.0,0.0,0.0,0.0,0.0,0.0,0.0,0.0,0.0,0.0,0.0,0.0,0.0,0.0,0.0,0.0,0.0,0.0,0.0,0.0,0.0,0.0,0.0,0.0,0.0,0.0,0.0,0.0,0.0,4136.530273,11442.308594,51395.894531,0.0,-18104.583984,-17649.007812,17983.033203,-17394.158203,4150.07373,11435.770508,51431.179688,0.0,17304.123047,17669.882812,-17390.730469,18029.580078,30.371836,89.740692,22.848244,0.0,-80.606636,2.30074,33.695908,31.793167,30.471273,89.672417,22.864367,0.0,-70.007225,-1.327902,33.036667,38.010101,1.142,1.239,-45329.0,-128620.0,-509203.0,0.0,175099.0,174656.0,-179949.0,171267.0,-45278.0,-128155.0,-574426.0,0.0,-197016.0,-196802.0,192794.0,-201559.0,0.0,0.0,0.0,0.0,0.0,0.0,0.0,0.0,0.0,0.0,0.0,0.0,0.0,0.0,0.0,0.0,0.0,0.0,0.0,0.0,0.0,0.0,0.0,0.0
49,3.5875909328460693,30.372202,89.741562,22.848213,0.0,-80.606018,2.301544,33.68074,31.797581,30.471321,89.673073,22.864338,0.0,-70.00766,-1.308354,33.010132,38.003147,3.0,1.0,111.0,0.0,1.0,-79113.0,-25945.0,12649.0,-78725.0,26195.0,12720.0,-0.951045,0.222254,0.21475,-0.282737,-0.906283,-0.314184,0.124795,-0.35952,0.924755,-0.92426,0.373057,-0.081071,0.355799,0.918729,0.171303,0.138389,0.129484,-0.981877,-0.951045,0.222254,0.21475,-0.282737,-0.906283,-0.314184,0.124795,-0.35952,0.924755,-0.92426,0.373057,-0.081071,0.355799,0.918729,0.171303,0.138389,0.129484,-0.981877,-79113.0,-25945.0,12649.0,-78725.0,26195.0,12720.0,-633.0,1482.0,-61862.0,0.0,-26063.0,-21444.0,-19861.0,-22001.0,834.0,-1090.0,-2969.0,0.0,-4748.0,-468.0,438.0,-1232.0,53.0,160.0,-44.0,0.0,-812.0,-724.0,381.0,-452.0,-54.0,-159.0,44.0,0.0,-525.0,341.0,675.0,-552.0,-0.014391,-0.043319,0.012159,0.0,-0.029726,-0.026524,-0.013967,-0.016559,-0.014666,-0.04308,0.012173,0.0,-0.019228,0.012491,-0.024714,-0.020208,4136.580078,11442.420898,51395.851562,0.0,-18104.580078,-17649.0,17982.900391,-17394.121094,4150.080078,11435.850586,51431.132812,0.0,17304.121094,17670.060547,-17390.880859,18029.429688,0.0,0.0,0.0,0.0,0.0,0.0,0.0,0.0,0.0,0.0,0.0,0.0,0.0,0.0,0.0,0.0,0.0,0.0,0.0,0.0,0.0,0.0,0.0,0.0,0.0,0.0,0.0,0.0,0.0,0.0,0.0,0.0,4136.530273,11442.308594,51395.894531,0.0,-18104.583984,-17649.007812,17983.033203,-17394.158203,4150.07373,11435.770508,51431.179688,0.0,17304.123047,17669.882812,-17390.730469,18029.580078,30.371836,89.740692,22.848244,0.0,-80.606636,2.30074,33.695908,31.793167,30.471273,89.672417,22.864367,0.0,-70.007225,-1.327902,33.036667,38.010101,1.142,1.239,-45329.0,-128620.0,-509203.0,0.0,175099.0,174656.0,-179949.0,171267.0,-45278.0,-128155.0,-574426.0,0.0,-197016.0,-196802.0,192794.0,-201559.0,0.0,0.0,0.0,0.0,0.0,0.0,0.0,0.0,0.0,0.0,0.0,0.0,0.0,0.0,0.0,0.0,0.0,0.0,0.0,0.0,0.0,0.0,0.0,0.0
50,3.659554958343506,30.372202,89.741562,22.848213,0.0,-80.606018,2.301544,33.68074,31.797581,30.471321,89.673073,22.864338,0.0,-70.00766,-1.308354,33.010132,38.003147,3.0,1.0,111.0,0.0,1.0,-79113.0,-25945.0,12649.0,-78725.0,26195.0,12720.0,-0.951045,0.222254,0.21475,-0.282737,-0.906283,-0.314184,0.124795,-0.35952,0.924755,-0.92426,0.373057,-0.081071,0.355799,0.918729,0.171303,0.138389,0.129484,-0.981877,-0.951045,0.222254,0.21475,-0.282737,-0.906283,-0.314184,0.124795,-0.35952,0.924755,-0.92426,0.373057,-0.081071,0.355799,0.918729,0.171303,0.138389,0.129484,-0.981877,-79113.0,-25945.0,12649.0,-78725.0,26195.0,12720.0,-633.0,1482.0,-61862.0,0.0,-26063.0,-21444.0,-19861.0,-22001.0,834.0,-1090.0,-2969.0,0.0,-4748.0,-468.0,438.0,-1232.0,53.0,160.0,-44.0,0.0,-812.0,-724.0,381.0,-452.0,-54.0,-159.0,44.0,0.0,-525.0,341.0,675.0,-552.0,-0.014391,-0.043319,0.012159,0.0,-0.029727,-0.026525,-0.013958,-0.016561,-0.014666,-0.04308,0.012173,0.0,-0.019228,0.012479,-0.024705,-0.020199,4136.580078,11442.420898,51395.851562,0.0,-18104.580078,-17649.0,17982.900391,-17394.121094,4150.080078,11435.850586,51431.132812,0.0,17304.121094,17670.060547,-17390.880859,18029.429688,0.0,0.0,0.0,0.0,0.0,0.0,0.0,0.0,0.0,0.0,0.0,0.0,0.0,0.0,0.0,0.0,0.0,0.0,0.0,0.0,0.0,0.0,0.0,0.0,0.0,0.0,0.0,0.0,0.0,0.0,0.0,0.0,4136.530273,11442.308594,51395.894531,0.0,-18104.583984,-17649.007812,17983.033203,-17394.158203,4150.07373,11435.770508,51431.179688,0.0,17304.123047,17669.882812,-17390.730469,18029.580078,30.371836,89.740692,22.848244,0.0,-80.606636,2.30074,33.695908,31.793167,30.471273,89.672417,22.864367,0.0,-70.007225,-1.327902,33.036667,38.010101,1.142,1.239,-45329.0,-128620.0,-509203.0,0.0,175099.0,174656.0,-179949.0,171267.0,-45278.0,-128155.0,-574426.0,0.0,-197016.0,-196802.0,192794.0,-201559.0,0.0,0.0,0.0,0.0,0.0,0.0,0.0,0.0,0.0,0.0,0.0,0.0,0.0,0.0,0.0,0.0,0.0,0.0,0.0,0.0,0.0,0.0,0.0,0.0
