MHC-RobotSimulators-Research/Data_Analysis_MotionReplication/mai_plotter/raven_data/with_offsets/leftarm_p5_phys2_2023-11-15 13_41_58.525400_rs.csv
,time,jpos0,jpos1,jpos2,jpos3,jpos4,jpos5,jpos6,jpos7,jpos8,jpos9,jpos10,jpos11,jpos12,jpos13,jpos14,jpos15,runlevel,sublevel,last_seq,type0,type1,pos0,pos1,pos2,pos3,pos4,pos5,ori0,ori1,ori2,ori3,ori4,ori5,ori6,ori7,ori8,ori9,ori10,ori11,ori12,ori13,ori14,ori15,ori16,ori17,ori_d0,ori_d1,ori_d2,ori_d3,ori_d4,ori_d5,ori_d6,ori_d7,ori_d8,ori_d9,ori_d10,ori_d11,ori_d12,ori_d13,ori_d14,ori_d15,ori_d16,ori_d17,pos_d0,pos_d1,pos_d2,pos_d3,pos_d4,pos_d5,encVals0,encVals1,encVals2,encVals3,encVals4,encVals5,encVals6,encVals7,encVals8,encVals9,encVals10,encVals11,encVals12,encVals13,encVals14,encVals15,dac_vals0,dac_vals1,dac_vals2,dac_vals3,dac_vals4,dac_vals5,dac_vals6,dac_vals7,dac_vals8,dac_vals9,dac_vals10,dac_vals11,dac_vals12,dac_vals13,dac_vals14,dac_vals15,Tau0,Tau1,Tau2,Tau3,Tau4,Tau5,Tau6,Tau7,Tau8,Tau9,Tau10,Tau11,Tau12,Tau13,Tau14,Tau15,mpos0,mpos1,mpos2,mpos3,mpos4,mpos5,mpos6,mpos7,mpos8,mpos9,mpos10,mpos11,mpos12,mpos13,mpos14,mpos15,mvel0,mvel1,mvel2,mvel3,mvel4,mvel5,mvel6,mvel7,mvel8,mvel9,mvel10,mvel11,mvel12,mvel13,mvel14,mvel15,jvel0,jvel1,jvel2,jvel3,jvel4,jvel5,jvel6,jvel7,jvel8,jvel9,jvel10,jvel11,jvel12,jvel13,jvel14,jvel15,mpos_d0,mpos_d1,mpos_d2,mpos_d3,mpos_d4,mpos_d5,mpos_d6,mpos_d7,mpos_d8,mpos_d9,mpos_d10,mpos_d11,mpos_d12,mpos_d13,mpos_d14,mpos_d15,jpos_d0,jpos_d1,jpos_d2,jpos_d3,jpos_d4,jpos_d5,jpos_d6,jpos_d7,jpos_d8,jpos_d9,jpos_d10,jpos_d11,jpos_d12,jpos_d13,jpos_d14,jpos_d15,grasp_d0,grasp_d1,encoffsets0,encoffsets1,encoffsets2,encoffsets3,encoffsets4,encoffsets5,encoffsets6,encoffsets7,encoffsets8,encoffsets9,encoffsets10,encoffsets11,encoffsets12,encoffsets13,encoffsets14,encoffsets15,jac_vel0,jac_vel1,jac_vel2,jac_vel3,jac_vel4,jac_vel5,jac_vel6,jac_vel7,jac_vel8,jac_vel9,jac_vel10,jac_vel11,jac_f0,jac_f1,jac_f2,jac_f3,jac_f4,jac_f5,jac_f6,jac_f7,jac_f8,jac_f9,jac_f10,jac_f11
0,0.0,30.194443,90.351753,22.880903,0.0,-89.217987,0.087156,28.604994,28.666174,30.191141,89.848618,22.904089,0.0,-90.016563,-0.091755,28.833302,28.958422,3.0,1.0,111.0,0.0,1.0,-78390.0,-25786.0,13701.0,-78136.0,25572.0,13077.0,-0.937234,0.271905,0.218314,-0.308556,-0.93833,-0.155981,0.162439,-0.213552,0.963332,-0.938579,0.274134,-0.209573,0.308011,0.939375,-0.150677,0.155562,-0.205973,-0.966114,-0.936807,0.271246,0.220949,-0.309009,-0.937664,-0.159057,0.164033,-0.217281,0.962228,-0.938672,0.274607,-0.208535,0.307883,0.939794,-0.148307,0.155253,-0.203416,-0.966705,-78358.0,-25780.0,13715.0,-78137.0,25572.0,13074.0,-364.0,693.0,-62731.0,0.0,-26878.0,-21964.0,-19542.0,-22502.0,410.0,-908.0,-2034.0,0.0,-5626.0,-25.0,1116.0,-1875.0,50.0,169.0,-80.0,0.0,-367.0,1455.0,544.0,-54.0,-49.0,-157.0,44.0,0.0,-321.0,551.0,796.0,-868.0,-0.013567,-0.04582,0.021816,0.0,-0.013444,0.053246,-0.019919,-0.001983,-0.013467,-0.042481,0.012112,0.0,-0.011757,0.02018,-0.029133,-0.031785,4112.370117,11513.430664,51474.0625,0.0,-18177.929688,-17695.800781,17954.191406,-17439.210938,4111.92041,11452.230469,51515.28125,0.0,17225.099609,17709.929688,-17451.900391,17971.560547,0.0,0.0,0.0,0.0,0.0,0.0,0.0,0.0,0.0,0.0,0.0,0.0,0.0,0.0,0.0,0.0,0.0,0.0,0.0,0.0,0.0,0.0,0.0,0.0,0.0,0.0,0.0,0.0,0.0,0.0,0.0,0.0,4112.364258,11513.066406,51477.796875,0.0,-18176.761719,-17696.699219,17954.263672,-17438.03125,4111.888184,11452.307617,51515.300781,0.0,17225.910156,17709.751953,-17451.857422,17971.697266,30.194401,90.348763,22.882658,0.0,-89.00119,-0.012744,28.663172,28.7472,30.190901,89.849297,22.904095,0.0,-89.866585,-0.111685,28.847891,28.963551,1.002,1.009,-45329.0,-128620.0,-509203.0,0.0,175099.0,174656.0,-179949.0,171267.0,-45278.0,-128155.0,-574426.0,0.0,-197016.0,-196802.0,192794.0,-201559.0,0.0,0.0,0.0,0.0,0.0,0.0,0.0,0.0,0.0,0.0,0.0,0.0,0.0,0.0,0.0,0.0,0.0,0.0,0.0,0.0,0.0,0.0,0.0,0.0
1,0.08756494522094727,30.194443,90.351753,22.880903,0.0,-89.217987,0.097073,28.600037,28.671133,30.191141,89.848618,22.904089,0.0,-90.016563,-0.091755,28.833302,28.958422,3.0,1.0,111.0,0.0,1.0,-78391.0,-25786.0,13699.0,-78136.0,25572.0,13077.0,-0.937248,0.271986,0.218152,-0.30861,-0.938303,-0.156034,0.162253,-0.213566,0.96336,-0.938579,0.274134,-0.209573,0.308011,0.939375,-0.150677,0.155562,-0.205973,-0.966114,-0.937248,0.271986,0.218152,-0.30861,-0.938303,-0.156034,0.162253,-0.213566,0.96336,-0.938579,0.274134,-0.209573,0.308011,0.939375,-0.150677,0.155562,-0.205973,-0.966114,-78391.0,-25786.0,13699.0,-78136.0,25572.0,13077.0,-364.0,693.0,-62731.0,0.0,-26878.0,-21963.0,-19542.0,-22502.0,410.0,-908.0,-2034.0,0.0,-5626.0,-25.0,1116.0,-1875.0,50.0,169.0,-80.0,0.0,-365.0,1451.0,544.0,-51.0,-49.0,-157.0,44.0,0.0,-319.0,551.0,796.0,-868.0,-0.013567,-0.04582,0.021816,0.0,-0.013362,0.053101,-0.019914,-0.001901,-0.013467,-0.042481,0.012112,0.0,-0.0117,0.020167,-0.02913,-0.031775,4112.370117,11513.430664,51474.0625,0.0,-18177.929688,-17695.710938,17954.191406,-17439.210938,4111.92041,11452.230469,51515.28125,0.0,17225.099609,17709.929688,-17451.900391,17971.560547,0.0,0.0,0.0,0.0,0.0,0.0,0.0,0.0,0.0,0.0,0.0,0.0,0.0,0.0,0.0,0.0,0.0,0.0,0.0,0.0,0.0,0.0,0.0,0.0,0.0,0.0,0.0,0.0,0.0,0.0,0.0,0.0,4112.364258,11513.066406,51477.796875,0.0,-18176.761719,-17696.699219,17954.263672,-17438.03125,4111.888184,11452.307617,51515.300781,0.0,17225.910156,17709.751953,-17451.857422,17971.697266,30.194401,90.348763,22.882658,0.0,-89.00119,-0.012744,28.663172,28.7472,30.190901,89.849297,22.904095,0.0,-89.866585,-0.111685,28.847891,28.963551,0.999,1.008,-45329.0,-128620.0,-509203.0,0.0,175099.0,174656.0,-179949.0,171267.0,-45278.0,-128155.0,-574426.0,0.0,-197016.0,-196802.0,192794.0,-201559.0,0.0,0.0,0.0,0.0,0.0,0.0,0.0,0.0,0.0,0.0,0.0,0.0,0.0,0.0,0.0,0.0,0.0,0.0,0.0,0.0,0.0,0.0,0.0,0.0
2,0.16053199768066406,30.194443,90.351753,22.880903,0.0,-89.217987,0.097073,28.600037,28.671133,30.191141,89.848618,22.904089,0.0,-90.016563,-0.091755,28.833302,28.958422,3.0,1.0,111.0,0.0,1.0,-78391.0,-25786.0,13699.0,-78136.0,25572.0,13077.0,-0.937248,0.271986,0.218152,-0.30861,-0.938303,-0.156034,0.162253,-0.213566,0.96336,-0.938579,0.274134,-0.209573,0.308011,0.939375,-0.150677,0.155562,-0.205973,-0.966114,-0.937248,0.271986,0.218152,-0.30861,-0.938303,-0.156034,0.162253,-0.213566,0.96336,-0.938579,0.274134,-0.209573,0.308011,0.939375,-0.150677,0.155562,-0.205973,-0.966114,-78391.0,-25786.0,13699.0,-78136.0,25572.0,13077.0,-364.0,693.0,-62731.0,0.0,-26878.0,-21963.0,-19542.0,-22502.0,410.0,-908.0,-2034.0,0.0,-5626.0,-25.0,1116.0,-1875.0,50.0,169.0,-80.0,0.0,-363.0,1449.0,544.0,-49.0,-49.0,-157.0,44.0,0.0,-318.0,550.0,796.0,-868.0,-0.013567,-0.04582,0.021816,0.0,-0.013288,0.053038,-0.019909,-0.001826,-0.013467,-0.042481,0.012112,0.0,-0.011649,0.020156,-0.029128,-0.031767,4112.370117,11513.430664,51474.0625,0.0,-18177.929688,-17695.710938,17954.191406,-17439.210938,4111.92041,11452.230469,51515.28125,0.0,17225.099609,17709.929688,-17451.900391,17971.560547,0.0,0.0,0.0,0.0,0.0,0.0,0.0,0.0,0.0,0.0,0.0,0.0,0.0,0.0,0.0,0.0,0.0,0.0,0.0,0.0,0.0,0.0,0.0,0.0,0.0,0.0,0.0,0.0,0.0,0.0,0.0,0.0,4112.364258,11513.066406,51477.796875,0.0,-18176.761719,-17696.699219,17954.263672,-17438.03125,4111.888184,11452.307617,51515.300781,0.0,17225.910156,17709.751953,-17451.857422,17971.697266,30.194401,90.348763,22.882658,0.0,-89.00119,-0.012744,28.663172,28.7472,30.190901,89.849297,22.904095,0.0,-89.866585,-0.111685,28.847891,28.963551,0.999,1.008,-45329.0,-128620.0,-509203.0,0.0,175099.0,174656.0,-179949.0,171267.0,-45278.0,-128155.0,-574426.0,0.0,-197016.0,-196802.0,192794.0,-201559.0,0.0,0.0,0.0,0.0,0.0,0.0,0.0,0.0,0.0,0.0,0.0,0.0,0.0,0.0,0.0,0.0,0.0,0.0,0.0,0.0,0.0,0.0,0.0,0.0
3,0.2395329475402832,30.194443,90.351753,22.880903,0.0,-89.217987,0.097073,28.600037,28.671133,30.191141,89.848618,22.904089,0.0,-90.016563,-0.091755,28.833302,28.958422,3.0,1.0,111.0,0.0,1.0,-78391.0,-25786.0,13699.0,-78136.0,25572.0,13077.0,-0.937248,0.271986,0.218152,-0.30861,-0.938303,-0.156034,0.162253,-0.213566,0.96336,-0.938579,0.274134,-0.209573,0.308011,0.939375,-0.150677,0.155562,-0.205973,-0.966114,-0.937248,0.271986,0.218152,-0.30861,-0.938303,-0.156034,0.162253,-0.213566,0.96336,-0.938579,0.274134,-0.209573,0.308011,0.939375,-0.150677,0.155562,-0.205973,-0.966114,-78391.0,-25786.0,13699.0,-78136.0,25572.0,13077.0,-364.0,693.0,-62731.0,0.0,-26878.0,-21963.0,-19542.0,-22502.0,410.0,-908.0,-2034.0,0.0,-5626.0,-25.0,1116.0,-1875.0,50.0,169.0,-80.0,0.0,-360.0,1447.0,543.0,-47.0,-49.0,-157.0,44.0,0.0,-316.0,550.0,795.0,-867.0,-0.013567,-0.04582,0.021816,0.0,-0.013207,0.052969,-0.019904,-0.001744,-0.013467,-0.042481,0.012112,0.0,-0.011593,0.020144,-0.029125,-0.031757,4112.370117,11513.430664,51474.0625,0.0,-18177.929688,-17695.710938,17954.191406,-17439.210938,4111.92041,11452.230469,51515.28125,0.0,17225.099609,17709.929688,-17451.900391,17971.560547,0.0,0.0,0.0,0.0,0.0,0.0,0.0,0.0,0.0,0.0,0.0,0.0,0.0,0.0,0.0,0.0,0.0,0.0,0.0,0.0,0.0,0.0,0.0,0.0,0.0,0.0,0.0,0.0,0.0,0.0,0.0,0.0,4112.364258,11513.066406,51477.796875,0.0,-18176.761719,-17696.699219,17954.263672,-17438.03125,4111.888184,11452.307617,51515.300781,0.0,17225.910156,17709.751953,-17451.857422,17971.697266,30.194401,90.348763,22.882658,0.0,-89.00119,-0.012744,28.663172,28.7472,30.190901,89.849297,22.904095,0.0,-89.866585,-0.111685,28.847891,28.963551,0.999,1.008,-45329.0,-128620.0,-509203.0,0.0,175099.0,174656.0,-179949.0,171267.0,-45278.0,-128155.0,-574426.0,0.0,-197016.0,-196802.0,192794.0,-201559.0,0.0,0.0,0.0,0.0,0.0,0.0,0.0,0.0,0.0,0.0,0.0,0.0,0.0,0.0,0.0,0.0,0.0,0.0,0.0,0.0,0.0,0.0,0.0,0.0
4,0.31070709228515625,30.194443,90.351753,22.880903,0.0,-89.217987,0.097073,28.600037,28.671133,30.191141,89.848618,22.904089,0.0,-90.016563,-0.091755,28.833302,28.958422,3.0,1.0,111.0,0.0,1.0,-78391.0,-25786.0,13699.0,-78136.0,25572.0,13077.0,-0.937248,0.271986,0.218152,-0.30861,-0.938303,-0.156034,0.162253,-0.213566,0.96336,-0.938579,0.274134,-0.209573,0.308011,0.939375,-0.150677,0.155562,-0.205973,-0.966114,-0.937248,0.271986,0.218152,-0.30861,-0.938303,-0.156034,0.162253,-0.213566,0.96336,-0.938579,0.274134,-0.209573,0.308011,0.939375,-0.150677,0.155562,-0.205973,-0.966114,-78391.0,-25786.0,13699.0,-78136.0,25572.0,13077.0,-364.0,693.0,-62731.0,0.0,-26878.0,-21963.0,-19542.0,-22502.0,410.0,-908.0,-2034.0,0.0,-5626.0,-25.0,1116.0,-1875.0,50.0,169.0,-80.0,0.0,-358.0,1445.0,543.0,-45.0,-49.0,-157.0,44.0,0.0,-315.0,550.0,795.0,-867.0,-0.013567,-0.04582,0.021816,0.0,-0.013134,0.052908,-0.0199,-0.001671,-0.013467,-0.042481,0.012112,0.0,-0.011543,0.020133,-0.029122,-0.031749,4112.370117,11513.430664,51474.0625,0.0,-18177.929688,-17695.710938,17954.191406,-17439.210938,4111.92041,11452.230469,51515.28125,0.0,17225.099609,17709.929688,-17451.900391,17971.560547,0.0,0.0,0.0,0.0,0.0,0.0,0.0,0.0,0.0,0.0,0.0,0.0,0.0,0.0,0.0,0.0,0.0,0.0,0.0,0.0,0.0,0.0,0.0,0.0,0.0,0.0,0.0,0.0,0.0,0.0,0.0,0.0,4112.364258,11513.066406,51477.796875,0.0,-18176.761719,-17696.699219,17954.263672,-17438.03125,4111.888184,11452.307617,51515.300781,0.0,17225.910156,17709.751953,-17451.857422,17971.697266,30.194401,90.348763,22.882658,0.0,-89.00119,-0.012744,28.663172,28.7472,30.190901,89.849297,22.904095,0.0,-89.866585,-0.111685,28.847891,28.963551,0.999,1.008,-45329.0,-128620.0,-509203.0,0.0,175099.0,174656.0,-179949.0,171267.0,-45278.0,-128155.0,-574426.0,0.0,-197016.0,-196802.0,192794.0,-201559.0,0.0,0.0,0.0,0.0,0.0,0.0,0.0,0.0,0.0,0.0,0.0,0.0,0.0,0.0,0.0,0.0,0.0,0.0,0.0,0.0,0.0,0.0,0.0,0.0
5,0.38257789611816406,30.194443,90.351753,22.880903,0.0,-89.217987,0.097073,28.600037,28.671133,30.191141,89.848618,22.904089,0.0,-90.016563,-0.091755,28.833302,28.958422,3.0,1.0,111.0,0.0,1.0,-78391.0,-25786.0,13699.0,-78136.0,25572.0,13077.0,-0.937248,0.271986,0.218152,-0.30861,-0.938303,-0.156034,0.162253,-0.213566,0.96336,-0.938579,0.274134,-0.209573,0.308011,0.939375,-0.150677,0.155562,-0.205973,-0.966114,-0.937248,0.271986,0.218152,-0.30861,-0.938303,-0.156034,0.162253,-0.213566,0.96336,-0.938579,0.274134,-0.209573,0.308011,0.939375,-0.150677,0.155562,-0.205973,-0.966114,-78391.0,-25786.0,13699.0,-78136.0,25572.0,13077.0,-364.0,693.0,-62731.0,0.0,-26878.0,-21963.0,-19542.0,-22502.0,410.0,-908.0,-2034.0,0.0,-5626.0,-25.0,1116.0,-1875.0,50.0,169.0,-80.0,0.0,-356.0,1444.0,543.0,-43.0,-49.0,-157.0,44.0,0.0,-314.0,549.0,795.0,-867.0,-0.013567,-0.04582,0.021816,0.0,-0.013061,0.052846,-0.019895,-0.001597,-0.013467,-0.042481,0.012112,0.0,-0.011492,0.020121,-0.02912,-0.03174,4112.370117,11513.430664,51474.0625,0.0,-18177.929688,-17695.710938,17954.191406,-17439.210938,4111.92041,11452.230469,51515.28125,0.0,17225.099609,17709.929688,-17451.900391,17971.560547,0.0,0.0,0.0,0.0,0.0,0.0,0.0,0.0,0.0,0.0,0.0,0.0,0.0,0.0,0.0,0.0,0.0,0.0,0.0,0.0,0.0,0.0,0.0,0.0,0.0,0.0,0.0,0.0,0.0,0.0,0.0,0.0,4112.364258,11513.066406,51477.796875,0.0,-18176.761719,-17696.699219,17954.263672,-17438.03125,4111.888184,11452.307617,51515.300781,0.0,17225.910156,17709.751953,-17451.857422,17971.697266,30.194401,90.348763,22.882658,0.0,-89.00119,-0.012744,28.663172,28.7472,30.190901,89.849297,22.904095,0.0,-89.866585,-0.111685,28.847891,28.963551,0.999,1.008,-45329.0,-128620.0,-509203.0,0.0,175099.0,174656.0,-179949.0,171267.0,-45278.0,-128155.0,-574426.0,0.0,-197016.0,-196802.0,192794.0,-201559.0,0.0,0.0,0.0,0.0,0.0,0.0,0.0,0.0,0.0,0.0,0.0,0.0,0.0,0.0,0.0,0.0,0.0,0.0,0.0,0.0,0.0,0.0,0.0,0.0
6,0.4545431137084961,30.194443,90.351753,22.880903,0.0,-89.217987,0.097073,28.600037,28.671133,30.191141,89.848618,22.904089,0.0,-90.016563,-0.091755,28.833302,28.958422,3.0,1.0,111.0,0.0,1.0,-78391.0,-25786.0,13699.0,-78136.0,25572.0,13077.0,-0.937248,0.271986,0.218152,-0.30861,-0.938303,-0.156034,0.162253,-0.213566,0.96336,-0.938579,0.274134,-0.209573,0.308011,0.939375,-0.150677,0.155562,-0.205973,-0.966114,-0.937248,0.271986,0.218152,-0.30861,-0.938303,-0.156034,0.162253,-0.213566,0.96336,-0.938579,0.274134,-0.209573,0.308011,0.939375,-0.150677,0.155562,-0.205973,-0.966114,-78391.0,-25786.0,13699.0,-78136.0,25572.0,13077.0,-364.0,693.0,-62731.0,0.0,-26878.0,-21963.0,-19542.0,-22502.0,410.0,-908.0,-2034.0,0.0,-5626.0,-25.0,1116.0,-1875.0,50.0,169.0,-80.0,0.0,-354.0,1442.0,543.0,-41.0,-49.0,-157.0,44.0,0.0,-312.0,549.0,795.0,-867.0,-0.013567,-0.04582,0.021816,0.0,-0.012987,0.052784,-0.019891,-0.001523,-0.013467,-0.042481,0.012112,0.0,-0.011441,0.02011,-0.029117,-0.031731,4112.370117,11513.430664,51474.0625,0.0,-18177.929688,-17695.710938,17954.191406,-17439.210938,4111.92041,11452.230469,51515.28125,0.0,17225.099609,17709.929688,-17451.900391,17971.560547,0.0,0.0,0.0,0.0,0.0,0.0,0.0,0.0,0.0,0.0,0.0,0.0,0.0,0.0,0.0,0.0,0.0,0.0,0.0,0.0,0.0,0.0,0.0,0.0,0.0,0.0,0.0,0.0,0.0,0.0,0.0,0.0,4112.364258,11513.066406,51477.796875,0.0,-18176.761719,-17696.699219,17954.263672,-17438.03125,4111.888184,11452.307617,51515.300781,0.0,17225.910156,17709.751953,-17451.857422,17971.697266,30.194401,90.348763,22.882658,0.0,-89.00119,-0.012744,28.663172,28.7472,30.190901,89.849297,22.904095,0.0,-89.866585,-0.111685,28.847891,28.963551,0.999,1.008,-45329.0,-128620.0,-509203.0,0.0,175099.0,174656.0,-179949.0,171267.0,-45278.0,-128155.0,-574426.0,0.0,-197016.0,-196802.0,192794.0,-201559.0,0.0,0.0,0.0,0.0,0.0,0.0,0.0,0.0,0.0,0.0,0.0,0.0,0.0,0.0,0.0,0.0,0.0,0.0,0.0,0.0,0.0,0.0,0.0,0.0
7,0.5245649814605713,30.194443,90.351753,22.880903,0.0,-89.217987,0.097073,28.600037,28.671133,30.191141,89.848618,22.904089,0.0,-89.999718,-0.091755,28.833302,28.958422,3.0,1.0,111.0,0.0,1.0,-78391.0,-25786.0,13699.0,-78136.0,25572.0,13077.0,-0.937248,0.271986,0.218152,-0.30861,-0.938303,-0.156034,0.162253,-0.213566,0.96336,-0.938578,0.274196,-0.209493,0.308011,0.939419,-0.1504,0.155562,-0.205689,-0.966174,-0.937248,0.271986,0.218152,-0.30861,-0.938303,-0.156034,0.162253,-0.213566,0.96336,-0.938578,0.274196,-0.209493,0.308011,0.939419,-0.1504,0.155562,-0.205689,-0.966174,-78391.0,-25786.0,13699.0,-78136.0,25572.0,13077.0,-364.0,693.0,-62731.0,0.0,-26878.0,-21963.0,-19542.0,-22502.0,410.0,-908.0,-2034.0,0.0,-5625.0,-25.0,1116.0,-1875.0,50.0,169.0,-80.0,0.0,-352.0,1440.0,543.0,-39.0,-49.0,-157.0,44.0,0.0,-315.0,549.0,795.0,-866.0,-0.013567,-0.04582,0.021816,0.0,-0.012916,0.052723,-0.019886,-0.001451,-0.013467,-0.042481,0.012112,0.0,-0.011539,0.020099,-0.029115,-0.031723,4112.370117,11513.430664,51474.0625,0.0,-18177.929688,-17695.710938,17954.191406,-17439.210938,4111.92041,11452.230469,51515.28125,0.0,17225.191406,17709.929688,-17451.900391,17971.560547,0.0,0.0,0.0,0.0,0.0,0.0,0.0,0.0,0.0,0.0,0.0,0.0,0.0,0.0,0.0,0.0,0.0,0.0,0.0,0.0,0.0,0.0,0.0,0.0,0.0,0.0,0.0,0.0,0.0,0.0,0.0,0.0,4112.364258,11513.066406,51477.796875,0.0,-18176.761719,-17696.699219,17954.263672,-17438.03125,4111.888184,11452.307617,51515.300781,0.0,17225.910156,17709.751953,-17451.857422,17971.697266,30.194401,90.348763,22.882658,0.0,-89.00119,-0.012744,28.663172,28.7472,30.190901,89.849297,22.904095,0.0,-89.866585,-0.111685,28.847891,28.963551,0.999,1.008,-45329.0,-128620.0,-509203.0,0.0,175099.0,174656.0,-179949.0,171267.0,-45278.0,-128155.0,-574426.0,0.0,-197016.0,-196802.0,192794.0,-201559.0,0.0,0.0,0.0,0.0,0.0,0.0,0.0,0.0,0.0,0.0,0.0,0.0,0.0,0.0,0.0,0.0,0.0,0.0,0.0,0.0,0.0,0.0,0.0,0.0
8,0.6025729179382324,30.194443,90.351753,22.880903,0.0,-89.217987,0.097073,28.600037,28.671133,30.191141,89.848618,22.904089,0.0,-89.999718,-0.091755,28.833302,28.958422,3.0,1.0,111.0,0.0,1.0,-78391.0,-25786.0,13699.0,-78136.0,25572.0,13077.0,-0.937248,0.271986,0.218152,-0.30861,-0.938303,-0.156034,0.162253,-0.213566,0.96336,-0.938578,0.274196,-0.209493,0.308011,0.939419,-0.1504,0.155562,-0.205689,-0.966174,-0.937248,0.271986,0.218152,-0.30861,-0.938303,-0.156034,0.162253,-0.213566,0.96336,-0.938578,0.274196,-0.209493,0.308011,0.939419,-0.1504,0.155562,-0.205689,-0.966174,-78391.0,-25786.0,13699.0,-78136.0,25572.0,13077.0,-364.0,693.0,-62731.0,0.0,-26878.0,-21963.0,-19542.0,-22502.0,410.0,-908.0,-2034.0,0.0,-5625.0,-25.0,1116.0,-1875.0,50.0,169.0,-80.0,0.0,-350.0,1438.0,543.0,-37.0,-49.0,-157.0,44.0,0.0,-314.0,548.0,795.0,-866.0,-0.013567,-0.04582,0.021816,0.0,-0.012836,0.052656,-0.019881,-0.001371,-0.013467,-0.042481,0.012112,0.0,-0.01149,0.020087,-0.029112,-0.031714,4112.370117,11513.430664,51474.0625,0.0,-18177.929688,-17695.710938,17954.191406,-17439.210938,4111.92041,11452.230469,51515.28125,0.0,17225.191406,17709.929688,-17451.900391,17971.560547,0.0,0.0,0.0,0.0,0.0,0.0,0.0,0.0,0.0,0.0,0.0,0.0,0.0,0.0,0.0,0.0,0.0,0.0,0.0,0.0,0.0,0.0,0.0,0.0,0.0,0.0,0.0,0.0,0.0,0.0,0.0,0.0,4112.364258,11513.066406,51477.796875,0.0,-18176.761719,-17696.699219,17954.263672,-17438.03125,4111.888184,11452.307617,51515.300781,0.0,17225.910156,17709.751953,-17451.857422,17971.697266,30.194401,90.348763,22.882658,0.0,-89.00119,-0.012744,28.663172,28.7472,30.190901,89.849297,22.904095,0.0,-89.866585,-0.111685,28.847891,28.963551,0.999,1.008,-45329.0,-128620.0,-509203.0,0.0,175099.0,174656.0,-179949.0,171267.0,-45278.0,-128155.0,-574426.0,0.0,-197016.0,-196802.0,192794.0,-201559.0,0.0,0.0,0.0,0.0,0.0,0.0,0.0,0.0,0.0,0.0,0.0,0.0,0.0,0.0,0.0,0.0,0.0,0.0,0.0,0.0,0.0,0.0,0.0,0.0
9,0.6735830307006836,30.194443,90.351753,22.880903,0.0,-89.217987,0.097073,28.600037,28.671133,30.191141,89.848618,22.904089,0.0,-89.999718,-0.091755,28.833302,28.958422,3.0,1.0,111.0,0.0,1.0,-78391.0,-25786.0,13699.0,-78136.0,25572.0,13077.0,-0.937248,0.271986,0.218152,-0.30861,-0.938303,-0.156034,0.162253,-0.213566,0.96336,-0.938578,0.274196,-0.209493,0.308011,0.939419,-0.1504,0.155562,-0.205689,-0.966174,-0.937248,0.271986,0.218152,-0.30861,-0.938303,-0.156034,0.162253,-0.213566,0.96336,-0.938578,0.274196,-0.209493,0.308011,0.939419,-0.1504,0.155562,-0.205689,-0.966174,-78391.0,-25786.0,13699.0,-78136.0,25572.0,13077.0,-364.0,693.0,-62731.0,0.0,-26878.0,-21963.0,-19542.0,-22502.0,410.0,-908.0,-2034.0,0.0,-5625.0,-25.0,1116.0,-1875.0,50.0,169.0,-80.0,0.0,-348.0,1437.0,543.0,-35.0,-49.0,-157.0,44.0,0.0,-312.0,548.0,795.0,-866.0,-0.013567,-0.04582,0.021816,0.0,-0.012764,0.052594,-0.019876,-0.001298,-0.013467,-0.042481,0.012112,0.0,-0.011446,0.020076,-0.029109,-0.031705,4112.370117,11513.430664,51474.0625,0.0,-18177.929688,-17695.710938,17954.191406,-17439.210938,4111.92041,11452.230469,51515.28125,0.0,17225.191406,17709.929688,-17451.900391,17971.560547,0.0,0.0,0.0,0.0,0.0,0.0,0.0,0.0,0.0,0.0,0.0,0.0,0.0,0.0,0.0,0.0,0.0,0.0,0.0,0.0,0.0,0.0,0.0,0.0,0.0,0.0,0.0,0.0,0.0,0.0,0.0,0.0,4112.364258,11513.066406,51477.796875,0.0,-18176.761719,-17696.699219,17954.263672,-17438.03125,4111.888184,11452.307617,51515.300781,0.0,17225.910156,17709.751953,-17451.857422,17971.697266,30.194401,90.348763,22.882658,0.0,-89.00119,-0.012744,28.663172,28.7472,30.190901,89.849297,22.904095,0.0,-89.866585,-0.111685,28.847891,28.963551,0.999,1.008,-45329.0,-128620.0,-509203.0,0.0,175099.0,174656.0,-179949.0,171267.0,-45278.0,-128155.0,-574426.0,0.0,-197016.0,-196802.0,192794.0,-201559.0,0.0,0.0,0.0,0.0,0.0,0.0,0.0,0.0,0.0,0.0,0.0,0.0,0.0,0.0,0.0,0.0,0.0,0.0,0.0,0.0,0.0,0.0,0.0,0.0
10,0.7445900440216064,30.194443,90.351753,22.880903,0.0,-89.217987,0.097073,28.600037,28.671133,30.191141,89.848618,22.904089,0.0,-89.999718,-0.091755,28.833302,28.958422,3.0,1.0,111.0,0.0,1.0,-78391.0,-25786.0,13699.0,-78136.0,25572.0,13077.0,-0.937248,0.271986,0.218152,-0.30861,-0.938303,-0.156034,0.162253,-0.213566,0.96336,-0.938578,0.274196,-0.209493,0.308011,0.939419,-0.1504,0.155562,-0.205689,-0.966174,-0.937248,0.271986,0.218152,-0.30861,-0.938303,-0.156034,0.162253,-0.213566,0.96336,-0.938578,0.274196,-0.209493,0.308011,0.939419,-0.1504,0.155562,-0.205689,-0.966174,-78391.0,-25786.0,13699.0,-78136.0,25572.0,13077.0,-364.0,693.0,-62731.0,0.0,-26878.0,-21963.0,-19542.0,-22502.0,410.0,-908.0,-2034.0,0.0,-5625.0,-25.0,1116.0,-1875.0,50.0,169.0,-80.0,0.0,-346.0,1435.0,543.0,-33.0,-49.0,-157.0,44.0,0.0,-311.0,548.0,795.0,-866.0,-0.013567,-0.04582,0.021816,0.0,-0.012691,0.052533,-0.019872,-0.001225,-0.013467,-0.042481,0.012112,0.0,-0.011401,0.020065,-0.029107,-0.031697,4112.370117,11513.430664,51474.0625,0.0,-18177.929688,-17695.710938,17954.191406,-17439.210938,4111.92041,11452.230469,51515.28125,0.0,17225.191406,17709.929688,-17451.900391,17971.560547,0.0,0.0,0.0,0.0,0.0,0.0,0.0,0.0,0.0,0.0,0.0,0.0,0.0,0.0,0.0,0.0,0.0,0.0,0.0,0.0,0.0,0.0,0.0,0.0,0.0,0.0,0.0,0.0,0.0,0.0,0.0,0.0,4112.364258,11513.066406,51477.796875,0.0,-18176.761719,-17696.699219,17954.263672,-17438.03125,4111.888184,11452.307617,51515.300781,0.0,17225.910156,17709.751953,-17451.857422,17971.697266,30.194401,90.348763,22.882658,0.0,-89.00119,-0.012744,28.663172,28.7472,30.190901,89.849297,22.904095,0.0,-89.866585,-0.111685,28.847891,28.963551,0.999,1.008,-45329.0,-128620.0,-509203.0,0.0,175099.0,174656.0,-179949.0,171267.0,-45278.0,-128155.0,-574426.0,0.0,-197016.0,-196802.0,192794.0,-201559.0,0.0,0.0,0.0,0.0,0.0,0.0,0.0,0.0,0.0,0.0,0.0,0.0,0.0,0.0,0.0,0.0,0.0,0.0,0.0,0.0,0.0,0.0,0.0,0.0
11,0.8156280517578125,30.194443,90.351753,22.880903,0.0,-89.217987,0.097073,28.600037,28.671133,30.191141,89.848618,22.904089,0.0,-89.999718,-0.091755,28.833302,28.958422,3.0,1.0,111.0,0.0,1.0,-78391.0,-25786.0,13699.0,-78136.0,25572.0,13077.0,-0.937248,0.271986,0.218152,-0.30861,-0.938303,-0.156034,0.162253,-0.213566,0.96336,-0.938578,0.274196,-0.209493,0.308011,0.939419,-0.1504,0.155562,-0.205689,-0.966174,-0.937248,0.271986,0.218152,-0.30861,-0.938303,-0.156034,0.162253,-0.213566,0.96336,-0.938578,0.274196,-0.209493,0.308011,0.939419,-0.1504,0.155562,-0.205689,-0.966174,-78391.0,-25786.0,13699.0,-78136.0,25572.0,13077.0,-364.0,693.0,-62731.0,0.0,-26878.0,-21963.0,-19542.0,-22502.0,410.0,-908.0,-2034.0,0.0,-5625.0,-25.0,1116.0,-1875.0,50.0,169.0,-80.0,0.0,-344.0,1433.0,542.0,-31.0,-49.0,-157.0,44.0,0.0,-310.0,548.0,795.0,-865.0,-0.013567,-0.04582,0.021816,0.0,-0.012619,0.052472,-0.019867,-0.001152,-0.013467,-0.042481,0.012112,0.0,-0.011357,0.020054,-0.029104,-0.031688,4112.370117,11513.430664,51474.0625,0.0,-18177.929688,-17695.710938,17954.191406,-17439.210938,4111.92041,11452.230469,51515.28125,0.0,17225.191406,17709.929688,-17451.900391,17971.560547,0.0,0.0,0.0,0.0,0.0,0.0,0.0,0.0,0.0,0.0,0.0,0.0,0.0,0.0,0.0,0.0,0.0,0.0,0.0,0.0,0.0,0.0,0.0,0.0,0.0,0.0,0.0,0.0,0.0,0.0,0.0,0.0,4112.364258,11513.066406,51477.796875,0.0,-18176.761719,-17696.699219,17954.263672,-17438.03125,4111.888184,11452.307617,51515.300781,0.0,17225.910156,17709.751953,-17451.857422,17971.697266,30.194401,90.348763,22.882658,0.0,-89.00119,-0.012744,28.663172,28.7472,30.190901,89.849297,22.904095,0.0,-89.866585,-0.111685,28.847891,28.963551,0.999,1.008,-45329.0,-128620.0,-509203.0,0.0,175099.0,174656.0,-179949.0,171267.0,-45278.0,-128155.0,-574426.0,0.0,-197016.0,-196802.0,192794.0,-201559.0,0.0,0.0,0.0,0.0,0.0,0.0,0.0,0.0,0.0,0.0,0.0,0.0,0.0,0.0,0.0,0.0,0.0,0.0,0.0,0.0,0.0,0.0,0.0,0.0
12,0.8895049095153809,30.194443,90.351753,22.880903,0.0,-89.217987,0.097073,28.600037,28.671133,30.191141,89.848618,22.904089,0.0,-89.999718,-0.091755,28.833302,28.958422,3.0,1.0,111.0,0.0,1.0,-78391.0,-25786.0,13699.0,-78136.0,25572.0,13077.0,-0.937248,0.271986,0.218152,-0.30861,-0.938303,-0.156034,0.162253,-0.213566,0.96336,-0.938578,0.274196,-0.209493,0.308011,0.939419,-0.1504,0.155562,-0.205689,-0.966174,-0.937248,0.271986,0.218152,-0.30861,-0.938303,-0.156034,0.162253,-0.213566,0.96336,-0.938578,0.274196,-0.209493,0.308011,0.939419,-0.1504,0.155562,-0.205689,-0.966174,-78391.0,-25786.0,13699.0,-78136.0,25572.0,13077.0,-364.0,693.0,-62731.0,0.0,-26878.0,-21963.0,-19542.0,-22502.0,410.0,-908.0,-2034.0,0.0,-5625.0,-25.0,1116.0,-1875.0,50.0,169.0,-80.0,0.0,-342.0,1432.0,542.0,-29.0,-49.0,-157.0,44.0,0.0,-309.0,547.0,795.0,-865.0,-0.013567,-0.04582,0.021816,0.0,-0.012543,0.052408,-0.019863,-0.001076,-0.013467,-0.042481,0.012112,0.0,-0.01131,0.020043,-0.029102,-0.03168,4112.370117,11513.430664,51474.0625,0.0,-18177.929688,-17695.710938,17954.191406,-17439.210938,4111.92041,11452.230469,51515.28125,0.0,17225.191406,17709.929688,-17451.900391,17971.560547,0.0,0.0,0.0,0.0,0.0,0.0,0.0,0.0,0.0,0.0,0.0,0.0,0.0,0.0,0.0,0.0,0.0,0.0,0.0,0.0,0.0,0.0,0.0,0.0,0.0,0.0,0.0,0.0,0.0,0.0,0.0,0.0,4112.364258,11513.066406,51477.796875,0.0,-18176.761719,-17696.699219,17954.263672,-17438.03125,4111.888184,11452.307617,51515.300781,0.0,17225.910156,17709.751953,-17451.857422,17971.697266,30.194401,90.348763,22.882658,0.0,-89.00119,-0.012744,28.663172,28.7472,30.190901,89.849297,22.904095,0.0,-89.866585,-0.111685,28.847891,28.963551,0.999,1.008,-45329.0,-128620.0,-509203.0,0.0,175099.0,174656.0,-179949.0,171267.0,-45278.0,-128155.0,-574426.0,0.0,-197016.0,-196802.0,192794.0,-201559.0,0.0,0.0,0.0,0.0,0.0,0.0,0.0,0.0,0.0,0.0,0.0,0.0,0.0,0.0,0.0,0.0,0.0,0.0,0.0,0.0,0.0,0.0,0.0,0.0
13,0.960474967956543,30.194443,90.351753,22.880903,0.0,-89.217987,0.097073,28.600037,28.671133,30.191141,89.848618,22.904089,0.0,-89.999718,-0.091755,28.833302,28.958422,3.0,1.0,111.0,0.0,1.0,-78391.0,-25786.0,13699.0,-78136.0,25572.0,13077.0,-0.937248,0.271986,0.218152,-0.30861,-0.938303,-0.156034,0.162253,-0.213566,0.96336,-0.938578,0.274196,-0.209493,0.308011,0.939419,-0.1504,0.155562,-0.205689,-0.966174,-0.937248,0.271986,0.218152,-0.30861,-0.938303,-0.156034,0.162253,-0.213566,0.96336,-0.938578,0.274196,-0.209493,0.308011,0.939419,-0.1504,0.155562,-0.205689,-0.966174,-78391.0,-25786.0,13699.0,-78136.0,25572.0,13077.0,-364.0,693.0,-62731.0,0.0,-26878.0,-21963.0,-19542.0,-22502.0,410.0,-908.0,-2034.0,0.0,-5625.0,-25.0,1116.0,-1875.0,50.0,169.0,-80.0,0.0,-340.0,1430.0,542.0,-27.0,-49.0,-157.0,44.0,0.0,-307.0,547.0,795.0,-865.0,-0.013567,-0.04582,0.021816,0.0,-0.012471,0.052346,-0.019858,-0.001003,-0.013467,-0.042481,0.012112,0.0,-0.011266,0.020032,-0.029099,-0.031671,4112.370117,11513.430664,51474.0625,0.0,-18177.929688,-17695.710938,17954.191406,-17439.210938,4111.92041,11452.230469,51515.28125,0.0,17225.191406,17709.929688,-17451.900391,17971.560547,0.0,0.0,0.0,0.0,0.0,0.0,0.0,0.0,0.0,0.0,0.0,0.0,0.0,0.0,0.0,0.0,0.0,0.0,0.0,0.0,0.0,0.0,0.0,0.0,0.0,0.0,0.0,0.0,0.0,0.0,0.0,0.0,4112.364258,11513.066406,51477.796875,0.0,-18176.761719,-17696.699219,17954.263672,-17438.03125,4111.888184,11452.307617,51515.300781,0.0,17225.910156,17709.751953,-17451.857422,17971.697266,30.194401,90.348763,22.882658,0.0,-89.00119,-0.012744,28.663172,28.7472,30.190901,89.849297,22.904095,0.0,-89.866585,-0.111685,28.847891,28.963551,0.999,1.008,-45329.0,-128620.0,-509203.0,0.0,175099.0,174656.0,-179949.0,171267.0,-45278.0,-128155.0,-574426.0,0.0,-197016.0,-196802.0,192794.0,-201559.0,0.0,0.0,0.0,0.0,0.0,0.0,0.0,0.0,0.0,0.0,0.0,0.0,0.0,0.0,0.0,0.0,0.0,0.0,0.0,0.0,0.0,0.0,0.0,0.0
14,1.0295579433441162,30.194443,90.351753,22.880903,0.0,-89.217987,0.097073,28.600037,28.671133,30.191141,89.848618,22.904089,0.0,-89.999718,-0.091755,28.833302,28.958422,3.0,1.0,111.0,0.0,1.0,-78391.0,-25786.0,13699.0,-78136.0,25572.0,13077.0,-0.937248,0.271986,0.218152,-0.30861,-0.938303,-0.156034,0.162253,-0.213566,0.96336,-0.938578,0.274196,-0.209493,0.308011,0.939419,-0.1504,0.155562,-0.205689,-0.966174,-0.937248,0.271986,0.218152,-0.30861,-0.938303,-0.156034,0.162253,-0.213566,0.96336,-0.938578,0.274196,-0.209493,0.308011,0.939419,-0.1504,0.155562,-0.205689,-0.966174,-78391.0,-25786.0,13699.0,-78136.0,25572.0,13077.0,-364.0,693.0,-62731.0,0.0,-26878.0,-21963.0,-19542.0,-22502.0,410.0,-908.0,-2034.0,0.0,-5625.0,-25.0,1116.0,-1875.0,50.0,169.0,-80.0,0.0,-338.0,1428.0,542.0,-25.0,-49.0,-157.0,44.0,0.0,-306.0,547.0,795.0,-865.0,-0.013567,-0.04582,0.021816,0.0,-0.0124,0.052287,-0.019854,-0.000932,-0.013467,-0.042481,0.012112,0.0,-0.011223,0.020021,-0.029097,-0.031663,4112.370117,11513.430664,51474.0625,0.0,-18177.929688,-17695.710938,17954.191406,-17439.210938,4111.92041,11452.230469,51515.28125,0.0,17225.191406,17709.929688,-17451.900391,17971.560547,0.0,0.0,0.0,0.0,0.0,0.0,0.0,0.0,0.0,0.0,0.0,0.0,0.0,0.0,0.0,0.0,0.0,0.0,0.0,0.0,0.0,0.0,0.0,0.0,0.0,0.0,0.0,0.0,0.0,0.0,0.0,0.0,4112.364258,11513.066406,51477.796875,0.0,-18176.761719,-17696.699219,17954.263672,-17438.03125,4111.888184,11452.307617,51515.300781,0.0,17225.910156,17709.751953,-17451.857422,17971.697266,30.194401,90.348763,22.882658,0.0,-89.00119,-0.012744,28.663172,28.7472,30.190901,89.849297,22.904095,0.0,-89.866585,-0.111685,28.847891,28.963551,0.999,1.008,-45329.0,-128620.0,-509203.0,0.0,175099.0,174656.0,-179949.0,171267.0,-45278.0,-128155.0,-574426.0,0.0,-197016.0,-196802.0,192794.0,-201559.0,0.0,0.0,0.0,0.0,0.0,0.0,0.0,0.0,0.0,0.0,0.0,0.0,0.0,0.0,0.0,0.0,0.0,0.0,0.0,0.0,0.0,0.0,0.0,0.0
15,1.0987379550933838,30.194443,90.351753,22.880903,0.0,-89.217987,0.097073,28.600037,28.671133,30.191141,89.848618,22.904089,0.0,-89.999718,-0.091755,28.833302,28.958422,3.0,1.0,111.0,0.0,1.0,-78391.0,-25786.0,13699.0,-78136.0,25572.0,13077.0,-0.937248,0.271986,0.218152,-0.30861,-0.938303,-0.156034,0.162253,-0.213566,0.96336,-0.938578,0.274196,-0.209493,0.308011,0.939419,-0.1504,0.155562,-0.205689,-0.966174,-0.937248,0.271986,0.218152,-0.30861,-0.938303,-0.156034,0.162253,-0.213566,0.96336,-0.938578,0.274196,-0.209493,0.308011,0.939419,-0.1504,0.155562,-0.205689,-0.966174,-78391.0,-25786.0,13699.0,-78136.0,25572.0,13077.0,-364.0,693.0,-62731.0,0.0,-26878.0,-21963.0,-19542.0,-22502.0,410.0,-908.0,-2034.0,0.0,-5625.0,-25.0,1116.0,-1875.0,50.0,169.0,-80.0,0.0,-336.0,1427.0,542.0,-23.0,-49.0,-157.0,44.0,0.0,-305.0,546.0,795.0,-865.0,-0.013567,-0.04582,0.021816,0.0,-0.01233,0.052227,-0.019849,-0.000861,-0.013467,-0.042481,0.012112,0.0,-0.011179,0.020011,-0.029094,-0.031655,4112.370117,11513.430664,51474.0625,0.0,-18177.929688,-17695.710938,17954.191406,-17439.210938,4111.92041,11452.230469,51515.28125,0.0,17225.191406,17709.929688,-17451.900391,17971.560547,0.0,0.0,0.0,0.0,0.0,0.0,0.0,0.0,0.0,0.0,0.0,0.0,0.0,0.0,0.0,0.0,0.0,0.0,0.0,0.0,0.0,0.0,0.0,0.0,0.0,0.0,0.0,0.0,0.0,0.0,0.0,0.0,4112.364258,11513.066406,51477.796875,0.0,-18176.761719,-17696.699219,17954.263672,-17438.03125,4111.888184,11452.307617,51515.300781,0.0,17225.910156,17709.751953,-17451.857422,17971.697266,30.194401,90.348763,22.882658,0.0,-89.00119,-0.012744,28.663172,28.7472,30.190901,89.849297,22.904095,0.0,-89.866585,-0.111685,28.847891,28.963551,0.999,1.008,-45329.0,-128620.0,-509203.0,0.0,175099.0,174656.0,-179949.0,171267.0,-45278.0,-128155.0,-574426.0,0.0,-197016.0,-196802.0,192794.0,-201559.0,0.0,0.0,0.0,0.0,0.0,0.0,0.0,0.0,0.0,0.0,0.0,0.0,0.0,0.0,0.0,0.0,0.0,0.0,0.0,0.0,0.0,0.0,0.0,0.0
16,1.169774055480957,30.194443,90.351753,22.880903,0.0,-89.217987,0.097073,28.600037,28.671133,30.191141,89.848618,22.904089,0.0,-89.999718,-0.091755,28.833302,28.958422,3.0,1.0,111.0,0.0,1.0,-78391.0,-25786.0,13699.0,-78136.0,25572.0,13077.0,-0.937248,0.271986,0.218152,-0.30861,-0.938303,-0.156034,0.162253,-0.213566,0.96336,-0.938578,0.274196,-0.209493,0.308011,0.939419,-0.1504,0.155562,-0.205689,-0.966174,-0.937248,0.271986,0.218152,-0.30861,-0.938303,-0.156034,0.162253,-0.213566,0.96336,-0.938578,0.274196,-0.209493,0.308011,0.939419,-0.1504,0.155562,-0.205689,-0.966174,-78391.0,-25786.0,13699.0,-78136.0,25572.0,13077.0,-364.0,693.0,-62731.0,0.0,-26878.0,-21963.0,-19542.0,-22502.0,410.0,-908.0,-2034.0,0.0,-5625.0,-25.0,1116.0,-1875.0,50.0,169.0,-80.0,0.0,-334.0,1425.0,542.0,-21.0,-49.0,-157.0,44.0,0.0,-304.0,546.0,795.0,-864.0,-0.013567,-0.04582,0.021816,0.0,-0.012258,0.052166,-0.019845,-0.000788,-0.013467,-0.042481,0.012112,0.0,-0.011135,0.019999,-0.029092,-0.031646,4112.370117,11513.430664,51474.0625,0.0,-18177.929688,-17695.710938,17954.191406,-17439.210938,4111.92041,11452.230469,51515.28125,0.0,17225.191406,17709.929688,-17451.900391,17971.560547,0.0,0.0,0.0,0.0,0.0,0.0,0.0,0.0,0.0,0.0,0.0,0.0,0.0,0.0,0.0,0.0,0.0,0.0,0.0,0.0,0.0,0.0,0.0,0.0,0.0,0.0,0.0,0.0,0.0,0.0,0.0,0.0,4112.364258,11513.066406,51477.796875,0.0,-18176.761719,-17696.699219,17954.263672,-17438.03125,4111.888184,11452.307617,51515.300781,0.0,17225.910156,17709.751953,-17451.857422,17971.697266,30.194401,90.348763,22.882658,0.0,-89.00119,-0.012744,28.663172,28.7472,30.190901,89.849297,22.904095,0.0,-89.866585,-0.111685,28.847891,28.963551,0.999,1.008,-45329.0,-128620.0,-509203.0,0.0,175099.0,174656.0,-179949.0,171267.0,-45278.0,-128155.0,-574426.0,0.0,-197016.0,-196802.0,192794.0,-201559.0,0.0,0.0,0.0,0.0,0.0,0.0,0.0,0.0,0.0,0.0,0.0,0.0,0.0,0.0,0.0,0.0,0.0,0.0,0.0,0.0,0.0,0.0,0.0,0.0
17,1.2397220134735107,30.194443,90.351753,22.880903,0.0,-89.217987,0.097073,28.600037,28.671133,30.191141,89.848618,22.904089,0.0,-89.999718,-0.091755,28.833302,28.958422,3.0,1.0,111.0,0.0,1.0,-78391.0,-25786.0,13699.0,-78136.0,25572.0,13077.0,-0.937248,0.271986,0.218152,-0.30861,-0.938303,-0.156034,0.162253,-0.213566,0.96336,-0.938578,0.274196,-0.209493,0.308011,0.939419,-0.1504,0.155562,-0.205689,-0.966174,-0.937248,0.271986,0.218152,-0.30861,-0.938303,-0.156034,0.162253,-0.213566,0.96336,-0.938578,0.274196,-0.209493,0.308011,0.939419,-0.1504,0.155562,-0.205689,-0.966174,-78391.0,-25786.0,13699.0,-78136.0,25572.0,13077.0,-364.0,693.0,-62731.0,0.0,-26878.0,-21963.0,-19542.0,-22502.0,410.0,-908.0,-2034.0,0.0,-5625.0,-25.0,1116.0,-1875.0,50.0,169.0,-80.0,0.0,-333.0,1423.0,542.0,-19.0,-49.0,-157.0,44.0,0.0,-303.0,546.0,794.0,-864.0,-0.013567,-0.04582,0.021816,0.0,-0.012187,0.052106,-0.01984,-0.000717,-0.013467,-0.042481,0.012112,0.0,-0.011091,0.019989,-0.029089,-0.031638,4112.370117,11513.430664,51474.0625,0.0,-18177.929688,-17695.710938,17954.191406,-17439.210938,4111.92041,11452.230469,51515.28125,0.0,17225.191406,17709.929688,-17451.900391,17971.560547,0.0,0.0,0.0,0.0,0.0,0.0,0.0,0.0,0.0,0.0,0.0,0.0,0.0,0.0,0.0,0.0,0.0,0.0,0.0,0.0,0.0,0.0,0.0,0.0,0.0,0.0,0.0,0.0,0.0,0.0,0.0,0.0,4112.364258,11513.066406,51477.796875,0.0,-18176.761719,-17696.699219,17954.263672,-17438.03125,4111.888184,11452.307617,51515.300781,0.0,17225.910156,17709.751953,-17451.857422,17971.697266,30.194401,90.348763,22.882658,0.0,-89.00119,-0.012744,28.663172,28.7472,30.190901,89.849297,22.904095,0.0,-89.866585,-0.111685,28.847891,28.963551,0.999,1.008,-45329.0,-128620.0,-509203.0,0.0,175099.0,174656.0,-179949.0,171267.0,-45278.0,-128155.0,-574426.0,0.0,-197016.0,-196802.0,192794.0,-201559.0,0.0,0.0,0.0,0.0,0.0,0.0,0.0,0.0,0.0,0.0,0.0,0.0,0.0,0.0,0.0,0.0,0.0,0.0,0.0,0.0,0.0,0.0,0.0,0.0
18,1.313575029373169,30.194443,90.351753,22.880903,0.0,-89.217987,0.097073,28.600037,28.671133,30.191141,89.848618,22.904089,0.0,-89.983185,-0.091755,28.833302,28.958422,3.0,1.0,111.0,0.0,1.0,-78391.0,-25786.0,13699.0,-78136.0,25572.0,13077.0,-0.937248,0.271986,0.218152,-0.30861,-0.938303,-0.156034,0.162253,-0.213566,0.96336,-0.938578,0.274257,-0.209414,0.308012,0.939463,-0.150129,0.155563,-0.20541,-0.966233,-0.937248,0.271986,0.218152,-0.30861,-0.938303,-0.156034,0.162253,-0.213566,0.96336,-0.938578,0.274257,-0.209414,0.308012,0.939463,-0.150129,0.155563,-0.20541,-0.966233,-78391.0,-25786.0,13699.0,-78136.0,25572.0,13077.0,-364.0,693.0,-62731.0,0.0,-26878.0,-21963.0,-19542.0,-22502.0,410.0,-908.0,-2034.0,0.0,-5624.0,-25.0,1116.0,-1875.0,50.0,169.0,-80.0,0.0,-330.0,1422.0,542.0,-17.0,-49.0,-157.0,44.0,0.0,-305.0,545.0,794.0,-864.0,-0.013567,-0.04582,0.021816,0.0,-0.012112,0.052042,-0.019836,-0.000641,-0.013467,-0.042481,0.012112,0.0,-0.011187,0.019977,-0.029086,-0.031629,4112.370117,11513.430664,51474.0625,0.0,-18177.929688,-17695.710938,17954.191406,-17439.210938,4111.92041,11452.230469,51515.28125,0.0,17225.279297,17709.929688,-17451.900391,17971.560547,0.0,0.0,0.0,0.0,0.0,0.0,0.0,0.0,0.0,0.0,0.0,0.0,0.0,0.0,0.0,0.0,0.0,0.0,0.0,0.0,0.0,0.0,0.0,0.0,0.0,0.0,0.0,0.0,0.0,0.0,0.0,0.0,4112.364258,11513.066406,51477.796875,0.0,-18176.761719,-17696.699219,17954.263672,-17438.03125,4111.888184,11452.307617,51515.300781,0.0,17225.910156,17709.751953,-17451.857422,17971.697266,30.194401,90.348763,22.882658,0.0,-89.00119,-0.012744,28.663172,28.7472,30.190901,89.849297,22.904095,0.0,-89.866585,-0.111685,28.847891,28.963551,0.999,1.008,-45329.0,-128620.0,-509203.0,0.0,175099.0,174656.0,-179949.0,171267.0,-45278.0,-128155.0,-574426.0,0.0,-197016.0,-196802.0,192794.0,-201559.0,0.0,0.0,0.0,0.0,0.0,0.0,0.0,0.0,0.0,0.0,0.0,0.0,0.0,0.0,0.0,0.0,0.0,0.0,0.0,0.0,0.0,0.0,0.0,0.0
19,1.3846549987792969,30.194443,90.351753,22.880903,0.0,-89.217987,0.097073,28.600037,28.671133,30.191141,89.848618,22.904089,0.0,-89.983185,-0.091755,28.833302,28.958422,3.0,1.0,111.0,0.0,1.0,-78391.0,-25786.0,13699.0,-78136.0,25572.0,13077.0,-0.937248,0.271986,0.218152,-0.30861,-0.938303,-0.156034,0.162253,-0.213566,0.96336,-0.938578,0.274257,-0.209414,0.308012,0.939463,-0.150129,0.155563,-0.20541,-0.966233,-0.937248,0.271986,0.218152,-0.30861,-0.938303,-0.156034,0.162253,-0.213566,0.96336,-0.938578,0.274257,-0.209414,0.308012,0.939463,-0.150129,0.155563,-0.20541,-0.966233,-78391.0,-25786.0,13699.0,-78136.0,25572.0,13077.0,-364.0,693.0,-62731.0,0.0,-26878.0,-21963.0,-19542.0,-22502.0,410.0,-908.0,-2034.0,0.0,-5624.0,-25.0,1116.0,-1875.0,50.0,169.0,-80.0,0.0,-329.0,1420.0,541.0,-15.0,-49.0,-157.0,44.0,0.0,-304.0,545.0,794.0,-864.0,-0.013567,-0.04582,0.021816,0.0,-0.012039,0.051981,-0.019831,-0.000568,-0.013467,-0.042481,0.012112,0.0,-0.011148,0.019966,-0.029084,-0.031621,4112.370117,11513.430664,51474.0625,0.0,-18177.929688,-17695.710938,17954.191406,-17439.210938,4111.92041,11452.230469,51515.28125,0.0,17225.279297,17709.929688,-17451.900391,17971.560547,0.0,0.0,0.0,0.0,0.0,0.0,0.0,0.0,0.0,0.0,0.0,0.0,0.0,0.0,0.0,0.0,0.0,0.0,0.0,0.0,0.0,0.0,0.0,0.0,0.0,0.0,0.0,0.0,0.0,0.0,0.0,0.0,4112.364258,11513.066406,51477.796875,0.0,-18176.761719,-17696.699219,17954.263672,-17438.03125,4111.888184,11452.307617,51515.300781,0.0,17225.910156,17709.751953,-17451.857422,17971.697266,30.194401,90.348763,22.882658,0.0,-89.00119,-0.012744,28.663172,28.7472,30.190901,89.849297,22.904095,0.0,-89.866585,-0.111685,28.847891,28.963551,0.999,1.008,-45329.0,-128620.0,-509203.0,0.0,175099.0,174656.0,-179949.0,171267.0,-45278.0,-128155.0,-574426.0,0.0,-197016.0,-196802.0,192794.0,-201559.0,0.0,0.0,0.0,0.0,0.0,0.0,0.0,0.0,0.0,0.0,0.0,0.0,0.0,0.0,0.0,0.0,0.0,0.0,0.0,0.0,0.0,0.0,0.0,0.0
20,1.4546570777893066,30.194443,90.351753,22.880903,0.0,-89.217987,0.097073,28.600037,28.671133,30.191141,89.848618,22.904089,0.0,-89.983185,-0.091755,28.833302,28.958422,3.0,1.0,111.0,0.0,1.0,-78391.0,-25786.0,13699.0,-78136.0,25572.0,13077.0,-0.937248,0.271986,0.218152,-0.30861,-0.938303,-0.156034,0.162253,-0.213566,0.96336,-0.938578,0.274257,-0.209414,0.308012,0.939463,-0.150129,0.155563,-0.20541,-0.966233,-0.937248,0.271986,0.218152,-0.30861,-0.938303,-0.156034,0.162253,-0.213566,0.96336,-0.938578,0.274257,-0.209414,0.308012,0.939463,-0.150129,0.155563,-0.20541,-0.966233,-78391.0,-25786.0,13699.0,-78136.0,25572.0,13077.0,-364.0,693.0,-62731.0,0.0,-26878.0,-21963.0,-19542.0,-22502.0,410.0,-908.0,-2034.0,0.0,-5624.0,-25.0,1116.0,-1875.0,50.0,169.0,-80.0,0.0,-327.0,1418.0,541.0,-13.0,-49.0,-157.0,44.0,0.0,-303.0,545.0,794.0,-863.0,-0.013567,-0.04582,0.021816,0.0,-0.011968,0.05192,-0.019827,-0.000496,-0.013467,-0.042481,0.012112,0.0,-0.01111,0.019955,-0.029081,-0.031612,4112.370117,11513.430664,51474.0625,0.0,-18177.929688,-17695.710938,17954.191406,-17439.210938,4111.92041,11452.230469,51515.28125,0.0,17225.279297,17709.929688,-17451.900391,17971.560547,0.0,0.0,0.0,0.0,0.0,0.0,0.0,0.0,0.0,0.0,0.0,0.0,0.0,0.0,0.0,0.0,0.0,0.0,0.0,0.0,0.0,0.0,0.0,0.0,0.0,0.0,0.0,0.0,0.0,0.0,0.0,0.0,4112.364258,11513.066406,51477.796875,0.0,-18176.761719,-17696.699219,17954.263672,-17438.03125,4111.888184,11452.307617,51515.300781,0.0,17225.910156,17709.751953,-17451.857422,17971.697266,30.194401,90.348763,22.882658,0.0,-89.00119,-0.012744,28.663172,28.7472,30.190901,89.849297,22.904095,0.0,-89.866585,-0.111685,28.847891,28.963551,0.999,1.008,-45329.0,-128620.0,-509203.0,0.0,175099.0,174656.0,-179949.0,171267.0,-45278.0,-128155.0,-574426.0,0.0,-197016.0,-196802.0,192794.0,-201559.0,0.0,0.0,0.0,0.0,0.0,0.0,0.0,0.0,0.0,0.0,0.0,0.0,0.0,0.0,0.0,0.0,0.0,0.0,0.0,0.0,0.0,0.0,0.0,0.0
21,1.5265769958496094,30.194443,90.351753,22.880903,0.0,-89.217987,0.097073,28.600037,28.671133,30.191141,89.848618,22.904089,0.0,-89.983185,-0.091755,28.833302,28.958422,3.0,1.0,111.0,0.0,1.0,-78391.0,-25786.0,13699.0,-78136.0,25572.0,13077.0,-0.937248,0.271986,0.218152,-0.30861,-0.938303,-0.156034,0.162253,-0.213566,0.96336,-0.938578,0.274257,-0.209414,0.308012,0.939463,-0.150129,0.155563,-0.20541,-0.966233,-0.937248,0.271986,0.218152,-0.30861,-0.938303,-0.156034,0.162253,-0.213566,0.96336,-0.938578,0.274257,-0.209414,0.308012,0.939463,-0.150129,0.155563,-0.20541,-0.966233,-78391.0,-25786.0,13699.0,-78136.0,25572.0,13077.0,-364.0,693.0,-62731.0,0.0,-26878.0,-21963.0,-19542.0,-22502.0,410.0,-908.0,-2034.0,0.0,-5624.0,-25.0,1116.0,-1875.0,50.0,169.0,-80.0,0.0,-325.0,1417.0,541.0,-11.0,-49.0,-157.0,44.0,0.0,-302.0,545.0,794.0,-863.0,-0.013567,-0.04582,0.021816,0.0,-0.011894,0.051858,-0.019822,-0.000422,-0.013467,-0.042481,0.012112,0.0,-0.01107,0.019944,-0.029079,-0.031604,4112.370117,11513.430664,51474.0625,0.0,-18177.929688,-17695.710938,17954.191406,-17439.210938,4111.92041,11452.230469,51515.28125,0.0,17225.279297,17709.929688,-17451.900391,17971.560547,0.0,0.0,0.0,0.0,0.0,0.0,0.0,0.0,0.0,0.0,0.0,0.0,0.0,0.0,0.0,0.0,0.0,0.0,0.0,0.0,0.0,0.0,0.0,0.0,0.0,0.0,0.0,0.0,0.0,0.0,0.0,0.0,4112.364258,11513.066406,51477.796875,0.0,-18176.761719,-17696.699219,17954.263672,-17438.03125,4111.888184,11452.307617,51515.300781,0.0,17225.910156,17709.751953,-17451.857422,17971.697266,30.194401,90.348763,22.882658,0.0,-89.00119,-0.012744,28.663172,28.7472,30.190901,89.849297,22.904095,0.0,-89.866585,-0.111685,28.847891,28.963551,0.999,1.008,-45329.0,-128620.0,-509203.0,0.0,175099.0,174656.0,-179949.0,171267.0,-45278.0,-128155.0,-574426.0,0.0,-197016.0,-196802.0,192794.0,-201559.0,0.0,0.0,0.0,0.0,0.0,0.0,0.0,0.0,0.0,0.0,0.0,0.0,0.0,0.0,0.0,0.0,0.0,0.0,0.0,0.0,0.0,0.0,0.0,0.0
22,1.6035749912261963,30.194443,90.351753,22.880903,0.0,-89.217987,0.097073,28.600037,28.671133,30.191141,89.848618,22.904089,0.0,-89.983185,-0.091755,28.833302,28.958422,3.0,1.0,111.0,0.0,1.0,-78391.0,-25786.0,13699.0,-78136.0,25572.0,13077.0,-0.937248,0.271986,0.218152,-0.30861,-0.938303,-0.156034,0.162253,-0.213566,0.96336,-0.938578,0.274257,-0.209414,0.308012,0.939463,-0.150129,0.155563,-0.20541,-0.966233,-0.937248,0.271986,0.218152,-0.30861,-0.938303,-0.156034,0.162253,-0.213566,0.96336,-0.938578,0.274257,-0.209414,0.308012,0.939463,-0.150129,0.155563,-0.20541,-0.966233,-78391.0,-25786.0,13699.0,-78136.0,25572.0,13077.0,-364.0,693.0,-62731.0,0.0,-26878.0,-21963.0,-19542.0,-22502.0,410.0,-908.0,-2034.0,0.0,-5624.0,-25.0,1116.0,-1875.0,50.0,169.0,-80.0,0.0,-322.0,1415.0,541.0,-9.0,-49.0,-157.0,44.0,0.0,-301.0,544.0,794.0,-863.0,-0.013567,-0.04582,0.021816,0.0,-0.011816,0.051791,-0.019817,-0.000343,-0.013467,-0.042481,0.012112,0.0,-0.011028,0.019932,-0.029076,-0.031595,4112.370117,11513.430664,51474.0625,0.0,-18177.929688,-17695.710938,17954.191406,-17439.210938,4111.92041,11452.230469,51515.28125,0.0,17225.279297,17709.929688,-17451.900391,17971.560547,0.0,0.0,0.0,0.0,0.0,0.0,0.0,0.0,0.0,0.0,0.0,0.0,0.0,0.0,0.0,0.0,0.0,0.0,0.0,0.0,0.0,0.0,0.0,0.0,0.0,0.0,0.0,0.0,0.0,0.0,0.0,0.0,4112.364258,11513.066406,51477.796875,0.0,-18176.761719,-17696.699219,17954.263672,-17438.03125,4111.888184,11452.307617,51515.300781,0.0,17225.910156,17709.751953,-17451.857422,17971.697266,30.194401,90.348763,22.882658,0.0,-89.00119,-0.012744,28.663172,28.7472,30.190901,89.849297,22.904095,0.0,-89.866585,-0.111685,28.847891,28.963551,0.999,1.008,-45329.0,-128620.0,-509203.0,0.0,175099.0,174656.0,-179949.0,171267.0,-45278.0,-128155.0,-574426.0,0.0,-197016.0,-196802.0,192794.0,-201559.0,0.0,0.0,0.0,0.0,0.0,0.0,0.0,0.0,0.0,0.0,0.0,0.0,0.0,0.0,0.0,0.0,0.0,0.0,0.0,0.0,0.0,0.0,0.0,0.0
23,1.6745750904083252,30.194443,90.351753,22.880903,0.0,-89.217987,0.097073,28.600037,28.671133,30.191141,89.848618,22.904089,0.0,-89.983185,-0.091755,28.833302,28.958422,3.0,1.0,111.0,0.0,1.0,-78391.0,-25786.0,13699.0,-78136.0,25572.0,13077.0,-0.937248,0.271986,0.218152,-0.30861,-0.938303,-0.156034,0.162253,-0.213566,0.96336,-0.938578,0.274257,-0.209414,0.308012,0.939463,-0.150129,0.155563,-0.20541,-0.966233,-0.937248,0.271986,0.218152,-0.30861,-0.938303,-0.156034,0.162253,-0.213566,0.96336,-0.938578,0.274257,-0.209414,0.308012,0.939463,-0.150129,0.155563,-0.20541,-0.966233,-78391.0,-25786.0,13699.0,-78136.0,25572.0,13077.0,-364.0,693.0,-62731.0,0.0,-26878.0,-21963.0,-19542.0,-22502.0,410.0,-908.0,-2034.0,0.0,-5624.0,-25.0,1116.0,-1875.0,50.0,169.0,-80.0,0.0,-320.0,1413.0,541.0,-7.0,-49.0,-157.0,44.0,0.0,-300.0,544.0,794.0,-863.0,-0.013567,-0.04582,0.021816,0.0,-0.011743,0.05173,-0.019812,-0.00027,-0.013467,-0.042481,0.012112,0.0,-0.010989,0.019921,-0.029074,-0.031586,4112.370117,11513.430664,51474.0625,0.0,-18177.929688,-17695.710938,17954.191406,-17439.210938,4111.92041,11452.230469,51515.28125,0.0,17225.279297,17709.929688,-17451.900391,17971.560547,0.0,0.0,0.0,0.0,0.0,0.0,0.0,0.0,0.0,0.0,0.0,0.0,0.0,0.0,0.0,0.0,0.0,0.0,0.0,0.0,0.0,0.0,0.0,0.0,0.0,0.0,0.0,0.0,0.0,0.0,0.0,0.0,4112.364258,11513.066406,51477.796875,0.0,-18176.761719,-17696.699219,17954.263672,-17438.03125,4111.888184,11452.307617,51515.300781,0.0,17225.910156,17709.751953,-17451.857422,17971.697266,30.194401,90.348763,22.882658,0.0,-89.00119,-0.012744,28.663172,28.7472,30.190901,89.849297,22.904095,0.0,-89.866585,-0.111685,28.847891,28.963551,0.999,1.008,-45329.0,-128620.0,-509203.0,0.0,175099.0,174656.0,-179949.0,171267.0,-45278.0,-128155.0,-574426.0,0.0,-197016.0,-196802.0,192794.0,-201559.0,0.0,0.0,0.0,0.0,0.0,0.0,0.0,0.0,0.0,0.0,0.0,0.0,0.0,0.0,0.0,0.0,0.0,0.0,0.0,0.0,0.0,0.0,0.0,0.0
24,1.7435719966888428,30.194443,90.351753,22.880903,0.0,-89.217987,0.097073,28.600037,28.671133,30.191141,89.848618,22.904089,0.0,-89.983185,-0.091755,28.833302,28.958422,3.0,1.0,111.0,0.0,1.0,-78391.0,-25786.0,13699.0,-78136.0,25572.0,13077.0,-0.937248,0.271986,0.218152,-0.30861,-0.938303,-0.156034,0.162253,-0.213566,0.96336,-0.938578,0.274257,-0.209414,0.308012,0.939463,-0.150129,0.155563,-0.20541,-0.966233,-0.937248,0.271986,0.218152,-0.30861,-0.938303,-0.156034,0.162253,-0.213566,0.96336,-0.938578,0.274257,-0.209414,0.308012,0.939463,-0.150129,0.155563,-0.20541,-0.966233,-78391.0,-25786.0,13699.0,-78136.0,25572.0,13077.0,-364.0,693.0,-62731.0,0.0,-26878.0,-21963.0,-19542.0,-22502.0,410.0,-908.0,-2034.0,0.0,-5624.0,-25.0,1116.0,-1875.0,50.0,169.0,-80.0,0.0,-318.0,1412.0,541.0,-5.0,-49.0,-157.0,44.0,0.0,-299.0,544.0,794.0,-862.0,-0.013567,-0.04582,0.021816,0.0,-0.011673,0.05167,-0.019808,-0.000199,-0.013467,-0.042481,0.012112,0.0,-0.010951,0.019911,-0.029071,-0.031578,4112.370117,11513.430664,51474.0625,0.0,-18177.929688,-17695.710938,17954.191406,-17439.210938,4111.92041,11452.230469,51515.28125,0.0,17225.279297,17709.929688,-17451.900391,17971.560547,0.0,0.0,0.0,0.0,0.0,0.0,0.0,0.0,0.0,0.0,0.0,0.0,0.0,0.0,0.0,0.0,0.0,0.0,0.0,0.0,0.0,0.0,0.0,0.0,0.0,0.0,0.0,0.0,0.0,0.0,0.0,0.0,4112.364258,11513.066406,51477.796875,0.0,-18176.761719,-17696.699219,17954.263672,-17438.03125,4111.888184,11452.307617,51515.300781,0.0,17225.910156,17709.751953,-17451.857422,17971.697266,30.194401,90.348763,22.882658,0.0,-89.00119,-0.012744,28.663172,28.7472,30.190901,89.849297,22.904095,0.0,-89.866585,-0.111685,28.847891,28.963551,0.999,1.008,-45329.0,-128620.0,-509203.0,0.0,175099.0,174656.0,-179949.0,171267.0,-45278.0,-128155.0,-574426.0,0.0,-197016.0,-196802.0,192794.0,-201559.0,0.0,0.0,0.0,0.0,0.0,0.0,0.0,0.0,0.0,0.0,0.0,0.0,0.0,0.0,0.0,0.0,0.0,0.0,0.0,0.0,0.0,0.0,0.0,0.0
25,1.816565990447998,30.194443,90.351753,22.880903,0.0,-89.217987,0.097073,28.600037,28.671133,30.191141,89.848618,22.904089,0.0,-89.983185,-0.091755,28.833302,28.958422,3.0,1.0,111.0,0.0,1.0,-78391.0,-25786.0,13699.0,-78136.0,25572.0,13077.0,-0.937248,0.271986,0.218152,-0.30861,-0.938303,-0.156034,0.162253,-0.213566,0.96336,-0.938578,0.274257,-0.209414,0.308012,0.939463,-0.150129,0.155563,-0.20541,-0.966233,-0.937248,0.271986,0.218152,-0.30861,-0.938303,-0.156034,0.162253,-0.213566,0.96336,-0.938578,0.274257,-0.209414,0.308012,0.939463,-0.150129,0.155563,-0.20541,-0.966233,-78391.0,-25786.0,13699.0,-78136.0,25572.0,13077.0,-364.0,693.0,-62731.0,0.0,-26878.0,-21963.0,-19542.0,-22502.0,410.0,-908.0,-2034.0,0.0,-5624.0,-25.0,1116.0,-1875.0,50.0,169.0,-80.0,0.0,-316.0,1410.0,541.0,-3.0,-49.0,-157.0,44.0,0.0,-298.0,543.0,794.0,-862.0,-0.013567,-0.04582,0.021816,0.0,-0.011598,0.051607,-0.019803,-0.000124,-0.013467,-0.042481,0.012112,0.0,-0.010911,0.019899,-0.029068,-0.031569,4112.370117,11513.430664,51474.0625,0.0,-18177.929688,-17695.710938,17954.191406,-17439.210938,4111.92041,11452.230469,51515.28125,0.0,17225.279297,17709.929688,-17451.900391,17971.560547,0.0,0.0,0.0,0.0,0.0,0.0,0.0,0.0,0.0,0.0,0.0,0.0,0.0,0.0,0.0,0.0,0.0,0.0,0.0,0.0,0.0,0.0,0.0,0.0,0.0,0.0,0.0,0.0,0.0,0.0,0.0,0.0,4112.364258,11513.066406,51477.796875,0.0,-18176.761719,-17696.699219,17954.263672,-17438.03125,4111.888184,11452.307617,51515.300781,0.0,17225.910156,17709.751953,-17451.857422,17971.697266,30.194401,90.348763,22.882658,0.0,-89.00119,-0.012744,28.663172,28.7472,30.190901,89.849297,22.904095,0.0,-89.866585,-0.111685,28.847891,28.963551,0.999,1.008,-45329.0,-128620.0,-509203.0,0.0,175099.0,174656.0,-179949.0,171267.0,-45278.0,-128155.0,-574426.0,0.0,-197016.0,-196802.0,192794.0,-201559.0,0.0,0.0,0.0,0.0,0.0,0.0,0.0,0.0,0.0,0.0,0.0,0.0,0.0,0.0,0.0,0.0,0.0,0.0,0.0,0.0,0.0,0.0,0.0,0.0
26,1.8905670642852783,30.194443,90.351753,22.880903,0.0,-89.217987,0.097073,28.600037,28.671133,30.191141,89.848618,22.904089,0.0,-89.983185,-0.091755,28.833302,28.958422,3.0,1.0,111.0,0.0,1.0,-78391.0,-25786.0,13699.0,-78136.0,25572.0,13077.0,-0.937248,0.271986,0.218152,-0.30861,-0.938303,-0.156034,0.162253,-0.213566,0.96336,-0.938578,0.274257,-0.209414,0.308012,0.939463,-0.150129,0.155563,-0.20541,-0.966233,-0.937248,0.271986,0.218152,-0.30861,-0.938303,-0.156034,0.162253,-0.213566,0.96336,-0.938578,0.274257,-0.209414,0.308012,0.939463,-0.150129,0.155563,-0.20541,-0.966233,-78391.0,-25786.0,13699.0,-78136.0,25572.0,13077.0,-364.0,693.0,-62731.0,0.0,-26878.0,-21963.0,-19542.0,-22502.0,410.0,-908.0,-2034.0,0.0,-5624.0,-25.0,1116.0,-1875.0,50.0,169.0,-80.0,0.0,-314.0,1408.0,541.0,-1.0,-49.0,-157.0,44.0,0.0,-297.0,543.0,794.0,-862.0,-0.013567,-0.04582,0.021816,0.0,-0.011523,0.051543,-0.019799,-4.7e-05,-0.013467,-0.042481,0.012112,0.0,-0.01087,0.019888,-0.029066,-0.03156,4112.370117,11513.430664,51474.0625,0.0,-18177.929688,-17695.710938,17954.191406,-17439.210938,4111.92041,11452.230469,51515.28125,0.0,17225.279297,17709.929688,-17451.900391,17971.560547,0.0,0.0,0.0,0.0,0.0,0.0,0.0,0.0,0.0,0.0,0.0,0.0,0.0,0.0,0.0,0.0,0.0,0.0,0.0,0.0,0.0,0.0,0.0,0.0,0.0,0.0,0.0,0.0,0.0,0.0,0.0,0.0,4112.364258,11513.066406,51477.796875,0.0,-18176.761719,-17696.699219,17954.263672,-17438.03125,4111.888184,11452.307617,51515.300781,0.0,17225.910156,17709.751953,-17451.857422,17971.697266,30.194401,90.348763,22.882658,0.0,-89.00119,-0.012744,28.663172,28.7472,30.190901,89.849297,22.904095,0.0,-89.866585,-0.111685,28.847891,28.963551,0.999,1.008,-45329.0,-128620.0,-509203.0,0.0,175099.0,174656.0,-179949.0,171267.0,-45278.0,-128155.0,-574426.0,0.0,-197016.0,-196802.0,192794.0,-201559.0,0.0,0.0,0.0,0.0,0.0,0.0,0.0,0.0,0.0,0.0,0.0,0.0,0.0,0.0,0.0,0.0,0.0,0.0,0.0,0.0,0.0,0.0,0.0,0.0
27,1.9625720977783203,30.194443,90.351753,22.880903,0.0,-89.217987,0.097073,28.600037,28.671133,30.191141,89.848618,22.904089,0.0,-89.983185,-0.091755,28.833302,28.958422,3.0,1.0,111.0,0.0,1.0,-78391.0,-25786.0,13699.0,-78136.0,25572.0,13077.0,-0.937248,0.271986,0.218152,-0.30861,-0.938303,-0.156034,0.162253,-0.213566,0.96336,-0.938578,0.274257,-0.209414,0.308012,0.939463,-0.150129,0.155563,-0.20541,-0.966233,-0.937248,0.271986,0.218152,-0.30861,-0.938303,-0.156034,0.162253,-0.213566,0.96336,-0.938578,0.274257,-0.209414,0.308012,0.939463,-0.150129,0.155563,-0.20541,-0.966233,-78391.0,-25786.0,13699.0,-78136.0,25572.0,13077.0,-364.0,693.0,-62731.0,0.0,-26878.0,-21963.0,-19542.0,-22502.0,410.0,-908.0,-2034.0,0.0,-5624.0,-25.0,1116.0,-1875.0,50.0,169.0,-80.0,0.0,-312.0,1406.0,540.0,0.0,-49.0,-157.0,44.0,0.0,-295.0,543.0,794.0,-862.0,-0.013567,-0.04582,0.021816,0.0,-0.011449,0.051481,-0.019794,2.7e-05,-0.013467,-0.042481,0.012112,0.0,-0.010831,0.019877,-0.029063,-0.031552,4112.370117,11513.430664,51474.0625,0.0,-18177.929688,-17695.710938,17954.191406,-17439.210938,4111.92041,11452.230469,51515.28125,0.0,17225.279297,17709.929688,-17451.900391,17971.560547,0.0,0.0,0.0,0.0,0.0,0.0,0.0,0.0,0.0,0.0,0.0,0.0,0.0,0.0,0.0,0.0,0.0,0.0,0.0,0.0,0.0,0.0,0.0,0.0,0.0,0.0,0.0,0.0,0.0,0.0,0.0,0.0,4112.364258,11513.066406,51477.796875,0.0,-18176.761719,-17696.699219,17954.263672,-17438.03125,4111.888184,11452.307617,51515.300781,0.0,17225.910156,17709.751953,-17451.857422,17971.697266,30.194401,90.348763,22.882658,0.0,-89.00119,-0.012744,28.663172,28.7472,30.190901,89.849297,22.904095,0.0,-89.866585,-0.111685,28.847891,28.963551,0.999,1.008,-45329.0,-128620.0,-509203.0,0.0,175099.0,174656.0,-179949.0,171267.0,-45278.0,-128155.0,-574426.0,0.0,-197016.0,-196802.0,192794.0,-201559.0,0.0,0.0,0.0,0.0,0.0,0.0,0.0,0.0,0.0,0.0,0.0,0.0,0.0,0.0,0.0,0.0,0.0,0.0,0.0,0.0,0.0,0.0,0.0,0.0
28,2.0366101264953613,30.194443,90.351753,22.880903,0.0,-89.217987,0.097073,28.600037,28.671133,30.191141,89.848618,22.904089,0.0,-89.983185,-0.091755,28.833302,28.958422,3.0,1.0,111.0,0.0,1.0,-78391.0,-25786.0,13699.0,-78136.0,25572.0,13077.0,-0.937248,0.271986,0.218152,-0.30861,-0.938303,-0.156034,0.162253,-0.213566,0.96336,-0.938578,0.274257,-0.209414,0.308012,0.939463,-0.150129,0.155563,-0.20541,-0.966233,-0.937248,0.271986,0.218152,-0.30861,-0.938303,-0.156034,0.162253,-0.213566,0.96336,-0.938578,0.274257,-0.209414,0.308012,0.939463,-0.150129,0.155563,-0.20541,-0.966233,-78391.0,-25786.0,13699.0,-78136.0,25572.0,13077.0,-364.0,693.0,-62731.0,0.0,-26878.0,-21963.0,-19542.0,-22502.0,410.0,-908.0,-2034.0,0.0,-5624.0,-25.0,1116.0,-1875.0,50.0,169.0,-80.0,0.0,-310.0,1405.0,540.0,2.0,-49.0,-157.0,44.0,0.0,-294.0,542.0,794.0,-862.0,-0.013567,-0.04582,0.021816,0.0,-0.011374,0.051417,-0.019789,0.000103,-0.013467,-0.042481,0.012112,0.0,-0.01079,0.019865,-0.029061,-0.031543,4112.370117,11513.430664,51474.0625,0.0,-18177.929688,-17695.710938,17954.191406,-17439.210938,4111.92041,11452.230469,51515.28125,0.0,17225.279297,17709.929688,-17451.900391,17971.560547,0.0,0.0,0.0,0.0,0.0,0.0,0.0,0.0,0.0,0.0,0.0,0.0,0.0,0.0,0.0,0.0,0.0,0.0,0.0,0.0,0.0,0.0,0.0,0.0,0.0,0.0,0.0,0.0,0.0,0.0,0.0,0.0,4112.364258,11513.066406,51477.796875,0.0,-18176.761719,-17696.699219,17954.263672,-17438.03125,4111.888184,11452.307617,51515.300781,0.0,17225.910156,17709.751953,-17451.857422,17971.697266,30.194401,90.348763,22.882658,0.0,-89.00119,-0.012744,28.663172,28.7472,30.190901,89.849297,22.904095,0.0,-89.866585,-0.111685,28.847891,28.963551,0.999,1.008,-45329.0,-128620.0,-509203.0,0.0,175099.0,174656.0,-179949.0,171267.0,-45278.0,-128155.0,-574426.0,0.0,-197016.0,-196802.0,192794.0,-201559.0,0.0,0.0,0.0,0.0,0.0,0.0,0.0,0.0,0.0,0.0,0.0,0.0,0.0,0.0,0.0,0.0,0.0,0.0,0.0,0.0,0.0,0.0,0.0,0.0
29,2.1085760593414307,30.194443,90.351753,22.880903,0.0,-89.217987,0.097073,28.600037,28.671133,30.191141,89.848618,22.904089,0.0,-89.983185,-0.091755,28.833302,28.958422,3.0,1.0,111.0,0.0,1.0,-78391.0,-25786.0,13699.0,-78136.0,25572.0,13077.0,-0.937248,0.271986,0.218152,-0.30861,-0.938303,-0.156034,0.162253,-0.213566,0.96336,-0.938578,0.274257,-0.209414,0.308012,0.939463,-0.150129,0.155563,-0.20541,-0.966233,-0.937248,0.271986,0.218152,-0.30861,-0.938303,-0.156034,0.162253,-0.213566,0.96336,-0.938578,0.274257,-0.209414,0.308012,0.939463,-0.150129,0.155563,-0.20541,-0.966233,-78391.0,-25786.0,13699.0,-78136.0,25572.0,13077.0,-364.0,693.0,-62731.0,0.0,-26878.0,-21963.0,-19542.0,-22502.0,410.0,-908.0,-2034.0,0.0,-5624.0,-25.0,1116.0,-1875.0,50.0,169.0,-80.0,0.0,-308.0,1403.0,540.0,4.0,-49.0,-157.0,44.0,0.0,-293.0,542.0,794.0,-861.0,-0.013567,-0.04582,0.021816,0.0,-0.0113,0.051355,-0.019785,0.000177,-0.013467,-0.042481,0.012112,0.0,-0.01075,0.019854,-0.029058,-0.031534,4112.370117,11513.430664,51474.0625,0.0,-18177.929688,-17695.710938,17954.191406,-17439.210938,4111.92041,11452.230469,51515.28125,0.0,17225.279297,17709.929688,-17451.900391,17971.560547,0.0,0.0,0.0,0.0,0.0,0.0,0.0,0.0,0.0,0.0,0.0,0.0,0.0,0.0,0.0,0.0,0.0,0.0,0.0,0.0,0.0,0.0,0.0,0.0,0.0,0.0,0.0,0.0,0.0,0.0,0.0,0.0,4112.364258,11513.066406,51477.796875,0.0,-18176.761719,-17696.699219,17954.263672,-17438.03125,4111.888184,11452.307617,51515.300781,0.0,17225.910156,17709.751953,-17451.857422,17971.697266,30.194401,90.348763,22.882658,0.0,-89.00119,-0.012744,28.663172,28.7472,30.190901,89.849297,22.904095,0.0,-89.866585,-0.111685,28.847891,28.963551,0.999,1.008,-45329.0,-128620.0,-509203.0,0.0,175099.0,174656.0,-179949.0,171267.0,-45278.0,-128155.0,-574426.0,0.0,-197016.0,-196802.0,192794.0,-201559.0,0.0,0.0,0.0,0.0,0.0,0.0,0.0,0.0,0.0,0.0,0.0,0.0,0.0,0.0,0.0,0.0,0.0,0.0,0.0,0.0,0.0,0.0,0.0,0.0
30,2.1836020946502686,30.194443,90.351753,22.880903,0.0,-89.217987,0.097073,28.600037,28.671133,30.191141,89.848618,22.904089,0.0,-89.983185,-0.091755,28.833302,28.958422,3.0,1.0,111.0,0.0,1.0,-78391.0,-25786.0,13699.0,-78136.0,25572.0,13077.0,-0.937248,0.271986,0.218152,-0.30861,-0.938303,-0.156034,0.162253,-0.213566,0.96336,-0.938578,0.274257,-0.209414,0.308012,0.939463,-0.150129,0.155563,-0.20541,-0.966233,-0.937248,0.271986,0.218152,-0.30861,-0.938303,-0.156034,0.162253,-0.213566,0.96336,-0.938578,0.274257,-0.209414,0.308012,0.939463,-0.150129,0.155563,-0.20541,-0.966233,-78391.0,-25786.0,13699.0,-78136.0,25572.0,13077.0,-364.0,693.0,-62731.0,0.0,-26878.0,-21963.0,-19542.0,-22502.0,410.0,-908.0,-2034.0,0.0,-5624.0,-25.0,1116.0,-1875.0,50.0,169.0,-80.0,0.0,-306.0,1401.0,540.0,6.0,-49.0,-157.0,44.0,0.0,-292.0,542.0,794.0,-861.0,-0.013567,-0.04582,0.021816,0.0,-0.011224,0.05129,-0.01978,0.000254,-0.013467,-0.042481,0.012112,0.0,-0.010709,0.019843,-0.029055,-0.031525,4112.370117,11513.430664,51474.0625,0.0,-18177.929688,-17695.710938,17954.191406,-17439.210938,4111.92041,11452.230469,51515.28125,0.0,17225.279297,17709.929688,-17451.900391,17971.560547,0.0,0.0,0.0,0.0,0.0,0.0,0.0,0.0,0.0,0.0,0.0,0.0,0.0,0.0,0.0,0.0,0.0,0.0,0.0,0.0,0.0,0.0,0.0,0.0,0.0,0.0,0.0,0.0,0.0,0.0,0.0,0.0,4112.364258,11513.066406,51477.796875,0.0,-18176.761719,-17696.699219,17954.263672,-17438.03125,4111.888184,11452.307617,51515.300781,0.0,17225.910156,17709.751953,-17451.857422,17971.697266,30.194401,90.348763,22.882658,0.0,-89.00119,-0.012744,28.663172,28.7472,30.190901,89.849297,22.904095,0.0,-89.866585,-0.111685,28.847891,28.963551,0.999,1.008,-45329.0,-128620.0,-509203.0,0.0,175099.0,174656.0,-179949.0,171267.0,-45278.0,-128155.0,-574426.0,0.0,-197016.0,-196802.0,192794.0,-201559.0,0.0,0.0,0.0,0.0,0.0,0.0,0.0,0.0,0.0,0.0,0.0,0.0,0.0,0.0,0.0,0.0,0.0,0.0,0.0,0.0,0.0,0.0,0.0,0.0
31,2.255574941635132,30.194443,90.351753,22.880903,0.0,-89.217987,0.097073,28.600037,28.681246,30.191141,89.848618,22.904089,0.0,-89.983185,-0.091755,28.833302,28.958422,3.0,1.0,111.0,0.0,1.0,-78391.0,-25786.0,13699.0,-78136.0,25572.0,13077.0,-0.937224,0.272069,0.218152,-0.308693,-0.938276,-0.156034,0.162235,-0.213581,0.96336,-0.938578,0.274257,-0.209414,0.308012,0.939463,-0.150129,0.155563,-0.20541,-0.966233,-0.937224,0.272069,0.218152,-0.308693,-0.938276,-0.156034,0.162235,-0.213581,0.96336,-0.938578,0.274257,-0.209414,0.308012,0.939463,-0.150129,0.155563,-0.20541,-0.966233,-78391.0,-25786.0,13699.0,-78136.0,25572.0,13077.0,-364.0,693.0,-62731.0,0.0,-26878.0,-21963.0,-19542.0,-22501.0,410.0,-908.0,-2034.0,0.0,-5624.0,-25.0,1116.0,-1875.0,50.0,169.0,-80.0,0.0,-304.0,1399.0,540.0,6.0,-49.0,-157.0,44.0,0.0,-291.0,541.0,793.0,-861.0,-0.013567,-0.04582,0.021816,0.0,-0.01115,0.051228,-0.019775,0.000245,-0.013467,-0.042481,0.012112,0.0,-0.01067,0.019831,-0.029053,-0.031517,4112.370117,11513.430664,51474.0625,0.0,-18177.929688,-17695.710938,17954.191406,-17439.119141,4111.92041,11452.230469,51515.28125,0.0,17225.279297,17709.929688,-17451.900391,17971.560547,0.0,0.0,0.0,0.0,0.0,0.0,0.0,0.0,0.0,0.0,0.0,0.0,0.0,0.0,0.0,0.0,0.0,0.0,0.0,0.0,0.0,0.0,0.0,0.0,0.0,0.0,0.0,0.0,0.0,0.0,0.0,0.0,4112.364258,11513.066406,51477.796875,0.0,-18176.761719,-17696.699219,17954.263672,-17438.03125,4111.888184,11452.307617,51515.300781,0.0,17225.910156,17709.751953,-17451.857422,17971.697266,30.194401,90.348763,22.882658,0.0,-89.00119,-0.012744,28.663172,28.7472,30.190901,89.849297,22.904095,0.0,-89.866585,-0.111685,28.847891,28.963551,0.999,1.008,-45329.0,-128620.0,-509203.0,0.0,175099.0,174656.0,-179949.0,171267.0,-45278.0,-128155.0,-574426.0,0.0,-197016.0,-196802.0,192794.0,-201559.0,0.0,0.0,0.0,0.0,0.0,0.0,0.0,0.0,0.0,0.0,0.0,0.0,0.0,0.0,0.0,0.0,0.0,0.0,0.0,0.0,0.0,0.0,0.0,0.0
32,2.324570894241333,30.194443,90.351753,22.880903,0.0,-89.217987,0.097073,28.600037,28.681246,30.191141,89.848618,22.904089,0.0,-89.983185,-0.091755,28.833302,28.958422,3.0,1.0,111.0,0.0,1.0,-78391.0,-25786.0,13699.0,-78136.0,25572.0,13077.0,-0.937224,0.272069,0.218152,-0.308693,-0.938276,-0.156034,0.162235,-0.213581,0.96336,-0.938578,0.274257,-0.209414,0.308012,0.939463,-0.150129,0.155563,-0.20541,-0.966233,-0.937224,0.272069,0.218152,-0.308693,-0.938276,-0.156034,0.162235,-0.213581,0.96336,-0.938578,0.274257,-0.209414,0.308012,0.939463,-0.150129,0.155563,-0.20541,-0.966233,-78391.0,-25786.0,13699.0,-78136.0,25572.0,13077.0,-364.0,693.0,-62731.0,0.0,-26878.0,-21963.0,-19542.0,-22501.0,410.0,-908.0,-2034.0,0.0,-5624.0,-25.0,1116.0,-1875.0,50.0,169.0,-80.0,0.0,-302.0,1398.0,540.0,8.0,-49.0,-157.0,44.0,0.0,-290.0,541.0,793.0,-861.0,-0.013567,-0.04582,0.021816,0.0,-0.01108,0.051168,-0.019771,0.00031,-0.013467,-0.042481,0.012112,0.0,-0.010632,0.019821,-0.02905,-0.031509,4112.370117,11513.430664,51474.0625,0.0,-18177.929688,-17695.710938,17954.191406,-17439.119141,4111.92041,11452.230469,51515.28125,0.0,17225.279297,17709.929688,-17451.900391,17971.560547,0.0,0.0,0.0,0.0,0.0,0.0,0.0,0.0,0.0,0.0,0.0,0.0,0.0,0.0,0.0,0.0,0.0,0.0,0.0,0.0,0.0,0.0,0.0,0.0,0.0,0.0,0.0,0.0,0.0,0.0,0.0,0.0,4112.364258,11513.066406,51477.796875,0.0,-18176.761719,-17696.699219,17954.263672,-17438.03125,4111.888184,11452.307617,51515.300781,0.0,17225.910156,17709.751953,-17451.857422,17971.697266,30.194401,90.348763,22.882658,0.0,-89.00119,-0.012744,28.663172,28.7472,30.190901,89.849297,22.904095,0.0,-89.866585,-0.111685,28.847891,28.963551,0.999,1.008,-45329.0,-128620.0,-509203.0,0.0,175099.0,174656.0,-179949.0,171267.0,-45278.0,-128155.0,-574426.0,0.0,-197016.0,-196802.0,192794.0,-201559.0,0.0,0.0,0.0,0.0,0.0,0.0,0.0,0.0,0.0,0.0,0.0,0.0,0.0,0.0,0.0,0.0,0.0,0.0,0.0,0.0,0.0,0.0,0.0,0.0
33,2.3975789546966553,30.194443,90.351753,22.880903,0.0,-89.217987,0.097073,28.600037,28.691162,30.191141,89.848618,22.904089,0.0,-89.983185,-0.091755,28.833302,28.958422,3.0,1.0,111.0,0.0,1.0,-78391.0,-25786.0,13699.0,-78136.0,25572.0,13077.0,-0.9372,0.27215,0.218152,-0.308774,-0.938249,-0.156034,0.162216,-0.213595,0.96336,-0.938578,0.274257,-0.209414,0.308012,0.939463,-0.150129,0.155563,-0.20541,-0.966233,-0.9372,0.27215,0.218152,-0.308774,-0.938249,-0.156034,0.162216,-0.213595,0.96336,-0.938578,0.274257,-0.209414,0.308012,0.939463,-0.150129,0.155563,-0.20541,-0.966233,-78391.0,-25786.0,13699.0,-78136.0,25572.0,13077.0,-364.0,693.0,-62731.0,0.0,-26878.0,-21963.0,-19542.0,-22500.0,410.0,-908.0,-2034.0,0.0,-5624.0,-25.0,1116.0,-1875.0,50.0,169.0,-80.0,0.0,-300.0,1396.0,540.0,8.0,-49.0,-157.0,44.0,0.0,-289.0,541.0,793.0,-860.0,-0.013567,-0.04582,0.021816,0.0,-0.011005,0.051105,-0.019766,0.000298,-0.013467,-0.042481,0.012112,0.0,-0.010592,0.019809,-0.029048,-0.0315,4112.370117,11513.430664,51474.0625,0.0,-18177.929688,-17695.710938,17954.191406,-17439.03125,4111.92041,11452.230469,51515.28125,0.0,17225.279297,17709.929688,-17451.900391,17971.560547,0.0,0.0,0.0,0.0,0.0,0.0,0.0,0.0,0.0,0.0,0.0,0.0,0.0,0.0,0.0,0.0,0.0,0.0,0.0,0.0,0.0,0.0,0.0,0.0,0.0,0.0,0.0,0.0,0.0,0.0,0.0,0.0,4112.364258,11513.066406,51477.796875,0.0,-18176.761719,-17696.699219,17954.263672,-17438.03125,4111.888184,11452.307617,51515.300781,0.0,17225.910156,17709.751953,-17451.857422,17971.697266,30.194401,90.348763,22.882658,0.0,-89.00119,-0.012744,28.663172,28.7472,30.190901,89.849297,22.904095,0.0,-89.866585,-0.111685,28.847891,28.963551,0.999,1.008,-45329.0,-128620.0,-509203.0,0.0,175099.0,174656.0,-179949.0,171267.0,-45278.0,-128155.0,-574426.0,0.0,-197016.0,-196802.0,192794.0,-201559.0,0.0,0.0,0.0,0.0,0.0,0.0,0.0,0.0,0.0,0.0,0.0,0.0,0.0,0.0,0.0,0.0,0.0,0.0,0.0,0.0,0.0,0.0,0.0,0.0
34,2.469614028930664,30.194443,90.351753,22.880903,0.0,-89.217987,0.097073,28.600037,28.691162,30.191141,89.848618,22.904089,0.0,-89.983185,-0.091755,28.833302,28.958422,3.0,1.0,111.0,0.0,1.0,-78391.0,-25786.0,13699.0,-78136.0,25572.0,13077.0,-0.9372,0.27215,0.218152,-0.308774,-0.938249,-0.156034,0.162216,-0.213595,0.96336,-0.938578,0.274257,-0.209414,0.308012,0.939463,-0.150129,0.155563,-0.20541,-0.966233,-0.9372,0.27215,0.218152,-0.308774,-0.938249,-0.156034,0.162216,-0.213595,0.96336,-0.938578,0.274257,-0.209414,0.308012,0.939463,-0.150129,0.155563,-0.20541,-0.966233,-78391.0,-25786.0,13699.0,-78136.0,25572.0,13077.0,-364.0,693.0,-62731.0,0.0,-26878.0,-21963.0,-19542.0,-22500.0,410.0,-908.0,-2034.0,0.0,-5624.0,-25.0,1116.0,-1875.0,50.0,169.0,-80.0,0.0,-298.0,1394.0,540.0,9.0,-49.0,-157.0,44.0,0.0,-288.0,541.0,793.0,-860.0,-0.013567,-0.04582,0.021816,0.0,-0.010932,0.051043,-0.019761,0.000361,-0.013467,-0.042481,0.012112,0.0,-0.010552,0.019798,-0.029045,-0.031491,4112.370117,11513.430664,51474.0625,0.0,-18177.929688,-17695.710938,17954.191406,-17439.03125,4111.92041,11452.230469,51515.28125,0.0,17225.279297,17709.929688,-17451.900391,17971.560547,0.0,0.0,0.0,0.0,0.0,0.0,0.0,0.0,0.0,0.0,0.0,0.0,0.0,0.0,0.0,0.0,0.0,0.0,0.0,0.0,0.0,0.0,0.0,0.0,0.0,0.0,0.0,0.0,0.0,0.0,0.0,0.0,4112.364258,11513.066406,51477.796875,0.0,-18176.761719,-17696.699219,17954.263672,-17438.03125,4111.888184,11452.307617,51515.300781,0.0,17225.910156,17709.751953,-17451.857422,17971.697266,30.194401,90.348763,22.882658,0.0,-89.00119,-0.012744,28.663172,28.7472,30.190901,89.849297,22.904095,0.0,-89.866585,-0.111685,28.847891,28.963551,0.999,1.008,-45329.0,-128620.0,-509203.0,0.0,175099.0,174656.0,-179949.0,171267.0,-45278.0,-128155.0,-574426.0,0.0,-197016.0,-196802.0,192794.0,-201559.0,0.0,0.0,0.0,0.0,0.0,0.0,0.0,0.0,0.0,0.0,0.0,0.0,0.0,0.0,0.0,0.0,0.0,0.0,0.0,0.0,0.0,0.0,0.0,0.0
35,2.541527032852173,30.194443,90.351753,22.880903,0.0,-89.217987,0.097073,28.600037,28.691162,30.191141,89.848618,22.904089,0.0,-89.983185,-0.091755,28.833302,28.958422,3.0,1.0,111.0,0.0,1.0,-78391.0,-25786.0,13699.0,-78136.0,25572.0,13077.0,-0.9372,0.27215,0.218152,-0.308774,-0.938249,-0.156034,0.162216,-0.213595,0.96336,-0.938578,0.274257,-0.209414,0.308012,0.939463,-0.150129,0.155563,-0.20541,-0.966233,-0.9372,0.27215,0.218152,-0.308774,-0.938249,-0.156034,0.162216,-0.213595,0.96336,-0.938578,0.274257,-0.209414,0.308012,0.939463,-0.150129,0.155563,-0.20541,-0.966233,-78391.0,-25786.0,13699.0,-78136.0,25572.0,13077.0,-364.0,693.0,-62731.0,0.0,-26878.0,-21963.0,-19542.0,-22500.0,410.0,-908.0,-2034.0,0.0,-5624.0,-25.0,1116.0,-1875.0,50.0,169.0,-80.0,0.0,-296.0,1393.0,539.0,11.0,-49.0,-157.0,44.0,0.0,-287.0,540.0,793.0,-860.0,-0.013567,-0.04582,0.021816,0.0,-0.010858,0.050981,-0.019757,0.000424,-0.013467,-0.042481,0.012112,0.0,-0.010513,0.019787,-0.029043,-0.031483,4112.370117,11513.430664,51474.0625,0.0,-18177.929688,-17695.710938,17954.191406,-17439.03125,4111.92041,11452.230469,51515.28125,0.0,17225.279297,17709.929688,-17451.900391,17971.560547,0.0,0.0,0.0,0.0,0.0,0.0,0.0,0.0,0.0,0.0,0.0,0.0,0.0,0.0,0.0,0.0,0.0,0.0,0.0,0.0,0.0,0.0,0.0,0.0,0.0,0.0,0.0,0.0,0.0,0.0,0.0,0.0,4112.364258,11513.066406,51477.796875,0.0,-18176.761719,-17696.699219,17954.263672,-17438.03125,4111.888184,11452.307617,51515.300781,0.0,17225.910156,17709.751953,-17451.857422,17971.697266,30.194401,90.348763,22.882658,0.0,-89.00119,-0.012744,28.663172,28.7472,30.190901,89.849297,22.904095,0.0,-89.866585,-0.111685,28.847891,28.963551,0.999,1.008,-45329.0,-128620.0,-509203.0,0.0,175099.0,174656.0,-179949.0,171267.0,-45278.0,-128155.0,-574426.0,0.0,-197016.0,-196802.0,192794.0,-201559.0,0.0,0.0,0.0,0.0,0.0,0.0,0.0,0.0,0.0,0.0,0.0,0.0,0.0,0.0,0.0,0.0,0.0,0.0,0.0,0.0,0.0,0.0,0.0,0.0
36,2.609575033187866,30.194443,90.351753,22.880903,0.0,-89.217987,0.097073,28.600037,28.70108,30.191141,89.848618,22.904089,0.0,-89.966339,-0.091755,28.833302,28.958422,3.0,1.0,111.0,0.0,1.0,-78391.0,-25786.0,13699.0,-78136.0,25572.0,13077.0,-0.937177,0.272231,0.218152,-0.308856,-0.938223,-0.156034,0.162198,-0.213609,0.96336,-0.938578,0.274319,-0.209333,0.308012,0.939507,-0.149853,0.155563,-0.205126,-0.966294,-0.937177,0.272231,0.218152,-0.308856,-0.938223,-0.156034,0.162198,-0.213609,0.96336,-0.938578,0.274319,-0.209333,0.308012,0.939507,-0.149853,0.155563,-0.205126,-0.966294,-78391.0,-25786.0,13699.0,-78136.0,25572.0,13077.0,-364.0,693.0,-62731.0,0.0,-26878.0,-21963.0,-19542.0,-22499.0,410.0,-908.0,-2034.0,0.0,-5623.0,-25.0,1116.0,-1875.0,50.0,169.0,-80.0,0.0,-294.0,1391.0,539.0,10.0,-49.0,-157.0,44.0,0.0,-290.0,540.0,793.0,-860.0,-0.013567,-0.04582,0.021816,0.0,-0.010789,0.050922,-0.019752,0.000402,-0.013467,-0.042481,0.012112,0.0,-0.01062,0.019776,-0.02904,-0.031475,4112.370117,11513.430664,51474.0625,0.0,-18177.929688,-17695.710938,17954.191406,-17438.941406,4111.92041,11452.230469,51515.28125,0.0,17225.371094,17709.929688,-17451.900391,17971.560547,0.0,0.0,0.0,0.0,0.0,0.0,0.0,0.0,0.0,0.0,0.0,0.0,0.0,0.0,0.0,0.0,0.0,0.0,0.0,0.0,0.0,0.0,0.0,0.0,0.0,0.0,0.0,0.0,0.0,0.0,0.0,0.0,4112.364258,11513.066406,51477.796875,0.0,-18176.761719,-17696.699219,17954.263672,-17438.03125,4111.888184,11452.307617,51515.300781,0.0,17225.910156,17709.751953,-17451.857422,17971.697266,30.194401,90.348763,22.882658,0.0,-89.00119,-0.012744,28.663172,28.7472,30.190901,89.849297,22.904095,0.0,-89.866585,-0.111685,28.847891,28.963551,1.0,1.008,-45329.0,-128620.0,-509203.0,0.0,175099.0,174656.0,-179949.0,171267.0,-45278.0,-128155.0,-574426.0,0.0,-197016.0,-196802.0,192794.0,-201559.0,0.0,0.0,0.0,0.0,0.0,0.0,0.0,0.0,0.0,0.0,0.0,0.0,0.0,0.0,0.0,0.0,0.0,0.0,0.0,0.0,0.0,0.0,0.0,0.0
37,2.681575059890747,30.194443,90.351753,22.880903,0.0,-89.217987,0.097073,28.600037,28.70108,30.191141,89.848618,22.904089,0.0,-89.966339,-0.091755,28.833302,28.958422,3.0,1.0,111.0,0.0,1.0,-78391.0,-25786.0,13699.0,-78136.0,25572.0,13077.0,-0.937177,0.272231,0.218152,-0.308856,-0.938223,-0.156034,0.162198,-0.213609,0.96336,-0.938578,0.274319,-0.209333,0.308012,0.939507,-0.149853,0.155563,-0.205126,-0.966294,-0.937177,0.272231,0.218152,-0.308856,-0.938223,-0.156034,0.162198,-0.213609,0.96336,-0.938578,0.274319,-0.209333,0.308012,0.939507,-0.149853,0.155563,-0.205126,-0.966294,-78391.0,-25786.0,13699.0,-78136.0,25572.0,13077.0,-364.0,693.0,-62731.0,0.0,-26878.0,-21963.0,-19542.0,-22499.0,410.0,-908.0,-2034.0,0.0,-5623.0,-25.0,1116.0,-1875.0,50.0,169.0,-80.0,0.0,-292.0,1389.0,539.0,12.0,-49.0,-157.0,44.0,0.0,-289.0,540.0,793.0,-859.0,-0.013567,-0.04582,0.021816,0.0,-0.010715,0.05086,-0.019748,0.000459,-0.013467,-0.042481,0.012112,0.0,-0.010586,0.019765,-0.029038,-0.031466,4112.370117,11513.430664,51474.0625,0.0,-18177.929688,-17695.710938,17954.191406,-17438.941406,4111.92041,11452.230469,51515.28125,0.0,17225.371094,17709.929688,-17451.900391,17971.560547,0.0,0.0,0.0,0.0,0.0,0.0,0.0,0.0,0.0,0.0,0.0,0.0,0.0,0.0,0.0,0.0,0.0,0.0,0.0,0.0,0.0,0.0,0.0,0.0,0.0,0.0,0.0,0.0,0.0,0.0,0.0,0.0,4112.364258,11513.066406,51477.796875,0.0,-18176.761719,-17696.699219,17954.263672,-17438.03125,4111.888184,11452.307617,51515.300781,0.0,17225.910156,17709.751953,-17451.857422,17971.697266,30.194401,90.348763,22.882658,0.0,-89.00119,-0.012744,28.663172,28.7472,30.190901,89.849297,22.904095,0.0,-89.866585,-0.111685,28.847891,28.963551,1.0,1.008,-45329.0,-128620.0,-509203.0,0.0,175099.0,174656.0,-179949.0,171267.0,-45278.0,-128155.0,-574426.0,0.0,-197016.0,-196802.0,192794.0,-201559.0,0.0,0.0,0.0,0.0,0.0,0.0,0.0,0.0,0.0,0.0,0.0,0.0,0.0,0.0,0.0,0.0,0.0,0.0,0.0,0.0,0.0,0.0,0.0,0.0
38,2.7535760402679443,30.194443,90.351753,22.880903,0.0,-89.217987,0.097073,28.600037,28.70108,30.191141,89.848618,22.904089,0.0,-89.966339,-0.091755,28.833302,28.958422,3.0,1.0,111.0,0.0,1.0,-78391.0,-25786.0,13699.0,-78136.0,25572.0,13077.0,-0.937177,0.272231,0.218152,-0.308856,-0.938223,-0.156034,0.162198,-0.213609,0.96336,-0.938578,0.274319,-0.209333,0.308012,0.939507,-0.149853,0.155563,-0.205126,-0.966294,-0.937177,0.272231,0.218152,-0.308856,-0.938223,-0.156034,0.162198,-0.213609,0.96336,-0.938578,0.274319,-0.209333,0.308012,0.939507,-0.149853,0.155563,-0.205126,-0.966294,-78391.0,-25786.0,13699.0,-78136.0,25572.0,13077.0,-364.0,693.0,-62731.0,0.0,-26878.0,-21963.0,-19542.0,-22499.0,410.0,-908.0,-2034.0,0.0,-5623.0,-25.0,1116.0,-1875.0,50.0,169.0,-80.0,0.0,-290.0,1388.0,539.0,14.0,-49.0,-157.0,44.0,0.0,-288.0,539.0,793.0,-859.0,-0.013567,-0.04582,0.021816,0.0,-0.010642,0.050797,-0.019743,0.000516,-0.013467,-0.042481,0.012112,0.0,-0.010552,0.019754,-0.029035,-0.031458,4112.370117,11513.430664,51474.0625,0.0,-18177.929688,-17695.710938,17954.191406,-17438.941406,4111.92041,11452.230469,51515.28125,0.0,17225.371094,17709.929688,-17451.900391,17971.560547,0.0,0.0,0.0,0.0,0.0,0.0,0.0,0.0,0.0,0.0,0.0,0.0,0.0,0.0,0.0,0.0,0.0,0.0,0.0,0.0,0.0,0.0,0.0,0.0,0.0,0.0,0.0,0.0,0.0,0.0,0.0,0.0,4112.364258,11513.066406,51477.796875,0.0,-18176.761719,-17696.699219,17954.263672,-17438.03125,4111.888184,11452.307617,51515.300781,0.0,17225.910156,17709.751953,-17451.857422,17971.697266,30.194401,90.348763,22.882658,0.0,-89.00119,-0.012744,28.663172,28.7472,30.190901,89.849297,22.904095,0.0,-89.866585,-0.111685,28.847891,28.963551,1.0,1.008,-45329.0,-128620.0,-509203.0,0.0,175099.0,174656.0,-179949.0,171267.0,-45278.0,-128155.0,-574426.0,0.0,-197016.0,-196802.0,192794.0,-201559.0,0.0,0.0,0.0,0.0,0.0,0.0,0.0,0.0,0.0,0.0,0.0,0.0,0.0,0.0,0.0,0.0,0.0,0.0,0.0,0.0,0.0,0.0,0.0,0.0
39,2.822503089904785,30.194443,90.351753,22.880903,0.0,-89.217987,0.097073,28.600037,28.711189,30.191141,89.848618,22.904089,0.0,-89.966339,-0.091755,28.833302,28.958422,3.0,1.0,111.0,0.0,1.0,-78391.0,-25786.0,13699.0,-78136.0,25572.0,13077.0,-0.937153,0.272314,0.218152,-0.308938,-0.938195,-0.156034,0.162179,-0.213623,0.96336,-0.938578,0.274319,-0.209333,0.308012,0.939507,-0.149853,0.155563,-0.205126,-0.966294,-0.937153,0.272314,0.218152,-0.308938,-0.938195,-0.156034,0.162179,-0.213623,0.96336,-0.938578,0.274319,-0.209333,0.308012,0.939507,-0.149853,0.155563,-0.205126,-0.966294,-78391.0,-25786.0,13699.0,-78136.0,25572.0,13077.0,-364.0,693.0,-62731.0,0.0,-26878.0,-21963.0,-19542.0,-22498.0,410.0,-908.0,-2034.0,0.0,-5623.0,-25.0,1116.0,-1875.0,50.0,169.0,-80.0,0.0,-288.0,1386.0,539.0,13.0,-49.0,-157.0,44.0,0.0,-287.0,539.0,793.0,-859.0,-0.013567,-0.04582,0.021816,0.0,-0.010571,0.050738,-0.019739,0.000491,-0.013467,-0.042481,0.012112,0.0,-0.010519,0.019743,-0.029033,-0.031449,4112.370117,11513.430664,51474.0625,0.0,-18177.929688,-17695.710938,17954.191406,-17438.849609,4111.92041,11452.230469,51515.28125,0.0,17225.371094,17709.929688,-17451.900391,17971.560547,0.0,0.0,0.0,0.0,0.0,0.0,0.0,0.0,0.0,0.0,0.0,0.0,0.0,0.0,0.0,0.0,0.0,0.0,0.0,0.0,0.0,0.0,0.0,0.0,0.0,0.0,0.0,0.0,0.0,0.0,0.0,0.0,4112.364258,11513.066406,51477.796875,0.0,-18176.761719,-17696.699219,17954.263672,-17438.03125,4111.888184,11452.307617,51515.300781,0.0,17225.910156,17709.751953,-17451.857422,17971.697266,30.194401,90.348763,22.882658,0.0,-89.00119,-0.012744,28.663172,28.7472,30.190901,89.849297,22.904095,0.0,-89.866585,-0.111685,28.847891,28.963551,1.0,1.008,-45329.0,-128620.0,-509203.0,0.0,175099.0,174656.0,-179949.0,171267.0,-45278.0,-128155.0,-574426.0,0.0,-197016.0,-196802.0,192794.0,-201559.0,0.0,0.0,0.0,0.0,0.0,0.0,0.0,0.0,0.0,0.0,0.0,0.0,0.0,0.0,0.0,0.0,0.0,0.0,0.0,0.0,0.0,0.0,0.0,0.0
40,2.894443988800049,30.194443,90.351753,22.880903,0.0,-89.217987,0.097073,28.600037,28.711189,30.191141,89.848618,22.904089,0.0,-89.966339,-0.091755,28.833302,28.958422,3.0,1.0,111.0,0.0,1.0,-78391.0,-25786.0,13699.0,-78136.0,25572.0,13077.0,-0.937153,0.272314,0.218152,-0.308938,-0.938195,-0.156034,0.162179,-0.213623,0.96336,-0.938578,0.274319,-0.209333,0.308012,0.939507,-0.149853,0.155563,-0.205126,-0.966294,-0.937153,0.272314,0.218152,-0.308938,-0.938195,-0.156034,0.162179,-0.213623,0.96336,-0.938578,0.274319,-0.209333,0.308012,0.939507,-0.149853,0.155563,-0.205126,-0.966294,-78391.0,-25786.0,13699.0,-78136.0,25572.0,13077.0,-364.0,693.0,-62731.0,0.0,-26878.0,-21963.0,-19542.0,-22498.0,410.0,-908.0,-2034.0,0.0,-5623.0,-25.0,1116.0,-1875.0,50.0,169.0,-80.0,0.0,-286.0,1384.0,539.0,14.0,-49.0,-157.0,44.0,0.0,-286.0,539.0,793.0,-859.0,-0.013567,-0.04582,0.021816,0.0,-0.010498,0.050676,-0.019734,0.000542,-0.013467,-0.042481,0.012112,0.0,-0.010486,0.019732,-0.02903,-0.031441,4112.370117,11513.430664,51474.0625,0.0,-18177.929688,-17695.710938,17954.191406,-17438.849609,4111.92041,11452.230469,51515.28125,0.0,17225.371094,17709.929688,-17451.900391,17971.560547,0.0,0.0,0.0,0.0,0.0,0.0,0.0,0.0,0.0,0.0,0.0,0.0,0.0,0.0,0.0,0.0,0.0,0.0,0.0,0.0,0.0,0.0,0.0,0.0,0.0,0.0,0.0,0.0,0.0,0.0,0.0,0.0,4112.364258,11513.066406,51477.796875,0.0,-18176.761719,-17696.699219,17954.263672,-17438.03125,4111.888184,11452.307617,51515.300781,0.0,17225.910156,17709.751953,-17451.857422,17971.697266,30.194401,90.348763,22.882658,0.0,-89.00119,-0.012744,28.663172,28.7472,30.190901,89.849297,22.904095,0.0,-89.866585,-0.111685,28.847891,28.963551,1.0,1.008,-45329.0,-128620.0,-509203.0,0.0,175099.0,174656.0,-179949.0,171267.0,-45278.0,-128155.0,-574426.0,0.0,-197016.0,-196802.0,192794.0,-201559.0,0.0,0.0,0.0,0.0,0.0,0.0,0.0,0.0,0.0,0.0,0.0,0.0,0.0,0.0,0.0,0.0,0.0,0.0,0.0,0.0,0.0,0.0,0.0,0.0
41,2.9665369987487793,30.194443,90.351753,22.880903,0.0,-89.217987,0.097073,28.600037,28.711189,30.191141,89.848618,22.904089,0.0,-89.966339,-0.091755,28.833302,28.958422,3.0,1.0,111.0,0.0,1.0,-78391.0,-25786.0,13699.0,-78136.0,25572.0,13077.0,-0.937153,0.272314,0.218152,-0.308938,-0.938195,-0.156034,0.162179,-0.213623,0.96336,-0.938578,0.274319,-0.209333,0.308012,0.939507,-0.149853,0.155563,-0.205126,-0.966294,-0.937153,0.272314,0.218152,-0.308938,-0.938195,-0.156034,0.162179,-0.213623,0.96336,-0.938578,0.274319,-0.209333,0.308012,0.939507,-0.149853,0.155563,-0.205126,-0.966294,-78391.0,-25786.0,13699.0,-78136.0,25572.0,13077.0,-364.0,693.0,-62731.0,0.0,-26878.0,-21963.0,-19542.0,-22498.0,410.0,-908.0,-2034.0,0.0,-5623.0,-25.0,1116.0,-1875.0,50.0,169.0,-80.0,0.0,-284.0,1383.0,539.0,16.0,-49.0,-157.0,44.0,0.0,-285.0,538.0,793.0,-858.0,-0.013567,-0.04582,0.021816,0.0,-0.010424,0.050613,-0.01973,0.000593,-0.013467,-0.042481,0.012112,0.0,-0.010452,0.019721,-0.029027,-0.031432,4112.370117,11513.430664,51474.0625,0.0,-18177.929688,-17695.710938,17954.191406,-17438.849609,4111.92041,11452.230469,51515.28125,0.0,17225.371094,17709.929688,-17451.900391,17971.560547,0.0,0.0,0.0,0.0,0.0,0.0,0.0,0.0,0.0,0.0,0.0,0.0,0.0,0.0,0.0,0.0,0.0,0.0,0.0,0.0,0.0,0.0,0.0,0.0,0.0,0.0,0.0,0.0,0.0,0.0,0.0,0.0,4112.364258,11513.066406,51477.796875,0.0,-18176.761719,-17696.699219,17954.263672,-17438.03125,4111.888184,11452.307617,51515.300781,0.0,17225.910156,17709.751953,-17451.857422,17971.697266,30.194401,90.348763,22.882658,0.0,-89.00119,-0.012744,28.663172,28.7472,30.190901,89.849297,22.904095,0.0,-89.866585,-0.111685,28.847891,28.963551,1.0,1.008,-45329.0,-128620.0,-509203.0,0.0,175099.0,174656.0,-179949.0,171267.0,-45278.0,-128155.0,-574426.0,0.0,-197016.0,-196802.0,192794.0,-201559.0,0.0,0.0,0.0,0.0,0.0,0.0,0.0,0.0,0.0,0.0,0.0,0.0,0.0,0.0,0.0,0.0,0.0,0.0,0.0,0.0,0.0,0.0,0.0,0.0
42,3.0365359783172607,30.194443,90.351753,22.880903,0.0,-89.217987,0.097073,28.600037,28.711189,30.191141,89.848618,22.904089,0.0,-89.966339,-0.091755,28.833302,28.958422,3.0,1.0,111.0,0.0,1.0,-78391.0,-25786.0,13699.0,-78136.0,25572.0,13077.0,-0.937153,0.272314,0.218152,-0.308938,-0.938195,-0.156034,0.162179,-0.213623,0.96336,-0.938578,0.274319,-0.209333,0.308012,0.939507,-0.149853,0.155563,-0.205126,-0.966294,-0.937153,0.272314,0.218152,-0.308938,-0.938195,-0.156034,0.162179,-0.213623,0.96336,-0.938578,0.274319,-0.209333,0.308012,0.939507,-0.149853,0.155563,-0.205126,-0.966294,-78391.0,-25786.0,13699.0,-78136.0,25572.0,13077.0,-364.0,693.0,-62731.0,0.0,-26878.0,-21963.0,-19542.0,-22498.0,410.0,-908.0,-2034.0,0.0,-5623.0,-25.0,1116.0,-1875.0,50.0,169.0,-80.0,0.0,-282.0,1381.0,539.0,17.0,-49.0,-157.0,44.0,0.0,-284.0,538.0,793.0,-858.0,-0.013567,-0.04582,0.021816,0.0,-0.010353,0.050553,-0.019725,0.000643,-0.013467,-0.042481,0.012112,0.0,-0.010419,0.01971,-0.029025,-0.031424,4112.370117,11513.430664,51474.0625,0.0,-18177.929688,-17695.710938,17954.191406,-17438.849609,4111.92041,11452.230469,51515.28125,0.0,17225.371094,17709.929688,-17451.900391,17971.560547,0.0,0.0,0.0,0.0,0.0,0.0,0.0,0.0,0.0,0.0,0.0,0.0,0.0,0.0,0.0,0.0,0.0,0.0,0.0,0.0,0.0,0.0,0.0,0.0,0.0,0.0,0.0,0.0,0.0,0.0,0.0,0.0,4112.364258,11513.066406,51477.796875,0.0,-18176.761719,-17696.699219,17954.263672,-17438.03125,4111.888184,11452.307617,51515.300781,0.0,17225.910156,17709.751953,-17451.857422,17971.697266,30.194401,90.348763,22.882658,0.0,-89.00119,-0.012744,28.663172,28.7472,30.190901,89.849297,22.904095,0.0,-89.866585,-0.111685,28.847891,28.963551,1.0,1.008,-45329.0,-128620.0,-509203.0,0.0,175099.0,174656.0,-179949.0,171267.0,-45278.0,-128155.0,-574426.0,0.0,-197016.0,-196802.0,192794.0,-201559.0,0.0,0.0,0.0,0.0,0.0,0.0,0.0,0.0,0.0,0.0,0.0,0.0,0.0,0.0,0.0,0.0,0.0,0.0,0.0,0.0,0.0,0.0,0.0,0.0
43,3.108635902404785,30.194443,90.351753,22.880903,0.0,-89.217987,0.097073,28.600037,28.711189,30.191141,89.848618,22.904089,0.0,-89.966339,-0.091755,28.833302,28.958422,3.0,1.0,111.0,0.0,1.0,-78391.0,-25786.0,13699.0,-78136.0,25572.0,13077.0,-0.937153,0.272314,0.218152,-0.308938,-0.938195,-0.156034,0.162179,-0.213623,0.96336,-0.938578,0.274319,-0.209333,0.308012,0.939507,-0.149853,0.155563,-0.205126,-0.966294,-0.937153,0.272314,0.218152,-0.308938,-0.938195,-0.156034,0.162179,-0.213623,0.96336,-0.938578,0.274319,-0.209333,0.308012,0.939507,-0.149853,0.155563,-0.205126,-0.966294,-78391.0,-25786.0,13699.0,-78136.0,25572.0,13077.0,-364.0,693.0,-62731.0,0.0,-26878.0,-21963.0,-19542.0,-22498.0,410.0,-908.0,-2034.0,0.0,-5623.0,-25.0,1116.0,-1875.0,50.0,169.0,-80.0,0.0,-280.0,1379.0,538.0,18.0,-49.0,-157.0,44.0,0.0,-283.0,538.0,793.0,-858.0,-0.013567,-0.04582,0.021816,0.0,-0.010279,0.050491,-0.019721,0.000695,-0.013467,-0.042481,0.012112,0.0,-0.010385,0.019699,-0.029022,-0.031415,4112.370117,11513.430664,51474.0625,0.0,-18177.929688,-17695.710938,17954.191406,-17438.849609,4111.92041,11452.230469,51515.28125,0.0,17225.371094,17709.929688,-17451.900391,17971.560547,0.0,0.0,0.0,0.0,0.0,0.0,0.0,0.0,0.0,0.0,0.0,0.0,0.0,0.0,0.0,0.0,0.0,0.0,0.0,0.0,0.0,0.0,0.0,0.0,0.0,0.0,0.0,0.0,0.0,0.0,0.0,0.0,4112.364258,11513.066406,51477.796875,0.0,-18176.761719,-17696.699219,17954.263672,-17438.03125,4111.888184,11452.307617,51515.300781,0.0,17225.910156,17709.751953,-17451.857422,17971.697266,30.194401,90.348763,22.882658,0.0,-89.00119,-0.012744,28.663172,28.7472,30.190901,89.849297,22.904095,0.0,-89.866585,-0.111685,28.847891,28.963551,1.0,1.008,-45329.0,-128620.0,-509203.0,0.0,175099.0,174656.0,-179949.0,171267.0,-45278.0,-128155.0,-574426.0,0.0,-197016.0,-196802.0,192794.0,-201559.0,0.0,0.0,0.0,0.0,0.0,0.0,0.0,0.0,0.0,0.0,0.0,0.0,0.0,0.0,0.0,0.0,0.0,0.0,0.0,0.0,0.0,0.0,0.0,0.0
44,3.178628921508789,30.194443,90.351753,22.880903,0.0,-89.217987,0.097073,28.600037,28.711189,30.191141,89.848618,22.904089,0.0,-89.966339,-0.091755,28.833302,28.958422,3.0,1.0,111.0,0.0,1.0,-78391.0,-25786.0,13699.0,-78136.0,25572.0,13077.0,-0.937153,0.272314,0.218152,-0.308938,-0.938195,-0.156034,0.162179,-0.213623,0.96336,-0.938578,0.274319,-0.209333,0.308012,0.939507,-0.149853,0.155563,-0.205126,-0.966294,-0.937153,0.272314,0.218152,-0.308938,-0.938195,-0.156034,0.162179,-0.213623,0.96336,-0.938578,0.274319,-0.209333,0.308012,0.939507,-0.149853,0.155563,-0.205126,-0.966294,-78391.0,-25786.0,13699.0,-78136.0,25572.0,13077.0,-364.0,693.0,-62731.0,0.0,-26878.0,-21963.0,-19542.0,-22498.0,410.0,-908.0,-2034.0,0.0,-5623.0,-25.0,1116.0,-1875.0,50.0,169.0,-80.0,0.0,-278.0,1378.0,538.0,20.0,-49.0,-157.0,44.0,0.0,-282.0,538.0,793.0,-858.0,-0.013567,-0.04582,0.021816,0.0,-0.010208,0.05043,-0.019716,0.000745,-0.013467,-0.042481,0.012112,0.0,-0.010352,0.019688,-0.02902,-0.031407,4112.370117,11513.430664,51474.0625,0.0,-18177.929688,-17695.710938,17954.191406,-17438.849609,4111.92041,11452.230469,51515.28125,0.0,17225.371094,17709.929688,-17451.900391,17971.560547,0.0,0.0,0.0,0.0,0.0,0.0,0.0,0.0,0.0,0.0,0.0,0.0,0.0,0.0,0.0,0.0,0.0,0.0,0.0,0.0,0.0,0.0,0.0,0.0,0.0,0.0,0.0,0.0,0.0,0.0,0.0,0.0,4112.364258,11513.066406,51477.796875,0.0,-18176.761719,-17696.699219,17954.263672,-17438.03125,4111.888184,11452.307617,51515.300781,0.0,17225.910156,17709.751953,-17451.857422,17971.697266,30.194401,90.348763,22.882658,0.0,-89.00119,-0.012744,28.663172,28.7472,30.190901,89.849297,22.904095,0.0,-89.866585,-0.111685,28.847891,28.963551,1.0,1.008,-45329.0,-128620.0,-509203.0,0.0,175099.0,174656.0,-179949.0,171267.0,-45278.0,-128155.0,-574426.0,0.0,-197016.0,-196802.0,192794.0,-201559.0,0.0,0.0,0.0,0.0,0.0,0.0,0.0,0.0,0.0,0.0,0.0,0.0,0.0,0.0,0.0,0.0,0.0,0.0,0.0,0.0,0.0,0.0,0.0,0.0
45,3.2485311031341553,30.194443,90.351753,22.880903,0.0,-89.217987,0.097073,28.600037,28.711189,30.191141,89.848618,22.904089,0.0,-89.966339,-0.091755,28.833302,28.958422,3.0,1.0,111.0,0.0,1.0,-78391.0,-25786.0,13699.0,-78136.0,25572.0,13077.0,-0.937153,0.272314,0.218152,-0.308938,-0.938195,-0.156034,0.162179,-0.213623,0.96336,-0.938578,0.274319,-0.209333,0.308012,0.939507,-0.149853,0.155563,-0.205126,-0.966294,-0.937153,0.272314,0.218152,-0.308938,-0.938195,-0.156034,0.162179,-0.213623,0.96336,-0.938578,0.274319,-0.209333,0.308012,0.939507,-0.149853,0.155563,-0.205126,-0.966294,-78391.0,-25786.0,13699.0,-78136.0,25572.0,13077.0,-364.0,693.0,-62731.0,0.0,-26878.0,-21963.0,-19542.0,-22498.0,410.0,-908.0,-2034.0,0.0,-5623.0,-25.0,1116.0,-1875.0,50.0,169.0,-80.0,0.0,-277.0,1376.0,538.0,21.0,-49.0,-157.0,44.0,0.0,-282.0,537.0,792.0,-858.0,-0.013567,-0.04582,0.021816,0.0,-0.010137,0.05037,-0.019712,0.000795,-0.013467,-0.042481,0.012112,0.0,-0.010319,0.019677,-0.029017,-0.031399,4112.370117,11513.430664,51474.0625,0.0,-18177.929688,-17695.710938,17954.191406,-17438.849609,4111.92041,11452.230469,51515.28125,0.0,17225.371094,17709.929688,-17451.900391,17971.560547,0.0,0.0,0.0,0.0,0.0,0.0,0.0,0.0,0.0,0.0,0.0,0.0,0.0,0.0,0.0,0.0,0.0,0.0,0.0,0.0,0.0,0.0,0.0,0.0,0.0,0.0,0.0,0.0,0.0,0.0,0.0,0.0,4112.364258,11513.066406,51477.796875,0.0,-18176.761719,-17696.699219,17954.263672,-17438.03125,4111.888184,11452.307617,51515.300781,0.0,17225.910156,17709.751953,-17451.857422,17971.697266,30.194401,90.348763,22.882658,0.0,-89.00119,-0.012744,28.663172,28.7472,30.190901,89.849297,22.904095,0.0,-89.866585,-0.111685,28.847891,28.963551,1.0,1.008,-45329.0,-128620.0,-509203.0,0.0,175099.0,174656.0,-179949.0,171267.0,-45278.0,-128155.0,-574426.0,0.0,-197016.0,-196802.0,192794.0,-201559.0,0.0,0.0,0.0,0.0,0.0,0.0,0.0,0.0,0.0,0.0,0.0,0.0,0.0,0.0,0.0,0.0,0.0,0.0,0.0,0.0,0.0,0.0,0.0,0.0
46,3.323632001876831,30.194443,90.351753,22.880903,0.0,-89.217987,0.097073,28.600037,28.711189,30.191141,89.848618,22.904089,0.0,-89.966339,-0.091755,28.833302,28.958422,3.0,1.0,111.0,0.0,1.0,-78391.0,-25786.0,13699.0,-78136.0,25572.0,13077.0,-0.937153,0.272314,0.218152,-0.308938,-0.938195,-0.156034,0.162179,-0.213623,0.96336,-0.938578,0.274319,-0.209333,0.308012,0.939507,-0.149853,0.155563,-0.205126,-0.966294,-0.937153,0.272314,0.218152,-0.308938,-0.938195,-0.156034,0.162179,-0.213623,0.96336,-0.938578,0.274319,-0.209333,0.308012,0.939507,-0.149853,0.155563,-0.205126,-0.966294,-78391.0,-25786.0,13699.0,-78136.0,25572.0,13077.0,-364.0,693.0,-62731.0,0.0,-26878.0,-21963.0,-19542.0,-22498.0,410.0,-908.0,-2034.0,0.0,-5623.0,-25.0,1116.0,-1875.0,50.0,169.0,-80.0,0.0,-274.0,1374.0,538.0,23.0,-49.0,-157.0,44.0,0.0,-281.0,537.0,792.0,-857.0,-0.013567,-0.04582,0.021816,0.0,-0.01006,0.050305,-0.019707,0.000848,-0.013467,-0.042481,0.012112,0.0,-0.010284,0.019666,-0.029015,-0.03139,4112.370117,11513.430664,51474.0625,0.0,-18177.929688,-17695.710938,17954.191406,-17438.849609,4111.92041,11452.230469,51515.28125,0.0,17225.371094,17709.929688,-17451.900391,17971.560547,0.0,0.0,0.0,0.0,0.0,0.0,0.0,0.0,0.0,0.0,0.0,0.0,0.0,0.0,0.0,0.0,0.0,0.0,0.0,0.0,0.0,0.0,0.0,0.0,0.0,0.0,0.0,0.0,0.0,0.0,0.0,0.0,4112.364258,11513.066406,51477.796875,0.0,-18176.761719,-17696.699219,17954.263672,-17438.03125,4111.888184,11452.307617,51515.300781,0.0,17225.910156,17709.751953,-17451.857422,17971.697266,30.194401,90.348763,22.882658,0.0,-89.00119,-0.012744,28.663172,28.7472,30.190901,89.849297,22.904095,0.0,-89.866585,-0.111685,28.847891,28.963551,1.0,1.008,-45329.0,-128620.0,-509203.0,0.0,175099.0,174656.0,-179949.0,171267.0,-45278.0,-128155.0,-574426.0,0.0,-197016.0,-196802.0,192794.0,-201559.0,0.0,0.0,0.0,0.0,0.0,0.0,0.0,0.0,0.0,0.0,0.0,0.0,0.0,0.0,0.0,0.0,0.0,0.0,0.0,0.0,0.0,0.0,0.0,0.0
47,3.394627094268799,30.194443,90.351753,22.880903,0.0,-89.217987,0.097073,28.600037,28.711189,30.191141,89.848618,22.904089,0.0,-89.966339,-0.091755,28.833302,28.958422,3.0,1.0,111.0,0.0,1.0,-78391.0,-25786.0,13699.0,-78136.0,25572.0,13077.0,-0.937153,0.272314,0.218152,-0.308938,-0.938195,-0.156034,0.162179,-0.213623,0.96336,-0.938578,0.274319,-0.209333,0.308012,0.939507,-0.149853,0.155563,-0.205126,-0.966294,-0.937153,0.272314,0.218152,-0.308938,-0.938195,-0.156034,0.162179,-0.213623,0.96336,-0.938578,0.274319,-0.209333,0.308012,0.939507,-0.149853,0.155563,-0.205126,-0.966294,-78391.0,-25786.0,13699.0,-78136.0,25572.0,13077.0,-364.0,693.0,-62731.0,0.0,-26878.0,-21963.0,-19542.0,-22498.0,410.0,-908.0,-2034.0,0.0,-5623.0,-25.0,1116.0,-1875.0,50.0,169.0,-80.0,0.0,-272.0,1373.0,538.0,24.0,-49.0,-157.0,44.0,0.0,-280.0,537.0,792.0,-857.0,-0.013567,-0.04582,0.021816,0.0,-0.009987,0.050243,-0.019702,0.000899,-0.013467,-0.042481,0.012112,0.0,-0.010251,0.019655,-0.029012,-0.031381,4112.370117,11513.430664,51474.0625,0.0,-18177.929688,-17695.710938,17954.191406,-17438.849609,4111.92041,11452.230469,51515.28125,0.0,17225.371094,17709.929688,-17451.900391,17971.560547,0.0,0.0,0.0,0.0,0.0,0.0,0.0,0.0,0.0,0.0,0.0,0.0,0.0,0.0,0.0,0.0,0.0,0.0,0.0,0.0,0.0,0.0,0.0,0.0,0.0,0.0,0.0,0.0,0.0,0.0,0.0,0.0,4112.364258,11513.066406,51477.796875,0.0,-18176.761719,-17696.699219,17954.263672,-17438.03125,4111.888184,11452.307617,51515.300781,0.0,17225.910156,17709.751953,-17451.857422,17971.697266,30.194401,90.348763,22.882658,0.0,-89.00119,-0.012744,28.663172,28.7472,30.190901,89.849297,22.904095,0.0,-89.866585,-0.111685,28.847891,28.963551,1.0,1.008,-45329.0,-128620.0,-509203.0,0.0,175099.0,174656.0,-179949.0,171267.0,-45278.0,-128155.0,-574426.0,0.0,-197016.0,-196802.0,192794.0,-201559.0,0.0,0.0,0.0,0.0,0.0,0.0,0.0,0.0,0.0,0.0,0.0,0.0,0.0,0.0,0.0,0.0,0.0,0.0,0.0,0.0,0.0,0.0,0.0,0.0
48,3.463529109954834,30.194443,90.351753,22.880903,0.0,-89.217987,0.097073,28.600037,28.711189,30.191141,89.848618,22.904089,0.0,-89.966339,-0.091755,28.833302,28.958422,3.0,1.0,111.0,0.0,1.0,-78391.0,-25786.0,13699.0,-78136.0,25572.0,13077.0,-0.937153,0.272314,0.218152,-0.308938,-0.938195,-0.156034,0.162179,-0.213623,0.96336,-0.938578,0.274319,-0.209333,0.308012,0.939507,-0.149853,0.155563,-0.205126,-0.966294,-0.937153,0.272314,0.218152,-0.308938,-0.938195,-0.156034,0.162179,-0.213623,0.96336,-0.938578,0.274319,-0.209333,0.308012,0.939507,-0.149853,0.155563,-0.205126,-0.966294,-78391.0,-25786.0,13699.0,-78136.0,25572.0,13077.0,-364.0,693.0,-62731.0,0.0,-26878.0,-21963.0,-19542.0,-22498.0,410.0,-908.0,-2034.0,0.0,-5623.0,-25.0,1116.0,-1875.0,50.0,169.0,-80.0,0.0,-271.0,1371.0,538.0,25.0,-49.0,-157.0,44.0,0.0,-279.0,536.0,792.0,-857.0,-0.013567,-0.04582,0.021816,0.0,-0.009917,0.050184,-0.019698,0.000948,-0.013467,-0.042481,0.012112,0.0,-0.010218,0.019644,-0.02901,-0.031373,4112.370117,11513.430664,51474.0625,0.0,-18177.929688,-17695.710938,17954.191406,-17438.849609,4111.92041,11452.230469,51515.28125,0.0,17225.371094,17709.929688,-17451.900391,17971.560547,0.0,0.0,0.0,0.0,0.0,0.0,0.0,0.0,0.0,0.0,0.0,0.0,0.0,0.0,0.0,0.0,0.0,0.0,0.0,0.0,0.0,0.0,0.0,0.0,0.0,0.0,0.0,0.0,0.0,0.0,0.0,0.0,4112.364258,11513.066406,51477.796875,0.0,-18176.761719,-17696.699219,17954.263672,-17438.03125,4111.888184,11452.307617,51515.300781,0.0,17225.910156,17709.751953,-17451.857422,17971.697266,30.194401,90.348763,22.882658,0.0,-89.00119,-0.012744,28.663172,28.7472,30.190901,89.849297,22.904095,0.0,-89.866585,-0.111685,28.847891,28.963551,1.0,1.008,-45329.0,-128620.0,-509203.0,0.0,175099.0,174656.0,-179949.0,171267.0,-45278.0,-128155.0,-574426.0,0.0,-197016.0,-196802.0,192794.0,-201559.0,0.0,0.0,0.0,0.0,0.0,0.0,0.0,0.0,0.0,0.0,0.0,0.0,0.0,0.0,0.0,0.0,0.0,0.0,0.0,0.0,0.0,0.0,0.0,0.0
49,3.5395729541778564,30.194443,90.351753,22.880903,0.0,-89.217987,0.097073,28.600037,28.711189,30.191141,89.848618,22.904089,0.0,-89.966339,-0.091755,28.833302,28.958422,3.0,1.0,111.0,0.0,1.0,-78391.0,-25786.0,13699.0,-78136.0,25572.0,13077.0,-0.937153,0.272314,0.218152,-0.308938,-0.938195,-0.156034,0.162179,-0.213623,0.96336,-0.938578,0.274319,-0.209333,0.308012,0.939507,-0.149853,0.155563,-0.205126,-0.966294,-0.937153,0.272314,0.218152,-0.308938,-0.938195,-0.156034,0.162179,-0.213623,0.96336,-0.938578,0.274319,-0.209333,0.308012,0.939507,-0.149853,0.155563,-0.205126,-0.966294,-78391.0,-25786.0,13699.0,-78136.0,25572.0,13077.0,-364.0,693.0,-62731.0,0.0,-26878.0,-21963.0,-19542.0,-22498.0,410.0,-908.0,-2034.0,0.0,-5623.0,-25.0,1116.0,-1875.0,50.0,169.0,-80.0,0.0,-268.0,1369.0,538.0,27.0,-49.0,-157.0,44.0,0.0,-278.0,536.0,792.0,-857.0,-0.013567,-0.04582,0.021816,0.0,-0.009839,0.050118,-0.019693,0.001003,-0.013467,-0.042481,0.012112,0.0,-0.010182,0.019632,-0.029007,-0.031364,4112.370117,11513.430664,51474.0625,0.0,-18177.929688,-17695.710938,17954.191406,-17438.849609,4111.92041,11452.230469,51515.28125,0.0,17225.371094,17709.929688,-17451.900391,17971.560547,0.0,0.0,0.0,0.0,0.0,0.0,0.0,0.0,0.0,0.0,0.0,0.0,0.0,0.0,0.0,0.0,0.0,0.0,0.0,0.0,0.0,0.0,0.0,0.0,0.0,0.0,0.0,0.0,0.0,0.0,0.0,0.0,4112.364258,11513.066406,51477.796875,0.0,-18176.761719,-17696.699219,17954.263672,-17438.03125,4111.888184,11452.307617,51515.300781,0.0,17225.910156,17709.751953,-17451.857422,17971.697266,30.194401,90.348763,22.882658,0.0,-89.00119,-0.012744,28.663172,28.7472,30.190901,89.849297,22.904095,0.0,-89.866585,-0.111685,28.847891,28.963551,1.0,1.008,-45329.0,-128620.0,-509203.0,0.0,175099.0,174656.0,-179949.0,171267.0,-45278.0,-128155.0,-574426.0,0.0,-197016.0,-196802.0,192794.0,-201559.0,0.0,0.0,0.0,0.0,0.0,0.0,0.0,0.0,0.0,0.0,0.0,0.0,0.0,0.0,0.0,0.0,0.0,0.0,0.0,0.0,0.0,0.0,0.0,0.0
50,3.6115291118621826,30.194443,90.351753,22.880903,0.0,-89.201134,0.097073,28.600037,28.711189,30.191141,89.848618,22.904089,0.0,-89.966339,-0.091755,28.833302,28.958422,3.0,1.0,111.0,0.0,1.0,-78391.0,-25786.0,13699.0,-78136.0,25572.0,13077.0,-0.937153,0.272249,0.218231,-0.308938,-0.93815,-0.15631,0.162179,-0.213906,0.963298,-0.938578,0.274319,-0.209333,0.308012,0.939507,-0.149853,0.155563,-0.205126,-0.966294,-0.937153,0.272249,0.218231,-0.308938,-0.93815,-0.15631,0.162179,-0.213906,0.963298,-0.938578,0.274319,-0.209333,0.308012,0.939507,-0.149853,0.155563,-0.205126,-0.966294,-78391.0,-25786.0,13699.0,-78136.0,25572.0,13077.0,-364.0,693.0,-62731.0,0.0,-26877.0,-21963.0,-19542.0,-22498.0,410.0,-908.0,-2034.0,0.0,-5623.0,-25.0,1116.0,-1875.0,50.0,169.0,-80.0,0.0,-270.0,1367.0,538.0,28.0,-49.0,-157.0,44.0,0.0,-277.0,536.0,792.0,-856.0,-0.013567,-0.04582,0.021816,0.0,-0.00991,0.050056,-0.019688,0.001054,-0.013467,-0.042481,0.012112,0.0,-0.010148,0.019621,-0.029004,-0.031355,4112.370117,11513.430664,51474.0625,0.0,-18177.839844,-17695.710938,17954.191406,-17438.849609,4111.92041,11452.230469,51515.28125,0.0,17225.371094,17709.929688,-17451.900391,17971.560547,0.0,0.0,0.0,0.0,0.0,0.0,0.0,0.0,0.0,0.0,0.0,0.0,0.0,0.0,0.0,0.0,0.0,0.0,0.0,0.0,0.0,0.0,0.0,0.0,0.0,0.0,0.0,0.0,0.0,0.0,0.0,0.0,4112.364258,11513.066406,51477.796875,0.0,-18176.761719,-17696.699219,17954.263672,-17438.03125,4111.888184,11452.307617,51515.300781,0.0,17225.910156,17709.751953,-17451.857422,17971.697266,30.194401,90.348763,22.882658,0.0,-89.00119,-0.012744,28.663172,28.7472,30.190901,89.849297,22.904095,0.0,-89.866585,-0.111685,28.847891,28.963551,1.0,1.008,-45329.0,-128620.0,-509203.0,0.0,175099.0,174656.0,-179949.0,171267.0,-45278.0,-128155.0,-574426.0,0.0,-197016.0,-196802.0,192794.0,-201559.0,0.0,0.0,0.0,0.0,0.0,0.0,0.0,0.0,0.0,0.0,0.0,0.0,0.0,0.0,0.0,0.0,0.0,0.0,0.0,0.0,0.0,0.0,0.0,0.0
