MHC-RobotSimulators-Research/Data_Analysis_MotionReplication/mai_plotter/raven_data/with_offsets/rightarm_p5_phys1_2023-11-15 13_47_26.529583_rs.csv
,time,jpos0,jpos1,jpos2,jpos3,jpos4,jpos5,jpos6,jpos7,jpos8,jpos9,jpos10,jpos11,jpos12,jpos13,jpos14,jpos15,runlevel,sublevel,last_seq,type0,type1,pos0,pos1,pos2,pos3,pos4,pos5,ori0,ori1,ori2,ori3,ori4,ori5,ori6,ori7,ori8,ori9,ori10,ori11,ori12,ori13,ori14,ori15,ori16,ori17,ori_d0,ori_d1,ori_d2,ori_d3,ori_d4,ori_d5,ori_d6,ori_d7,ori_d8,ori_d9,ori_d10,ori_d11,ori_d12,ori_d13,ori_d14,ori_d15,ori_d16,ori_d17,pos_d0,pos_d1,pos_d2,pos_d3,pos_d4,pos_d5,encVals0,encVals1,encVals2,encVals3,encVals4,encVals5,encVals6,encVals7,encVals8,encVals9,encVals10,encVals11,encVals12,encVals13,encVals14,encVals15,dac_vals0,dac_vals1,dac_vals2,dac_vals3,dac_vals4,dac_vals5,dac_vals6,dac_vals7,dac_vals8,dac_vals9,dac_vals10,dac_vals11,dac_vals12,dac_vals13,dac_vals14,dac_vals15,Tau0,Tau1,Tau2,Tau3,Tau4,Tau5,Tau6,Tau7,Tau8,Tau9,Tau10,Tau11,Tau12,Tau13,Tau14,Tau15,mpos0,mpos1,mpos2,mpos3,mpos4,mpos5,mpos6,mpos7,mpos8,mpos9,mpos10,mpos11,mpos12,mpos13,mpos14,mpos15,mvel0,mvel1,mvel2,mvel3,mvel4,mvel5,mvel6,mvel7,mvel8,mvel9,mvel10,mvel11,mvel12,mvel13,mvel14,mvel15,jvel0,jvel1,jvel2,jvel3,jvel4,jvel5,jvel6,jvel7,jvel8,jvel9,jvel10,jvel11,jvel12,jvel13,jvel14,jvel15,mpos_d0,mpos_d1,mpos_d2,mpos_d3,mpos_d4,mpos_d5,mpos_d6,mpos_d7,mpos_d8,mpos_d9,mpos_d10,mpos_d11,mpos_d12,mpos_d13,mpos_d14,mpos_d15,jpos_d0,jpos_d1,jpos_d2,jpos_d3,jpos_d4,jpos_d5,jpos_d6,jpos_d7,jpos_d8,jpos_d9,jpos_d10,jpos_d11,jpos_d12,jpos_d13,jpos_d14,jpos_d15,grasp_d0,grasp_d1,encoffsets0,encoffsets1,encoffsets2,encoffsets3,encoffsets4,encoffsets5,encoffsets6,encoffsets7,encoffsets8,encoffsets9,encoffsets10,encoffsets11,encoffsets12,encoffsets13,encoffsets14,encoffsets15,jac_vel0,jac_vel1,jac_vel2,jac_vel3,jac_vel4,jac_vel5,jac_vel6,jac_vel7,jac_vel8,jac_vel9,jac_vel10,jac_vel11,jac_f0,jac_f1,jac_f2,jac_f3,jac_f4,jac_f5,jac_f6,jac_f7,jac_f8,jac_f9,jac_f10,jac_f11
0,0.0,34.068115,87.987175,22.290628,0.0,-89.145676,1.081233,26.93362,29.796967,30.192459,89.847679,22.904085,0.0,-2.071219,-0.071726,43.466305,43.481365,3.0,1.0,111.0,0.0,1.0,-86586.0,-34358.0,12223.0,-78127.0,25592.0,13092.0,-0.916326,0.351768,0.191326,-0.385475,-0.904267,-0.183604,0.108424,-0.241992,0.964201,-0.938174,0.22085,0.26656,0.308438,0.183747,0.933329,0.157146,0.957842,-0.240506,-0.915735,0.353949,0.190129,-0.387903,-0.902152,-0.18882,0.104693,-0.24666,0.96343,-0.938156,0.22053,0.266889,0.308702,0.183845,0.933223,0.156737,0.957898,-0.240553,-86573.0,-34342.0,12184.0,-78125.0,25597.0,13092.0,-6226.0,3125.0,-48840.0,0.0,-22098.0,-17089.0,-14649.0,-17663.0,412.0,-909.0,-2034.0,0.0,-354.0,-23.0,-347.0,-425.0,117.0,151.0,-71.0,0.0,-502.0,-338.0,454.0,-211.0,-48.0,-157.0,45.0,0.0,508.0,571.0,-30.0,550.0,-0.031777,-0.041023,0.019358,0.0,-0.018402,-0.012402,-0.016629,-0.007756,-0.013217,-0.042645,0.012369,0.0,0.018617,0.020927,0.001098,0.020143,4639.950195,11294.550781,50223.871094,0.0,-17747.730469,-17257.050781,17513.820312,-17003.701172,4112.100098,11452.139648,51515.28125,0.0,17699.580078,17710.109375,-17320.230469,18102.060547,0.0,0.0,0.0,0.0,0.0,0.0,0.0,0.0,0.0,0.0,0.0,0.0,0.0,0.0,0.0,0.0,0.0,0.0,0.0,0.0,0.0,0.0,0.0,0.0,0.0,0.0,0.0,0.0,0.0,0.0,0.0,0.0,4639.957031,11294.561523,50226.746094,0.0,-17746.320312,-17255.550781,17513.294922,-17002.216797,4112.116699,11452.186523,51515.398438,0.0,17699.582031,17709.931641,-17320.277344,18101.835938,34.068169,87.987251,22.291958,0.0,-88.884499,1.248093,26.791937,30.045477,30.192581,89.848045,22.904139,0.0,-2.070968,-0.091626,43.471081,43.446617,0.992,1.517,-45329.0,-128620.0,-509203.0,0.0,175099.0,174656.0,-179949.0,171267.0,-45278.0,-128155.0,-574426.0,0.0,-197016.0,-196802.0,192794.0,-201559.0,0.0,0.0,0.0,0.0,0.0,0.0,0.0,0.0,0.0,0.0,0.0,0.0,0.0,0.0,0.0,0.0,0.0,0.0,0.0,0.0,0.0,0.0,0.0,0.0
1,0.0890040397644043,34.068115,87.987175,22.290628,0.0,-89.145676,1.081233,26.93362,29.796967,30.192459,89.847679,22.904085,0.0,-2.071219,-0.071726,43.466305,43.481365,3.0,1.0,111.0,0.0,1.0,-86586.0,-34358.0,12223.0,-78127.0,25592.0,13092.0,-0.916326,0.351768,0.191326,-0.385475,-0.904267,-0.183604,0.108424,-0.241992,0.964201,-0.938174,0.22085,0.26656,0.308438,0.183747,0.933329,0.157146,0.957842,-0.240506,-0.916326,0.351768,0.191326,-0.385475,-0.904267,-0.183604,0.108424,-0.241992,0.964201,-0.938174,0.22085,0.26656,0.308438,0.183747,0.933329,0.157146,0.957842,-0.240506,-86586.0,-34358.0,12223.0,-78127.0,25592.0,13092.0,-6226.0,3125.0,-48840.0,0.0,-22098.0,-17089.0,-14649.0,-17663.0,412.0,-909.0,-2034.0,0.0,-354.0,-23.0,-347.0,-425.0,117.0,151.0,-71.0,0.0,-499.0,-335.0,455.0,-208.0,-48.0,-157.0,45.0,0.0,508.0,571.0,-29.0,549.0,-0.031777,-0.041023,0.019358,0.0,-0.018292,-0.012285,-0.016669,-0.007641,-0.013217,-0.042645,0.012369,0.0,0.018617,0.020913,0.001094,0.020126,4639.950195,11294.550781,50223.871094,0.0,-17747.730469,-17257.050781,17513.820312,-17003.701172,4112.100098,11452.139648,51515.28125,0.0,17699.580078,17710.109375,-17320.230469,18102.060547,0.0,0.0,0.0,0.0,0.0,0.0,0.0,0.0,0.0,0.0,0.0,0.0,0.0,0.0,0.0,0.0,0.0,0.0,0.0,0.0,0.0,0.0,0.0,0.0,0.0,0.0,0.0,0.0,0.0,0.0,0.0,0.0,4639.957031,11294.561523,50226.746094,0.0,-17746.320312,-17255.550781,17513.294922,-17002.216797,4112.116699,11452.186523,51515.398438,0.0,17699.582031,17709.931641,-17320.277344,18101.835938,34.068169,87.987251,22.291958,0.0,-88.884499,1.248093,26.791937,30.045477,30.192581,89.848045,22.904139,0.0,-2.070968,-0.091626,43.471081,43.446617,0.99,1.517,-45329.0,-128620.0,-509203.0,0.0,175099.0,174656.0,-179949.0,171267.0,-45278.0,-128155.0,-574426.0,0.0,-197016.0,-196802.0,192794.0,-201559.0,0.0,0.0,0.0,0.0,0.0,0.0,0.0,0.0,0.0,0.0,0.0,0.0,0.0,0.0,0.0,0.0,0.0,0.0,0.0,0.0,0.0,0.0,0.0,0.0
2,0.16701602935791016,34.068115,87.987175,22.290586,0.0,-89.151245,1.077891,26.938633,29.791954,30.192459,89.847679,22.904085,0.0,-2.071219,-0.071726,43.466305,43.481365,3.0,1.0,111.0,0.0,1.0,-86587.0,-34358.0,12223.0,-78127.0,25592.0,13092.0,-0.916345,0.351708,0.191348,-0.385408,-0.904318,-0.183494,0.108503,-0.241891,0.964218,-0.938174,0.22085,0.26656,0.308438,0.183747,0.933329,0.157146,0.957842,-0.240506,-0.916345,0.351708,0.191348,-0.385408,-0.904318,-0.183494,0.108503,-0.241891,0.964218,-0.938174,0.22085,0.26656,0.308438,0.183747,0.933329,0.157146,0.957842,-0.240506,-86587.0,-34358.0,12223.0,-78127.0,25592.0,13092.0,-6226.0,3125.0,-48839.0,0.0,-22098.0,-17089.0,-14649.0,-17663.0,412.0,-909.0,-2034.0,0.0,-354.0,-23.0,-347.0,-425.0,117.0,151.0,-72.0,0.0,-495.0,-332.0,457.0,-205.0,-48.0,-157.0,45.0,0.0,508.0,571.0,-29.0,549.0,-0.031777,-0.041023,0.019587,0.0,-0.018149,-0.012157,-0.016732,-0.007513,-0.013217,-0.042645,0.012369,0.0,0.018617,0.020901,0.001091,0.02011,4639.950195,11294.550781,50223.78125,0.0,-17747.730469,-17257.050781,17513.820312,-17003.701172,4112.100098,11452.139648,51515.28125,0.0,17699.580078,17710.109375,-17320.230469,18102.060547,0.0,0.0,0.0,0.0,0.0,0.0,0.0,0.0,0.0,0.0,0.0,0.0,0.0,0.0,0.0,0.0,0.0,0.0,0.0,0.0,0.0,0.0,0.0,0.0,0.0,0.0,0.0,0.0,0.0,0.0,0.0,0.0,4639.957031,11294.561523,50226.746094,0.0,-17746.291016,-17255.521484,17513.265625,-17002.1875,4112.116699,11452.186523,51515.398438,0.0,17699.582031,17709.931641,-17320.277344,18101.835938,34.068169,87.987251,22.291958,0.0,-88.884499,1.248093,26.791937,30.045477,30.192581,89.848045,22.904139,0.0,-2.070968,-0.091626,43.471081,43.446617,0.99,1.517,-45329.0,-128620.0,-509203.0,0.0,175099.0,174656.0,-179949.0,171267.0,-45278.0,-128155.0,-574426.0,0.0,-197016.0,-196802.0,192794.0,-201559.0,0.0,0.0,0.0,0.0,0.0,0.0,0.0,0.0,0.0,0.0,0.0,0.0,0.0,0.0,0.0,0.0,0.0,0.0,0.0,0.0,0.0,0.0,0.0,0.0
3,0.24001216888427734,34.068115,87.987175,22.290586,0.0,-89.151245,1.077891,26.938633,29.791954,30.192459,89.847679,22.904085,0.0,-2.071219,-0.071726,43.466305,43.481365,3.0,1.0,111.0,0.0,1.0,-86587.0,-34358.0,12223.0,-78127.0,25592.0,13092.0,-0.916345,0.351708,0.191348,-0.385408,-0.904318,-0.183494,0.108503,-0.241891,0.964218,-0.938174,0.22085,0.26656,0.308438,0.183747,0.933329,0.157146,0.957842,-0.240506,-0.916345,0.351708,0.191348,-0.385408,-0.904318,-0.183494,0.108503,-0.241891,0.964218,-0.938174,0.22085,0.26656,0.308438,0.183747,0.933329,0.157146,0.957842,-0.240506,-86587.0,-34358.0,12223.0,-78127.0,25592.0,13092.0,-6226.0,3125.0,-48839.0,0.0,-22098.0,-17089.0,-14649.0,-17663.0,412.0,-909.0,-2034.0,0.0,-354.0,-23.0,-347.0,-425.0,117.0,151.0,-72.0,0.0,-493.0,-329.0,458.0,-202.0,-48.0,-157.0,45.0,0.0,508.0,570.0,-29.0,549.0,-0.031777,-0.041023,0.019587,0.0,-0.018057,-0.012059,-0.016767,-0.007417,-0.013217,-0.042645,0.012369,0.0,0.018617,0.02089,0.001088,0.020096,4639.950195,11294.550781,50223.78125,0.0,-17747.730469,-17257.050781,17513.820312,-17003.701172,4112.100098,11452.139648,51515.28125,0.0,17699.580078,17710.109375,-17320.230469,18102.060547,0.0,0.0,0.0,0.0,0.0,0.0,0.0,0.0,0.0,0.0,0.0,0.0,0.0,0.0,0.0,0.0,0.0,0.0,0.0,0.0,0.0,0.0,0.0,0.0,0.0,0.0,0.0,0.0,0.0,0.0,0.0,0.0,4639.957031,11294.561523,50226.746094,0.0,-17746.291016,-17255.521484,17513.265625,-17002.1875,4112.116699,11452.186523,51515.398438,0.0,17699.582031,17709.931641,-17320.277344,18101.835938,34.068169,87.987251,22.291958,0.0,-88.884499,1.248093,26.791937,30.045477,30.192581,89.848045,22.904139,0.0,-2.070968,-0.091626,43.471081,43.446617,0.99,1.517,-45329.0,-128620.0,-509203.0,0.0,175099.0,174656.0,-179949.0,171267.0,-45278.0,-128155.0,-574426.0,0.0,-197016.0,-196802.0,192794.0,-201559.0,0.0,0.0,0.0,0.0,0.0,0.0,0.0,0.0,0.0,0.0,0.0,0.0,0.0,0.0,0.0,0.0,0.0,0.0,0.0,0.0,0.0,0.0,0.0,0.0
4,0.31100916862487793,34.068115,87.987175,22.290586,0.0,-89.151245,1.077891,26.938633,29.791954,30.192459,89.847679,22.904085,0.0,-2.071219,-0.071726,43.466305,43.481365,3.0,1.0,111.0,0.0,1.0,-86587.0,-34358.0,12223.0,-78127.0,25592.0,13092.0,-0.916345,0.351708,0.191348,-0.385408,-0.904318,-0.183494,0.108503,-0.241891,0.964218,-0.938174,0.22085,0.26656,0.308438,0.183747,0.933329,0.157146,0.957842,-0.240506,-0.916345,0.351708,0.191348,-0.385408,-0.904318,-0.183494,0.108503,-0.241891,0.964218,-0.938174,0.22085,0.26656,0.308438,0.183747,0.933329,0.157146,0.957842,-0.240506,-86587.0,-34358.0,12223.0,-78127.0,25592.0,13092.0,-6226.0,3125.0,-48839.0,0.0,-22098.0,-17089.0,-14649.0,-17663.0,412.0,-909.0,-2034.0,0.0,-354.0,-23.0,-347.0,-425.0,117.0,151.0,-72.0,0.0,-491.0,-326.0,459.0,-200.0,-48.0,-157.0,45.0,0.0,508.0,570.0,-29.0,548.0,-0.031777,-0.041023,0.019587,0.0,-0.017968,-0.011964,-0.016801,-0.007323,-0.013217,-0.042645,0.012369,0.0,0.018617,0.020879,0.001085,0.020082,4639.950195,11294.550781,50223.78125,0.0,-17747.730469,-17257.050781,17513.820312,-17003.701172,4112.100098,11452.139648,51515.28125,0.0,17699.580078,17710.109375,-17320.230469,18102.060547,0.0,0.0,0.0,0.0,0.0,0.0,0.0,0.0,0.0,0.0,0.0,0.0,0.0,0.0,0.0,0.0,0.0,0.0,0.0,0.0,0.0,0.0,0.0,0.0,0.0,0.0,0.0,0.0,0.0,0.0,0.0,0.0,4639.957031,11294.561523,50226.746094,0.0,-17746.291016,-17255.521484,17513.265625,-17002.1875,4112.116699,11452.186523,51515.398438,0.0,17699.582031,17709.931641,-17320.277344,18101.835938,34.068169,87.987251,22.291958,0.0,-88.884499,1.248093,26.791937,30.045477,30.192581,89.848045,22.904139,0.0,-2.070968,-0.091626,43.471081,43.446617,0.99,1.517,-45329.0,-128620.0,-509203.0,0.0,175099.0,174656.0,-179949.0,171267.0,-45278.0,-128155.0,-574426.0,0.0,-197016.0,-196802.0,192794.0,-201559.0,0.0,0.0,0.0,0.0,0.0,0.0,0.0,0.0,0.0,0.0,0.0,0.0,0.0,0.0,0.0,0.0,0.0,0.0,0.0,0.0,0.0,0.0,0.0,0.0
5,0.3809990882873535,34.068115,87.987175,22.290586,0.0,-89.151245,1.077891,26.938633,29.791954,30.192459,89.847679,22.904085,0.0,-2.071219,-0.071726,43.466305,43.481365,3.0,1.0,111.0,0.0,1.0,-86587.0,-34358.0,12223.0,-78127.0,25592.0,13092.0,-0.916345,0.351708,0.191348,-0.385408,-0.904318,-0.183494,0.108503,-0.241891,0.964218,-0.938174,0.22085,0.26656,0.308438,0.183747,0.933329,0.157146,0.957842,-0.240506,-0.916345,0.351708,0.191348,-0.385408,-0.904318,-0.183494,0.108503,-0.241891,0.964218,-0.938174,0.22085,0.26656,0.308438,0.183747,0.933329,0.157146,0.957842,-0.240506,-86587.0,-34358.0,12223.0,-78127.0,25592.0,13092.0,-6226.0,3125.0,-48839.0,0.0,-22098.0,-17089.0,-14649.0,-17663.0,412.0,-909.0,-2034.0,0.0,-354.0,-23.0,-347.0,-425.0,117.0,151.0,-72.0,0.0,-488.0,-324.0,460.0,-197.0,-48.0,-157.0,45.0,0.0,508.0,570.0,-29.0,548.0,-0.031777,-0.041023,0.019587,0.0,-0.01788,-0.011871,-0.016835,-0.00723,-0.013217,-0.042645,0.012369,0.0,0.018617,0.020868,0.001082,0.020069,4639.950195,11294.550781,50223.78125,0.0,-17747.730469,-17257.050781,17513.820312,-17003.701172,4112.100098,11452.139648,51515.28125,0.0,17699.580078,17710.109375,-17320.230469,18102.060547,0.0,0.0,0.0,0.0,0.0,0.0,0.0,0.0,0.0,0.0,0.0,0.0,0.0,0.0,0.0,0.0,0.0,0.0,0.0,0.0,0.0,0.0,0.0,0.0,0.0,0.0,0.0,0.0,0.0,0.0,0.0,0.0,4639.957031,11294.561523,50226.746094,0.0,-17746.291016,-17255.521484,17513.265625,-17002.1875,4112.116699,11452.186523,51515.398438,0.0,17699.582031,17709.931641,-17320.277344,18101.835938,34.068169,87.987251,22.291958,0.0,-88.884499,1.248093,26.791937,30.045477,30.192581,89.848045,22.904139,0.0,-2.070968,-0.091626,43.471081,43.446617,0.99,1.517,-45329.0,-128620.0,-509203.0,0.0,175099.0,174656.0,-179949.0,171267.0,-45278.0,-128155.0,-574426.0,0.0,-197016.0,-196802.0,192794.0,-201559.0,0.0,0.0,0.0,0.0,0.0,0.0,0.0,0.0,0.0,0.0,0.0,0.0,0.0,0.0,0.0,0.0,0.0,0.0,0.0,0.0,0.0,0.0,0.0,0.0
6,0.45197105407714844,34.068115,87.987175,22.290546,0.0,-89.157043,1.074414,26.943848,29.786739,30.192459,89.847679,22.904085,0.0,-2.071219,-0.071726,43.466305,43.481365,3.0,1.0,111.0,0.0,1.0,-86587.0,-34359.0,12224.0,-78127.0,25592.0,13092.0,-0.916364,0.351645,0.191371,-0.385339,-0.90437,-0.183379,0.108586,-0.241785,0.964235,-0.938174,0.22085,0.26656,0.308438,0.183747,0.933329,0.157146,0.957842,-0.240506,-0.916364,0.351645,0.191371,-0.385339,-0.90437,-0.183379,0.108586,-0.241785,0.964235,-0.938174,0.22085,0.26656,0.308438,0.183747,0.933329,0.157146,0.957842,-0.240506,-86587.0,-34359.0,12224.0,-78127.0,25592.0,13092.0,-6226.0,3125.0,-48838.0,0.0,-22098.0,-17089.0,-14649.0,-17663.0,412.0,-909.0,-2034.0,0.0,-354.0,-23.0,-347.0,-425.0,117.0,151.0,-73.0,0.0,-484.0,-321.0,461.0,-194.0,-48.0,-157.0,45.0,0.0,508.0,569.0,-29.0,548.0,-0.031777,-0.041023,0.019825,0.0,-0.01774,-0.011747,-0.016899,-0.007107,-0.013217,-0.042645,0.012369,0.0,0.018617,0.020857,0.001079,0.020055,4639.950195,11294.550781,50223.691406,0.0,-17747.730469,-17257.050781,17513.820312,-17003.701172,4112.100098,11452.139648,51515.28125,0.0,17699.580078,17710.109375,-17320.230469,18102.060547,0.0,0.0,0.0,0.0,0.0,0.0,0.0,0.0,0.0,0.0,0.0,0.0,0.0,0.0,0.0,0.0,0.0,0.0,0.0,0.0,0.0,0.0,0.0,0.0,0.0,0.0,0.0,0.0,0.0,0.0,0.0,0.0,4639.957031,11294.561523,50226.746094,0.0,-17746.259766,-17255.488281,17513.234375,-17002.15625,4112.116699,11452.186523,51515.398438,0.0,17699.582031,17709.931641,-17320.277344,18101.835938,34.068169,87.987251,22.291958,0.0,-88.884499,1.248093,26.791937,30.045477,30.192581,89.848045,22.904139,0.0,-2.070968,-0.091626,43.471081,43.446617,0.99,1.517,-45329.0,-128620.0,-509203.0,0.0,175099.0,174656.0,-179949.0,171267.0,-45278.0,-128155.0,-574426.0,0.0,-197016.0,-196802.0,192794.0,-201559.0,0.0,0.0,0.0,0.0,0.0,0.0,0.0,0.0,0.0,0.0,0.0,0.0,0.0,0.0,0.0,0.0,0.0,0.0,0.0,0.0,0.0,0.0,0.0,0.0
7,0.5240201950073242,34.068115,87.987175,22.290546,0.0,-89.157043,1.074414,26.943848,29.786739,30.192459,89.847679,22.904085,0.0,-2.071219,-0.071726,43.466305,43.481365,3.0,1.0,111.0,0.0,1.0,-86587.0,-34359.0,12224.0,-78127.0,25592.0,13092.0,-0.916364,0.351645,0.191371,-0.385339,-0.90437,-0.183379,0.108586,-0.241785,0.964235,-0.938174,0.22085,0.26656,0.308438,0.183747,0.933329,0.157146,0.957842,-0.240506,-0.916364,0.351645,0.191371,-0.385339,-0.90437,-0.183379,0.108586,-0.241785,0.964235,-0.938174,0.22085,0.26656,0.308438,0.183747,0.933329,0.157146,0.957842,-0.240506,-86587.0,-34359.0,12224.0,-78127.0,25592.0,13092.0,-6226.0,3125.0,-48838.0,0.0,-22098.0,-17089.0,-14649.0,-17663.0,412.0,-909.0,-2034.0,0.0,-354.0,-23.0,-347.0,-425.0,117.0,151.0,-73.0,0.0,-482.0,-318.0,462.0,-191.0,-48.0,-157.0,45.0,0.0,508.0,569.0,-29.0,547.0,-0.031777,-0.041023,0.019825,0.0,-0.017647,-0.011649,-0.016936,-0.00701,-0.013217,-0.042645,0.012369,0.0,0.018618,0.020846,0.001076,0.020041,4639.950195,11294.550781,50223.691406,0.0,-17747.730469,-17257.050781,17513.820312,-17003.701172,4112.100098,11452.139648,51515.28125,0.0,17699.580078,17710.109375,-17320.230469,18102.060547,0.0,0.0,0.0,0.0,0.0,0.0,0.0,0.0,0.0,0.0,0.0,0.0,0.0,0.0,0.0,0.0,0.0,0.0,0.0,0.0,0.0,0.0,0.0,0.0,0.0,0.0,0.0,0.0,0.0,0.0,0.0,0.0,4639.957031,11294.561523,50226.746094,0.0,-17746.259766,-17255.488281,17513.234375,-17002.15625,4112.116699,11452.186523,51515.398438,0.0,17699.582031,17709.931641,-17320.277344,18101.835938,34.068169,87.987251,22.291958,0.0,-88.884499,1.248093,26.791937,30.045477,30.192581,89.848045,22.904139,0.0,-2.070968,-0.091626,43.471081,43.446617,0.99,1.517,-45329.0,-128620.0,-509203.0,0.0,175099.0,174656.0,-179949.0,171267.0,-45278.0,-128155.0,-574426.0,0.0,-197016.0,-196802.0,192794.0,-201559.0,0.0,0.0,0.0,0.0,0.0,0.0,0.0,0.0,0.0,0.0,0.0,0.0,0.0,0.0,0.0,0.0,0.0,0.0,0.0,0.0,0.0,0.0,0.0,0.0
8,0.5950050354003906,34.068115,87.987175,22.290546,0.0,-89.157043,1.074414,26.943848,29.786739,30.192459,89.847679,22.904085,0.0,-2.071219,-0.071726,43.466305,43.481365,3.0,1.0,111.0,0.0,1.0,-86587.0,-34359.0,12224.0,-78127.0,25592.0,13092.0,-0.916364,0.351645,0.191371,-0.385339,-0.90437,-0.183379,0.108586,-0.241785,0.964235,-0.938174,0.22085,0.26656,0.308438,0.183747,0.933329,0.157146,0.957842,-0.240506,-0.916364,0.351645,0.191371,-0.385339,-0.90437,-0.183379,0.108586,-0.241785,0.964235,-0.938174,0.22085,0.26656,0.308438,0.183747,0.933329,0.157146,0.957842,-0.240506,-86587.0,-34359.0,12224.0,-78127.0,25592.0,13092.0,-6226.0,3125.0,-48838.0,0.0,-22098.0,-17089.0,-14649.0,-17663.0,412.0,-909.0,-2034.0,0.0,-354.0,-23.0,-347.0,-425.0,117.0,151.0,-73.0,0.0,-479.0,-315.0,463.0,-188.0,-48.0,-157.0,45.0,0.0,508.0,569.0,-29.0,547.0,-0.031777,-0.041023,0.019825,0.0,-0.017556,-0.011552,-0.016972,-0.006914,-0.013217,-0.042645,0.012369,0.0,0.018618,0.020835,0.001074,0.020027,4639.950195,11294.550781,50223.691406,0.0,-17747.730469,-17257.050781,17513.820312,-17003.701172,4112.100098,11452.139648,51515.28125,0.0,17699.580078,17710.109375,-17320.230469,18102.060547,0.0,0.0,0.0,0.0,0.0,0.0,0.0,0.0,0.0,0.0,0.0,0.0,0.0,0.0,0.0,0.0,0.0,0.0,0.0,0.0,0.0,0.0,0.0,0.0,0.0,0.0,0.0,0.0,0.0,0.0,0.0,0.0,4639.957031,11294.561523,50226.746094,0.0,-17746.259766,-17255.488281,17513.234375,-17002.15625,4112.116699,11452.186523,51515.398438,0.0,17699.582031,17709.931641,-17320.277344,18101.835938,34.068169,87.987251,22.291958,0.0,-88.884499,1.248093,26.791937,30.045477,30.192581,89.848045,22.904139,0.0,-2.070968,-0.091626,43.471081,43.446617,0.99,1.517,-45329.0,-128620.0,-509203.0,0.0,175099.0,174656.0,-179949.0,171267.0,-45278.0,-128155.0,-574426.0,0.0,-197016.0,-196802.0,192794.0,-201559.0,0.0,0.0,0.0,0.0,0.0,0.0,0.0,0.0,0.0,0.0,0.0,0.0,0.0,0.0,0.0,0.0,0.0,0.0,0.0,0.0,0.0,0.0,0.0,0.0
9,0.6690030097961426,34.068115,87.987175,22.290503,0.0,-89.162834,1.070938,26.949062,29.781523,30.192459,89.847679,22.904085,0.0,-2.071219,-0.071726,43.466305,43.481365,3.0,1.0,111.0,0.0,1.0,-86588.0,-34359.0,12225.0,-78127.0,25592.0,13092.0,-0.916383,0.351583,0.191394,-0.38527,-0.904423,-0.183265,0.108668,-0.241679,0.964252,-0.938174,0.22085,0.26656,0.308438,0.183747,0.933329,0.157146,0.957842,-0.240506,-0.916383,0.351583,0.191394,-0.38527,-0.904423,-0.183265,0.108668,-0.241679,0.964252,-0.938174,0.22085,0.26656,0.308438,0.183747,0.933329,0.157146,0.957842,-0.240506,-86588.0,-34359.0,12225.0,-78127.0,25592.0,13092.0,-6226.0,3125.0,-48837.0,0.0,-22098.0,-17089.0,-14649.0,-17663.0,412.0,-909.0,-2034.0,0.0,-354.0,-23.0,-347.0,-425.0,117.0,151.0,-74.0,0.0,-475.0,-312.0,465.0,-185.0,-48.0,-157.0,45.0,0.0,508.0,569.0,-29.0,546.0,-0.031777,-0.041023,0.020063,0.0,-0.017411,-0.011423,-0.017038,-0.006786,-0.013217,-0.042645,0.012369,0.0,0.018618,0.020823,0.00107,0.020012,4639.950195,11294.550781,50223.601562,0.0,-17747.730469,-17257.050781,17513.820312,-17003.701172,4112.100098,11452.139648,51515.28125,0.0,17699.580078,17710.109375,-17320.230469,18102.060547,0.0,0.0,0.0,0.0,0.0,0.0,0.0,0.0,0.0,0.0,0.0,0.0,0.0,0.0,0.0,0.0,0.0,0.0,0.0,0.0,0.0,0.0,0.0,0.0,0.0,0.0,0.0,0.0,0.0,0.0,0.0,0.0,4639.957031,11294.561523,50226.746094,0.0,-17746.228516,-17255.457031,17513.203125,-17002.123047,4112.116699,11452.186523,51515.398438,0.0,17699.582031,17709.931641,-17320.277344,18101.835938,34.068169,87.987251,22.291958,0.0,-88.884499,1.248093,26.791937,30.045477,30.192581,89.848045,22.904139,0.0,-2.070968,-0.091626,43.471081,43.446617,0.99,1.517,-45329.0,-128620.0,-509203.0,0.0,175099.0,174656.0,-179949.0,171267.0,-45278.0,-128155.0,-574426.0,0.0,-197016.0,-196802.0,192794.0,-201559.0,0.0,0.0,0.0,0.0,0.0,0.0,0.0,0.0,0.0,0.0,0.0,0.0,0.0,0.0,0.0,0.0,0.0,0.0,0.0,0.0,0.0,0.0,0.0,0.0
10,0.7449460029602051,34.068115,87.987175,22.290503,0.0,-89.162834,1.070938,26.949062,29.781523,30.192459,89.847679,22.904085,0.0,-2.071219,-0.071726,43.466305,43.481365,3.0,1.0,111.0,0.0,1.0,-86588.0,-34359.0,12225.0,-78127.0,25592.0,13092.0,-0.916383,0.351583,0.191394,-0.38527,-0.904423,-0.183265,0.108668,-0.241679,0.964252,-0.938174,0.22085,0.26656,0.308438,0.183747,0.933329,0.157146,0.957842,-0.240506,-0.916383,0.351583,0.191394,-0.38527,-0.904423,-0.183265,0.108668,-0.241679,0.964252,-0.938174,0.22085,0.26656,0.308438,0.183747,0.933329,0.157146,0.957842,-0.240506,-86588.0,-34359.0,12225.0,-78127.0,25592.0,13092.0,-6226.0,3125.0,-48837.0,0.0,-22098.0,-17089.0,-14649.0,-17663.0,412.0,-909.0,-2034.0,0.0,-354.0,-23.0,-347.0,-425.0,117.0,151.0,-74.0,0.0,-473.0,-309.0,466.0,-182.0,-48.0,-157.0,45.0,0.0,508.0,568.0,-29.0,546.0,-0.031777,-0.041023,0.020063,0.0,-0.017312,-0.011318,-0.017079,-0.006682,-0.013217,-0.042645,0.012369,0.0,0.018618,0.020812,0.001067,0.019997,4639.950195,11294.550781,50223.601562,0.0,-17747.730469,-17257.050781,17513.820312,-17003.701172,4112.100098,11452.139648,51515.28125,0.0,17699.580078,17710.109375,-17320.230469,18102.060547,0.0,0.0,0.0,0.0,0.0,0.0,0.0,0.0,0.0,0.0,0.0,0.0,0.0,0.0,0.0,0.0,0.0,0.0,0.0,0.0,0.0,0.0,0.0,0.0,0.0,0.0,0.0,0.0,0.0,0.0,0.0,0.0,4639.957031,11294.561523,50226.746094,0.0,-17746.228516,-17255.457031,17513.203125,-17002.123047,4112.116699,11452.186523,51515.398438,0.0,17699.582031,17709.931641,-17320.277344,18101.835938,34.068169,87.987251,22.291958,0.0,-88.884499,1.248093,26.791937,30.045477,30.192581,89.848045,22.904139,0.0,-2.070968,-0.091626,43.471081,43.446617,0.99,1.517,-45329.0,-128620.0,-509203.0,0.0,175099.0,174656.0,-179949.0,171267.0,-45278.0,-128155.0,-574426.0,0.0,-197016.0,-196802.0,192794.0,-201559.0,0.0,0.0,0.0,0.0,0.0,0.0,0.0,0.0,0.0,0.0,0.0,0.0,0.0,0.0,0.0,0.0,0.0,0.0,0.0,0.0,0.0,0.0,0.0,0.0
11,0.8189401626586914,34.068115,87.987175,22.290503,0.0,-89.162834,1.070938,26.949062,29.781523,30.192459,89.847679,22.904085,0.0,-2.071219,-0.071726,43.466305,43.481365,3.0,1.0,111.0,0.0,1.0,-86588.0,-34359.0,12225.0,-78127.0,25592.0,13092.0,-0.916383,0.351583,0.191394,-0.38527,-0.904423,-0.183265,0.108668,-0.241679,0.964252,-0.938174,0.22085,0.26656,0.308438,0.183747,0.933329,0.157146,0.957842,-0.240506,-0.916383,0.351583,0.191394,-0.38527,-0.904423,-0.183265,0.108668,-0.241679,0.964252,-0.938174,0.22085,0.26656,0.308438,0.183747,0.933329,0.157146,0.957842,-0.240506,-86588.0,-34359.0,12225.0,-78127.0,25592.0,13092.0,-6226.0,3125.0,-48837.0,0.0,-22098.0,-17089.0,-14649.0,-17663.0,412.0,-909.0,-2034.0,0.0,-354.0,-23.0,-347.0,-425.0,117.0,151.0,-74.0,0.0,-470.0,-306.0,467.0,-179.0,-48.0,-157.0,45.0,0.0,508.0,568.0,-29.0,546.0,-0.031777,-0.041023,0.020063,0.0,-0.017215,-0.011215,-0.017119,-0.00658,-0.013217,-0.042645,0.012369,0.0,0.018618,0.0208,0.001064,0.019983,4639.950195,11294.550781,50223.601562,0.0,-17747.730469,-17257.050781,17513.820312,-17003.701172,4112.100098,11452.139648,51515.28125,0.0,17699.580078,17710.109375,-17320.230469,18102.060547,0.0,0.0,0.0,0.0,0.0,0.0,0.0,0.0,0.0,0.0,0.0,0.0,0.0,0.0,0.0,0.0,0.0,0.0,0.0,0.0,0.0,0.0,0.0,0.0,0.0,0.0,0.0,0.0,0.0,0.0,0.0,0.0,4639.957031,11294.561523,50226.746094,0.0,-17746.228516,-17255.457031,17513.203125,-17002.123047,4112.116699,11452.186523,51515.398438,0.0,17699.582031,17709.931641,-17320.277344,18101.835938,34.068169,87.987251,22.291958,0.0,-88.884499,1.248093,26.791937,30.045477,30.192581,89.848045,22.904139,0.0,-2.070968,-0.091626,43.471081,43.446617,0.99,1.517,-45329.0,-128620.0,-509203.0,0.0,175099.0,174656.0,-179949.0,171267.0,-45278.0,-128155.0,-574426.0,0.0,-197016.0,-196802.0,192794.0,-201559.0,0.0,0.0,0.0,0.0,0.0,0.0,0.0,0.0,0.0,0.0,0.0,0.0,0.0,0.0,0.0,0.0,0.0,0.0,0.0,0.0,0.0,0.0,0.0,0.0
12,0.8949391841888428,34.068115,87.987175,22.290503,0.0,-89.162834,1.070938,26.949062,29.781523,30.192459,89.847679,22.904085,0.0,-2.071219,-0.071726,43.466305,43.481365,3.0,1.0,111.0,0.0,1.0,-86588.0,-34359.0,12225.0,-78127.0,25592.0,13092.0,-0.916383,0.351583,0.191394,-0.38527,-0.904423,-0.183265,0.108668,-0.241679,0.964252,-0.938174,0.22085,0.26656,0.308438,0.183747,0.933329,0.157146,0.957842,-0.240506,-0.916383,0.351583,0.191394,-0.38527,-0.904423,-0.183265,0.108668,-0.241679,0.964252,-0.938174,0.22085,0.26656,0.308438,0.183747,0.933329,0.157146,0.957842,-0.240506,-86588.0,-34359.0,12225.0,-78127.0,25592.0,13092.0,-6226.0,3125.0,-48837.0,0.0,-22098.0,-17089.0,-14649.0,-17663.0,412.0,-909.0,-2034.0,0.0,-354.0,-23.0,-347.0,-425.0,117.0,151.0,-74.0,0.0,-467.0,-303.0,468.0,-176.0,-48.0,-157.0,45.0,0.0,508.0,568.0,-28.0,545.0,-0.031777,-0.041023,0.020063,0.0,-0.017115,-0.011109,-0.017159,-0.006475,-0.013217,-0.042645,0.012369,0.0,0.018618,0.020788,0.001061,0.019968,4639.950195,11294.550781,50223.601562,0.0,-17747.730469,-17257.050781,17513.820312,-17003.701172,4112.100098,11452.139648,51515.28125,0.0,17699.580078,17710.109375,-17320.230469,18102.060547,0.0,0.0,0.0,0.0,0.0,0.0,0.0,0.0,0.0,0.0,0.0,0.0,0.0,0.0,0.0,0.0,0.0,0.0,0.0,0.0,0.0,0.0,0.0,0.0,0.0,0.0,0.0,0.0,0.0,0.0,0.0,0.0,4639.957031,11294.561523,50226.746094,0.0,-17746.228516,-17255.457031,17513.203125,-17002.123047,4112.116699,11452.186523,51515.398438,0.0,17699.582031,17709.931641,-17320.277344,18101.835938,34.068169,87.987251,22.291958,0.0,-88.884499,1.248093,26.791937,30.045477,30.192581,89.848045,22.904139,0.0,-2.070968,-0.091626,43.471081,43.446617,0.99,1.517,-45329.0,-128620.0,-509203.0,0.0,175099.0,174656.0,-179949.0,171267.0,-45278.0,-128155.0,-574426.0,0.0,-197016.0,-196802.0,192794.0,-201559.0,0.0,0.0,0.0,0.0,0.0,0.0,0.0,0.0,0.0,0.0,0.0,0.0,0.0,0.0,0.0,0.0,0.0,0.0,0.0,0.0,0.0,0.0,0.0,0.0
13,0.9670350551605225,34.068115,87.987175,22.290461,0.0,-89.168625,1.067462,26.954275,29.776308,30.192459,89.847679,22.904085,0.0,-2.071219,-0.071726,43.466305,43.481365,3.0,1.0,111.0,0.0,1.0,-86588.0,-34360.0,12226.0,-78127.0,25592.0,13092.0,-0.916402,0.35152,0.191417,-0.385201,-0.904475,-0.18315,0.108751,-0.241574,0.964269,-0.938174,0.22085,0.26656,0.308438,0.183747,0.933329,0.157146,0.957842,-0.240506,-0.916402,0.35152,0.191417,-0.385201,-0.904475,-0.18315,0.108751,-0.241574,0.964269,-0.938174,0.22085,0.26656,0.308438,0.183747,0.933329,0.157146,0.957842,-0.240506,-86588.0,-34360.0,12226.0,-78127.0,25592.0,13092.0,-6226.0,3125.0,-48836.0,0.0,-22098.0,-17089.0,-14649.0,-17663.0,412.0,-909.0,-2034.0,0.0,-354.0,-23.0,-347.0,-425.0,117.0,151.0,-75.0,0.0,-463.0,-300.0,470.0,-173.0,-48.0,-157.0,45.0,0.0,508.0,567.0,-28.0,545.0,-0.031777,-0.041023,0.020301,0.0,-0.016971,-0.010981,-0.017225,-0.006348,-0.013217,-0.042645,0.012369,0.0,0.018618,0.020777,0.001058,0.019954,4639.950195,11294.550781,50223.511719,0.0,-17747.730469,-17257.050781,17513.820312,-17003.701172,4112.100098,11452.139648,51515.28125,0.0,17699.580078,17710.109375,-17320.230469,18102.060547,0.0,0.0,0.0,0.0,0.0,0.0,0.0,0.0,0.0,0.0,0.0,0.0,0.0,0.0,0.0,0.0,0.0,0.0,0.0,0.0,0.0,0.0,0.0,0.0,0.0,0.0,0.0,0.0,0.0,0.0,0.0,0.0,4639.957031,11294.561523,50226.746094,0.0,-17746.195312,-17255.425781,17513.173828,-17002.091797,4112.116699,11452.186523,51515.398438,0.0,17699.582031,17709.931641,-17320.277344,18101.835938,34.068169,87.987251,22.291958,0.0,-88.884499,1.248093,26.791937,30.045477,30.192581,89.848045,22.904139,0.0,-2.070968,-0.091626,43.471081,43.446617,0.99,1.517,-45329.0,-128620.0,-509203.0,0.0,175099.0,174656.0,-179949.0,171267.0,-45278.0,-128155.0,-574426.0,0.0,-197016.0,-196802.0,192794.0,-201559.0,0.0,0.0,0.0,0.0,0.0,0.0,0.0,0.0,0.0,0.0,0.0,0.0,0.0,0.0,0.0,0.0,0.0,0.0,0.0,0.0,0.0,0.0,0.0,0.0
14,1.0449011325836182,34.068115,87.987175,22.290461,0.0,-89.168625,1.067462,26.954275,29.776308,30.192459,89.847679,22.904085,0.0,-2.071219,-0.071726,43.466305,43.481365,3.0,1.0,111.0,0.0,1.0,-86588.0,-34360.0,12226.0,-78127.0,25592.0,13092.0,-0.916402,0.35152,0.191417,-0.385201,-0.904475,-0.18315,0.108751,-0.241574,0.964269,-0.938174,0.22085,0.26656,0.308438,0.183747,0.933329,0.157146,0.957842,-0.240506,-0.916402,0.35152,0.191417,-0.385201,-0.904475,-0.18315,0.108751,-0.241574,0.964269,-0.938174,0.22085,0.26656,0.308438,0.183747,0.933329,0.157146,0.957842,-0.240506,-86588.0,-34360.0,12226.0,-78127.0,25592.0,13092.0,-6226.0,3125.0,-48836.0,0.0,-22098.0,-17089.0,-14649.0,-17663.0,412.0,-909.0,-2034.0,0.0,-354.0,-23.0,-347.0,-425.0,117.0,151.0,-75.0,0.0,-460.0,-297.0,471.0,-170.0,-48.0,-157.0,45.0,0.0,508.0,567.0,-28.0,544.0,-0.031777,-0.041023,0.020301,0.0,-0.016866,-0.01087,-0.017269,-0.006239,-0.013217,-0.042645,0.012369,0.0,0.018618,0.020765,0.001055,0.019939,4639.950195,11294.550781,50223.511719,0.0,-17747.730469,-17257.050781,17513.820312,-17003.701172,4112.100098,11452.139648,51515.28125,0.0,17699.580078,17710.109375,-17320.230469,18102.060547,0.0,0.0,0.0,0.0,0.0,0.0,0.0,0.0,0.0,0.0,0.0,0.0,0.0,0.0,0.0,0.0,0.0,0.0,0.0,0.0,0.0,0.0,0.0,0.0,0.0,0.0,0.0,0.0,0.0,0.0,0.0,0.0,4639.957031,11294.561523,50226.746094,0.0,-17746.195312,-17255.425781,17513.173828,-17002.091797,4112.116699,11452.186523,51515.398438,0.0,17699.582031,17709.931641,-17320.277344,18101.835938,34.068169,87.987251,22.291958,0.0,-88.884499,1.248093,26.791937,30.045477,30.192581,89.848045,22.904139,0.0,-2.070968,-0.091626,43.471081,43.446617,0.99,1.517,-45329.0,-128620.0,-509203.0,0.0,175099.0,174656.0,-179949.0,171267.0,-45278.0,-128155.0,-574426.0,0.0,-197016.0,-196802.0,192794.0,-201559.0,0.0,0.0,0.0,0.0,0.0,0.0,0.0,0.0,0.0,0.0,0.0,0.0,0.0,0.0,0.0,0.0,0.0,0.0,0.0,0.0,0.0,0.0,0.0,0.0
15,1.1159541606903076,34.068115,87.987175,22.290461,0.0,-89.168625,1.067462,26.954275,29.776308,30.192459,89.847679,22.904085,0.0,-2.071219,-0.071726,43.466305,43.481365,3.0,1.0,111.0,0.0,1.0,-86588.0,-34360.0,12226.0,-78127.0,25592.0,13092.0,-0.916402,0.35152,0.191417,-0.385201,-0.904475,-0.18315,0.108751,-0.241574,0.964269,-0.938174,0.22085,0.26656,0.308438,0.183747,0.933329,0.157146,0.957842,-0.240506,-0.916402,0.35152,0.191417,-0.385201,-0.904475,-0.18315,0.108751,-0.241574,0.964269,-0.938174,0.22085,0.26656,0.308438,0.183747,0.933329,0.157146,0.957842,-0.240506,-86588.0,-34360.0,12226.0,-78127.0,25592.0,13092.0,-6226.0,3125.0,-48836.0,0.0,-22098.0,-17089.0,-14649.0,-17663.0,412.0,-909.0,-2034.0,0.0,-354.0,-23.0,-347.0,-425.0,117.0,151.0,-75.0,0.0,-458.0,-294.0,473.0,-167.0,-48.0,-157.0,45.0,0.0,508.0,567.0,-28.0,544.0,-0.031777,-0.041023,0.020301,0.0,-0.016771,-0.01077,-0.017309,-0.006139,-0.013217,-0.042645,0.012369,0.0,0.018618,0.020754,0.001052,0.019925,4639.950195,11294.550781,50223.511719,0.0,-17747.730469,-17257.050781,17513.820312,-17003.701172,4112.100098,11452.139648,51515.28125,0.0,17699.580078,17710.109375,-17320.230469,18102.060547,0.0,0.0,0.0,0.0,0.0,0.0,0.0,0.0,0.0,0.0,0.0,0.0,0.0,0.0,0.0,0.0,0.0,0.0,0.0,0.0,0.0,0.0,0.0,0.0,0.0,0.0,0.0,0.0,0.0,0.0,0.0,0.0,4639.957031,11294.561523,50226.746094,0.0,-17746.195312,-17255.425781,17513.173828,-17002.091797,4112.116699,11452.186523,51515.398438,0.0,17699.582031,17709.931641,-17320.277344,18101.835938,34.068169,87.987251,22.291958,0.0,-88.884499,1.248093,26.791937,30.045477,30.192581,89.848045,22.904139,0.0,-2.070968,-0.091626,43.471081,43.446617,0.99,1.517,-45329.0,-128620.0,-509203.0,0.0,175099.0,174656.0,-179949.0,171267.0,-45278.0,-128155.0,-574426.0,0.0,-197016.0,-196802.0,192794.0,-201559.0,0.0,0.0,0.0,0.0,0.0,0.0,0.0,0.0,0.0,0.0,0.0,0.0,0.0,0.0,0.0,0.0,0.0,0.0,0.0,0.0,0.0,0.0,0.0,0.0
16,1.1859450340270996,34.068115,87.987175,22.290461,0.0,-89.168625,1.067462,26.954275,29.776308,30.192459,89.847679,22.904085,0.0,-2.071219,-0.071726,43.466305,43.481365,3.0,1.0,111.0,0.0,1.0,-86588.0,-34360.0,12226.0,-78127.0,25592.0,13092.0,-0.916402,0.35152,0.191417,-0.385201,-0.904475,-0.18315,0.108751,-0.241574,0.964269,-0.938174,0.22085,0.26656,0.308438,0.183747,0.933329,0.157146,0.957842,-0.240506,-0.916402,0.35152,0.191417,-0.385201,-0.904475,-0.18315,0.108751,-0.241574,0.964269,-0.938174,0.22085,0.26656,0.308438,0.183747,0.933329,0.157146,0.957842,-0.240506,-86588.0,-34360.0,12226.0,-78127.0,25592.0,13092.0,-6226.0,3125.0,-48836.0,0.0,-22098.0,-17089.0,-14649.0,-17663.0,412.0,-909.0,-2034.0,0.0,-354.0,-23.0,-347.0,-425.0,117.0,151.0,-75.0,0.0,-455.0,-291.0,474.0,-165.0,-48.0,-157.0,45.0,0.0,508.0,566.0,-28.0,544.0,-0.031777,-0.041023,0.020301,0.0,-0.016678,-0.01067,-0.017348,-0.006041,-0.013217,-0.042645,0.012369,0.0,0.018619,0.020743,0.001049,0.019911,4639.950195,11294.550781,50223.511719,0.0,-17747.730469,-17257.050781,17513.820312,-17003.701172,4112.100098,11452.139648,51515.28125,0.0,17699.580078,17710.109375,-17320.230469,18102.060547,0.0,0.0,0.0,0.0,0.0,0.0,0.0,0.0,0.0,0.0,0.0,0.0,0.0,0.0,0.0,0.0,0.0,0.0,0.0,0.0,0.0,0.0,0.0,0.0,0.0,0.0,0.0,0.0,0.0,0.0,0.0,0.0,4639.957031,11294.561523,50226.746094,0.0,-17746.195312,-17255.425781,17513.173828,-17002.091797,4112.116699,11452.186523,51515.398438,0.0,17699.582031,17709.931641,-17320.277344,18101.835938,34.068169,87.987251,22.291958,0.0,-88.884499,1.248093,26.791937,30.045477,30.192581,89.848045,22.904139,0.0,-2.070968,-0.091626,43.471081,43.446617,0.99,1.517,-45329.0,-128620.0,-509203.0,0.0,175099.0,174656.0,-179949.0,171267.0,-45278.0,-128155.0,-574426.0,0.0,-197016.0,-196802.0,192794.0,-201559.0,0.0,0.0,0.0,0.0,0.0,0.0,0.0,0.0,0.0,0.0,0.0,0.0,0.0,0.0,0.0,0.0,0.0,0.0,0.0,0.0,0.0,0.0,0.0,0.0
17,1.255953073501587,34.068115,87.987175,22.290461,0.0,-89.168625,1.067462,26.954275,29.776308,30.192459,89.847679,22.904085,0.0,-2.071219,-0.071726,43.466305,43.481365,3.0,1.0,111.0,0.0,1.0,-86588.0,-34360.0,12226.0,-78127.0,25592.0,13092.0,-0.916402,0.35152,0.191417,-0.385201,-0.904475,-0.18315,0.108751,-0.241574,0.964269,-0.938174,0.22085,0.26656,0.308438,0.183747,0.933329,0.157146,0.957842,-0.240506,-0.916402,0.35152,0.191417,-0.385201,-0.904475,-0.18315,0.108751,-0.241574,0.964269,-0.938174,0.22085,0.26656,0.308438,0.183747,0.933329,0.157146,0.957842,-0.240506,-86588.0,-34360.0,12226.0,-78127.0,25592.0,13092.0,-6226.0,3125.0,-48836.0,0.0,-22098.0,-17089.0,-14649.0,-17663.0,412.0,-909.0,-2034.0,0.0,-354.0,-23.0,-347.0,-425.0,117.0,151.0,-75.0,0.0,-453.0,-288.0,475.0,-162.0,-48.0,-157.0,45.0,0.0,508.0,566.0,-28.0,543.0,-0.031777,-0.041023,0.020301,0.0,-0.016584,-0.010571,-0.017388,-0.005943,-0.013217,-0.042645,0.012369,0.0,0.018619,0.020732,0.001046,0.019898,4639.950195,11294.550781,50223.511719,0.0,-17747.730469,-17257.050781,17513.820312,-17003.701172,4112.100098,11452.139648,51515.28125,0.0,17699.580078,17710.109375,-17320.230469,18102.060547,0.0,0.0,0.0,0.0,0.0,0.0,0.0,0.0,0.0,0.0,0.0,0.0,0.0,0.0,0.0,0.0,0.0,0.0,0.0,0.0,0.0,0.0,0.0,0.0,0.0,0.0,0.0,0.0,0.0,0.0,0.0,0.0,4639.957031,11294.561523,50226.746094,0.0,-17746.195312,-17255.425781,17513.173828,-17002.091797,4112.116699,11452.186523,51515.398438,0.0,17699.582031,17709.931641,-17320.277344,18101.835938,34.068169,87.987251,22.291958,0.0,-88.884499,1.248093,26.791937,30.045477,30.192581,89.848045,22.904139,0.0,-2.070968,-0.091626,43.471081,43.446617,0.99,1.517,-45329.0,-128620.0,-509203.0,0.0,175099.0,174656.0,-179949.0,171267.0,-45278.0,-128155.0,-574426.0,0.0,-197016.0,-196802.0,192794.0,-201559.0,0.0,0.0,0.0,0.0,0.0,0.0,0.0,0.0,0.0,0.0,0.0,0.0,0.0,0.0,0.0,0.0,0.0,0.0,0.0,0.0,0.0,0.0,0.0,0.0
18,1.33595609664917,34.068115,87.987175,22.290421,0.0,-89.174202,1.064119,26.959291,29.771296,30.192459,89.847679,22.904085,0.0,-2.071219,-0.071726,43.466305,43.481365,3.0,1.0,111.0,0.0,1.0,-86589.0,-34360.0,12227.0,-78127.0,25592.0,13092.0,-0.916421,0.35146,0.191439,-0.385135,-0.904526,-0.18304,0.10883,-0.241472,0.964286,-0.938174,0.22085,0.26656,0.308438,0.183747,0.933329,0.157146,0.957842,-0.240506,-0.916421,0.35146,0.191439,-0.385135,-0.904526,-0.18304,0.10883,-0.241472,0.964286,-0.938174,0.22085,0.26656,0.308438,0.183747,0.933329,0.157146,0.957842,-0.240506,-86589.0,-34360.0,12227.0,-78127.0,25592.0,13092.0,-6226.0,3125.0,-48835.0,0.0,-22098.0,-17089.0,-14649.0,-17663.0,412.0,-909.0,-2034.0,0.0,-354.0,-23.0,-347.0,-425.0,117.0,151.0,-75.0,0.0,-448.0,-285.0,477.0,-158.0,-48.0,-157.0,45.0,0.0,508.0,566.0,-28.0,543.0,-0.031777,-0.041023,0.02053,0.0,-0.016429,-0.010431,-0.017461,-0.005804,-0.013217,-0.042645,0.012369,0.0,0.018619,0.02072,0.001043,0.019882,4639.950195,11294.550781,50223.421875,0.0,-17747.730469,-17257.050781,17513.820312,-17003.701172,4112.100098,11452.139648,51515.28125,0.0,17699.580078,17710.109375,-17320.230469,18102.060547,0.0,0.0,0.0,0.0,0.0,0.0,0.0,0.0,0.0,0.0,0.0,0.0,0.0,0.0,0.0,0.0,0.0,0.0,0.0,0.0,0.0,0.0,0.0,0.0,0.0,0.0,0.0,0.0,0.0,0.0,0.0,0.0,4639.957031,11294.561523,50226.746094,0.0,-17746.166016,-17255.396484,17513.142578,-17002.0625,4112.116699,11452.186523,51515.398438,0.0,17699.582031,17709.931641,-17320.277344,18101.835938,34.068169,87.987251,22.291958,0.0,-88.884499,1.248093,26.791937,30.045477,30.192581,89.848045,22.904139,0.0,-2.070968,-0.091626,43.471081,43.446617,0.99,1.517,-45329.0,-128620.0,-509203.0,0.0,175099.0,174656.0,-179949.0,171267.0,-45278.0,-128155.0,-574426.0,0.0,-197016.0,-196802.0,192794.0,-201559.0,0.0,0.0,0.0,0.0,0.0,0.0,0.0,0.0,0.0,0.0,0.0,0.0,0.0,0.0,0.0,0.0,0.0,0.0,0.0,0.0,0.0,0.0,0.0,0.0
19,1.4079861640930176,34.068115,87.987175,22.290421,0.0,-89.174202,1.064119,26.959291,29.771296,30.192459,89.847679,22.904085,0.0,-2.071219,-0.071726,43.466305,43.481365,3.0,1.0,111.0,0.0,1.0,-86589.0,-34360.0,12227.0,-78127.0,25592.0,13092.0,-0.916421,0.35146,0.191439,-0.385135,-0.904526,-0.18304,0.10883,-0.241472,0.964286,-0.938174,0.22085,0.26656,0.308438,0.183747,0.933329,0.157146,0.957842,-0.240506,-0.916421,0.35146,0.191439,-0.385135,-0.904526,-0.18304,0.10883,-0.241472,0.964286,-0.938174,0.22085,0.26656,0.308438,0.183747,0.933329,0.157146,0.957842,-0.240506,-86589.0,-34360.0,12227.0,-78127.0,25592.0,13092.0,-6226.0,3125.0,-48835.0,0.0,-22098.0,-17089.0,-14649.0,-17663.0,412.0,-909.0,-2034.0,0.0,-354.0,-23.0,-347.0,-425.0,117.0,151.0,-75.0,0.0,-446.0,-282.0,478.0,-155.0,-48.0,-157.0,45.0,0.0,508.0,565.0,-28.0,542.0,-0.031777,-0.041023,0.02053,0.0,-0.016331,-0.010327,-0.017504,-0.005701,-0.013217,-0.042645,0.012369,0.0,0.018619,0.020709,0.00104,0.019868,4639.950195,11294.550781,50223.421875,0.0,-17747.730469,-17257.050781,17513.820312,-17003.701172,4112.100098,11452.139648,51515.28125,0.0,17699.580078,17710.109375,-17320.230469,18102.060547,0.0,0.0,0.0,0.0,0.0,0.0,0.0,0.0,0.0,0.0,0.0,0.0,0.0,0.0,0.0,0.0,0.0,0.0,0.0,0.0,0.0,0.0,0.0,0.0,0.0,0.0,0.0,0.0,0.0,0.0,0.0,0.0,4639.957031,11294.561523,50226.746094,0.0,-17746.166016,-17255.396484,17513.142578,-17002.0625,4112.116699,11452.186523,51515.398438,0.0,17699.582031,17709.931641,-17320.277344,18101.835938,34.068169,87.987251,22.291958,0.0,-88.884499,1.248093,26.791937,30.045477,30.192581,89.848045,22.904139,0.0,-2.070968,-0.091626,43.471081,43.446617,0.99,1.517,-45329.0,-128620.0,-509203.0,0.0,175099.0,174656.0,-179949.0,171267.0,-45278.0,-128155.0,-574426.0,0.0,-197016.0,-196802.0,192794.0,-201559.0,0.0,0.0,0.0,0.0,0.0,0.0,0.0,0.0,0.0,0.0,0.0,0.0,0.0,0.0,0.0,0.0,0.0,0.0,0.0,0.0,0.0,0.0,0.0,0.0
20,1.4800360202789307,34.068115,87.987175,22.290421,0.0,-89.174202,1.064119,26.959291,29.771296,30.192459,89.847679,22.904085,0.0,-2.071219,-0.071726,43.466305,43.481365,3.0,1.0,111.0,0.0,1.0,-86589.0,-34360.0,12227.0,-78127.0,25592.0,13092.0,-0.916421,0.35146,0.191439,-0.385135,-0.904526,-0.18304,0.10883,-0.241472,0.964286,-0.938174,0.22085,0.26656,0.308438,0.183747,0.933329,0.157146,0.957842,-0.240506,-0.916421,0.35146,0.191439,-0.385135,-0.904526,-0.18304,0.10883,-0.241472,0.964286,-0.938174,0.22085,0.26656,0.308438,0.183747,0.933329,0.157146,0.957842,-0.240506,-86589.0,-34360.0,12227.0,-78127.0,25592.0,13092.0,-6226.0,3125.0,-48835.0,0.0,-22098.0,-17089.0,-14649.0,-17663.0,412.0,-909.0,-2034.0,0.0,-354.0,-23.0,-347.0,-425.0,117.0,151.0,-75.0,0.0,-443.0,-279.0,479.0,-152.0,-48.0,-157.0,45.0,0.0,508.0,565.0,-28.0,542.0,-0.031777,-0.041023,0.02053,0.0,-0.016233,-0.010223,-0.017546,-0.005598,-0.013217,-0.042645,0.012369,0.0,0.018619,0.020698,0.001037,0.019854,4639.950195,11294.550781,50223.421875,0.0,-17747.730469,-17257.050781,17513.820312,-17003.701172,4112.100098,11452.139648,51515.28125,0.0,17699.580078,17710.109375,-17320.230469,18102.060547,0.0,0.0,0.0,0.0,0.0,0.0,0.0,0.0,0.0,0.0,0.0,0.0,0.0,0.0,0.0,0.0,0.0,0.0,0.0,0.0,0.0,0.0,0.0,0.0,0.0,0.0,0.0,0.0,0.0,0.0,0.0,0.0,4639.957031,11294.561523,50226.746094,0.0,-17746.166016,-17255.396484,17513.142578,-17002.0625,4112.116699,11452.186523,51515.398438,0.0,17699.582031,17709.931641,-17320.277344,18101.835938,34.068169,87.987251,22.291958,0.0,-88.884499,1.248093,26.791937,30.045477,30.192581,89.848045,22.904139,0.0,-2.070968,-0.091626,43.471081,43.446617,0.99,1.517,-45329.0,-128620.0,-509203.0,0.0,175099.0,174656.0,-179949.0,171267.0,-45278.0,-128155.0,-574426.0,0.0,-197016.0,-196802.0,192794.0,-201559.0,0.0,0.0,0.0,0.0,0.0,0.0,0.0,0.0,0.0,0.0,0.0,0.0,0.0,0.0,0.0,0.0,0.0,0.0,0.0,0.0,0.0,0.0,0.0,0.0
21,1.5559899806976318,34.068115,87.987175,22.290421,0.0,-89.174202,1.064119,26.959291,29.771296,30.192459,89.847679,22.904085,0.0,-2.071219,-0.071726,43.466305,43.481365,3.0,1.0,111.0,0.0,1.0,-86589.0,-34360.0,12227.0,-78127.0,25592.0,13092.0,-0.916421,0.35146,0.191439,-0.385135,-0.904526,-0.18304,0.10883,-0.241472,0.964286,-0.938174,0.22085,0.26656,0.308438,0.183747,0.933329,0.157146,0.957842,-0.240506,-0.916421,0.35146,0.191439,-0.385135,-0.904526,-0.18304,0.10883,-0.241472,0.964286,-0.938174,0.22085,0.26656,0.308438,0.183747,0.933329,0.157146,0.957842,-0.240506,-86589.0,-34360.0,12227.0,-78127.0,25592.0,13092.0,-6226.0,3125.0,-48835.0,0.0,-22098.0,-17089.0,-14649.0,-17663.0,412.0,-909.0,-2034.0,0.0,-354.0,-23.0,-347.0,-425.0,117.0,151.0,-75.0,0.0,-440.0,-276.0,480.0,-150.0,-48.0,-157.0,45.0,0.0,508.0,565.0,-28.0,542.0,-0.031777,-0.041023,0.02053,0.0,-0.016129,-0.010114,-0.017591,-0.005489,-0.013217,-0.042645,0.012369,0.0,0.018619,0.020686,0.001034,0.019839,4639.950195,11294.550781,50223.421875,0.0,-17747.730469,-17257.050781,17513.820312,-17003.701172,4112.100098,11452.139648,51515.28125,0.0,17699.580078,17710.109375,-17320.230469,18102.060547,0.0,0.0,0.0,0.0,0.0,0.0,0.0,0.0,0.0,0.0,0.0,0.0,0.0,0.0,0.0,0.0,0.0,0.0,0.0,0.0,0.0,0.0,0.0,0.0,0.0,0.0,0.0,0.0,0.0,0.0,0.0,0.0,4639.957031,11294.561523,50226.746094,0.0,-17746.166016,-17255.396484,17513.142578,-17002.0625,4112.116699,11452.186523,51515.398438,0.0,17699.582031,17709.931641,-17320.277344,18101.835938,34.068169,87.987251,22.291958,0.0,-88.884499,1.248093,26.791937,30.045477,30.192581,89.848045,22.904139,0.0,-2.070968,-0.091626,43.471081,43.446617,0.99,1.517,-45329.0,-128620.0,-509203.0,0.0,175099.0,174656.0,-179949.0,171267.0,-45278.0,-128155.0,-574426.0,0.0,-197016.0,-196802.0,192794.0,-201559.0,0.0,0.0,0.0,0.0,0.0,0.0,0.0,0.0,0.0,0.0,0.0,0.0,0.0,0.0,0.0,0.0,0.0,0.0,0.0,0.0,0.0,0.0,0.0,0.0
22,1.626986026763916,34.068115,87.987175,22.290421,0.0,-89.174202,1.064119,26.959291,29.771296,30.192459,89.847679,22.904085,0.0,-2.071219,-0.071726,43.466305,43.481365,3.0,1.0,111.0,0.0,1.0,-86589.0,-34360.0,12227.0,-78127.0,25592.0,13092.0,-0.916421,0.35146,0.191439,-0.385135,-0.904526,-0.18304,0.10883,-0.241472,0.964286,-0.938174,0.22085,0.26656,0.308438,0.183747,0.933329,0.157146,0.957842,-0.240506,-0.916421,0.35146,0.191439,-0.385135,-0.904526,-0.18304,0.10883,-0.241472,0.964286,-0.938174,0.22085,0.26656,0.308438,0.183747,0.933329,0.157146,0.957842,-0.240506,-86589.0,-34360.0,12227.0,-78127.0,25592.0,13092.0,-6226.0,3125.0,-48835.0,0.0,-22098.0,-17089.0,-14649.0,-17663.0,412.0,-909.0,-2034.0,0.0,-354.0,-23.0,-347.0,-425.0,117.0,151.0,-75.0,0.0,-438.0,-273.0,481.0,-147.0,-48.0,-157.0,45.0,0.0,508.0,565.0,-28.0,541.0,-0.031777,-0.041023,0.02053,0.0,-0.016033,-0.010011,-0.017633,-0.005388,-0.013217,-0.042645,0.012369,0.0,0.018619,0.020675,0.001031,0.019825,4639.950195,11294.550781,50223.421875,0.0,-17747.730469,-17257.050781,17513.820312,-17003.701172,4112.100098,11452.139648,51515.28125,0.0,17699.580078,17710.109375,-17320.230469,18102.060547,0.0,0.0,0.0,0.0,0.0,0.0,0.0,0.0,0.0,0.0,0.0,0.0,0.0,0.0,0.0,0.0,0.0,0.0,0.0,0.0,0.0,0.0,0.0,0.0,0.0,0.0,0.0,0.0,0.0,0.0,0.0,0.0,4639.957031,11294.561523,50226.746094,0.0,-17746.166016,-17255.396484,17513.142578,-17002.0625,4112.116699,11452.186523,51515.398438,0.0,17699.582031,17709.931641,-17320.277344,18101.835938,34.068169,87.987251,22.291958,0.0,-88.884499,1.248093,26.791937,30.045477,30.192581,89.848045,22.904139,0.0,-2.070968,-0.091626,43.471081,43.446617,0.99,1.517,-45329.0,-128620.0,-509203.0,0.0,175099.0,174656.0,-179949.0,171267.0,-45278.0,-128155.0,-574426.0,0.0,-197016.0,-196802.0,192794.0,-201559.0,0.0,0.0,0.0,0.0,0.0,0.0,0.0,0.0,0.0,0.0,0.0,0.0,0.0,0.0,0.0,0.0,0.0,0.0,0.0,0.0,0.0,0.0,0.0,0.0
23,1.6959900856018066,34.068115,87.987175,22.290379,0.0,-89.179993,1.060643,26.964506,29.766081,30.192459,89.847679,22.904085,0.0,-2.071219,-0.071726,43.466305,43.481365,3.0,1.0,111.0,0.0,1.0,-86589.0,-34361.0,12228.0,-78127.0,25592.0,13092.0,-0.91644,0.351397,0.191462,-0.385066,-0.904579,-0.182926,0.108912,-0.241366,0.964303,-0.938174,0.22085,0.26656,0.308438,0.183747,0.933329,0.157146,0.957842,-0.240506,-0.91644,0.351397,0.191462,-0.385066,-0.904579,-0.182926,0.108912,-0.241366,0.964303,-0.938174,0.22085,0.26656,0.308438,0.183747,0.933329,0.157146,0.957842,-0.240506,-86589.0,-34361.0,12228.0,-78127.0,25592.0,13092.0,-6226.0,3125.0,-48834.0,0.0,-22098.0,-17089.0,-14649.0,-17663.0,412.0,-909.0,-2034.0,0.0,-354.0,-23.0,-347.0,-425.0,117.0,151.0,-76.0,0.0,-434.0,-270.0,483.0,-143.0,-48.0,-157.0,45.0,0.0,508.0,564.0,-28.0,541.0,-0.031776,-0.041023,0.020768,0.0,-0.015888,-0.009883,-0.017701,-0.005261,-0.013217,-0.042645,0.012369,0.0,0.018619,0.020664,0.001028,0.019812,4639.950195,11294.550781,50223.332031,0.0,-17747.730469,-17257.050781,17513.820312,-17003.701172,4112.100098,11452.139648,51515.28125,0.0,17699.580078,17710.109375,-17320.230469,18102.060547,0.0,0.0,0.0,0.0,0.0,0.0,0.0,0.0,0.0,0.0,0.0,0.0,0.0,0.0,0.0,0.0,0.0,0.0,0.0,0.0,0.0,0.0,0.0,0.0,0.0,0.0,0.0,0.0,0.0,0.0,0.0,0.0,4639.957031,11294.561523,50226.746094,0.0,-17746.134766,-17255.365234,17513.111328,-17002.03125,4112.116699,11452.186523,51515.398438,0.0,17699.582031,17709.931641,-17320.277344,18101.835938,34.068169,87.987251,22.291958,0.0,-88.884499,1.248093,26.791937,30.045477,30.192581,89.848045,22.904139,0.0,-2.070968,-0.091626,43.471081,43.446617,0.99,1.517,-45329.0,-128620.0,-509203.0,0.0,175099.0,174656.0,-179949.0,171267.0,-45278.0,-128155.0,-574426.0,0.0,-197016.0,-196802.0,192794.0,-201559.0,0.0,0.0,0.0,0.0,0.0,0.0,0.0,0.0,0.0,0.0,0.0,0.0,0.0,0.0,0.0,0.0,0.0,0.0,0.0,0.0,0.0,0.0,0.0,0.0
24,1.7669920921325684,34.068115,87.987175,22.290379,0.0,-89.179993,1.060643,26.964506,29.766081,30.192459,89.847679,22.904085,0.0,-2.071219,-0.071726,43.466305,43.481365,3.0,1.0,111.0,0.0,1.0,-86589.0,-34361.0,12228.0,-78127.0,25592.0,13092.0,-0.91644,0.351397,0.191462,-0.385066,-0.904579,-0.182926,0.108912,-0.241366,0.964303,-0.938174,0.22085,0.26656,0.308438,0.183747,0.933329,0.157146,0.957842,-0.240506,-0.91644,0.351397,0.191462,-0.385066,-0.904579,-0.182926,0.108912,-0.241366,0.964303,-0.938174,0.22085,0.26656,0.308438,0.183747,0.933329,0.157146,0.957842,-0.240506,-86589.0,-34361.0,12228.0,-78127.0,25592.0,13092.0,-6226.0,3125.0,-48834.0,0.0,-22098.0,-17089.0,-14649.0,-17663.0,412.0,-909.0,-2034.0,0.0,-354.0,-23.0,-347.0,-425.0,117.0,151.0,-76.0,0.0,-431.0,-267.0,484.0,-140.0,-48.0,-157.0,45.0,0.0,508.0,564.0,-28.0,541.0,-0.031776,-0.041023,0.020768,0.0,-0.015789,-0.009779,-0.017745,-0.005157,-0.013217,-0.042645,0.012369,0.0,0.018619,0.020653,0.001025,0.019798,4639.950195,11294.550781,50223.332031,0.0,-17747.730469,-17257.050781,17513.820312,-17003.701172,4112.100098,11452.139648,51515.28125,0.0,17699.580078,17710.109375,-17320.230469,18102.060547,0.0,0.0,0.0,0.0,0.0,0.0,0.0,0.0,0.0,0.0,0.0,0.0,0.0,0.0,0.0,0.0,0.0,0.0,0.0,0.0,0.0,0.0,0.0,0.0,0.0,0.0,0.0,0.0,0.0,0.0,0.0,0.0,4639.957031,11294.561523,50226.746094,0.0,-17746.134766,-17255.365234,17513.111328,-17002.03125,4112.116699,11452.186523,51515.398438,0.0,17699.582031,17709.931641,-17320.277344,18101.835938,34.068169,87.987251,22.291958,0.0,-88.884499,1.248093,26.791937,30.045477,30.192581,89.848045,22.904139,0.0,-2.070968,-0.091626,43.471081,43.446617,0.99,1.517,-45329.0,-128620.0,-509203.0,0.0,175099.0,174656.0,-179949.0,171267.0,-45278.0,-128155.0,-574426.0,0.0,-197016.0,-196802.0,192794.0,-201559.0,0.0,0.0,0.0,0.0,0.0,0.0,0.0,0.0,0.0,0.0,0.0,0.0,0.0,0.0,0.0,0.0,0.0,0.0,0.0,0.0,0.0,0.0,0.0,0.0
25,1.8369810581207275,34.068115,87.987175,22.290379,0.0,-89.179993,1.060643,26.964506,29.766081,30.192459,89.847679,22.904085,0.0,-2.071219,-0.071726,43.466305,43.481365,3.0,1.0,111.0,0.0,1.0,-86589.0,-34361.0,12228.0,-78127.0,25592.0,13092.0,-0.91644,0.351397,0.191462,-0.385066,-0.904579,-0.182926,0.108912,-0.241366,0.964303,-0.938174,0.22085,0.26656,0.308438,0.183747,0.933329,0.157146,0.957842,-0.240506,-0.91644,0.351397,0.191462,-0.385066,-0.904579,-0.182926,0.108912,-0.241366,0.964303,-0.938174,0.22085,0.26656,0.308438,0.183747,0.933329,0.157146,0.957842,-0.240506,-86589.0,-34361.0,12228.0,-78127.0,25592.0,13092.0,-6226.0,3125.0,-48834.0,0.0,-22098.0,-17089.0,-14649.0,-17663.0,412.0,-909.0,-2034.0,0.0,-354.0,-23.0,-347.0,-425.0,117.0,151.0,-76.0,0.0,-428.0,-264.0,486.0,-138.0,-48.0,-157.0,45.0,0.0,508.0,564.0,-27.0,540.0,-0.031776,-0.041023,0.020768,0.0,-0.015692,-0.009676,-0.017788,-0.005055,-0.013217,-0.042645,0.012369,0.0,0.01862,0.020642,0.001022,0.019784,4639.950195,11294.550781,50223.332031,0.0,-17747.730469,-17257.050781,17513.820312,-17003.701172,4112.100098,11452.139648,51515.28125,0.0,17699.580078,17710.109375,-17320.230469,18102.060547,0.0,0.0,0.0,0.0,0.0,0.0,0.0,0.0,0.0,0.0,0.0,0.0,0.0,0.0,0.0,0.0,0.0,0.0,0.0,0.0,0.0,0.0,0.0,0.0,0.0,0.0,0.0,0.0,0.0,0.0,0.0,0.0,4639.957031,11294.561523,50226.746094,0.0,-17746.134766,-17255.365234,17513.111328,-17002.03125,4112.116699,11452.186523,51515.398438,0.0,17699.582031,17709.931641,-17320.277344,18101.835938,34.068169,87.987251,22.291958,0.0,-88.884499,1.248093,26.791937,30.045477,30.192581,89.848045,22.904139,0.0,-2.070968,-0.091626,43.471081,43.446617,0.99,1.517,-45329.0,-128620.0,-509203.0,0.0,175099.0,174656.0,-179949.0,171267.0,-45278.0,-128155.0,-574426.0,0.0,-197016.0,-196802.0,192794.0,-201559.0,0.0,0.0,0.0,0.0,0.0,0.0,0.0,0.0,0.0,0.0,0.0,0.0,0.0,0.0,0.0,0.0,0.0,0.0,0.0,0.0,0.0,0.0,0.0,0.0
26,1.919999122619629,34.068115,87.987175,22.290379,0.0,-89.179993,1.060643,26.964506,29.766081,30.192459,89.847679,22.904085,0.0,-2.071219,-0.071726,43.466305,43.481365,3.0,1.0,111.0,0.0,1.0,-86589.0,-34361.0,12228.0,-78127.0,25592.0,13092.0,-0.91644,0.351397,0.191462,-0.385066,-0.904579,-0.182926,0.108912,-0.241366,0.964303,-0.938174,0.22085,0.26656,0.308438,0.183747,0.933329,0.157146,0.957842,-0.240506,-0.91644,0.351397,0.191462,-0.385066,-0.904579,-0.182926,0.108912,-0.241366,0.964303,-0.938174,0.22085,0.26656,0.308438,0.183747,0.933329,0.157146,0.957842,-0.240506,-86589.0,-34361.0,12228.0,-78127.0,25592.0,13092.0,-6226.0,3125.0,-48834.0,0.0,-22098.0,-17089.0,-14649.0,-17663.0,412.0,-909.0,-2034.0,0.0,-354.0,-23.0,-347.0,-425.0,117.0,151.0,-76.0,0.0,-425.0,-261.0,487.0,-134.0,-48.0,-157.0,45.0,0.0,508.0,563.0,-27.0,540.0,-0.031776,-0.041023,0.020768,0.0,-0.015576,-0.009554,-0.01784,-0.004934,-0.013217,-0.042645,0.012369,0.0,0.01862,0.020629,0.001019,0.019768,4639.950195,11294.550781,50223.332031,0.0,-17747.730469,-17257.050781,17513.820312,-17003.701172,4112.100098,11452.139648,51515.28125,0.0,17699.580078,17710.109375,-17320.230469,18102.060547,0.0,0.0,0.0,0.0,0.0,0.0,0.0,0.0,0.0,0.0,0.0,0.0,0.0,0.0,0.0,0.0,0.0,0.0,0.0,0.0,0.0,0.0,0.0,0.0,0.0,0.0,0.0,0.0,0.0,0.0,0.0,0.0,4639.957031,11294.561523,50226.746094,0.0,-17746.134766,-17255.365234,17513.111328,-17002.03125,4112.116699,11452.186523,51515.398438,0.0,17699.582031,17709.931641,-17320.277344,18101.835938,34.068169,87.987251,22.291958,0.0,-88.884499,1.248093,26.791937,30.045477,30.192581,89.848045,22.904139,0.0,-2.070968,-0.091626,43.471081,43.446617,0.99,1.517,-45329.0,-128620.0,-509203.0,0.0,175099.0,174656.0,-179949.0,171267.0,-45278.0,-128155.0,-574426.0,0.0,-197016.0,-196802.0,192794.0,-201559.0,0.0,0.0,0.0,0.0,0.0,0.0,0.0,0.0,0.0,0.0,0.0,0.0,0.0,0.0,0.0,0.0,0.0,0.0,0.0,0.0,0.0,0.0,0.0,0.0
27,1.991988182067871,34.068115,87.987175,22.290379,0.0,-89.179993,1.060643,26.964506,29.766081,30.192459,89.847679,22.904085,0.0,-2.071219,-0.071726,43.466305,43.481365,3.0,1.0,111.0,0.0,1.0,-86589.0,-34361.0,12228.0,-78127.0,25592.0,13092.0,-0.91644,0.351397,0.191462,-0.385066,-0.904579,-0.182926,0.108912,-0.241366,0.964303,-0.938174,0.22085,0.26656,0.308438,0.183747,0.933329,0.157146,0.957842,-0.240506,-0.91644,0.351397,0.191462,-0.385066,-0.904579,-0.182926,0.108912,-0.241366,0.964303,-0.938174,0.22085,0.26656,0.308438,0.183747,0.933329,0.157146,0.957842,-0.240506,-86589.0,-34361.0,12228.0,-78127.0,25592.0,13092.0,-6226.0,3125.0,-48834.0,0.0,-22098.0,-17089.0,-14649.0,-17663.0,412.0,-909.0,-2034.0,0.0,-354.0,-23.0,-347.0,-425.0,117.0,151.0,-76.0,0.0,-422.0,-258.0,488.0,-131.0,-48.0,-157.0,45.0,0.0,508.0,563.0,-27.0,539.0,-0.031776,-0.041023,0.020768,0.0,-0.015476,-0.009448,-0.017884,-0.004829,-0.013217,-0.042645,0.012369,0.0,0.01862,0.020618,0.001016,0.019754,4639.950195,11294.550781,50223.332031,0.0,-17747.730469,-17257.050781,17513.820312,-17003.701172,4112.100098,11452.139648,51515.28125,0.0,17699.580078,17710.109375,-17320.230469,18102.060547,0.0,0.0,0.0,0.0,0.0,0.0,0.0,0.0,0.0,0.0,0.0,0.0,0.0,0.0,0.0,0.0,0.0,0.0,0.0,0.0,0.0,0.0,0.0,0.0,0.0,0.0,0.0,0.0,0.0,0.0,0.0,0.0,4639.957031,11294.561523,50226.746094,0.0,-17746.134766,-17255.365234,17513.111328,-17002.03125,4112.116699,11452.186523,51515.398438,0.0,17699.582031,17709.931641,-17320.277344,18101.835938,34.068169,87.987251,22.291958,0.0,-88.884499,1.248093,26.791937,30.045477,30.192581,89.848045,22.904139,0.0,-2.070968,-0.091626,43.471081,43.446617,0.99,1.517,-45329.0,-128620.0,-509203.0,0.0,175099.0,174656.0,-179949.0,171267.0,-45278.0,-128155.0,-574426.0,0.0,-197016.0,-196802.0,192794.0,-201559.0,0.0,0.0,0.0,0.0,0.0,0.0,0.0,0.0,0.0,0.0,0.0,0.0,0.0,0.0,0.0,0.0,0.0,0.0,0.0,0.0,0.0,0.0,0.0,0.0
28,2.063987970352173,34.068115,87.987175,22.290337,0.0,-89.185783,1.057166,26.969719,29.760866,30.192459,89.847679,22.904085,0.0,-2.071219,-0.071726,43.466305,43.481365,3.0,1.0,111.0,0.0,1.0,-86590.0,-34361.0,12229.0,-78127.0,25592.0,13092.0,-0.916459,0.351335,0.191485,-0.384997,-0.904631,-0.182812,0.108995,-0.24126,0.96432,-0.938174,0.22085,0.26656,0.308438,0.183747,0.933329,0.157146,0.957842,-0.240506,-0.916459,0.351335,0.191485,-0.384997,-0.904631,-0.182812,0.108995,-0.24126,0.96432,-0.938174,0.22085,0.26656,0.308438,0.183747,0.933329,0.157146,0.957842,-0.240506,-86590.0,-34361.0,12229.0,-78127.0,25592.0,13092.0,-6226.0,3125.0,-48833.0,0.0,-22098.0,-17089.0,-14649.0,-17663.0,412.0,-909.0,-2034.0,0.0,-354.0,-23.0,-347.0,-425.0,117.0,151.0,-77.0,0.0,-418.0,-254.0,490.0,-128.0,-48.0,-157.0,45.0,0.0,508.0,563.0,-27.0,539.0,-0.031776,-0.041023,0.021006,0.0,-0.015327,-0.009314,-0.017956,-0.004697,-0.013217,-0.042645,0.012369,0.0,0.01862,0.020607,0.001013,0.01974,4639.950195,11294.550781,50223.242188,0.0,-17747.730469,-17257.050781,17513.820312,-17003.701172,4112.100098,11452.139648,51515.28125,0.0,17699.580078,17710.109375,-17320.230469,18102.060547,0.0,0.0,0.0,0.0,0.0,0.0,0.0,0.0,0.0,0.0,0.0,0.0,0.0,0.0,0.0,0.0,0.0,0.0,0.0,0.0,0.0,0.0,0.0,0.0,0.0,0.0,0.0,0.0,0.0,0.0,0.0,0.0,4639.957031,11294.561523,50226.746094,0.0,-17746.103516,-17255.333984,17513.080078,-17002.0,4112.116699,11452.186523,51515.398438,0.0,17699.582031,17709.931641,-17320.277344,18101.835938,34.068169,87.987251,22.291958,0.0,-88.884499,1.248093,26.791937,30.045477,30.192581,89.848045,22.904139,0.0,-2.070968,-0.091626,43.471081,43.446617,0.99,1.517,-45329.0,-128620.0,-509203.0,0.0,175099.0,174656.0,-179949.0,171267.0,-45278.0,-128155.0,-574426.0,0.0,-197016.0,-196802.0,192794.0,-201559.0,0.0,0.0,0.0,0.0,0.0,0.0,0.0,0.0,0.0,0.0,0.0,0.0,0.0,0.0,0.0,0.0,0.0,0.0,0.0,0.0,0.0,0.0,0.0,0.0
29,2.1349780559539795,34.068115,87.987175,22.290337,0.0,-89.185783,1.057166,26.969719,29.760866,30.192459,89.847679,22.904085,0.0,-2.071219,-0.071726,43.466305,43.481365,3.0,1.0,111.0,0.0,1.0,-86590.0,-34361.0,12229.0,-78127.0,25592.0,13092.0,-0.916459,0.351335,0.191485,-0.384997,-0.904631,-0.182812,0.108995,-0.24126,0.96432,-0.938174,0.22085,0.26656,0.308438,0.183747,0.933329,0.157146,0.957842,-0.240506,-0.916459,0.351335,0.191485,-0.384997,-0.904631,-0.182812,0.108995,-0.24126,0.96432,-0.938174,0.22085,0.26656,0.308438,0.183747,0.933329,0.157146,0.957842,-0.240506,-86590.0,-34361.0,12229.0,-78127.0,25592.0,13092.0,-6226.0,3125.0,-48833.0,0.0,-22098.0,-17089.0,-14649.0,-17663.0,412.0,-909.0,-2034.0,0.0,-354.0,-23.0,-347.0,-425.0,117.0,151.0,-77.0,0.0,-416.0,-251.0,491.0,-125.0,-48.0,-157.0,45.0,0.0,508.0,562.0,-27.0,539.0,-0.031776,-0.041023,0.021006,0.0,-0.015226,-0.009208,-0.018002,-0.004591,-0.013217,-0.042645,0.012369,0.0,0.01862,0.020596,0.00101,0.019726,4639.950195,11294.550781,50223.242188,0.0,-17747.730469,-17257.050781,17513.820312,-17003.701172,4112.100098,11452.139648,51515.28125,0.0,17699.580078,17710.109375,-17320.230469,18102.060547,0.0,0.0,0.0,0.0,0.0,0.0,0.0,0.0,0.0,0.0,0.0,0.0,0.0,0.0,0.0,0.0,0.0,0.0,0.0,0.0,0.0,0.0,0.0,0.0,0.0,0.0,0.0,0.0,0.0,0.0,0.0,0.0,4639.957031,11294.561523,50226.746094,0.0,-17746.103516,-17255.333984,17513.080078,-17002.0,4112.116699,11452.186523,51515.398438,0.0,17699.582031,17709.931641,-17320.277344,18101.835938,34.068169,87.987251,22.291958,0.0,-88.884499,1.248093,26.791937,30.045477,30.192581,89.848045,22.904139,0.0,-2.070968,-0.091626,43.471081,43.446617,0.99,1.517,-45329.0,-128620.0,-509203.0,0.0,175099.0,174656.0,-179949.0,171267.0,-45278.0,-128155.0,-574426.0,0.0,-197016.0,-196802.0,192794.0,-201559.0,0.0,0.0,0.0,0.0,0.0,0.0,0.0,0.0,0.0,0.0,0.0,0.0,0.0,0.0,0.0,0.0,0.0,0.0,0.0,0.0,0.0,0.0,0.0,0.0
30,9.943003177642822,34.068115,87.987175,22.289543,0.0,-89.294762,0.991784,26.987677,29.66279,30.192459,89.847679,22.904085,0.0,-87.380737,-0.071726,29.273643,30.469818,3.0,1.0,111.0,0.0,1.0,-86600.0,-34369.0,12245.0,-78134.0,25575.0,13080.0,-0.916575,0.350797,0.191914,-0.384327,-0.905348,-0.18066,0.110374,-0.239346,0.96464,-0.935783,0.29233,-0.197111,0.316965,0.942359,-0.107204,0.154411,-0.162797,-0.974502,-0.916575,0.350797,0.191914,-0.384327,-0.905348,-0.18066,0.110374,-0.239346,0.96464,-0.935783,0.292387,-0.19703,0.316966,0.94239,-0.106932,0.154414,-0.162516,-0.974549,-86600.0,-34369.0,12245.0,-78134.0,25575.0,13080.0,-6226.0,3125.0,-48814.0,0.0,-22098.0,-17089.0,-14641.0,-17663.0,412.0,-909.0,-2034.0,0.0,-5468.0,-23.0,1071.0,-1725.0,117.0,153.0,-59.0,0.0,-339.0,-151.0,541.0,-48.0,-49.0,-159.0,44.0,0.0,-990.0,614.0,789.0,-997.0,-0.031851,-0.04148,0.016026,0.0,-0.012425,-0.005533,-0.019815,-0.001774,-0.013302,-0.04329,0.012122,0.0,-0.036257,0.022493,-0.028891,-0.036491,4639.950195,11294.550781,50221.53125,0.0,-17747.730469,-17257.050781,17513.099609,-17003.701172,4112.100098,11452.139648,51515.28125,0.0,17239.320312,17710.109375,-17447.849609,17985.060547,0.0,0.0,0.0,0.0,0.0,0.0,0.0,0.0,0.0,0.0,0.0,0.0,-89.174942,0.0,0.0,0.0,0.0,0.0,0.0,0.0,0.0,0.0,0.0,0.0,0.0,0.0,0.0,0.0,-16.528643,0.0,0.0,0.0,4639.942871,11294.474609,50223.132812,0.0,-17747.205078,-17256.527344,17512.863281,-17003.330078,4112.100586,11452.063477,51515.304688,0.0,17237.095703,17710.685547,-17447.644531,17982.304688,34.068062,87.986549,22.290291,0.0,-89.197609,1.049846,26.9324,29.733128,30.192461,89.847054,22.9041,0.0,-87.792953,-0.00767,29.264639,30.19541,0.988,1.042,-45329.0,-128620.0,-509203.0,0.0,175099.0,174656.0,-179949.0,171267.0,-45278.0,-128155.0,-574426.0,0.0,-197016.0,-196802.0,192794.0,-201559.0,0.0,0.0,0.0,0.0,0.0,0.0,0.0,0.0,0.0,0.000315,-0.000177,0.288479,0.0,0.0,0.0,0.0,0.0,0.0,0.0,0.0,0.0,0.000315,-0.000177,0.288479
31,10.0209641456604,34.068115,87.987175,22.289543,0.0,-89.294762,0.991784,26.987677,29.66279,30.192459,89.847679,22.904085,0.0,-87.581024,-0.071726,29.1735,30.429764,3.0,1.0,111.0,0.0,1.0,-86600.0,-34369.0,12245.0,-78134.0,25575.0,13080.0,-0.916575,0.350797,0.191914,-0.384327,-0.905348,-0.18066,0.110374,-0.239346,0.96464,-0.935639,0.292126,-0.198098,0.317451,0.941813,-0.110509,0.154289,-0.166283,-0.973933,-0.916575,0.350797,0.191914,-0.384327,-0.905348,-0.18066,0.110374,-0.239346,0.96464,-0.935639,0.292126,-0.198098,0.317451,0.941813,-0.110509,0.154289,-0.166283,-0.973933,-86600.0,-34369.0,12245.0,-78134.0,25575.0,13080.0,-6226.0,3125.0,-48814.0,0.0,-22098.0,-17089.0,-14641.0,-17663.0,412.0,-909.0,-2034.0,0.0,-5480.0,-23.0,1081.0,-1729.0,118.0,152.0,-44.0,0.0,-361.0,-163.0,540.0,-61.0,-50.0,-160.0,45.0,0.0,-886.0,601.0,776.0,-927.0,-0.032087,-0.04116,0.011952,0.0,-0.013244,-0.005986,-0.019792,-0.002267,-0.013538,-0.043405,0.012369,0.0,-0.032437,0.022,-0.028415,-0.033944,4639.950195,11294.550781,50221.53125,0.0,-17747.730469,-17257.050781,17513.099609,-17003.701172,4112.100098,11452.139648,51515.28125,0.0,17238.240234,17710.109375,-17448.75,17984.701172,0.0,0.0,0.0,0.0,0.0,0.0,0.0,0.0,0.0,0.0,0.0,0.0,0.0,0.0,0.0,0.0,0.0,0.0,0.0,0.0,0.0,0.0,0.0,0.0,0.0,0.0,0.0,0.0,0.0,0.0,0.0,0.0,4639.897461,11294.535156,50221.578125,0.0,-17747.730469,-17257.052734,17512.90625,-17003.886719,4112.055176,11452.041016,51515.398438,0.0,17239.40625,17710.115234,-17448.035156,17984.875,34.067734,87.987106,22.28957,0.0,-89.294762,0.991638,26.966192,29.642038,30.192131,89.846916,22.90415,0.0,-87.364769,-0.071069,29.252665,30.449537,0.988,1.04,-45329.0,-128620.0,-509203.0,0.0,175099.0,174656.0,-179949.0,171267.0,-45278.0,-128155.0,-574426.0,0.0,-197016.0,-196802.0,192794.0,-201559.0,0.0,0.0,0.0,0.0,0.0,0.0,0.0,0.0,0.0,0.0,0.0,0.0,0.0,0.0,0.0,0.0,0.0,0.0,0.0,0.0,0.0,0.0,0.0,0.0
32,10.094017028808594,34.068115,87.987175,22.289543,0.0,-89.294762,0.991784,26.987677,29.66279,30.192459,89.847679,22.904085,0.0,-87.597549,-0.071726,29.143557,30.429764,3.0,1.0,111.0,0.0,1.0,-86600.0,-34369.0,12245.0,-78134.0,25575.0,13080.0,-0.916575,0.350797,0.191914,-0.384327,-0.905348,-0.18066,0.110374,-0.239346,0.96464,-0.935563,0.292313,-0.198179,0.317697,0.941699,-0.110782,0.154242,-0.166604,-0.973885,-0.916575,0.350797,0.191914,-0.384327,-0.905348,-0.18066,0.110374,-0.239346,0.96464,-0.935563,0.292313,-0.198179,0.317697,0.941699,-0.110782,0.154242,-0.166604,-0.973885,-86600.0,-34369.0,12245.0,-78134.0,25575.0,13080.0,-6226.0,3125.0,-48814.0,0.0,-22098.0,-17089.0,-14641.0,-17663.0,412.0,-909.0,-2034.0,0.0,-5481.0,-23.0,1084.0,-1729.0,118.0,152.0,-44.0,0.0,-361.0,-163.0,541.0,-62.0,-50.0,-160.0,45.0,0.0,-880.0,601.0,768.0,-927.0,-0.032087,-0.04116,0.011952,0.0,-0.013244,-0.005987,-0.019804,-0.002279,-0.013538,-0.043405,0.012369,0.0,-0.032221,0.022,-0.028123,-0.033933,4639.950195,11294.550781,50221.53125,0.0,-17747.730469,-17257.050781,17513.099609,-17003.701172,4112.100098,11452.139648,51515.28125,0.0,17238.150391,17710.109375,-17449.019531,17984.701172,0.0,0.0,0.0,0.0,0.0,0.0,0.0,0.0,0.0,0.0,0.0,0.0,0.0,0.0,0.0,0.0,0.0,0.0,0.0,0.0,0.0,0.0,0.0,0.0,0.0,0.0,0.0,0.0,0.0,0.0,0.0,0.0,4639.897461,11294.535156,50221.578125,0.0,-17747.730469,-17257.052734,17512.90625,-17003.886719,4112.055176,11452.041016,51515.398438,0.0,17239.40625,17710.115234,-17448.035156,17984.875,34.067734,87.987106,22.28957,0.0,-89.294762,0.991638,26.966192,29.642038,30.192131,89.846916,22.90415,0.0,-87.364769,-0.071069,29.252665,30.449537,0.988,1.039,-45329.0,-128620.0,-509203.0,0.0,175099.0,174656.0,-179949.0,171267.0,-45278.0,-128155.0,-574426.0,0.0,-197016.0,-196802.0,192794.0,-201559.0,0.0,0.0,0.0,0.0,0.0,0.0,0.0,0.0,0.0,0.0,0.0,0.0,0.0,0.0,0.0,0.0,0.0,0.0,0.0,0.0,0.0,0.0,0.0,0.0
33,10.16801118850708,34.068115,87.987175,22.289543,0.0,-89.294762,0.991784,26.987677,29.66279,30.192459,89.847679,22.904085,0.0,-87.61441,-0.071726,29.113415,30.419651,3.0,1.0,111.0,0.0,1.0,-86600.0,-34369.0,12245.0,-78134.0,25575.0,13080.0,-0.916575,0.350797,0.191914,-0.384327,-0.905348,-0.18066,0.110374,-0.239346,0.96464,-0.935513,0.292418,-0.198262,0.31786,0.941611,-0.11106,0.15421,-0.166918,-0.973837,-0.916575,0.350797,0.191914,-0.384327,-0.905348,-0.18066,0.110374,-0.239346,0.96464,-0.935513,0.292418,-0.198262,0.31786,0.941611,-0.11106,0.15421,-0.166918,-0.973837,-86600.0,-34369.0,12245.0,-78134.0,25575.0,13080.0,-6226.0,3125.0,-48814.0,0.0,-22098.0,-17089.0,-14641.0,-17663.0,412.0,-909.0,-2034.0,0.0,-5482.0,-23.0,1087.0,-1730.0,118.0,152.0,-44.0,0.0,-361.0,-163.0,541.0,-62.0,-50.0,-160.0,45.0,0.0,-874.0,601.0,760.0,-924.0,-0.032087,-0.04116,0.011952,0.0,-0.013244,-0.005987,-0.019817,-0.002291,-0.013538,-0.043405,0.012369,0.0,-0.031995,0.022001,-0.027813,-0.03384,4639.950195,11294.550781,50221.53125,0.0,-17747.730469,-17257.050781,17513.099609,-17003.701172,4112.100098,11452.139648,51515.28125,0.0,17238.060547,17710.109375,-17449.291016,17984.609375,0.0,0.0,0.0,0.0,0.0,0.0,0.0,0.0,0.0,0.0,0.0,0.0,0.0,0.0,0.0,0.0,0.0,0.0,0.0,0.0,0.0,0.0,0.0,0.0,0.0,0.0,0.0,0.0,0.0,0.0,0.0,0.0,4639.897461,11294.535156,50221.578125,0.0,-17747.730469,-17257.052734,17512.90625,-17003.886719,4112.055176,11452.041016,51515.398438,0.0,17239.40625,17710.115234,-17448.035156,17984.875,34.067734,87.987106,22.28957,0.0,-89.294762,0.991638,26.966192,29.642038,30.192131,89.846916,22.90415,0.0,-87.364769,-0.071069,29.252665,30.449537,0.988,1.039,-45329.0,-128620.0,-509203.0,0.0,175099.0,174656.0,-179949.0,171267.0,-45278.0,-128155.0,-574426.0,0.0,-197016.0,-196802.0,192794.0,-201559.0,0.0,0.0,0.0,0.0,0.0,0.0,0.0,0.0,0.0,0.0,0.0,0.0,0.0,0.0,0.0,0.0,0.0,0.0,0.0,0.0,0.0,0.0,0.0,0.0
34,10.243008136749268,34.068115,87.987175,22.289543,0.0,-89.294762,0.991784,26.987677,29.66279,30.192459,89.847679,22.904085,0.0,-87.630936,-0.071726,29.103498,30.419651,3.0,1.0,111.0,0.0,1.0,-86600.0,-34369.0,12245.0,-78134.0,25575.0,13080.0,-0.916575,0.350797,0.191914,-0.384327,-0.905348,-0.18066,0.110374,-0.239346,0.96464,-0.935488,0.292441,-0.198343,0.317941,0.941551,-0.111333,0.154192,-0.167212,-0.973789,-0.916575,0.350797,0.191914,-0.384327,-0.905348,-0.18066,0.110374,-0.239346,0.96464,-0.935488,0.292441,-0.198343,0.317941,0.941551,-0.111333,0.154192,-0.167212,-0.973789,-86600.0,-34369.0,12245.0,-78134.0,25575.0,13080.0,-6226.0,3125.0,-48814.0,0.0,-22098.0,-17089.0,-14641.0,-17663.0,412.0,-909.0,-2034.0,0.0,-5483.0,-23.0,1088.0,-1730.0,118.0,152.0,-44.0,0.0,-361.0,-163.0,541.0,-62.0,-50.0,-160.0,45.0,0.0,-868.0,601.0,755.0,-924.0,-0.032087,-0.04116,0.011952,0.0,-0.013244,-0.005987,-0.01983,-0.002303,-0.013538,-0.043405,0.012369,0.0,-0.031764,0.022001,-0.027652,-0.033822,4639.950195,11294.550781,50221.53125,0.0,-17747.730469,-17257.050781,17513.099609,-17003.701172,4112.100098,11452.139648,51515.28125,0.0,17237.970703,17710.109375,-17449.380859,17984.609375,0.0,0.0,0.0,0.0,0.0,0.0,0.0,0.0,0.0,0.0,0.0,0.0,0.0,0.0,0.0,0.0,0.0,0.0,0.0,0.0,0.0,0.0,0.0,0.0,0.0,0.0,0.0,0.0,0.0,0.0,0.0,0.0,4639.897461,11294.535156,50221.578125,0.0,-17747.730469,-17257.052734,17512.90625,-17003.886719,4112.055176,11452.041016,51515.398438,0.0,17239.40625,17710.115234,-17448.035156,17984.875,34.067734,87.987106,22.28957,0.0,-89.294762,0.991638,26.966192,29.642038,30.192131,89.846916,22.90415,0.0,-87.364769,-0.071069,29.252665,30.449537,0.988,1.038,-45329.0,-128620.0,-509203.0,0.0,175099.0,174656.0,-179949.0,171267.0,-45278.0,-128155.0,-574426.0,0.0,-197016.0,-196802.0,192794.0,-201559.0,0.0,0.0,0.0,0.0,0.0,0.0,0.0,0.0,0.0,0.0,0.0,0.0,0.0,0.0,0.0,0.0,0.0,0.0,0.0,0.0,0.0,0.0,0.0,0.0
35,10.31503701210022,34.068115,87.987175,22.289543,0.0,-89.294762,0.991784,26.987677,29.66279,30.192459,89.847679,22.904085,0.0,-87.647789,-0.071726,29.103498,30.409733,3.0,1.0,111.0,0.0,1.0,-86600.0,-34369.0,12245.0,-78134.0,25575.0,13080.0,-0.916575,0.350797,0.191914,-0.384327,-0.905348,-0.18066,0.110374,-0.239346,0.96464,-0.935514,0.292301,-0.198426,0.317859,0.941546,-0.111611,0.154203,-0.167485,-0.97374,-0.916575,0.350797,0.191914,-0.384327,-0.905348,-0.18066,0.110374,-0.239346,0.96464,-0.935514,0.292301,-0.198426,0.317859,0.941546,-0.111611,0.154203,-0.167485,-0.97374,-86600.0,-34369.0,12245.0,-78134.0,25575.0,13080.0,-6226.0,3125.0,-48814.0,0.0,-22098.0,-17089.0,-14641.0,-17663.0,412.0,-909.0,-2034.0,0.0,-5484.0,-23.0,1088.0,-1731.0,118.0,152.0,-44.0,0.0,-361.0,-163.0,542.0,-63.0,-50.0,-160.0,45.0,0.0,-861.0,601.0,753.0,-921.0,-0.032087,-0.04116,0.011952,0.0,-0.013244,-0.005987,-0.019842,-0.002315,-0.013538,-0.043405,0.012369,0.0,-0.031528,0.022001,-0.027567,-0.033725,4639.950195,11294.550781,50221.53125,0.0,-17747.730469,-17257.050781,17513.099609,-17003.701172,4112.100098,11452.139648,51515.28125,0.0,17237.878906,17710.109375,-17449.380859,17984.521484,0.0,0.0,0.0,0.0,0.0,0.0,0.0,0.0,0.0,0.0,0.0,0.0,0.0,0.0,0.0,0.0,0.0,0.0,0.0,0.0,0.0,0.0,0.0,0.0,0.0,0.0,0.0,0.0,0.0,0.0,0.0,0.0,4639.897461,11294.535156,50221.578125,0.0,-17747.730469,-17257.052734,17512.90625,-17003.886719,4112.055176,11452.041016,51515.398438,0.0,17239.40625,17710.115234,-17448.035156,17984.875,34.067734,87.987106,22.28957,0.0,-89.294762,0.991638,26.966192,29.642038,30.192131,89.846916,22.90415,0.0,-87.364769,-0.071069,29.252665,30.449537,0.988,1.038,-45329.0,-128620.0,-509203.0,0.0,175099.0,174656.0,-179949.0,171267.0,-45278.0,-128155.0,-574426.0,0.0,-197016.0,-196802.0,192794.0,-201559.0,0.0,0.0,0.0,0.0,0.0,0.0,0.0,0.0,0.0,0.0,0.0,0.0,0.0,0.0,0.0,0.0,0.0,0.0,0.0,0.0,0.0,0.0,0.0,0.0
36,10.387039184570312,34.068115,87.987175,22.289543,0.0,-89.294762,0.991784,26.987677,29.66279,30.192459,89.847679,22.904085,0.0,-87.664314,-0.071726,29.093386,30.409733,3.0,1.0,111.0,0.0,1.0,-86600.0,-34369.0,12245.0,-78134.0,25575.0,13080.0,-0.916575,0.350797,0.191914,-0.384327,-0.905348,-0.18066,0.110374,-0.239346,0.96464,-0.935489,0.292326,-0.198507,0.317941,0.941486,-0.111883,0.154186,-0.167779,-0.973692,-0.916575,0.350797,0.191914,-0.384327,-0.905348,-0.18066,0.110374,-0.239346,0.96464,-0.935489,0.292326,-0.198507,0.317941,0.941486,-0.111883,0.154186,-0.167779,-0.973692,-86600.0,-34369.0,12245.0,-78134.0,25575.0,13080.0,-6226.0,3125.0,-48814.0,0.0,-22098.0,-17089.0,-14641.0,-17663.0,412.0,-909.0,-2034.0,0.0,-5485.0,-23.0,1089.0,-1731.0,118.0,152.0,-44.0,0.0,-361.0,-163.0,542.0,-63.0,-50.0,-160.0,45.0,0.0,-855.0,601.0,748.0,-921.0,-0.032087,-0.04116,0.011952,0.0,-0.013244,-0.005987,-0.019854,-0.002326,-0.013538,-0.043405,0.012369,0.0,-0.03129,0.022002,-0.027398,-0.033703,4639.950195,11294.550781,50221.53125,0.0,-17747.730469,-17257.050781,17513.099609,-17003.701172,4112.100098,11452.139648,51515.28125,0.0,17237.791016,17710.109375,-17449.470703,17984.521484,0.0,0.0,0.0,0.0,0.0,0.0,0.0,0.0,0.0,0.0,0.0,0.0,0.0,0.0,0.0,0.0,0.0,0.0,0.0,0.0,0.0,0.0,0.0,0.0,0.0,0.0,0.0,0.0,0.0,0.0,0.0,0.0,4639.897461,11294.535156,50221.578125,0.0,-17747.730469,-17257.052734,17512.90625,-17003.886719,4112.055176,11452.041016,51515.398438,0.0,17239.40625,17710.115234,-17448.035156,17984.875,34.067734,87.987106,22.28957,0.0,-89.294762,0.991638,26.966192,29.642038,30.192131,89.846916,22.90415,0.0,-87.364769,-0.071069,29.252665,30.449537,0.988,1.038,-45329.0,-128620.0,-509203.0,0.0,175099.0,174656.0,-179949.0,171267.0,-45278.0,-128155.0,-574426.0,0.0,-197016.0,-196802.0,192794.0,-201559.0,0.0,0.0,0.0,0.0,0.0,0.0,0.0,0.0,0.0,0.0,0.0,0.0,0.0,0.0,0.0,0.0,0.0,0.0,0.0,0.0,0.0,0.0,0.0,0.0
37,10.458009958267212,34.068115,87.987175,22.289543,0.0,-89.294762,0.991784,26.97776,29.66279,30.192459,89.847679,22.904085,0.0,-87.681168,-0.071726,29.083467,30.409733,3.0,1.0,111.0,0.0,1.0,-86600.0,-34369.0,12245.0,-78134.0,25575.0,13080.0,-0.916545,0.350876,0.191914,-0.384405,-0.905315,-0.18066,0.110353,-0.239355,0.96464,-0.935465,0.292349,-0.19859,0.318022,0.941425,-0.112161,0.154168,-0.168079,-0.973644,-0.916545,0.350876,0.191914,-0.384405,-0.905315,-0.18066,0.110353,-0.239355,0.96464,-0.935465,0.292349,-0.19859,0.318022,0.941425,-0.112161,0.154168,-0.168079,-0.973644,-86600.0,-34369.0,12245.0,-78134.0,25575.0,13080.0,-6226.0,3125.0,-48814.0,0.0,-22098.0,-17089.0,-14640.0,-17663.0,412.0,-909.0,-2034.0,0.0,-5486.0,-23.0,1090.0,-1731.0,118.0,152.0,-44.0,0.0,-361.0,-163.0,540.0,-63.0,-50.0,-160.0,45.0,0.0,-848.0,601.0,744.0,-920.0,-0.032087,-0.04116,0.011952,0.0,-0.013244,-0.005987,-0.019787,-0.002338,-0.013538,-0.043405,0.012369,0.0,-0.031046,0.022002,-0.02723,-0.033681,4639.950195,11294.550781,50221.53125,0.0,-17747.730469,-17257.050781,17513.009766,-17003.701172,4112.100098,11452.139648,51515.28125,0.0,17237.699219,17710.109375,-17449.560547,17984.521484,0.0,0.0,0.0,0.0,0.0,0.0,0.0,0.0,0.0,0.0,0.0,0.0,0.0,0.0,0.0,0.0,0.0,0.0,0.0,0.0,0.0,0.0,0.0,0.0,0.0,0.0,0.0,0.0,0.0,0.0,0.0,0.0,4639.897461,11294.535156,50221.578125,0.0,-17747.730469,-17257.052734,17512.90625,-17003.886719,4112.055176,11452.041016,51515.398438,0.0,17239.40625,17710.115234,-17448.035156,17984.875,34.067734,87.987106,22.28957,0.0,-89.294762,0.991638,26.966192,29.642038,30.192131,89.846916,22.90415,0.0,-87.364769,-0.071069,29.252665,30.449537,0.988,1.038,-45329.0,-128620.0,-509203.0,0.0,175099.0,174656.0,-179949.0,171267.0,-45278.0,-128155.0,-574426.0,0.0,-197016.0,-196802.0,192794.0,-201559.0,0.0,0.0,0.0,0.0,0.0,0.0,0.0,0.0,0.0,0.0,0.0,0.0,0.0,0.0,0.0,0.0,0.0,0.0,0.0,0.0,0.0,0.0,0.0,0.0
38,10.532019138336182,34.068115,87.987175,22.289501,0.0,-89.300552,0.988308,26.982975,29.657576,30.192459,89.847679,22.904085,0.0,-87.681168,-0.071726,29.083467,30.409733,3.0,1.0,111.0,0.0,1.0,-86600.0,-34370.0,12245.0,-78134.0,25575.0,13080.0,-0.916564,0.350814,0.191937,-0.384336,-0.905367,-0.180545,0.110435,-0.239249,0.964657,-0.935465,0.292349,-0.19859,0.318022,0.941425,-0.112161,0.154168,-0.168079,-0.973644,-0.916564,0.350814,0.191937,-0.384336,-0.905367,-0.180545,0.110435,-0.239249,0.964657,-0.935465,0.292349,-0.19859,0.318022,0.941425,-0.112161,0.154168,-0.168079,-0.973644,-86600.0,-34370.0,12245.0,-78134.0,25575.0,13080.0,-6226.0,3125.0,-48813.0,0.0,-22098.0,-17089.0,-14640.0,-17663.0,412.0,-909.0,-2034.0,0.0,-5486.0,-23.0,1090.0,-1731.0,118.0,152.0,-45.0,0.0,-360.0,-162.0,541.0,-63.0,-50.0,-160.0,45.0,0.0,-845.0,601.0,741.0,-919.0,-0.032087,-0.041159,0.01219,0.0,-0.013193,-0.005958,-0.019823,-0.002321,-0.013538,-0.043405,0.012369,0.0,-0.030936,0.022002,-0.027132,-0.033658,4639.950195,11294.550781,50221.441406,0.0,-17747.730469,-17257.050781,17513.009766,-17003.701172,4112.100098,11452.139648,51515.28125,0.0,17237.699219,17710.109375,-17449.560547,17984.521484,0.0,0.0,0.0,0.0,0.0,0.0,0.0,0.0,0.0,0.0,0.0,0.0,0.0,0.0,0.0,0.0,0.0,0.0,0.0,0.0,0.0,0.0,0.0,0.0,0.0,0.0,0.0,0.0,0.0,0.0,0.0,0.0,4639.897461,11294.535156,50221.578125,0.0,-17747.697266,-17257.021484,17512.875,-17003.855469,4112.055176,11452.041016,51515.398438,0.0,17239.40625,17710.115234,-17448.035156,17984.875,34.067734,87.987106,22.28957,0.0,-89.294762,0.991638,26.966192,29.642038,30.192131,89.846916,22.90415,0.0,-87.364769,-0.071069,29.252665,30.449537,0.988,1.038,-45329.0,-128620.0,-509203.0,0.0,175099.0,174656.0,-179949.0,171267.0,-45278.0,-128155.0,-574426.0,0.0,-197016.0,-196802.0,192794.0,-201559.0,0.0,0.0,0.0,0.0,0.0,0.0,0.0,0.0,0.0,0.0,0.0,0.0,0.0,0.0,0.0,0.0,0.0,0.0,0.0,0.0,0.0,0.0,0.0,0.0
39,10.602998971939087,34.068115,87.987175,22.289501,0.0,-89.300552,0.988308,26.982975,29.657576,30.192459,89.847679,22.904085,0.0,-87.697693,-0.071726,29.083467,30.399622,3.0,1.0,111.0,0.0,1.0,-86600.0,-34370.0,12245.0,-78134.0,25575.0,13080.0,-0.916564,0.350814,0.191937,-0.384336,-0.905367,-0.180545,0.110435,-0.239249,0.964657,-0.935491,0.292208,-0.198671,0.317938,0.941421,-0.112434,0.154179,-0.168346,-0.973596,-0.916564,0.350814,0.191937,-0.384336,-0.905367,-0.180545,0.110435,-0.239249,0.964657,-0.935491,0.292208,-0.198671,0.317938,0.941421,-0.112434,0.154179,-0.168346,-0.973596,-86600.0,-34370.0,12245.0,-78134.0,25575.0,13080.0,-6226.0,3125.0,-48813.0,0.0,-22098.0,-17089.0,-14640.0,-17663.0,412.0,-909.0,-2034.0,0.0,-5487.0,-23.0,1090.0,-1732.0,118.0,152.0,-45.0,0.0,-360.0,-162.0,541.0,-63.0,-50.0,-160.0,45.0,0.0,-838.0,601.0,738.0,-916.0,-0.032087,-0.041159,0.01219,0.0,-0.013192,-0.005956,-0.019831,-0.00233,-0.013538,-0.043405,0.012369,0.0,-0.030686,0.022003,-0.027038,-0.033552,4639.950195,11294.550781,50221.441406,0.0,-17747.730469,-17257.050781,17513.009766,-17003.701172,4112.100098,11452.139648,51515.28125,0.0,17237.611328,17710.109375,-17449.560547,17984.429688,0.0,0.0,0.0,0.0,0.0,0.0,0.0,0.0,0.0,0.0,0.0,0.0,0.0,0.0,0.0,0.0,0.0,0.0,0.0,0.0,0.0,0.0,0.0,0.0,0.0,0.0,0.0,0.0,0.0,0.0,0.0,0.0,4639.897461,11294.535156,50221.578125,0.0,-17747.697266,-17257.021484,17512.875,-17003.855469,4112.055176,11452.041016,51515.398438,0.0,17239.40625,17710.115234,-17448.035156,17984.875,34.067734,87.987106,22.28957,0.0,-89.294762,0.991638,26.966192,29.642038,30.192131,89.846916,22.90415,0.0,-87.364769,-0.071069,29.252665,30.449537,0.988,1.038,-45329.0,-128620.0,-509203.0,0.0,175099.0,174656.0,-179949.0,171267.0,-45278.0,-128155.0,-574426.0,0.0,-197016.0,-196802.0,192794.0,-201559.0,0.0,0.0,0.0,0.0,0.0,0.0,0.0,0.0,0.0,0.0,0.0,0.0,0.0,0.0,0.0,0.0,0.0,0.0,0.0,0.0,0.0,0.0,0.0,0.0
40,10.67600703239441,34.068115,87.987175,22.289501,0.0,-89.300552,0.988308,26.982975,29.657576,30.192459,89.847679,22.904085,0.0,-87.714226,-0.071726,29.083467,30.399622,3.0,1.0,111.0,0.0,1.0,-86600.0,-34370.0,12245.0,-78134.0,25575.0,13080.0,-0.916564,0.350814,0.191937,-0.384336,-0.905367,-0.180545,0.110435,-0.239249,0.964657,-0.935492,0.292151,-0.198753,0.317938,0.941389,-0.112706,0.154176,-0.168627,-0.973547,-0.916564,0.350814,0.191937,-0.384336,-0.905367,-0.180545,0.110435,-0.239249,0.964657,-0.935492,0.292151,-0.198753,0.317938,0.941389,-0.112706,0.154176,-0.168627,-0.973547,-86600.0,-34370.0,12245.0,-78134.0,25575.0,13080.0,-6226.0,3125.0,-48813.0,0.0,-22098.0,-17089.0,-14640.0,-17663.0,412.0,-909.0,-2034.0,0.0,-5488.0,-23.0,1090.0,-1732.0,118.0,152.0,-45.0,0.0,-360.0,-162.0,542.0,-63.0,-50.0,-160.0,45.0,0.0,-831.0,601.0,736.0,-916.0,-0.032087,-0.041159,0.01219,0.0,-0.01319,-0.005954,-0.01984,-0.00234,-0.013538,-0.043405,0.012369,0.0,-0.030429,0.022003,-0.026941,-0.033524,4639.950195,11294.550781,50221.441406,0.0,-17747.730469,-17257.050781,17513.009766,-17003.701172,4112.100098,11452.139648,51515.28125,0.0,17237.521484,17710.109375,-17449.560547,17984.429688,0.0,0.0,0.0,0.0,0.0,0.0,0.0,0.0,0.0,0.0,0.0,0.0,0.0,0.0,0.0,0.0,0.0,0.0,0.0,0.0,0.0,0.0,0.0,0.0,0.0,0.0,0.0,0.0,0.0,0.0,0.0,0.0,4639.897461,11294.535156,50221.578125,0.0,-17747.697266,-17257.021484,17512.875,-17003.855469,4112.055176,11452.041016,51515.398438,0.0,17239.40625,17710.115234,-17448.035156,17984.875,34.067734,87.987106,22.28957,0.0,-89.294762,0.991638,26.966192,29.642038,30.192131,89.846916,22.90415,0.0,-87.364769,-0.071069,29.252665,30.449537,0.988,1.038,-45329.0,-128620.0,-509203.0,0.0,175099.0,174656.0,-179949.0,171267.0,-45278.0,-128155.0,-574426.0,0.0,-197016.0,-196802.0,192794.0,-201559.0,0.0,0.0,0.0,0.0,0.0,0.0,0.0,0.0,0.0,0.0,0.0,0.0,0.0,0.0,0.0,0.0,0.0,0.0,0.0,0.0,0.0,0.0,0.0,0.0
41,10.74800705909729,34.068115,87.987175,22.289501,0.0,-89.300552,0.988308,26.982975,29.657576,30.192459,89.847679,22.904085,0.0,-87.714226,-0.071726,29.073357,30.399622,3.0,1.0,111.0,0.0,1.0,-86600.0,-34370.0,12245.0,-78134.0,25575.0,13080.0,-0.916564,0.350814,0.191937,-0.384336,-0.905367,-0.180545,0.110435,-0.239249,0.964657,-0.935466,0.292233,-0.198753,0.318021,0.941361,-0.112706,0.154161,-0.168641,-0.973547,-0.916564,0.350814,0.191937,-0.384336,-0.905367,-0.180545,0.110435,-0.239249,0.964657,-0.935466,0.292233,-0.198753,0.318021,0.941361,-0.112706,0.154161,-0.168641,-0.973547,-86600.0,-34370.0,12245.0,-78134.0,25575.0,13080.0,-6226.0,3125.0,-48813.0,0.0,-22098.0,-17089.0,-14640.0,-17663.0,412.0,-909.0,-2034.0,0.0,-5488.0,-23.0,1091.0,-1732.0,118.0,152.0,-45.0,0.0,-360.0,-162.0,542.0,-64.0,-50.0,-160.0,45.0,0.0,-828.0,601.0,731.0,-915.0,-0.032087,-0.041159,0.01219,0.0,-0.013188,-0.005953,-0.019848,-0.00235,-0.013538,-0.043405,0.012369,0.0,-0.030311,0.022003,-0.026762,-0.033495,4639.950195,11294.550781,50221.441406,0.0,-17747.730469,-17257.050781,17513.009766,-17003.701172,4112.100098,11452.139648,51515.28125,0.0,17237.521484,17710.109375,-17449.650391,17984.429688,0.0,0.0,0.0,0.0,0.0,0.0,0.0,0.0,0.0,0.0,0.0,0.0,0.0,0.0,0.0,0.0,0.0,0.0,0.0,0.0,0.0,0.0,0.0,0.0,0.0,0.0,0.0,0.0,0.0,0.0,0.0,0.0,4639.897461,11294.535156,50221.578125,0.0,-17747.697266,-17257.021484,17512.875,-17003.855469,4112.055176,11452.041016,51515.398438,0.0,17239.40625,17710.115234,-17448.035156,17984.875,34.067734,87.987106,22.28957,0.0,-89.294762,0.991638,26.966192,29.642038,30.192131,89.846916,22.90415,0.0,-87.364769,-0.071069,29.252665,30.449537,0.988,1.037,-45329.0,-128620.0,-509203.0,0.0,175099.0,174656.0,-179949.0,171267.0,-45278.0,-128155.0,-574426.0,0.0,-197016.0,-196802.0,192794.0,-201559.0,0.0,0.0,0.0,0.0,0.0,0.0,0.0,0.0,0.0,0.0,0.0,0.0,0.0,0.0,0.0,0.0,0.0,0.0,0.0,0.0,0.0,0.0,0.0,0.0
42,10.826004981994629,34.068115,87.987175,22.289501,0.0,-89.300552,0.988308,26.982975,29.657576,30.192459,89.847679,22.904085,0.0,-87.731071,-0.071726,29.073357,30.399622,3.0,1.0,111.0,0.0,1.0,-86600.0,-34370.0,12245.0,-78134.0,25575.0,13080.0,-0.916564,0.350814,0.191937,-0.384336,-0.905367,-0.180545,0.110435,-0.239249,0.964657,-0.935467,0.292174,-0.198835,0.31802,0.941328,-0.112984,0.154158,-0.168927,-0.973498,-0.916564,0.350814,0.191937,-0.384336,-0.905367,-0.180545,0.110435,-0.239249,0.964657,-0.935467,0.292174,-0.198835,0.31802,0.941328,-0.112984,0.154158,-0.168927,-0.973498,-86600.0,-34370.0,12245.0,-78134.0,25575.0,13080.0,-6226.0,3125.0,-48813.0,0.0,-22098.0,-17089.0,-14640.0,-17663.0,412.0,-909.0,-2034.0,0.0,-5489.0,-23.0,1091.0,-1732.0,118.0,152.0,-45.0,0.0,-360.0,-162.0,542.0,-64.0,-50.0,-160.0,45.0,0.0,-820.0,601.0,728.0,-914.0,-0.032087,-0.041159,0.01219,0.0,-0.013186,-0.005951,-0.019858,-0.00236,-0.013538,-0.043405,0.012369,0.0,-0.030035,0.022004,-0.026652,-0.033465,4639.950195,11294.550781,50221.441406,0.0,-17747.730469,-17257.050781,17513.009766,-17003.701172,4112.100098,11452.139648,51515.28125,0.0,17237.429688,17710.109375,-17449.650391,17984.429688,0.0,0.0,0.0,0.0,0.0,0.0,0.0,0.0,0.0,0.0,0.0,0.0,0.0,0.0,0.0,0.0,0.0,0.0,0.0,0.0,0.0,0.0,0.0,0.0,0.0,0.0,0.0,0.0,0.0,0.0,0.0,0.0,4639.897461,11294.535156,50221.578125,0.0,-17747.697266,-17257.021484,17512.875,-17003.855469,4112.055176,11452.041016,51515.398438,0.0,17239.40625,17710.115234,-17448.035156,17984.875,34.067734,87.987106,22.28957,0.0,-89.294762,0.991638,26.966192,29.642038,30.192131,89.846916,22.90415,0.0,-87.364769,-0.071069,29.252665,30.449537,0.988,1.037,-45329.0,-128620.0,-509203.0,0.0,175099.0,174656.0,-179949.0,171267.0,-45278.0,-128155.0,-574426.0,0.0,-197016.0,-196802.0,192794.0,-201559.0,0.0,0.0,0.0,0.0,0.0,0.0,0.0,0.0,0.0,0.0,0.0,0.0,0.0,0.0,0.0,0.0,0.0,0.0,0.0,0.0,0.0,0.0,0.0,0.0
43,10.896013021469116,34.068115,87.987175,22.289501,0.0,-89.300552,0.988308,26.982975,29.657576,30.192459,89.847679,22.904085,0.0,-87.747604,-0.071726,29.073357,30.399622,3.0,1.0,111.0,0.0,1.0,-86600.0,-34370.0,12245.0,-78134.0,25575.0,13080.0,-0.916564,0.350814,0.191937,-0.384336,-0.905367,-0.180545,0.110435,-0.239249,0.964657,-0.935468,0.292117,-0.198917,0.318019,0.941295,-0.113257,0.154155,-0.169207,-0.97345,-0.916564,0.350814,0.191937,-0.384336,-0.905367,-0.180545,0.110435,-0.239249,0.964657,-0.935468,0.292117,-0.198917,0.318019,0.941295,-0.113257,0.154155,-0.169207,-0.97345,-86600.0,-34370.0,12245.0,-78134.0,25575.0,13080.0,-6226.0,3125.0,-48813.0,0.0,-22098.0,-17089.0,-14640.0,-17663.0,412.0,-909.0,-2034.0,0.0,-5490.0,-23.0,1091.0,-1732.0,118.0,152.0,-45.0,0.0,-360.0,-162.0,542.0,-64.0,-50.0,-160.0,45.0,0.0,-813.0,601.0,725.0,-913.0,-0.032087,-0.041159,0.01219,0.0,-0.013184,-0.005949,-0.019866,-0.00237,-0.013538,-0.043405,0.012369,0.0,-0.029773,0.022004,-0.026554,-0.033438,4639.950195,11294.550781,50221.441406,0.0,-17747.730469,-17257.050781,17513.009766,-17003.701172,4112.100098,11452.139648,51515.28125,0.0,17237.341797,17710.109375,-17449.650391,17984.429688,0.0,0.0,0.0,0.0,0.0,0.0,0.0,0.0,0.0,0.0,0.0,0.0,0.0,0.0,0.0,0.0,0.0,0.0,0.0,0.0,0.0,0.0,0.0,0.0,0.0,0.0,0.0,0.0,0.0,0.0,0.0,0.0,4639.897461,11294.535156,50221.578125,0.0,-17747.697266,-17257.021484,17512.875,-17003.855469,4112.055176,11452.041016,51515.398438,0.0,17239.40625,17710.115234,-17448.035156,17984.875,34.067734,87.987106,22.28957,0.0,-89.294762,0.991638,26.966192,29.642038,30.192131,89.846916,22.90415,0.0,-87.364769,-0.071069,29.252665,30.449537,0.988,1.037,-45329.0,-128620.0,-509203.0,0.0,175099.0,174656.0,-179949.0,171267.0,-45278.0,-128155.0,-574426.0,0.0,-197016.0,-196802.0,192794.0,-201559.0,0.0,0.0,0.0,0.0,0.0,0.0,0.0,0.0,0.0,0.0,0.0,0.0,0.0,0.0,0.0,0.0,0.0,0.0,0.0,0.0,0.0,0.0,0.0,0.0
44,10.975039005279541,34.068115,87.987175,22.289501,0.0,-89.300552,0.988308,26.982975,29.657576,30.192459,89.847679,22.904085,0.0,-87.747604,-0.071726,29.073357,30.389704,3.0,1.0,111.0,0.0,1.0,-86600.0,-34370.0,12245.0,-78134.0,25575.0,13080.0,-0.916564,0.350814,0.191937,-0.384336,-0.905367,-0.180545,0.110435,-0.239249,0.964657,-0.935493,0.292036,-0.198917,0.317938,0.941323,-0.113257,0.15417,-0.169194,-0.97345,-0.916564,0.350814,0.191937,-0.384336,-0.905367,-0.180545,0.110435,-0.239249,0.964657,-0.935493,0.292036,-0.198917,0.317938,0.941323,-0.113257,0.15417,-0.169194,-0.97345,-86600.0,-34370.0,12245.0,-78134.0,25575.0,13080.0,-6226.0,3125.0,-48813.0,0.0,-22098.0,-17089.0,-14640.0,-17663.0,412.0,-909.0,-2034.0,0.0,-5490.0,-23.0,1091.0,-1733.0,118.0,152.0,-45.0,0.0,-360.0,-162.0,543.0,-65.0,-50.0,-160.0,45.0,0.0,-809.0,601.0,722.0,-910.0,-0.032087,-0.041159,0.01219,0.0,-0.013182,-0.005947,-0.019875,-0.00238,-0.013538,-0.043405,0.012369,0.0,-0.029631,0.022004,-0.026442,-0.033325,4639.950195,11294.550781,50221.441406,0.0,-17747.730469,-17257.050781,17513.009766,-17003.701172,4112.100098,11452.139648,51515.28125,0.0,17237.341797,17710.109375,-17449.650391,17984.339844,0.0,0.0,0.0,0.0,0.0,0.0,0.0,0.0,0.0,0.0,0.0,0.0,0.0,0.0,0.0,0.0,0.0,0.0,0.0,0.0,0.0,0.0,0.0,0.0,0.0,0.0,0.0,0.0,0.0,0.0,0.0,0.0,4639.897461,11294.535156,50221.578125,0.0,-17747.697266,-17257.021484,17512.875,-17003.855469,4112.055176,11452.041016,51515.398438,0.0,17239.40625,17710.115234,-17448.035156,17984.875,34.067734,87.987106,22.28957,0.0,-89.294762,0.991638,26.966192,29.642038,30.192131,89.846916,22.90415,0.0,-87.364769,-0.071069,29.252665,30.449537,0.988,1.037,-45329.0,-128620.0,-509203.0,0.0,175099.0,174656.0,-179949.0,171267.0,-45278.0,-128155.0,-574426.0,0.0,-197016.0,-196802.0,192794.0,-201559.0,0.0,0.0,0.0,0.0,0.0,0.0,0.0,0.0,0.0,0.0,0.0,0.0,0.0,0.0,0.0,0.0,0.0,0.0,0.0,0.0,0.0,0.0,0.0,0.0
45,11.044981002807617,34.068115,87.987175,22.289501,0.0,-89.300552,0.988308,26.982975,29.657576,30.192459,89.847679,22.904085,0.0,-87.764458,-0.071726,29.073357,30.389704,3.0,1.0,111.0,0.0,1.0,-86600.0,-34370.0,12245.0,-78134.0,25575.0,13080.0,-0.916564,0.350814,0.191937,-0.384336,-0.905367,-0.180545,0.110435,-0.239249,0.964657,-0.935494,0.291977,-0.198999,0.317937,0.941289,-0.113535,0.154166,-0.16948,-0.973401,-0.916564,0.350814,0.191937,-0.384336,-0.905367,-0.180545,0.110435,-0.239249,0.964657,-0.935494,0.291977,-0.198999,0.317937,0.941289,-0.113535,0.154166,-0.16948,-0.973401,-86600.0,-34370.0,12245.0,-78134.0,25575.0,13080.0,-6226.0,3125.0,-48813.0,0.0,-22098.0,-17089.0,-14640.0,-17663.0,412.0,-909.0,-2034.0,0.0,-5491.0,-23.0,1091.0,-1733.0,118.0,152.0,-45.0,0.0,-360.0,-162.0,543.0,-65.0,-50.0,-160.0,45.0,0.0,-802.0,601.0,719.0,-909.0,-0.032087,-0.041159,0.01219,0.0,-0.01318,-0.005945,-0.019884,-0.00239,-0.013538,-0.043405,0.012369,0.0,-0.029361,0.022005,-0.026344,-0.033292,4639.950195,11294.550781,50221.441406,0.0,-17747.730469,-17257.050781,17513.009766,-17003.701172,4112.100098,11452.139648,51515.28125,0.0,17237.25,17710.109375,-17449.650391,17984.339844,0.0,0.0,0.0,0.0,0.0,0.0,0.0,0.0,0.0,0.0,0.0,0.0,0.0,0.0,0.0,0.0,0.0,0.0,0.0,0.0,0.0,0.0,0.0,0.0,0.0,0.0,0.0,0.0,0.0,0.0,0.0,0.0,4639.897461,11294.535156,50221.578125,0.0,-17747.697266,-17257.021484,17512.875,-17003.855469,4112.055176,11452.041016,51515.398438,0.0,17239.40625,17710.115234,-17448.035156,17984.875,34.067734,87.987106,22.28957,0.0,-89.294762,0.991638,26.966192,29.642038,30.192131,89.846916,22.90415,0.0,-87.364769,-0.071069,29.252665,30.449537,0.988,1.037,-45329.0,-128620.0,-509203.0,0.0,175099.0,174656.0,-179949.0,171267.0,-45278.0,-128155.0,-574426.0,0.0,-197016.0,-196802.0,192794.0,-201559.0,0.0,0.0,0.0,0.0,0.0,0.0,0.0,0.0,0.0,0.0,0.0,0.0,0.0,0.0,0.0,0.0,0.0,0.0,0.0,0.0,0.0,0.0,0.0,0.0
46,11.116971969604492,34.068115,87.987175,22.289501,0.0,-89.300552,0.988308,26.982975,29.657576,30.192459,89.847679,22.904085,0.0,-87.764458,-0.071726,29.073357,30.389704,3.0,1.0,111.0,0.0,1.0,-86600.0,-34370.0,12245.0,-78134.0,25575.0,13080.0,-0.916564,0.350814,0.191937,-0.384336,-0.905367,-0.180545,0.110435,-0.239249,0.964657,-0.935494,0.291977,-0.198999,0.317937,0.941289,-0.113535,0.154166,-0.16948,-0.973401,-0.916564,0.350814,0.191937,-0.384336,-0.905367,-0.180545,0.110435,-0.239249,0.964657,-0.935494,0.291977,-0.198999,0.317937,0.941289,-0.113535,0.154166,-0.16948,-0.973401,-86600.0,-34370.0,12245.0,-78134.0,25575.0,13080.0,-6226.0,3125.0,-48813.0,0.0,-22098.0,-17089.0,-14640.0,-17663.0,412.0,-909.0,-2034.0,0.0,-5491.0,-23.0,1091.0,-1733.0,118.0,152.0,-45.0,0.0,-360.0,-162.0,543.0,-65.0,-50.0,-160.0,45.0,0.0,-798.0,601.0,717.0,-908.0,-0.032087,-0.041159,0.01219,0.0,-0.013178,-0.005943,-0.019892,-0.002399,-0.013538,-0.043405,0.012369,0.0,-0.029225,0.022005,-0.026242,-0.033258,4639.950195,11294.550781,50221.441406,0.0,-17747.730469,-17257.050781,17513.009766,-17003.701172,4112.100098,11452.139648,51515.28125,0.0,17237.25,17710.109375,-17449.650391,17984.339844,0.0,0.0,0.0,0.0,0.0,0.0,0.0,0.0,0.0,0.0,0.0,0.0,0.0,0.0,0.0,0.0,0.0,0.0,0.0,0.0,0.0,0.0,0.0,0.0,0.0,0.0,0.0,0.0,0.0,0.0,0.0,0.0,4639.897461,11294.535156,50221.578125,0.0,-17747.697266,-17257.021484,17512.875,-17003.855469,4112.055176,11452.041016,51515.398438,0.0,17239.40625,17710.115234,-17448.035156,17984.875,34.067734,87.987106,22.28957,0.0,-89.294762,0.991638,26.966192,29.642038,30.192131,89.846916,22.90415,0.0,-87.364769,-0.071069,29.252665,30.449537,0.988,1.037,-45329.0,-128620.0,-509203.0,0.0,175099.0,174656.0,-179949.0,171267.0,-45278.0,-128155.0,-574426.0,0.0,-197016.0,-196802.0,192794.0,-201559.0,0.0,0.0,0.0,0.0,0.0,0.0,0.0,0.0,0.0,0.0,0.0,0.0,0.0,0.0,0.0,0.0,0.0,0.0,0.0,0.0,0.0,0.0,0.0,0.0
47,11.191027164459229,34.068115,87.987175,22.289501,0.0,-89.300552,0.988308,26.982975,29.657576,30.192459,89.847679,22.904085,0.0,-87.764458,-0.071726,29.073357,30.389704,3.0,1.0,111.0,0.0,1.0,-86600.0,-34370.0,12245.0,-78134.0,25575.0,13080.0,-0.916564,0.350814,0.191937,-0.384336,-0.905367,-0.180545,0.110435,-0.239249,0.964657,-0.935494,0.291977,-0.198999,0.317937,0.941289,-0.113535,0.154166,-0.16948,-0.973401,-0.916564,0.350814,0.191937,-0.384336,-0.905367,-0.180545,0.110435,-0.239249,0.964657,-0.935494,0.291977,-0.198999,0.317937,0.941289,-0.113535,0.154166,-0.16948,-0.973401,-86600.0,-34370.0,12245.0,-78134.0,25575.0,13080.0,-6226.0,3125.0,-48813.0,0.0,-22098.0,-17089.0,-14640.0,-17663.0,412.0,-909.0,-2034.0,0.0,-5491.0,-23.0,1091.0,-1733.0,118.0,152.0,-45.0,0.0,-360.0,-162.0,543.0,-65.0,-50.0,-160.0,45.0,0.0,-794.0,601.0,714.0,-907.0,-0.032087,-0.041159,0.01219,0.0,-0.013176,-0.005941,-0.019901,-0.002409,-0.013538,-0.043405,0.012369,0.0,-0.029086,0.022005,-0.026138,-0.033224,4639.950195,11294.550781,50221.441406,0.0,-17747.730469,-17257.050781,17513.009766,-17003.701172,4112.100098,11452.139648,51515.28125,0.0,17237.25,17710.109375,-17449.650391,17984.339844,0.0,0.0,0.0,0.0,0.0,0.0,0.0,0.0,0.0,0.0,0.0,0.0,0.0,0.0,0.0,0.0,0.0,0.0,0.0,0.0,0.0,0.0,0.0,0.0,0.0,0.0,0.0,0.0,0.0,0.0,0.0,0.0,4639.897461,11294.535156,50221.578125,0.0,-17747.697266,-17257.021484,17512.875,-17003.855469,4112.055176,11452.041016,51515.398438,0.0,17239.40625,17710.115234,-17448.035156,17984.875,34.067734,87.987106,22.28957,0.0,-89.294762,0.991638,26.966192,29.642038,30.192131,89.846916,22.90415,0.0,-87.364769,-0.071069,29.252665,30.449537,0.988,1.037,-45329.0,-128620.0,-509203.0,0.0,175099.0,174656.0,-179949.0,171267.0,-45278.0,-128155.0,-574426.0,0.0,-197016.0,-196802.0,192794.0,-201559.0,0.0,0.0,0.0,0.0,0.0,0.0,0.0,0.0,0.0,0.0,0.0,0.0,0.0,0.0,0.0,0.0,0.0,0.0,0.0,0.0,0.0,0.0,0.0,0.0
48,11.263008117675781,34.068115,87.987175,22.289461,0.0,-89.306114,0.984965,26.977879,29.652563,30.192459,89.847679,22.904085,0.0,-87.780991,-0.071726,29.073357,30.389704,3.0,1.0,111.0,0.0,1.0,-86601.0,-34370.0,12246.0,-78134.0,25575.0,13080.0,-0.916552,0.350834,0.191959,-0.384349,-0.905383,-0.180435,0.110493,-0.239157,0.964674,-0.935495,0.291919,-0.19908,0.317936,0.941257,-0.113808,0.154163,-0.169761,-0.973352,-0.916552,0.350834,0.191959,-0.384349,-0.905383,-0.180435,0.110493,-0.239157,0.964674,-0.935495,0.291919,-0.19908,0.317936,0.941257,-0.113808,0.154163,-0.169761,-0.973352,-86601.0,-34370.0,12246.0,-78134.0,25575.0,13080.0,-6226.0,3125.0,-48812.0,0.0,-22098.0,-17089.0,-14639.0,-17663.0,412.0,-909.0,-2034.0,0.0,-5492.0,-23.0,1091.0,-1733.0,118.0,152.0,-45.0,0.0,-358.0,-161.0,542.0,-65.0,-50.0,-160.0,45.0,0.0,-787.0,601.0,711.0,-907.0,-0.032087,-0.041159,0.012419,0.0,-0.013127,-0.005913,-0.019852,-0.002393,-0.013538,-0.043405,0.012369,0.0,-0.028807,0.022006,-0.026036,-0.03319,4639.950195,11294.550781,50221.351562,0.0,-17747.730469,-17257.050781,17512.919922,-17003.701172,4112.100098,11452.139648,51515.28125,0.0,17237.160156,17710.109375,-17449.650391,17984.339844,0.0,0.0,0.0,0.0,0.0,0.0,0.0,0.0,0.0,0.0,0.0,0.0,0.0,0.0,0.0,0.0,0.0,0.0,0.0,0.0,0.0,0.0,0.0,0.0,0.0,0.0,0.0,0.0,0.0,0.0,0.0,0.0,4639.897461,11294.535156,50221.578125,0.0,-17747.667969,-17256.990234,17512.84375,-17003.826172,4112.055176,11452.041016,51515.398438,0.0,17239.40625,17710.115234,-17448.035156,17984.875,34.067734,87.987106,22.28957,0.0,-89.294762,0.991638,26.966192,29.642038,30.192131,89.846916,22.90415,0.0,-87.364769,-0.071069,29.252665,30.449537,0.988,1.037,-45329.0,-128620.0,-509203.0,0.0,175099.0,174656.0,-179949.0,171267.0,-45278.0,-128155.0,-574426.0,0.0,-197016.0,-196802.0,192794.0,-201559.0,0.0,0.0,0.0,0.0,0.0,0.0,0.0,0.0,0.0,0.0,0.0,0.0,0.0,0.0,0.0,0.0,0.0,0.0,0.0,0.0,0.0,0.0,0.0,0.0
49,11.33200716972351,34.068115,87.987175,22.289461,0.0,-89.306114,0.984965,26.977879,29.652563,30.192459,89.847679,22.904085,0.0,-87.780991,-0.071726,29.073357,30.389704,3.0,1.0,111.0,0.0,1.0,-86601.0,-34370.0,12246.0,-78134.0,25575.0,13080.0,-0.916552,0.350834,0.191959,-0.384349,-0.905383,-0.180435,0.110493,-0.239157,0.964674,-0.935495,0.291919,-0.19908,0.317936,0.941257,-0.113808,0.154163,-0.169761,-0.973352,-0.916552,0.350834,0.191959,-0.384349,-0.905383,-0.180435,0.110493,-0.239157,0.964674,-0.935495,0.291919,-0.19908,0.317936,0.941257,-0.113808,0.154163,-0.169761,-0.973352,-86601.0,-34370.0,12246.0,-78134.0,25575.0,13080.0,-6226.0,3125.0,-48812.0,0.0,-22098.0,-17089.0,-14639.0,-17663.0,412.0,-909.0,-2034.0,0.0,-5492.0,-23.0,1091.0,-1733.0,118.0,152.0,-45.0,0.0,-358.0,-161.0,542.0,-65.0,-50.0,-160.0,45.0,0.0,-783.0,601.0,708.0,-906.0,-0.032087,-0.041159,0.012419,0.0,-0.013123,-0.005909,-0.019857,-0.0024,-0.013538,-0.043405,0.012369,0.0,-0.028672,0.022006,-0.025939,-0.033158,4639.950195,11294.550781,50221.351562,0.0,-17747.730469,-17257.050781,17512.919922,-17003.701172,4112.100098,11452.139648,51515.28125,0.0,17237.160156,17710.109375,-17449.650391,17984.339844,0.0,0.0,0.0,0.0,0.0,0.0,0.0,0.0,0.0,0.0,0.0,0.0,0.0,0.0,0.0,0.0,0.0,0.0,0.0,0.0,0.0,0.0,0.0,0.0,0.0,0.0,0.0,0.0,0.0,0.0,0.0,0.0,4639.897461,11294.535156,50221.578125,0.0,-17747.667969,-17256.990234,17512.84375,-17003.826172,4112.055176,11452.041016,51515.398438,0.0,17239.40625,17710.115234,-17448.035156,17984.875,34.067734,87.987106,22.28957,0.0,-89.294762,0.991638,26.966192,29.642038,30.192131,89.846916,22.90415,0.0,-87.364769,-0.071069,29.252665,30.449537,0.988,1.037,-45329.0,-128620.0,-509203.0,0.0,175099.0,174656.0,-179949.0,171267.0,-45278.0,-128155.0,-574426.0,0.0,-197016.0,-196802.0,192794.0,-201559.0,0.0,0.0,0.0,0.0,0.0,0.0,0.0,0.0,0.0,0.0,0.0,0.0,0.0,0.0,0.0,0.0,0.0,0.0,0.0,0.0,0.0,0.0,0.0,0.0
50,11.410997152328491,34.068115,87.987175,22.289461,0.0,-89.306114,0.984965,26.977879,29.652563,30.192459,89.847679,22.904085,0.0,-87.780991,-0.071726,29.073357,30.389704,3.0,1.0,111.0,0.0,1.0,-86601.0,-34370.0,12246.0,-78134.0,25575.0,13080.0,-0.916552,0.350834,0.191959,-0.384349,-0.905383,-0.180435,0.110493,-0.239157,0.964674,-0.935495,0.291919,-0.19908,0.317936,0.941257,-0.113808,0.154163,-0.169761,-0.973352,-0.916552,0.350834,0.191959,-0.384349,-0.905383,-0.180435,0.110493,-0.239157,0.964674,-0.935495,0.291919,-0.19908,0.317936,0.941257,-0.113808,0.154163,-0.169761,-0.973352,-86601.0,-34370.0,12246.0,-78134.0,25575.0,13080.0,-6226.0,3125.0,-48812.0,0.0,-22098.0,-17089.0,-14639.0,-17663.0,412.0,-909.0,-2034.0,0.0,-5492.0,-23.0,1091.0,-1733.0,118.0,152.0,-45.0,0.0,-358.0,-161.0,542.0,-65.0,-50.0,-160.0,45.0,0.0,-779.0,601.0,705.0,-905.0,-0.032087,-0.041159,0.012419,0.0,-0.013119,-0.005905,-0.019862,-0.002409,-0.013538,-0.043405,0.012369,0.0,-0.028517,0.022006,-0.025828,-0.033121,4639.950195,11294.550781,50221.351562,0.0,-17747.730469,-17257.050781,17512.919922,-17003.701172,4112.100098,11452.139648,51515.28125,0.0,17237.160156,17710.109375,-17449.650391,17984.339844,0.0,0.0,0.0,0.0,0.0,0.0,0.0,0.0,0.0,0.0,0.0,0.0,0.0,0.0,0.0,0.0,0.0,0.0,0.0,0.0,0.0,0.0,0.0,0.0,0.0,0.0,0.0,0.0,0.0,0.0,0.0,0.0,4639.897461,11294.535156,50221.578125,0.0,-17747.667969,-17256.990234,17512.84375,-17003.826172,4112.055176,11452.041016,51515.398438,0.0,17239.40625,17710.115234,-17448.035156,17984.875,34.067734,87.987106,22.28957,0.0,-89.294762,0.991638,26.966192,29.642038,30.192131,89.846916,22.90415,0.0,-87.364769,-0.071069,29.252665,30.449537,0.988,1.037,-45329.0,-128620.0,-509203.0,0.0,175099.0,174656.0,-179949.0,171267.0,-45278.0,-128155.0,-574426.0,0.0,-197016.0,-196802.0,192794.0,-201559.0,0.0,0.0,0.0,0.0,0.0,0.0,0.0,0.0,0.0,0.0,0.0,0.0,0.0,0.0,0.0,0.0,0.0,0.0,0.0,0.0,0.0,0.0,0.0,0.0
