MHC-RobotSimulators-Research/Data_Analysis_MotionReplication/mai_plotter/raven_data/with_offsets/rightarm_p5_phys2_2023-11-15 13_50_05.932957_rs.csv
,time,jpos0,jpos1,jpos2,jpos3,jpos4,jpos5,jpos6,jpos7,jpos8,jpos9,jpos10,jpos11,jpos12,jpos13,jpos14,jpos15,runlevel,sublevel,last_seq,type0,type1,pos0,pos1,pos2,pos3,pos4,pos5,ori0,ori1,ori2,ori3,ori4,ori5,ori6,ori7,ori8,ori9,ori10,ori11,ori12,ori13,ori14,ori15,ori16,ori17,ori_d0,ori_d1,ori_d2,ori_d3,ori_d4,ori_d5,ori_d6,ori_d7,ori_d8,ori_d9,ori_d10,ori_d11,ori_d12,ori_d13,ori_d14,ori_d15,ori_d16,ori_d17,pos_d0,pos_d1,pos_d2,pos_d3,pos_d4,pos_d5,encVals0,encVals1,encVals2,encVals3,encVals4,encVals5,encVals6,encVals7,encVals8,encVals9,encVals10,encVals11,encVals12,encVals13,encVals14,encVals15,dac_vals0,dac_vals1,dac_vals2,dac_vals3,dac_vals4,dac_vals5,dac_vals6,dac_vals7,dac_vals8,dac_vals9,dac_vals10,dac_vals11,dac_vals12,dac_vals13,dac_vals14,dac_vals15,Tau0,Tau1,Tau2,Tau3,Tau4,Tau5,Tau6,Tau7,Tau8,Tau9,Tau10,Tau11,Tau12,Tau13,Tau14,Tau15,mpos0,mpos1,mpos2,mpos3,mpos4,mpos5,mpos6,mpos7,mpos8,mpos9,mpos10,mpos11,mpos12,mpos13,mpos14,mpos15,mvel0,mvel1,mvel2,mvel3,mvel4,mvel5,mvel6,mvel7,mvel8,mvel9,mvel10,mvel11,mvel12,mvel13,mvel14,mvel15,jvel0,jvel1,jvel2,jvel3,jvel4,jvel5,jvel6,jvel7,jvel8,jvel9,jvel10,jvel11,jvel12,jvel13,jvel14,jvel15,mpos_d0,mpos_d1,mpos_d2,mpos_d3,mpos_d4,mpos_d5,mpos_d6,mpos_d7,mpos_d8,mpos_d9,mpos_d10,mpos_d11,mpos_d12,mpos_d13,mpos_d14,mpos_d15,jpos_d0,jpos_d1,jpos_d2,jpos_d3,jpos_d4,jpos_d5,jpos_d6,jpos_d7,jpos_d8,jpos_d9,jpos_d10,jpos_d11,jpos_d12,jpos_d13,jpos_d14,jpos_d15,grasp_d0,grasp_d1,encoffsets0,encoffsets1,encoffsets2,encoffsets3,encoffsets4,encoffsets5,encoffsets6,encoffsets7,encoffsets8,encoffsets9,encoffsets10,encoffsets11,encoffsets12,encoffsets13,encoffsets14,encoffsets15,jac_vel0,jac_vel1,jac_vel2,jac_vel3,jac_vel4,jac_vel5,jac_vel6,jac_vel7,jac_vel8,jac_vel9,jac_vel10,jac_vel11,jac_f0,jac_f1,jac_f2,jac_f3,jac_f4,jac_f5,jac_f6,jac_f7,jac_f8,jac_f9,jac_f10,jac_f11
0,0.0,31.266277,89.131599,22.735512,0.0,-5.580009,0.93583,40.753826,44.962749,32.577988,88.592728,22.593716,0.0,-83.336548,-2.179308,39.140984,32.452938,3.0,1.0,111.0,0.0,1.0,-80624.0,-27663.0,12764.0,-82406.0,30423.0,11982.0,-0.94548,-0.143083,0.292566,-0.305241,0.076088,-0.94923,0.113558,-0.986782,-0.115614,-0.952008,0.275885,-0.132542,0.285981,0.956095,-0.064005,0.109064,-0.098838,-0.989109,-0.945455,-0.143248,0.292566,-0.305254,0.076035,-0.94923,0.11373,-0.986762,-0.115614,-0.951977,0.27636,-0.131772,0.286141,0.956191,-0.061826,0.108913,-0.096563,-0.98935,-80624.0,-27663.0,12764.0,-82406.0,30424.0,11982.0,-1986.0,2130.0,-59208.0,0.0,-20653.0,-20668.0,-19587.0,-19705.0,4022.0,-2135.0,-9275.0,0.0,-7715.0,-2723.0,-2299.0,-3911.0,68.0,155.0,-45.0,0.0,830.0,114.0,-29.0,23.0,-92.0,-155.0,45.0,0.0,-178.0,-62.0,644.0,-758.0,-0.018546,-0.042166,0.012264,0.0,0.030381,0.004206,0.001092,0.000848,-0.024945,-0.041984,0.012195,0.0,-0.00654,-0.002275,-0.023569,-0.02776,4258.350098,11384.100586,51156.988281,0.0,-17617.681641,-17579.160156,17958.240234,-17187.480469,4437.0,11341.799805,50863.589844,0.0,17037.091797,17467.109375,-17144.550781,17788.320312,0.0,0.0,0.0,0.0,0.0,0.0,0.0,0.0,0.0,0.0,0.0,0.0,0.0,0.0,0.0,0.0,0.0,0.0,0.0,0.0,0.0,0.0,0.0,0.0,0.0,0.0,0.0,0.0,0.0,0.0,0.0,0.0,4258.31543,11384.054688,51157.085938,0.0,-17617.683594,-17579.162109,17958.322266,-17187.582031,4436.96582,11341.714844,50863.691406,0.0,17037.810547,17467.115234,-17144.480469,17788.482422,31.266024,89.131264,22.735561,0.0,-5.580266,0.935556,40.763092,44.951397,32.577736,88.592072,22.593771,0.0,-83.202858,-2.178769,39.148521,32.471203,1.496,1.25,-45329.0,-128620.0,-509203.0,0.0,175099.0,174656.0,-179949.0,171267.0,-45278.0,-128155.0,-574426.0,0.0,-197016.0,-196802.0,192794.0,-201559.0,0.0,0.0,0.0,0.0,0.0,0.0,0.0,0.0,0.0,0.0,0.0,0.0,0.0,0.0,0.0,0.0,0.0,0.0,0.0,0.0,0.0,0.0,0.0,0.0
1,0.08654093742370605,31.266277,89.131599,22.735512,0.0,-5.580009,0.93583,40.753826,44.962749,32.577988,88.592728,22.593716,0.0,-83.336548,-2.179308,39.140984,32.452938,3.0,1.0,111.0,0.0,1.0,-80624.0,-27663.0,12764.0,-82406.0,30423.0,11982.0,-0.94548,-0.143083,0.292566,-0.305241,0.076088,-0.94923,0.113558,-0.986782,-0.115614,-0.952008,0.275885,-0.132542,0.285981,0.956095,-0.064005,0.109064,-0.098838,-0.989109,-0.94548,-0.143083,0.292566,-0.305241,0.076088,-0.94923,0.113558,-0.986782,-0.115614,-0.952008,0.275885,-0.132542,0.285981,0.956095,-0.064005,0.109064,-0.098838,-0.989109,-80624.0,-27663.0,12764.0,-82406.0,30423.0,11982.0,-1986.0,2130.0,-59208.0,0.0,-20653.0,-20668.0,-19587.0,-19705.0,4022.0,-2135.0,-9275.0,0.0,-7715.0,-2723.0,-2299.0,-3911.0,68.0,155.0,-45.0,0.0,830.0,114.0,-29.0,22.0,-92.0,-155.0,45.0,0.0,-177.0,-62.0,643.0,-758.0,-0.018546,-0.042166,0.012264,0.0,0.030381,0.004205,0.001097,0.000841,-0.024945,-0.041984,0.012195,0.0,-0.00649,-0.002275,-0.023564,-0.027749,4258.350098,11384.100586,51156.988281,0.0,-17617.681641,-17579.160156,17958.240234,-17187.480469,4437.0,11341.799805,50863.589844,0.0,17037.091797,17467.109375,-17144.550781,17788.320312,0.0,0.0,0.0,0.0,0.0,0.0,0.0,0.0,0.0,0.0,0.0,0.0,0.0,0.0,0.0,0.0,0.0,0.0,0.0,0.0,0.0,0.0,0.0,0.0,0.0,0.0,0.0,0.0,0.0,0.0,0.0,0.0,4258.31543,11384.054688,51157.085938,0.0,-17617.683594,-17579.162109,17958.322266,-17187.582031,4436.96582,11341.714844,50863.691406,0.0,17037.810547,17467.115234,-17144.480469,17788.482422,31.266024,89.131264,22.735561,0.0,-5.580266,0.935556,40.763092,44.951397,32.577736,88.592072,22.593771,0.0,-83.202858,-2.178769,39.148521,32.471203,1.496,1.249,-45329.0,-128620.0,-509203.0,0.0,175099.0,174656.0,-179949.0,171267.0,-45278.0,-128155.0,-574426.0,0.0,-197016.0,-196802.0,192794.0,-201559.0,0.0,0.0,0.0,0.0,0.0,0.0,0.0,0.0,0.0,0.0,0.0,0.0,0.0,0.0,0.0,0.0,0.0,0.0,0.0,0.0,0.0,0.0,0.0,0.0
2,0.16375207901000977,31.266277,89.131599,22.735512,0.0,-5.580009,0.93583,40.753826,44.962749,32.577988,88.592728,22.593716,0.0,-83.336548,-2.179308,39.140984,32.452938,3.0,1.0,111.0,0.0,1.0,-80624.0,-27663.0,12764.0,-82406.0,30423.0,11982.0,-0.94548,-0.143083,0.292566,-0.305241,0.076088,-0.94923,0.113558,-0.986782,-0.115614,-0.952008,0.275885,-0.132542,0.285981,0.956095,-0.064005,0.109064,-0.098838,-0.989109,-0.94548,-0.143083,0.292566,-0.305241,0.076088,-0.94923,0.113558,-0.986782,-0.115614,-0.952008,0.275885,-0.132542,0.285981,0.956095,-0.064005,0.109064,-0.098838,-0.989109,-80624.0,-27663.0,12764.0,-82406.0,30423.0,11982.0,-1986.0,2130.0,-59208.0,0.0,-20653.0,-20668.0,-19587.0,-19705.0,4022.0,-2135.0,-9275.0,0.0,-7715.0,-2723.0,-2299.0,-3911.0,68.0,155.0,-45.0,0.0,830.0,114.0,-30.0,22.0,-92.0,-155.0,45.0,0.0,-176.0,-62.0,643.0,-758.0,-0.018546,-0.042166,0.012264,0.0,0.03038,0.004205,0.001103,0.000834,-0.024945,-0.041984,0.012195,0.0,-0.006442,-0.002274,-0.023559,-0.027738,4258.350098,11384.100586,51156.988281,0.0,-17617.681641,-17579.160156,17958.240234,-17187.480469,4437.0,11341.799805,50863.589844,0.0,17037.091797,17467.109375,-17144.550781,17788.320312,0.0,0.0,0.0,0.0,0.0,0.0,0.0,0.0,0.0,0.0,0.0,0.0,0.0,0.0,0.0,0.0,0.0,0.0,0.0,0.0,0.0,0.0,0.0,0.0,0.0,0.0,0.0,0.0,0.0,0.0,0.0,0.0,4258.31543,11384.054688,51157.085938,0.0,-17617.683594,-17579.162109,17958.322266,-17187.582031,4436.96582,11341.714844,50863.691406,0.0,17037.810547,17467.115234,-17144.480469,17788.482422,31.266024,89.131264,22.735561,0.0,-5.580266,0.935556,40.763092,44.951397,32.577736,88.592072,22.593771,0.0,-83.202858,-2.178769,39.148521,32.471203,1.496,1.249,-45329.0,-128620.0,-509203.0,0.0,175099.0,174656.0,-179949.0,171267.0,-45278.0,-128155.0,-574426.0,0.0,-197016.0,-196802.0,192794.0,-201559.0,0.0,0.0,0.0,0.0,0.0,0.0,0.0,0.0,0.0,0.0,0.0,0.0,0.0,0.0,0.0,0.0,0.0,0.0,0.0,0.0,0.0,0.0,0.0,0.0
3,0.2344679832458496,31.266277,89.131599,22.735512,0.0,-5.580009,0.93583,40.753826,44.962749,32.577988,88.592728,22.593716,0.0,-83.336548,-2.179308,39.140984,32.452938,3.0,1.0,111.0,0.0,1.0,-80624.0,-27663.0,12764.0,-82406.0,30423.0,11982.0,-0.94548,-0.143083,0.292566,-0.305241,0.076088,-0.94923,0.113558,-0.986782,-0.115614,-0.952008,0.275885,-0.132542,0.285981,0.956095,-0.064005,0.109064,-0.098838,-0.989109,-0.94548,-0.143083,0.292566,-0.305241,0.076088,-0.94923,0.113558,-0.986782,-0.115614,-0.952008,0.275885,-0.132542,0.285981,0.956095,-0.064005,0.109064,-0.098838,-0.989109,-80624.0,-27663.0,12764.0,-82406.0,30423.0,11982.0,-1986.0,2130.0,-59208.0,0.0,-20653.0,-20668.0,-19587.0,-19705.0,4022.0,-2135.0,-9275.0,0.0,-7715.0,-2723.0,-2299.0,-3911.0,68.0,155.0,-45.0,0.0,830.0,114.0,-30.0,22.0,-92.0,-155.0,45.0,0.0,-174.0,-62.0,643.0,-757.0,-0.018546,-0.042166,0.012264,0.0,0.03038,0.004205,0.001108,0.000828,-0.024945,-0.041984,0.012195,0.0,-0.006397,-0.002274,-0.023555,-0.027727,4258.350098,11384.100586,51156.988281,0.0,-17617.681641,-17579.160156,17958.240234,-17187.480469,4437.0,11341.799805,50863.589844,0.0,17037.091797,17467.109375,-17144.550781,17788.320312,0.0,0.0,0.0,0.0,0.0,0.0,0.0,0.0,0.0,0.0,0.0,0.0,0.0,0.0,0.0,0.0,0.0,0.0,0.0,0.0,0.0,0.0,0.0,0.0,0.0,0.0,0.0,0.0,0.0,0.0,0.0,0.0,4258.31543,11384.054688,51157.085938,0.0,-17617.683594,-17579.162109,17958.322266,-17187.582031,4436.96582,11341.714844,50863.691406,0.0,17037.810547,17467.115234,-17144.480469,17788.482422,31.266024,89.131264,22.735561,0.0,-5.580266,0.935556,40.763092,44.951397,32.577736,88.592072,22.593771,0.0,-83.202858,-2.178769,39.148521,32.471203,1.496,1.249,-45329.0,-128620.0,-509203.0,0.0,175099.0,174656.0,-179949.0,171267.0,-45278.0,-128155.0,-574426.0,0.0,-197016.0,-196802.0,192794.0,-201559.0,0.0,0.0,0.0,0.0,0.0,0.0,0.0,0.0,0.0,0.0,0.0,0.0,0.0,0.0,0.0,0.0,0.0,0.0,0.0,0.0,0.0,0.0,0.0,0.0
4,0.3055150508880615,31.266277,89.131599,22.735512,0.0,-5.580009,0.93583,40.753826,44.962749,32.577988,88.592728,22.593716,0.0,-83.336548,-2.179308,39.140984,32.452938,3.0,1.0,111.0,0.0,1.0,-80624.0,-27663.0,12764.0,-82406.0,30423.0,11982.0,-0.94548,-0.143083,0.292566,-0.305241,0.076088,-0.94923,0.113558,-0.986782,-0.115614,-0.952008,0.275885,-0.132542,0.285981,0.956095,-0.064005,0.109064,-0.098838,-0.989109,-0.94548,-0.143083,0.292566,-0.305241,0.076088,-0.94923,0.113558,-0.986782,-0.115614,-0.952008,0.275885,-0.132542,0.285981,0.956095,-0.064005,0.109064,-0.098838,-0.989109,-80624.0,-27663.0,12764.0,-82406.0,30423.0,11982.0,-1986.0,2130.0,-59208.0,0.0,-20653.0,-20668.0,-19587.0,-19705.0,4022.0,-2135.0,-9275.0,0.0,-7715.0,-2723.0,-2299.0,-3911.0,68.0,155.0,-45.0,0.0,830.0,114.0,-30.0,22.0,-92.0,-155.0,45.0,0.0,-173.0,-62.0,643.0,-757.0,-0.018546,-0.042166,0.012264,0.0,0.03038,0.004205,0.001113,0.000822,-0.024945,-0.041984,0.012195,0.0,-0.006353,-0.002273,-0.02355,-0.027717,4258.350098,11384.100586,51156.988281,0.0,-17617.681641,-17579.160156,17958.240234,-17187.480469,4437.0,11341.799805,50863.589844,0.0,17037.091797,17467.109375,-17144.550781,17788.320312,0.0,0.0,0.0,0.0,0.0,0.0,0.0,0.0,0.0,0.0,0.0,0.0,0.0,0.0,0.0,0.0,0.0,0.0,0.0,0.0,0.0,0.0,0.0,0.0,0.0,0.0,0.0,0.0,0.0,0.0,0.0,0.0,4258.31543,11384.054688,51157.085938,0.0,-17617.683594,-17579.162109,17958.322266,-17187.582031,4436.96582,11341.714844,50863.691406,0.0,17037.810547,17467.115234,-17144.480469,17788.482422,31.266024,89.131264,22.735561,0.0,-5.580266,0.935556,40.763092,44.951397,32.577736,88.592072,22.593771,0.0,-83.202858,-2.178769,39.148521,32.471203,1.496,1.249,-45329.0,-128620.0,-509203.0,0.0,175099.0,174656.0,-179949.0,171267.0,-45278.0,-128155.0,-574426.0,0.0,-197016.0,-196802.0,192794.0,-201559.0,0.0,0.0,0.0,0.0,0.0,0.0,0.0,0.0,0.0,0.0,0.0,0.0,0.0,0.0,0.0,0.0,0.0,0.0,0.0,0.0,0.0,0.0,0.0,0.0
5,0.37751197814941406,31.266277,89.131599,22.735512,0.0,-5.580009,0.93583,40.753826,44.962749,32.577988,88.592728,22.593716,0.0,-83.336548,-2.179308,39.140984,32.452938,3.0,1.0,111.0,0.0,1.0,-80624.0,-27663.0,12764.0,-82406.0,30423.0,11982.0,-0.94548,-0.143083,0.292566,-0.305241,0.076088,-0.94923,0.113558,-0.986782,-0.115614,-0.952008,0.275885,-0.132542,0.285981,0.956095,-0.064005,0.109064,-0.098838,-0.989109,-0.94548,-0.143083,0.292566,-0.305241,0.076088,-0.94923,0.113558,-0.986782,-0.115614,-0.952008,0.275885,-0.132542,0.285981,0.956095,-0.064005,0.109064,-0.098838,-0.989109,-80624.0,-27663.0,12764.0,-82406.0,30423.0,11982.0,-1986.0,2130.0,-59208.0,0.0,-20653.0,-20668.0,-19587.0,-19705.0,4022.0,-2135.0,-9275.0,0.0,-7715.0,-2723.0,-2299.0,-3911.0,68.0,155.0,-45.0,0.0,830.0,114.0,-30.0,22.0,-92.0,-155.0,45.0,0.0,-172.0,-62.0,643.0,-757.0,-0.018546,-0.042166,0.012264,0.0,0.03038,0.004205,0.001118,0.000815,-0.024945,-0.041984,0.012195,0.0,-0.006307,-0.002273,-0.023546,-0.027707,4258.350098,11384.100586,51156.988281,0.0,-17617.681641,-17579.160156,17958.240234,-17187.480469,4437.0,11341.799805,50863.589844,0.0,17037.091797,17467.109375,-17144.550781,17788.320312,0.0,0.0,0.0,0.0,0.0,0.0,0.0,0.0,0.0,0.0,0.0,0.0,0.0,0.0,0.0,0.0,0.0,0.0,0.0,0.0,0.0,0.0,0.0,0.0,0.0,0.0,0.0,0.0,0.0,0.0,0.0,0.0,4258.31543,11384.054688,51157.085938,0.0,-17617.683594,-17579.162109,17958.322266,-17187.582031,4436.96582,11341.714844,50863.691406,0.0,17037.810547,17467.115234,-17144.480469,17788.482422,31.266024,89.131264,22.735561,0.0,-5.580266,0.935556,40.763092,44.951397,32.577736,88.592072,22.593771,0.0,-83.202858,-2.178769,39.148521,32.471203,1.496,1.249,-45329.0,-128620.0,-509203.0,0.0,175099.0,174656.0,-179949.0,171267.0,-45278.0,-128155.0,-574426.0,0.0,-197016.0,-196802.0,192794.0,-201559.0,0.0,0.0,0.0,0.0,0.0,0.0,0.0,0.0,0.0,0.0,0.0,0.0,0.0,0.0,0.0,0.0,0.0,0.0,0.0,0.0,0.0,0.0,0.0,0.0
6,0.4474968910217285,31.266277,89.131599,22.735512,0.0,-5.580009,0.93583,40.753826,44.962749,32.577988,88.592728,22.593716,0.0,-83.336548,-2.179308,39.140984,32.452938,3.0,1.0,111.0,0.0,1.0,-80624.0,-27663.0,12764.0,-82406.0,30423.0,11982.0,-0.94548,-0.143083,0.292566,-0.305241,0.076088,-0.94923,0.113558,-0.986782,-0.115614,-0.952008,0.275885,-0.132542,0.285981,0.956095,-0.064005,0.109064,-0.098838,-0.989109,-0.94548,-0.143083,0.292566,-0.305241,0.076088,-0.94923,0.113558,-0.986782,-0.115614,-0.952008,0.275885,-0.132542,0.285981,0.956095,-0.064005,0.109064,-0.098838,-0.989109,-80624.0,-27663.0,12764.0,-82406.0,30423.0,11982.0,-1986.0,2130.0,-59208.0,0.0,-20653.0,-20668.0,-19587.0,-19705.0,4022.0,-2135.0,-9275.0,0.0,-7715.0,-2723.0,-2299.0,-3911.0,68.0,155.0,-45.0,0.0,830.0,114.0,-30.0,22.0,-92.0,-155.0,45.0,0.0,-171.0,-62.0,643.0,-756.0,-0.018546,-0.042166,0.012264,0.0,0.03038,0.004205,0.001123,0.000809,-0.024945,-0.041984,0.012195,0.0,-0.006263,-0.002273,-0.023542,-0.027697,4258.350098,11384.100586,51156.988281,0.0,-17617.681641,-17579.160156,17958.240234,-17187.480469,4437.0,11341.799805,50863.589844,0.0,17037.091797,17467.109375,-17144.550781,17788.320312,0.0,0.0,0.0,0.0,0.0,0.0,0.0,0.0,0.0,0.0,0.0,0.0,0.0,0.0,0.0,0.0,0.0,0.0,0.0,0.0,0.0,0.0,0.0,0.0,0.0,0.0,0.0,0.0,0.0,0.0,0.0,0.0,4258.31543,11384.054688,51157.085938,0.0,-17617.683594,-17579.162109,17958.322266,-17187.582031,4436.96582,11341.714844,50863.691406,0.0,17037.810547,17467.115234,-17144.480469,17788.482422,31.266024,89.131264,22.735561,0.0,-5.580266,0.935556,40.763092,44.951397,32.577736,88.592072,22.593771,0.0,-83.202858,-2.178769,39.148521,32.471203,1.496,1.249,-45329.0,-128620.0,-509203.0,0.0,175099.0,174656.0,-179949.0,171267.0,-45278.0,-128155.0,-574426.0,0.0,-197016.0,-196802.0,192794.0,-201559.0,0.0,0.0,0.0,0.0,0.0,0.0,0.0,0.0,0.0,0.0,0.0,0.0,0.0,0.0,0.0,0.0,0.0,0.0,0.0,0.0,0.0,0.0,0.0,0.0
7,0.5215051174163818,31.266277,89.131599,22.735512,0.0,-5.580009,0.93583,40.753826,44.962749,32.577988,88.592728,22.593716,0.0,-83.336548,-2.179308,39.140984,32.452938,3.0,1.0,111.0,0.0,1.0,-80624.0,-27663.0,12764.0,-82406.0,30423.0,11982.0,-0.94548,-0.143083,0.292566,-0.305241,0.076088,-0.94923,0.113558,-0.986782,-0.115614,-0.952008,0.275885,-0.132542,0.285981,0.956095,-0.064005,0.109064,-0.098838,-0.989109,-0.94548,-0.143083,0.292566,-0.305241,0.076088,-0.94923,0.113558,-0.986782,-0.115614,-0.952008,0.275885,-0.132542,0.285981,0.956095,-0.064005,0.109064,-0.098838,-0.989109,-80624.0,-27663.0,12764.0,-82406.0,30423.0,11982.0,-1986.0,2130.0,-59208.0,0.0,-20653.0,-20668.0,-19587.0,-19705.0,4022.0,-2135.0,-9275.0,0.0,-7715.0,-2723.0,-2299.0,-3911.0,68.0,155.0,-45.0,0.0,830.0,114.0,-30.0,21.0,-92.0,-155.0,45.0,0.0,-169.0,-62.0,643.0,-756.0,-0.018546,-0.042166,0.012264,0.0,0.030379,0.004205,0.001129,0.000802,-0.024945,-0.041984,0.012195,0.0,-0.006217,-0.002272,-0.023537,-0.027686,4258.350098,11384.100586,51156.988281,0.0,-17617.681641,-17579.160156,17958.240234,-17187.480469,4437.0,11341.799805,50863.589844,0.0,17037.091797,17467.109375,-17144.550781,17788.320312,0.0,0.0,0.0,0.0,0.0,0.0,0.0,0.0,0.0,0.0,0.0,0.0,0.0,0.0,0.0,0.0,0.0,0.0,0.0,0.0,0.0,0.0,0.0,0.0,0.0,0.0,0.0,0.0,0.0,0.0,0.0,0.0,4258.31543,11384.054688,51157.085938,0.0,-17617.683594,-17579.162109,17958.322266,-17187.582031,4436.96582,11341.714844,50863.691406,0.0,17037.810547,17467.115234,-17144.480469,17788.482422,31.266024,89.131264,22.735561,0.0,-5.580266,0.935556,40.763092,44.951397,32.577736,88.592072,22.593771,0.0,-83.202858,-2.178769,39.148521,32.471203,1.496,1.249,-45329.0,-128620.0,-509203.0,0.0,175099.0,174656.0,-179949.0,171267.0,-45278.0,-128155.0,-574426.0,0.0,-197016.0,-196802.0,192794.0,-201559.0,0.0,0.0,0.0,0.0,0.0,0.0,0.0,0.0,0.0,0.0,0.0,0.0,0.0,0.0,0.0,0.0,0.0,0.0,0.0,0.0,0.0,0.0,0.0,0.0
8,0.5975470542907715,31.266277,89.131599,22.735512,0.0,-5.580009,0.93583,40.753826,44.962749,32.577988,88.592728,22.593716,0.0,-83.336548,-2.179308,39.140984,32.452938,3.0,1.0,111.0,0.0,1.0,-80624.0,-27663.0,12764.0,-82406.0,30423.0,11982.0,-0.94548,-0.143083,0.292566,-0.305241,0.076088,-0.94923,0.113558,-0.986782,-0.115614,-0.952008,0.275885,-0.132542,0.285981,0.956095,-0.064005,0.109064,-0.098838,-0.989109,-0.94548,-0.143083,0.292566,-0.305241,0.076088,-0.94923,0.113558,-0.986782,-0.115614,-0.952008,0.275885,-0.132542,0.285981,0.956095,-0.064005,0.109064,-0.098838,-0.989109,-80624.0,-27663.0,12764.0,-82406.0,30423.0,11982.0,-1986.0,2130.0,-59208.0,0.0,-20653.0,-20668.0,-19587.0,-19705.0,4022.0,-2135.0,-9275.0,0.0,-7715.0,-2723.0,-2299.0,-3911.0,68.0,155.0,-45.0,0.0,830.0,114.0,-30.0,21.0,-92.0,-155.0,45.0,0.0,-168.0,-62.0,643.0,-756.0,-0.018546,-0.042166,0.012264,0.0,0.030379,0.004205,0.001134,0.000796,-0.024945,-0.041984,0.012195,0.0,-0.006169,-0.002272,-0.023533,-0.027675,4258.350098,11384.100586,51156.988281,0.0,-17617.681641,-17579.160156,17958.240234,-17187.480469,4437.0,11341.799805,50863.589844,0.0,17037.091797,17467.109375,-17144.550781,17788.320312,0.0,0.0,0.0,0.0,0.0,0.0,0.0,0.0,0.0,0.0,0.0,0.0,0.0,0.0,0.0,0.0,0.0,0.0,0.0,0.0,0.0,0.0,0.0,0.0,0.0,0.0,0.0,0.0,0.0,0.0,0.0,0.0,4258.31543,11384.054688,51157.085938,0.0,-17617.683594,-17579.162109,17958.322266,-17187.582031,4436.96582,11341.714844,50863.691406,0.0,17037.810547,17467.115234,-17144.480469,17788.482422,31.266024,89.131264,22.735561,0.0,-5.580266,0.935556,40.763092,44.951397,32.577736,88.592072,22.593771,0.0,-83.202858,-2.178769,39.148521,32.471203,1.496,1.249,-45329.0,-128620.0,-509203.0,0.0,175099.0,174656.0,-179949.0,171267.0,-45278.0,-128155.0,-574426.0,0.0,-197016.0,-196802.0,192794.0,-201559.0,0.0,0.0,0.0,0.0,0.0,0.0,0.0,0.0,0.0,0.0,0.0,0.0,0.0,0.0,0.0,0.0,0.0,0.0,0.0,0.0,0.0,0.0,0.0,0.0
9,0.6674540042877197,31.266277,89.131599,22.735512,0.0,-5.580009,0.93583,40.753826,44.962749,32.577988,88.592728,22.593716,0.0,-83.336548,-2.179308,39.140984,32.452938,3.0,1.0,111.0,0.0,1.0,-80624.0,-27663.0,12764.0,-82406.0,30423.0,11982.0,-0.94548,-0.143083,0.292566,-0.305241,0.076088,-0.94923,0.113558,-0.986782,-0.115614,-0.952008,0.275885,-0.132542,0.285981,0.956095,-0.064005,0.109064,-0.098838,-0.989109,-0.94548,-0.143083,0.292566,-0.305241,0.076088,-0.94923,0.113558,-0.986782,-0.115614,-0.952008,0.275885,-0.132542,0.285981,0.956095,-0.064005,0.109064,-0.098838,-0.989109,-80624.0,-27663.0,12764.0,-82406.0,30423.0,11982.0,-1986.0,2130.0,-59208.0,0.0,-20653.0,-20668.0,-19587.0,-19705.0,4022.0,-2135.0,-9275.0,0.0,-7715.0,-2723.0,-2299.0,-3911.0,68.0,155.0,-45.0,0.0,830.0,114.0,-31.0,21.0,-92.0,-155.0,45.0,0.0,-167.0,-62.0,642.0,-756.0,-0.018546,-0.042166,0.012264,0.0,0.030379,0.004205,0.001139,0.00079,-0.024945,-0.041984,0.012195,0.0,-0.006125,-0.002272,-0.023528,-0.027665,4258.350098,11384.100586,51156.988281,0.0,-17617.681641,-17579.160156,17958.240234,-17187.480469,4437.0,11341.799805,50863.589844,0.0,17037.091797,17467.109375,-17144.550781,17788.320312,0.0,0.0,0.0,0.0,0.0,0.0,0.0,0.0,0.0,0.0,0.0,0.0,0.0,0.0,0.0,0.0,0.0,0.0,0.0,0.0,0.0,0.0,0.0,0.0,0.0,0.0,0.0,0.0,0.0,0.0,0.0,0.0,4258.31543,11384.054688,51157.085938,0.0,-17617.683594,-17579.162109,17958.322266,-17187.582031,4436.96582,11341.714844,50863.691406,0.0,17037.810547,17467.115234,-17144.480469,17788.482422,31.266024,89.131264,22.735561,0.0,-5.580266,0.935556,40.763092,44.951397,32.577736,88.592072,22.593771,0.0,-83.202858,-2.178769,39.148521,32.471203,1.496,1.249,-45329.0,-128620.0,-509203.0,0.0,175099.0,174656.0,-179949.0,171267.0,-45278.0,-128155.0,-574426.0,0.0,-197016.0,-196802.0,192794.0,-201559.0,0.0,0.0,0.0,0.0,0.0,0.0,0.0,0.0,0.0,0.0,0.0,0.0,0.0,0.0,0.0,0.0,0.0,0.0,0.0,0.0,0.0,0.0,0.0,0.0
10,0.7385270595550537,31.266277,89.131599,22.735512,0.0,-5.580009,0.93583,40.753826,44.962749,32.577988,88.592728,22.593716,0.0,-83.336548,-2.179308,39.140984,32.452938,3.0,1.0,111.0,0.0,1.0,-80624.0,-27663.0,12764.0,-82406.0,30423.0,11982.0,-0.94548,-0.143083,0.292566,-0.305241,0.076088,-0.94923,0.113558,-0.986782,-0.115614,-0.952008,0.275885,-0.132542,0.285981,0.956095,-0.064005,0.109064,-0.098838,-0.989109,-0.94548,-0.143083,0.292566,-0.305241,0.076088,-0.94923,0.113558,-0.986782,-0.115614,-0.952008,0.275885,-0.132542,0.285981,0.956095,-0.064005,0.109064,-0.098838,-0.989109,-80624.0,-27663.0,12764.0,-82406.0,30423.0,11982.0,-1986.0,2130.0,-59208.0,0.0,-20653.0,-20668.0,-19587.0,-19705.0,4022.0,-2135.0,-9275.0,0.0,-7715.0,-2723.0,-2299.0,-3911.0,68.0,155.0,-45.0,0.0,830.0,114.0,-31.0,21.0,-92.0,-155.0,45.0,0.0,-166.0,-62.0,642.0,-755.0,-0.018546,-0.042166,0.012264,0.0,0.030379,0.004204,0.001144,0.000783,-0.024945,-0.041984,0.012195,0.0,-0.00608,-0.002271,-0.023524,-0.027655,4258.350098,11384.100586,51156.988281,0.0,-17617.681641,-17579.160156,17958.240234,-17187.480469,4437.0,11341.799805,50863.589844,0.0,17037.091797,17467.109375,-17144.550781,17788.320312,0.0,0.0,0.0,0.0,0.0,0.0,0.0,0.0,0.0,0.0,0.0,0.0,0.0,0.0,0.0,0.0,0.0,0.0,0.0,0.0,0.0,0.0,0.0,0.0,0.0,0.0,0.0,0.0,0.0,0.0,0.0,0.0,4258.31543,11384.054688,51157.085938,0.0,-17617.683594,-17579.162109,17958.322266,-17187.582031,4436.96582,11341.714844,50863.691406,0.0,17037.810547,17467.115234,-17144.480469,17788.482422,31.266024,89.131264,22.735561,0.0,-5.580266,0.935556,40.763092,44.951397,32.577736,88.592072,22.593771,0.0,-83.202858,-2.178769,39.148521,32.471203,1.496,1.249,-45329.0,-128620.0,-509203.0,0.0,175099.0,174656.0,-179949.0,171267.0,-45278.0,-128155.0,-574426.0,0.0,-197016.0,-196802.0,192794.0,-201559.0,0.0,0.0,0.0,0.0,0.0,0.0,0.0,0.0,0.0,0.0,0.0,0.0,0.0,0.0,0.0,0.0,0.0,0.0,0.0,0.0,0.0,0.0,0.0,0.0
11,0.8125040531158447,31.266277,89.131599,22.735512,0.0,-5.580009,0.93583,40.753826,44.962749,32.577988,88.592728,22.593716,0.0,-83.320015,-2.179308,39.140984,32.452938,3.0,1.0,111.0,0.0,1.0,-80624.0,-27663.0,12764.0,-82406.0,30423.0,11982.0,-0.94548,-0.143083,0.292566,-0.305241,0.076088,-0.94923,0.113558,-0.986782,-0.115614,-0.952008,0.275934,-0.132446,0.28599,0.956111,-0.063735,0.109047,-0.098554,-0.989139,-0.94548,-0.143083,0.292566,-0.305241,0.076088,-0.94923,0.113558,-0.986782,-0.115614,-0.952008,0.275934,-0.132446,0.28599,0.956111,-0.063735,0.109047,-0.098554,-0.989139,-80624.0,-27663.0,12764.0,-82406.0,30423.0,11982.0,-1986.0,2130.0,-59208.0,0.0,-20653.0,-20668.0,-19587.0,-19705.0,4022.0,-2135.0,-9275.0,0.0,-7714.0,-2723.0,-2299.0,-3911.0,68.0,155.0,-45.0,0.0,830.0,114.0,-31.0,21.0,-92.0,-155.0,45.0,0.0,-168.0,-62.0,642.0,-755.0,-0.018546,-0.042166,0.012264,0.0,0.030378,0.004204,0.001149,0.000777,-0.024945,-0.041984,0.012195,0.0,-0.006179,-0.002271,-0.023519,-0.027645,4258.350098,11384.100586,51156.988281,0.0,-17617.681641,-17579.160156,17958.240234,-17187.480469,4437.0,11341.799805,50863.589844,0.0,17037.179688,17467.109375,-17144.550781,17788.320312,0.0,0.0,0.0,0.0,0.0,0.0,0.0,0.0,0.0,0.0,0.0,0.0,0.0,0.0,0.0,0.0,0.0,0.0,0.0,0.0,0.0,0.0,0.0,0.0,0.0,0.0,0.0,0.0,0.0,0.0,0.0,0.0,4258.31543,11384.054688,51157.085938,0.0,-17617.683594,-17579.162109,17958.322266,-17187.582031,4436.96582,11341.714844,50863.691406,0.0,17037.810547,17467.115234,-17144.480469,17788.482422,31.266024,89.131264,22.735561,0.0,-5.580266,0.935556,40.763092,44.951397,32.577736,88.592072,22.593771,0.0,-83.202858,-2.178769,39.148521,32.471203,1.496,1.249,-45329.0,-128620.0,-509203.0,0.0,175099.0,174656.0,-179949.0,171267.0,-45278.0,-128155.0,-574426.0,0.0,-197016.0,-196802.0,192794.0,-201559.0,0.0,0.0,0.0,0.0,0.0,0.0,0.0,0.0,0.0,0.0,0.0,0.0,0.0,0.0,0.0,0.0,0.0,0.0,0.0,0.0,0.0,0.0,0.0,0.0
12,0.885545015335083,31.266277,89.131599,22.735512,0.0,-5.580009,0.93583,40.753826,44.962749,32.577988,88.592728,22.593716,0.0,-83.320015,-2.179308,39.140984,32.452938,3.0,1.0,111.0,0.0,1.0,-80624.0,-27663.0,12764.0,-82406.0,30423.0,11982.0,-0.94548,-0.143083,0.292566,-0.305241,0.076088,-0.94923,0.113558,-0.986782,-0.115614,-0.952008,0.275934,-0.132446,0.28599,0.956111,-0.063735,0.109047,-0.098554,-0.989139,-0.94548,-0.143083,0.292566,-0.305241,0.076088,-0.94923,0.113558,-0.986782,-0.115614,-0.952008,0.275934,-0.132446,0.28599,0.956111,-0.063735,0.109047,-0.098554,-0.989139,-80624.0,-27663.0,12764.0,-82406.0,30423.0,11982.0,-1986.0,2130.0,-59208.0,0.0,-20653.0,-20668.0,-19587.0,-19705.0,4022.0,-2135.0,-9275.0,0.0,-7714.0,-2723.0,-2299.0,-3911.0,68.0,155.0,-45.0,0.0,830.0,114.0,-31.0,21.0,-92.0,-155.0,45.0,0.0,-167.0,-62.0,642.0,-755.0,-0.018546,-0.042166,0.012264,0.0,0.030378,0.004204,0.001155,0.00077,-0.024945,-0.041984,0.012195,0.0,-0.006139,-0.002271,-0.023515,-0.027634,4258.350098,11384.100586,51156.988281,0.0,-17617.681641,-17579.160156,17958.240234,-17187.480469,4437.0,11341.799805,50863.589844,0.0,17037.179688,17467.109375,-17144.550781,17788.320312,0.0,0.0,0.0,0.0,0.0,0.0,0.0,0.0,0.0,0.0,0.0,0.0,0.0,0.0,0.0,0.0,0.0,0.0,0.0,0.0,0.0,0.0,0.0,0.0,0.0,0.0,0.0,0.0,0.0,0.0,0.0,0.0,4258.31543,11384.054688,51157.085938,0.0,-17617.683594,-17579.162109,17958.322266,-17187.582031,4436.96582,11341.714844,50863.691406,0.0,17037.810547,17467.115234,-17144.480469,17788.482422,31.266024,89.131264,22.735561,0.0,-5.580266,0.935556,40.763092,44.951397,32.577736,88.592072,22.593771,0.0,-83.202858,-2.178769,39.148521,32.471203,1.496,1.249,-45329.0,-128620.0,-509203.0,0.0,175099.0,174656.0,-179949.0,171267.0,-45278.0,-128155.0,-574426.0,0.0,-197016.0,-196802.0,192794.0,-201559.0,0.0,0.0,0.0,0.0,0.0,0.0,0.0,0.0,0.0,0.0,0.0,0.0,0.0,0.0,0.0,0.0,0.0,0.0,0.0,0.0,0.0,0.0,0.0,0.0
13,0.9565050601959229,31.266277,89.131599,22.735512,0.0,-5.580009,0.93583,40.753826,44.962749,32.577988,88.592728,22.593716,0.0,-83.320015,-2.179308,39.140984,32.452938,3.0,1.0,111.0,0.0,1.0,-80624.0,-27663.0,12764.0,-82406.0,30423.0,11982.0,-0.94548,-0.143083,0.292566,-0.305241,0.076088,-0.94923,0.113558,-0.986782,-0.115614,-0.952008,0.275934,-0.132446,0.28599,0.956111,-0.063735,0.109047,-0.098554,-0.989139,-0.94548,-0.143083,0.292566,-0.305241,0.076088,-0.94923,0.113558,-0.986782,-0.115614,-0.952008,0.275934,-0.132446,0.28599,0.956111,-0.063735,0.109047,-0.098554,-0.989139,-80624.0,-27663.0,12764.0,-82406.0,30423.0,11982.0,-1986.0,2130.0,-59208.0,0.0,-20653.0,-20668.0,-19587.0,-19705.0,4022.0,-2135.0,-9275.0,0.0,-7714.0,-2723.0,-2299.0,-3911.0,68.0,155.0,-45.0,0.0,830.0,114.0,-31.0,20.0,-92.0,-155.0,45.0,0.0,-166.0,-62.0,642.0,-754.0,-0.018546,-0.042166,0.012264,0.0,0.030378,0.004204,0.00116,0.000764,-0.024945,-0.041984,0.012195,0.0,-0.0061,-0.00227,-0.023511,-0.027624,4258.350098,11384.100586,51156.988281,0.0,-17617.681641,-17579.160156,17958.240234,-17187.480469,4437.0,11341.799805,50863.589844,0.0,17037.179688,17467.109375,-17144.550781,17788.320312,0.0,0.0,0.0,0.0,0.0,0.0,0.0,0.0,0.0,0.0,0.0,0.0,0.0,0.0,0.0,0.0,0.0,0.0,0.0,0.0,0.0,0.0,0.0,0.0,0.0,0.0,0.0,0.0,0.0,0.0,0.0,0.0,4258.31543,11384.054688,51157.085938,0.0,-17617.683594,-17579.162109,17958.322266,-17187.582031,4436.96582,11341.714844,50863.691406,0.0,17037.810547,17467.115234,-17144.480469,17788.482422,31.266024,89.131264,22.735561,0.0,-5.580266,0.935556,40.763092,44.951397,32.577736,88.592072,22.593771,0.0,-83.202858,-2.178769,39.148521,32.471203,1.496,1.249,-45329.0,-128620.0,-509203.0,0.0,175099.0,174656.0,-179949.0,171267.0,-45278.0,-128155.0,-574426.0,0.0,-197016.0,-196802.0,192794.0,-201559.0,0.0,0.0,0.0,0.0,0.0,0.0,0.0,0.0,0.0,0.0,0.0,0.0,0.0,0.0,0.0,0.0,0.0,0.0,0.0,0.0,0.0,0.0,0.0,0.0
14,1.031538963317871,31.266277,89.131599,22.735512,0.0,-5.580009,0.93583,40.753826,44.962749,32.577988,88.592728,22.593716,0.0,-83.320015,-2.179308,39.140984,32.452938,3.0,1.0,111.0,0.0,1.0,-80624.0,-27663.0,12764.0,-82406.0,30423.0,11982.0,-0.94548,-0.143083,0.292566,-0.305241,0.076088,-0.94923,0.113558,-0.986782,-0.115614,-0.952008,0.275934,-0.132446,0.28599,0.956111,-0.063735,0.109047,-0.098554,-0.989139,-0.94548,-0.143083,0.292566,-0.305241,0.076088,-0.94923,0.113558,-0.986782,-0.115614,-0.952008,0.275934,-0.132446,0.28599,0.956111,-0.063735,0.109047,-0.098554,-0.989139,-80624.0,-27663.0,12764.0,-82406.0,30423.0,11982.0,-1986.0,2130.0,-59208.0,0.0,-20653.0,-20668.0,-19587.0,-19705.0,4022.0,-2135.0,-9275.0,0.0,-7714.0,-2723.0,-2299.0,-3911.0,68.0,155.0,-45.0,0.0,830.0,114.0,-31.0,20.0,-92.0,-155.0,45.0,0.0,-165.0,-62.0,642.0,-754.0,-0.018546,-0.042166,0.012264,0.0,0.030378,0.004204,0.001165,0.000757,-0.024945,-0.041984,0.012195,0.0,-0.006059,-0.00227,-0.023506,-0.027613,4258.350098,11384.100586,51156.988281,0.0,-17617.681641,-17579.160156,17958.240234,-17187.480469,4437.0,11341.799805,50863.589844,0.0,17037.179688,17467.109375,-17144.550781,17788.320312,0.0,0.0,0.0,0.0,0.0,0.0,0.0,0.0,0.0,0.0,0.0,0.0,0.0,0.0,0.0,0.0,0.0,0.0,0.0,0.0,0.0,0.0,0.0,0.0,0.0,0.0,0.0,0.0,0.0,0.0,0.0,0.0,4258.31543,11384.054688,51157.085938,0.0,-17617.683594,-17579.162109,17958.322266,-17187.582031,4436.96582,11341.714844,50863.691406,0.0,17037.810547,17467.115234,-17144.480469,17788.482422,31.266024,89.131264,22.735561,0.0,-5.580266,0.935556,40.763092,44.951397,32.577736,88.592072,22.593771,0.0,-83.202858,-2.178769,39.148521,32.471203,1.496,1.249,-45329.0,-128620.0,-509203.0,0.0,175099.0,174656.0,-179949.0,171267.0,-45278.0,-128155.0,-574426.0,0.0,-197016.0,-196802.0,192794.0,-201559.0,0.0,0.0,0.0,0.0,0.0,0.0,0.0,0.0,0.0,0.0,0.0,0.0,0.0,0.0,0.0,0.0,0.0,0.0,0.0,0.0,0.0,0.0,0.0,0.0
15,1.1035070419311523,31.266277,89.131599,22.735512,0.0,-5.580009,0.93583,40.753826,44.962749,32.577988,88.592728,22.593716,0.0,-83.320015,-2.179308,39.140984,32.452938,3.0,1.0,111.0,0.0,1.0,-80624.0,-27663.0,12764.0,-82406.0,30423.0,11982.0,-0.94548,-0.143083,0.292566,-0.305241,0.076088,-0.94923,0.113558,-0.986782,-0.115614,-0.952008,0.275934,-0.132446,0.28599,0.956111,-0.063735,0.109047,-0.098554,-0.989139,-0.94548,-0.143083,0.292566,-0.305241,0.076088,-0.94923,0.113558,-0.986782,-0.115614,-0.952008,0.275934,-0.132446,0.28599,0.956111,-0.063735,0.109047,-0.098554,-0.989139,-80624.0,-27663.0,12764.0,-82406.0,30423.0,11982.0,-1986.0,2130.0,-59208.0,0.0,-20653.0,-20668.0,-19587.0,-19705.0,4022.0,-2135.0,-9275.0,0.0,-7714.0,-2723.0,-2299.0,-3911.0,68.0,155.0,-45.0,0.0,830.0,114.0,-31.0,20.0,-92.0,-155.0,45.0,0.0,-164.0,-62.0,642.0,-754.0,-0.018546,-0.042166,0.012264,0.0,0.030378,0.004204,0.00117,0.000751,-0.024945,-0.041984,0.012195,0.0,-0.006019,-0.00227,-0.023502,-0.027603,4258.350098,11384.100586,51156.988281,0.0,-17617.681641,-17579.160156,17958.240234,-17187.480469,4437.0,11341.799805,50863.589844,0.0,17037.179688,17467.109375,-17144.550781,17788.320312,0.0,0.0,0.0,0.0,0.0,0.0,0.0,0.0,0.0,0.0,0.0,0.0,0.0,0.0,0.0,0.0,0.0,0.0,0.0,0.0,0.0,0.0,0.0,0.0,0.0,0.0,0.0,0.0,0.0,0.0,0.0,0.0,4258.31543,11384.054688,51157.085938,0.0,-17617.683594,-17579.162109,17958.322266,-17187.582031,4436.96582,11341.714844,50863.691406,0.0,17037.810547,17467.115234,-17144.480469,17788.482422,31.266024,89.131264,22.735561,0.0,-5.580266,0.935556,40.763092,44.951397,32.577736,88.592072,22.593771,0.0,-83.202858,-2.178769,39.148521,32.471203,1.496,1.249,-45329.0,-128620.0,-509203.0,0.0,175099.0,174656.0,-179949.0,171267.0,-45278.0,-128155.0,-574426.0,0.0,-197016.0,-196802.0,192794.0,-201559.0,0.0,0.0,0.0,0.0,0.0,0.0,0.0,0.0,0.0,0.0,0.0,0.0,0.0,0.0,0.0,0.0,0.0,0.0,0.0,0.0,0.0,0.0,0.0,0.0
16,1.1745080947875977,31.266277,89.131599,22.735512,0.0,-5.580009,0.93583,40.753826,44.962749,32.577988,88.592728,22.593716,0.0,-83.320015,-2.179308,39.140984,32.452938,3.0,1.0,111.0,0.0,1.0,-80624.0,-27663.0,12764.0,-82406.0,30423.0,11982.0,-0.94548,-0.143083,0.292566,-0.305241,0.076088,-0.94923,0.113558,-0.986782,-0.115614,-0.952008,0.275934,-0.132446,0.28599,0.956111,-0.063735,0.109047,-0.098554,-0.989139,-0.94548,-0.143083,0.292566,-0.305241,0.076088,-0.94923,0.113558,-0.986782,-0.115614,-0.952008,0.275934,-0.132446,0.28599,0.956111,-0.063735,0.109047,-0.098554,-0.989139,-80624.0,-27663.0,12764.0,-82406.0,30423.0,11982.0,-1986.0,2130.0,-59208.0,0.0,-20653.0,-20668.0,-19587.0,-19705.0,4022.0,-2135.0,-9275.0,0.0,-7714.0,-2723.0,-2299.0,-3911.0,68.0,155.0,-45.0,0.0,830.0,114.0,-32.0,20.0,-92.0,-155.0,45.0,0.0,-163.0,-62.0,642.0,-754.0,-0.018546,-0.042166,0.012264,0.0,0.030377,0.004204,0.001175,0.000745,-0.024945,-0.041984,0.012195,0.0,-0.00598,-0.002269,-0.023497,-0.027593,4258.350098,11384.100586,51156.988281,0.0,-17617.681641,-17579.160156,17958.240234,-17187.480469,4437.0,11341.799805,50863.589844,0.0,17037.179688,17467.109375,-17144.550781,17788.320312,0.0,0.0,0.0,0.0,0.0,0.0,0.0,0.0,0.0,0.0,0.0,0.0,0.0,0.0,0.0,0.0,0.0,0.0,0.0,0.0,0.0,0.0,0.0,0.0,0.0,0.0,0.0,0.0,0.0,0.0,0.0,0.0,4258.31543,11384.054688,51157.085938,0.0,-17617.683594,-17579.162109,17958.322266,-17187.582031,4436.96582,11341.714844,50863.691406,0.0,17037.810547,17467.115234,-17144.480469,17788.482422,31.266024,89.131264,22.735561,0.0,-5.580266,0.935556,40.763092,44.951397,32.577736,88.592072,22.593771,0.0,-83.202858,-2.178769,39.148521,32.471203,1.496,1.249,-45329.0,-128620.0,-509203.0,0.0,175099.0,174656.0,-179949.0,171267.0,-45278.0,-128155.0,-574426.0,0.0,-197016.0,-196802.0,192794.0,-201559.0,0.0,0.0,0.0,0.0,0.0,0.0,0.0,0.0,0.0,0.0,0.0,0.0,0.0,0.0,0.0,0.0,0.0,0.0,0.0,0.0,0.0,0.0,0.0,0.0
17,1.2474989891052246,31.266277,89.131599,22.735512,0.0,-5.580009,0.93583,40.753826,44.962749,32.577988,88.592728,22.593716,0.0,-83.320015,-2.179308,39.140984,32.452938,3.0,1.0,111.0,0.0,1.0,-80624.0,-27663.0,12764.0,-82406.0,30423.0,11982.0,-0.94548,-0.143083,0.292566,-0.305241,0.076088,-0.94923,0.113558,-0.986782,-0.115614,-0.952008,0.275934,-0.132446,0.28599,0.956111,-0.063735,0.109047,-0.098554,-0.989139,-0.94548,-0.143083,0.292566,-0.305241,0.076088,-0.94923,0.113558,-0.986782,-0.115614,-0.952008,0.275934,-0.132446,0.28599,0.956111,-0.063735,0.109047,-0.098554,-0.989139,-80624.0,-27663.0,12764.0,-82406.0,30423.0,11982.0,-1986.0,2130.0,-59208.0,0.0,-20653.0,-20668.0,-19587.0,-19705.0,4022.0,-2135.0,-9275.0,0.0,-7714.0,-2723.0,-2299.0,-3911.0,68.0,155.0,-45.0,0.0,830.0,114.0,-32.0,20.0,-92.0,-155.0,45.0,0.0,-162.0,-62.0,642.0,-753.0,-0.018546,-0.042166,0.012264,0.0,0.030377,0.004204,0.001181,0.000738,-0.024945,-0.041984,0.012195,0.0,-0.00594,-0.002269,-0.023493,-0.027583,4258.350098,11384.100586,51156.988281,0.0,-17617.681641,-17579.160156,17958.240234,-17187.480469,4437.0,11341.799805,50863.589844,0.0,17037.179688,17467.109375,-17144.550781,17788.320312,0.0,0.0,0.0,0.0,0.0,0.0,0.0,0.0,0.0,0.0,0.0,0.0,0.0,0.0,0.0,0.0,0.0,0.0,0.0,0.0,0.0,0.0,0.0,0.0,0.0,0.0,0.0,0.0,0.0,0.0,0.0,0.0,4258.31543,11384.054688,51157.085938,0.0,-17617.683594,-17579.162109,17958.322266,-17187.582031,4436.96582,11341.714844,50863.691406,0.0,17037.810547,17467.115234,-17144.480469,17788.482422,31.266024,89.131264,22.735561,0.0,-5.580266,0.935556,40.763092,44.951397,32.577736,88.592072,22.593771,0.0,-83.202858,-2.178769,39.148521,32.471203,1.496,1.249,-45329.0,-128620.0,-509203.0,0.0,175099.0,174656.0,-179949.0,171267.0,-45278.0,-128155.0,-574426.0,0.0,-197016.0,-196802.0,192794.0,-201559.0,0.0,0.0,0.0,0.0,0.0,0.0,0.0,0.0,0.0,0.0,0.0,0.0,0.0,0.0,0.0,0.0,0.0,0.0,0.0,0.0,0.0,0.0,0.0,0.0
18,1.3167109489440918,31.266277,89.131599,22.735512,0.0,-5.580009,0.93583,40.753826,44.962749,32.577988,88.592728,22.593716,0.0,-83.320015,-2.179308,39.140984,32.452938,3.0,1.0,111.0,0.0,1.0,-80624.0,-27663.0,12764.0,-82406.0,30423.0,11982.0,-0.94548,-0.143083,0.292566,-0.305241,0.076088,-0.94923,0.113558,-0.986782,-0.115614,-0.952008,0.275934,-0.132446,0.28599,0.956111,-0.063735,0.109047,-0.098554,-0.989139,-0.94548,-0.143083,0.292566,-0.305241,0.076088,-0.94923,0.113558,-0.986782,-0.115614,-0.952008,0.275934,-0.132446,0.28599,0.956111,-0.063735,0.109047,-0.098554,-0.989139,-80624.0,-27663.0,12764.0,-82406.0,30423.0,11982.0,-1986.0,2130.0,-59208.0,0.0,-20653.0,-20668.0,-19587.0,-19705.0,4022.0,-2135.0,-9275.0,0.0,-7714.0,-2723.0,-2299.0,-3911.0,68.0,155.0,-45.0,0.0,830.0,114.0,-32.0,20.0,-92.0,-155.0,45.0,0.0,-161.0,-62.0,641.0,-753.0,-0.018546,-0.042166,0.012264,0.0,0.030377,0.004204,0.001186,0.000732,-0.024945,-0.041984,0.012195,0.0,-0.005902,-0.002269,-0.023489,-0.027573,4258.350098,11384.100586,51156.988281,0.0,-17617.681641,-17579.160156,17958.240234,-17187.480469,4437.0,11341.799805,50863.589844,0.0,17037.179688,17467.109375,-17144.550781,17788.320312,0.0,0.0,0.0,0.0,0.0,0.0,0.0,0.0,0.0,0.0,0.0,0.0,0.0,0.0,0.0,0.0,0.0,0.0,0.0,0.0,0.0,0.0,0.0,0.0,0.0,0.0,0.0,0.0,0.0,0.0,0.0,0.0,4258.31543,11384.054688,51157.085938,0.0,-17617.683594,-17579.162109,17958.322266,-17187.582031,4436.96582,11341.714844,50863.691406,0.0,17037.810547,17467.115234,-17144.480469,17788.482422,31.266024,89.131264,22.735561,0.0,-5.580266,0.935556,40.763092,44.951397,32.577736,88.592072,22.593771,0.0,-83.202858,-2.178769,39.148521,32.471203,1.496,1.249,-45329.0,-128620.0,-509203.0,0.0,175099.0,174656.0,-179949.0,171267.0,-45278.0,-128155.0,-574426.0,0.0,-197016.0,-196802.0,192794.0,-201559.0,0.0,0.0,0.0,0.0,0.0,0.0,0.0,0.0,0.0,0.0,0.0,0.0,0.0,0.0,0.0,0.0,0.0,0.0,0.0,0.0,0.0,0.0,0.0,0.0
19,1.3875041007995605,31.266277,89.131599,22.735512,0.0,-5.580009,0.93583,40.753826,44.962749,32.577988,88.592728,22.593716,0.0,-83.320015,-2.179308,39.140984,32.452938,3.0,1.0,111.0,0.0,1.0,-80624.0,-27663.0,12764.0,-82406.0,30423.0,11982.0,-0.94548,-0.143083,0.292566,-0.305241,0.076088,-0.94923,0.113558,-0.986782,-0.115614,-0.952008,0.275934,-0.132446,0.28599,0.956111,-0.063735,0.109047,-0.098554,-0.989139,-0.94548,-0.143083,0.292566,-0.305241,0.076088,-0.94923,0.113558,-0.986782,-0.115614,-0.952008,0.275934,-0.132446,0.28599,0.956111,-0.063735,0.109047,-0.098554,-0.989139,-80624.0,-27663.0,12764.0,-82406.0,30423.0,11982.0,-1986.0,2130.0,-59208.0,0.0,-20653.0,-20668.0,-19587.0,-19705.0,4022.0,-2135.0,-9275.0,0.0,-7714.0,-2723.0,-2299.0,-3911.0,68.0,155.0,-45.0,0.0,830.0,114.0,-32.0,19.0,-92.0,-155.0,45.0,0.0,-160.0,-61.0,641.0,-753.0,-0.018546,-0.042166,0.012264,0.0,0.030377,0.004203,0.001191,0.000726,-0.024945,-0.041984,0.012195,0.0,-0.005863,-0.002268,-0.023484,-0.027562,4258.350098,11384.100586,51156.988281,0.0,-17617.681641,-17579.160156,17958.240234,-17187.480469,4437.0,11341.799805,50863.589844,0.0,17037.179688,17467.109375,-17144.550781,17788.320312,0.0,0.0,0.0,0.0,0.0,0.0,0.0,0.0,0.0,0.0,0.0,0.0,0.0,0.0,0.0,0.0,0.0,0.0,0.0,0.0,0.0,0.0,0.0,0.0,0.0,0.0,0.0,0.0,0.0,0.0,0.0,0.0,4258.31543,11384.054688,51157.085938,0.0,-17617.683594,-17579.162109,17958.322266,-17187.582031,4436.96582,11341.714844,50863.691406,0.0,17037.810547,17467.115234,-17144.480469,17788.482422,31.266024,89.131264,22.735561,0.0,-5.580266,0.935556,40.763092,44.951397,32.577736,88.592072,22.593771,0.0,-83.202858,-2.178769,39.148521,32.471203,1.496,1.249,-45329.0,-128620.0,-509203.0,0.0,175099.0,174656.0,-179949.0,171267.0,-45278.0,-128155.0,-574426.0,0.0,-197016.0,-196802.0,192794.0,-201559.0,0.0,0.0,0.0,0.0,0.0,0.0,0.0,0.0,0.0,0.0,0.0,0.0,0.0,0.0,0.0,0.0,0.0,0.0,0.0,0.0,0.0,0.0,0.0,0.0
20,1.4575490951538086,31.266277,89.131599,22.735512,0.0,-5.580009,0.93583,40.753826,44.962749,32.577988,88.592728,22.593716,0.0,-83.320015,-2.179308,39.140984,32.452938,3.0,1.0,111.0,0.0,1.0,-80624.0,-27663.0,12764.0,-82406.0,30423.0,11982.0,-0.94548,-0.143083,0.292566,-0.305241,0.076088,-0.94923,0.113558,-0.986782,-0.115614,-0.952008,0.275934,-0.132446,0.28599,0.956111,-0.063735,0.109047,-0.098554,-0.989139,-0.94548,-0.143083,0.292566,-0.305241,0.076088,-0.94923,0.113558,-0.986782,-0.115614,-0.952008,0.275934,-0.132446,0.28599,0.956111,-0.063735,0.109047,-0.098554,-0.989139,-80624.0,-27663.0,12764.0,-82406.0,30423.0,11982.0,-1986.0,2130.0,-59208.0,0.0,-20653.0,-20668.0,-19587.0,-19705.0,4022.0,-2135.0,-9275.0,0.0,-7714.0,-2723.0,-2299.0,-3911.0,68.0,155.0,-45.0,0.0,830.0,114.0,-32.0,19.0,-92.0,-155.0,45.0,0.0,-159.0,-61.0,641.0,-752.0,-0.018546,-0.042166,0.012264,0.0,0.030377,0.004203,0.001196,0.00072,-0.024945,-0.041984,0.012195,0.0,-0.005824,-0.002268,-0.02348,-0.027552,4258.350098,11384.100586,51156.988281,0.0,-17617.681641,-17579.160156,17958.240234,-17187.480469,4437.0,11341.799805,50863.589844,0.0,17037.179688,17467.109375,-17144.550781,17788.320312,0.0,0.0,0.0,0.0,0.0,0.0,0.0,0.0,0.0,0.0,0.0,0.0,0.0,0.0,0.0,0.0,0.0,0.0,0.0,0.0,0.0,0.0,0.0,0.0,0.0,0.0,0.0,0.0,0.0,0.0,0.0,0.0,4258.31543,11384.054688,51157.085938,0.0,-17617.683594,-17579.162109,17958.322266,-17187.582031,4436.96582,11341.714844,50863.691406,0.0,17037.810547,17467.115234,-17144.480469,17788.482422,31.266024,89.131264,22.735561,0.0,-5.580266,0.935556,40.763092,44.951397,32.577736,88.592072,22.593771,0.0,-83.202858,-2.178769,39.148521,32.471203,1.496,1.249,-45329.0,-128620.0,-509203.0,0.0,175099.0,174656.0,-179949.0,171267.0,-45278.0,-128155.0,-574426.0,0.0,-197016.0,-196802.0,192794.0,-201559.0,0.0,0.0,0.0,0.0,0.0,0.0,0.0,0.0,0.0,0.0,0.0,0.0,0.0,0.0,0.0,0.0,0.0,0.0,0.0,0.0,0.0,0.0,0.0,0.0
21,1.525512933731079,31.266277,89.131599,22.735512,0.0,-5.580009,0.93583,40.753826,44.962749,32.577988,88.592728,22.593716,0.0,-83.303162,-2.179308,39.140984,32.452938,3.0,1.0,111.0,0.0,1.0,-80624.0,-27663.0,12764.0,-82406.0,30424.0,11982.0,-0.94548,-0.143083,0.292566,-0.305241,0.076088,-0.94923,0.113558,-0.986782,-0.115614,-0.952007,0.275983,-0.132349,0.286,0.956126,-0.063459,0.109029,-0.098265,-0.98917,-0.94548,-0.143083,0.292566,-0.305241,0.076088,-0.94923,0.113558,-0.986782,-0.115614,-0.952007,0.275983,-0.132349,0.286,0.956126,-0.063459,0.109029,-0.098265,-0.98917,-80624.0,-27663.0,12764.0,-82406.0,30424.0,11982.0,-1986.0,2130.0,-59208.0,0.0,-20653.0,-20668.0,-19587.0,-19705.0,4022.0,-2135.0,-9275.0,0.0,-7713.0,-2723.0,-2299.0,-3911.0,68.0,155.0,-45.0,0.0,830.0,114.0,-32.0,19.0,-92.0,-155.0,45.0,0.0,-162.0,-61.0,641.0,-752.0,-0.018546,-0.042166,0.012264,0.0,0.030376,0.004203,0.001201,0.000714,-0.024945,-0.041984,0.012195,0.0,-0.005933,-0.002268,-0.023476,-0.027543,4258.350098,11384.100586,51156.988281,0.0,-17617.681641,-17579.160156,17958.240234,-17187.480469,4437.0,11341.799805,50863.589844,0.0,17037.271484,17467.109375,-17144.550781,17788.320312,0.0,0.0,0.0,0.0,0.0,0.0,0.0,0.0,0.0,0.0,0.0,0.0,0.0,0.0,0.0,0.0,0.0,0.0,0.0,0.0,0.0,0.0,0.0,0.0,0.0,0.0,0.0,0.0,0.0,0.0,0.0,0.0,4258.31543,11384.054688,51157.085938,0.0,-17617.683594,-17579.162109,17958.322266,-17187.582031,4436.96582,11341.714844,50863.691406,0.0,17037.810547,17467.115234,-17144.480469,17788.482422,31.266024,89.131264,22.735561,0.0,-5.580266,0.935556,40.763092,44.951397,32.577736,88.592072,22.593771,0.0,-83.202858,-2.178769,39.148521,32.471203,1.496,1.249,-45329.0,-128620.0,-509203.0,0.0,175099.0,174656.0,-179949.0,171267.0,-45278.0,-128155.0,-574426.0,0.0,-197016.0,-196802.0,192794.0,-201559.0,0.0,0.0,0.0,0.0,0.0,0.0,0.0,0.0,0.0,0.0,0.0,0.0,0.0,0.0,0.0,0.0,0.0,0.0,0.0,0.0,0.0,0.0,0.0,0.0
22,1.5987350940704346,31.266277,89.131599,22.735512,0.0,-5.580009,0.93583,40.753826,44.962749,32.577988,88.592728,22.593716,0.0,-83.303162,-2.179308,39.140984,32.452938,3.0,1.0,111.0,0.0,1.0,-80624.0,-27663.0,12764.0,-82406.0,30424.0,11982.0,-0.94548,-0.143083,0.292566,-0.305241,0.076088,-0.94923,0.113558,-0.986782,-0.115614,-0.952007,0.275983,-0.132349,0.286,0.956126,-0.063459,0.109029,-0.098265,-0.98917,-0.94548,-0.143083,0.292566,-0.305241,0.076088,-0.94923,0.113558,-0.986782,-0.115614,-0.952007,0.275983,-0.132349,0.286,0.956126,-0.063459,0.109029,-0.098265,-0.98917,-80624.0,-27663.0,12764.0,-82406.0,30424.0,11982.0,-1986.0,2130.0,-59208.0,0.0,-20653.0,-20668.0,-19587.0,-19705.0,4022.0,-2135.0,-9275.0,0.0,-7713.0,-2723.0,-2299.0,-3911.0,68.0,155.0,-45.0,0.0,830.0,114.0,-32.0,19.0,-92.0,-155.0,45.0,0.0,-161.0,-61.0,641.0,-752.0,-0.018546,-0.042166,0.012264,0.0,0.030376,0.004203,0.001206,0.000707,-0.024945,-0.041984,0.012195,0.0,-0.005899,-0.002267,-0.023471,-0.027532,4258.350098,11384.100586,51156.988281,0.0,-17617.681641,-17579.160156,17958.240234,-17187.480469,4437.0,11341.799805,50863.589844,0.0,17037.271484,17467.109375,-17144.550781,17788.320312,0.0,0.0,0.0,0.0,0.0,0.0,0.0,0.0,0.0,0.0,0.0,0.0,0.0,0.0,0.0,0.0,0.0,0.0,0.0,0.0,0.0,0.0,0.0,0.0,0.0,0.0,0.0,0.0,0.0,0.0,0.0,0.0,4258.31543,11384.054688,51157.085938,0.0,-17617.683594,-17579.162109,17958.322266,-17187.582031,4436.96582,11341.714844,50863.691406,0.0,17037.810547,17467.115234,-17144.480469,17788.482422,31.266024,89.131264,22.735561,0.0,-5.580266,0.935556,40.763092,44.951397,32.577736,88.592072,22.593771,0.0,-83.202858,-2.178769,39.148521,32.471203,1.496,1.249,-45329.0,-128620.0,-509203.0,0.0,175099.0,174656.0,-179949.0,171267.0,-45278.0,-128155.0,-574426.0,0.0,-197016.0,-196802.0,192794.0,-201559.0,0.0,0.0,0.0,0.0,0.0,0.0,0.0,0.0,0.0,0.0,0.0,0.0,0.0,0.0,0.0,0.0,0.0,0.0,0.0,0.0,0.0,0.0,0.0,0.0
23,1.6674120426177979,31.266277,89.131599,22.735512,0.0,-5.580009,0.93583,40.753826,44.962749,32.577988,88.592728,22.593716,0.0,-83.303162,-2.179308,39.140984,32.452938,3.0,1.0,111.0,0.0,1.0,-80624.0,-27663.0,12764.0,-82406.0,30424.0,11982.0,-0.94548,-0.143083,0.292566,-0.305241,0.076088,-0.94923,0.113558,-0.986782,-0.115614,-0.952007,0.275983,-0.132349,0.286,0.956126,-0.063459,0.109029,-0.098265,-0.98917,-0.94548,-0.143083,0.292566,-0.305241,0.076088,-0.94923,0.113558,-0.986782,-0.115614,-0.952007,0.275983,-0.132349,0.286,0.956126,-0.063459,0.109029,-0.098265,-0.98917,-80624.0,-27663.0,12764.0,-82406.0,30424.0,11982.0,-1986.0,2130.0,-59208.0,0.0,-20653.0,-20668.0,-19587.0,-19705.0,4022.0,-2135.0,-9275.0,0.0,-7713.0,-2723.0,-2299.0,-3911.0,68.0,155.0,-45.0,0.0,830.0,114.0,-33.0,19.0,-92.0,-155.0,45.0,0.0,-160.0,-61.0,641.0,-752.0,-0.018546,-0.042166,0.012264,0.0,0.030376,0.004203,0.001211,0.000701,-0.024945,-0.041984,0.012195,0.0,-0.005867,-0.002267,-0.023467,-0.027523,4258.350098,11384.100586,51156.988281,0.0,-17617.681641,-17579.160156,17958.240234,-17187.480469,4437.0,11341.799805,50863.589844,0.0,17037.271484,17467.109375,-17144.550781,17788.320312,0.0,0.0,0.0,0.0,0.0,0.0,0.0,0.0,0.0,0.0,0.0,0.0,0.0,0.0,0.0,0.0,0.0,0.0,0.0,0.0,0.0,0.0,0.0,0.0,0.0,0.0,0.0,0.0,0.0,0.0,0.0,0.0,4258.31543,11384.054688,51157.085938,0.0,-17617.683594,-17579.162109,17958.322266,-17187.582031,4436.96582,11341.714844,50863.691406,0.0,17037.810547,17467.115234,-17144.480469,17788.482422,31.266024,89.131264,22.735561,0.0,-5.580266,0.935556,40.763092,44.951397,32.577736,88.592072,22.593771,0.0,-83.202858,-2.178769,39.148521,32.471203,1.496,1.249,-45329.0,-128620.0,-509203.0,0.0,175099.0,174656.0,-179949.0,171267.0,-45278.0,-128155.0,-574426.0,0.0,-197016.0,-196802.0,192794.0,-201559.0,0.0,0.0,0.0,0.0,0.0,0.0,0.0,0.0,0.0,0.0,0.0,0.0,0.0,0.0,0.0,0.0,0.0,0.0,0.0,0.0,0.0,0.0,0.0,0.0
24,1.7415220737457275,31.266277,89.131599,22.735512,0.0,-5.580009,0.93583,40.753826,44.962749,32.577988,88.592728,22.593716,0.0,-83.303162,-2.179308,39.140984,32.452938,3.0,1.0,111.0,0.0,1.0,-80624.0,-27663.0,12764.0,-82406.0,30424.0,11982.0,-0.94548,-0.143083,0.292566,-0.305241,0.076088,-0.94923,0.113558,-0.986782,-0.115614,-0.952007,0.275983,-0.132349,0.286,0.956126,-0.063459,0.109029,-0.098265,-0.98917,-0.94548,-0.143083,0.292566,-0.305241,0.076088,-0.94923,0.113558,-0.986782,-0.115614,-0.952007,0.275983,-0.132349,0.286,0.956126,-0.063459,0.109029,-0.098265,-0.98917,-80624.0,-27663.0,12764.0,-82406.0,30424.0,11982.0,-1986.0,2130.0,-59208.0,0.0,-20653.0,-20668.0,-19587.0,-19705.0,4022.0,-2135.0,-9275.0,0.0,-7713.0,-2723.0,-2299.0,-3911.0,68.0,155.0,-45.0,0.0,830.0,114.0,-33.0,18.0,-92.0,-155.0,45.0,0.0,-159.0,-61.0,641.0,-751.0,-0.018546,-0.042166,0.012264,0.0,0.030376,0.004203,0.001216,0.000695,-0.024945,-0.041984,0.012195,0.0,-0.005832,-0.002267,-0.023463,-0.027512,4258.350098,11384.100586,51156.988281,0.0,-17617.681641,-17579.160156,17958.240234,-17187.480469,4437.0,11341.799805,50863.589844,0.0,17037.271484,17467.109375,-17144.550781,17788.320312,0.0,0.0,0.0,0.0,0.0,0.0,0.0,0.0,0.0,0.0,0.0,0.0,0.0,0.0,0.0,0.0,0.0,0.0,0.0,0.0,0.0,0.0,0.0,0.0,0.0,0.0,0.0,0.0,0.0,0.0,0.0,0.0,4258.31543,11384.054688,51157.085938,0.0,-17617.683594,-17579.162109,17958.322266,-17187.582031,4436.96582,11341.714844,50863.691406,0.0,17037.810547,17467.115234,-17144.480469,17788.482422,31.266024,89.131264,22.735561,0.0,-5.580266,0.935556,40.763092,44.951397,32.577736,88.592072,22.593771,0.0,-83.202858,-2.178769,39.148521,32.471203,1.496,1.249,-45329.0,-128620.0,-509203.0,0.0,175099.0,174656.0,-179949.0,171267.0,-45278.0,-128155.0,-574426.0,0.0,-197016.0,-196802.0,192794.0,-201559.0,0.0,0.0,0.0,0.0,0.0,0.0,0.0,0.0,0.0,0.0,0.0,0.0,0.0,0.0,0.0,0.0,0.0,0.0,0.0,0.0,0.0,0.0,0.0,0.0
25,1.8135130405426025,31.266277,89.131599,22.735512,0.0,-5.580009,0.93583,40.753826,44.962749,32.577988,88.592728,22.593716,0.0,-83.303162,-2.179308,39.140984,32.452938,3.0,1.0,111.0,0.0,1.0,-80624.0,-27663.0,12764.0,-82406.0,30424.0,11982.0,-0.94548,-0.143083,0.292566,-0.305241,0.076088,-0.94923,0.113558,-0.986782,-0.115614,-0.952007,0.275983,-0.132349,0.286,0.956126,-0.063459,0.109029,-0.098265,-0.98917,-0.94548,-0.143083,0.292566,-0.305241,0.076088,-0.94923,0.113558,-0.986782,-0.115614,-0.952007,0.275983,-0.132349,0.286,0.956126,-0.063459,0.109029,-0.098265,-0.98917,-80624.0,-27663.0,12764.0,-82406.0,30424.0,11982.0,-1986.0,2130.0,-59208.0,0.0,-20653.0,-20668.0,-19587.0,-19705.0,4022.0,-2135.0,-9275.0,0.0,-7713.0,-2723.0,-2299.0,-3911.0,68.0,155.0,-45.0,0.0,830.0,114.0,-33.0,18.0,-92.0,-155.0,45.0,0.0,-158.0,-61.0,641.0,-751.0,-0.018546,-0.042166,0.012264,0.0,0.030375,0.004203,0.001221,0.000688,-0.024945,-0.041984,0.012195,0.0,-0.005798,-0.002266,-0.023458,-0.027502,4258.350098,11384.100586,51156.988281,0.0,-17617.681641,-17579.160156,17958.240234,-17187.480469,4437.0,11341.799805,50863.589844,0.0,17037.271484,17467.109375,-17144.550781,17788.320312,0.0,0.0,0.0,0.0,0.0,0.0,0.0,0.0,0.0,0.0,0.0,0.0,0.0,0.0,0.0,0.0,0.0,0.0,0.0,0.0,0.0,0.0,0.0,0.0,0.0,0.0,0.0,0.0,0.0,0.0,0.0,0.0,4258.31543,11384.054688,51157.085938,0.0,-17617.683594,-17579.162109,17958.322266,-17187.582031,4436.96582,11341.714844,50863.691406,0.0,17037.810547,17467.115234,-17144.480469,17788.482422,31.266024,89.131264,22.735561,0.0,-5.580266,0.935556,40.763092,44.951397,32.577736,88.592072,22.593771,0.0,-83.202858,-2.178769,39.148521,32.471203,1.496,1.249,-45329.0,-128620.0,-509203.0,0.0,175099.0,174656.0,-179949.0,171267.0,-45278.0,-128155.0,-574426.0,0.0,-197016.0,-196802.0,192794.0,-201559.0,0.0,0.0,0.0,0.0,0.0,0.0,0.0,0.0,0.0,0.0,0.0,0.0,0.0,0.0,0.0,0.0,0.0,0.0,0.0,0.0,0.0,0.0,0.0,0.0
26,1.883538007736206,31.266277,89.131599,22.735512,0.0,-5.580009,0.93583,40.753826,44.962749,32.577988,88.592728,22.593716,0.0,-83.303162,-2.179308,39.140984,32.452938,3.0,1.0,111.0,0.0,1.0,-80624.0,-27663.0,12764.0,-82406.0,30424.0,11982.0,-0.94548,-0.143083,0.292566,-0.305241,0.076088,-0.94923,0.113558,-0.986782,-0.115614,-0.952007,0.275983,-0.132349,0.286,0.956126,-0.063459,0.109029,-0.098265,-0.98917,-0.94548,-0.143083,0.292566,-0.305241,0.076088,-0.94923,0.113558,-0.986782,-0.115614,-0.952007,0.275983,-0.132349,0.286,0.956126,-0.063459,0.109029,-0.098265,-0.98917,-80624.0,-27663.0,12764.0,-82406.0,30424.0,11982.0,-1986.0,2130.0,-59208.0,0.0,-20653.0,-20668.0,-19587.0,-19705.0,4022.0,-2135.0,-9275.0,0.0,-7713.0,-2723.0,-2299.0,-3911.0,68.0,155.0,-45.0,0.0,830.0,114.0,-33.0,18.0,-92.0,-155.0,45.0,0.0,-157.0,-61.0,640.0,-751.0,-0.018546,-0.042166,0.012264,0.0,0.030375,0.004203,0.001226,0.000682,-0.024945,-0.041984,0.012195,0.0,-0.005765,-0.002266,-0.023454,-0.027492,4258.350098,11384.100586,51156.988281,0.0,-17617.681641,-17579.160156,17958.240234,-17187.480469,4437.0,11341.799805,50863.589844,0.0,17037.271484,17467.109375,-17144.550781,17788.320312,0.0,0.0,0.0,0.0,0.0,0.0,0.0,0.0,0.0,0.0,0.0,0.0,0.0,0.0,0.0,0.0,0.0,0.0,0.0,0.0,0.0,0.0,0.0,0.0,0.0,0.0,0.0,0.0,0.0,0.0,0.0,0.0,4258.31543,11384.054688,51157.085938,0.0,-17617.683594,-17579.162109,17958.322266,-17187.582031,4436.96582,11341.714844,50863.691406,0.0,17037.810547,17467.115234,-17144.480469,17788.482422,31.266024,89.131264,22.735561,0.0,-5.580266,0.935556,40.763092,44.951397,32.577736,88.592072,22.593771,0.0,-83.202858,-2.178769,39.148521,32.471203,1.496,1.249,-45329.0,-128620.0,-509203.0,0.0,175099.0,174656.0,-179949.0,171267.0,-45278.0,-128155.0,-574426.0,0.0,-197016.0,-196802.0,192794.0,-201559.0,0.0,0.0,0.0,0.0,0.0,0.0,0.0,0.0,0.0,0.0,0.0,0.0,0.0,0.0,0.0,0.0,0.0,0.0,0.0,0.0,0.0,0.0,0.0,0.0
27,1.9587080478668213,31.266277,89.131599,22.735512,0.0,-5.580009,0.93583,40.753826,44.962749,32.577988,88.592728,22.593716,0.0,-83.303162,-2.179308,39.140984,32.452938,3.0,1.0,111.0,0.0,1.0,-80624.0,-27663.0,12764.0,-82406.0,30424.0,11982.0,-0.94548,-0.143083,0.292566,-0.305241,0.076088,-0.94923,0.113558,-0.986782,-0.115614,-0.952007,0.275983,-0.132349,0.286,0.956126,-0.063459,0.109029,-0.098265,-0.98917,-0.94548,-0.143083,0.292566,-0.305241,0.076088,-0.94923,0.113558,-0.986782,-0.115614,-0.952007,0.275983,-0.132349,0.286,0.956126,-0.063459,0.109029,-0.098265,-0.98917,-80624.0,-27663.0,12764.0,-82406.0,30424.0,11982.0,-1986.0,2130.0,-59208.0,0.0,-20653.0,-20668.0,-19587.0,-19705.0,4022.0,-2135.0,-9275.0,0.0,-7713.0,-2723.0,-2299.0,-3911.0,68.0,155.0,-45.0,0.0,830.0,114.0,-33.0,18.0,-92.0,-155.0,45.0,0.0,-156.0,-61.0,640.0,-751.0,-0.018546,-0.042166,0.012264,0.0,0.030375,0.004203,0.001232,0.000675,-0.024945,-0.041984,0.012195,0.0,-0.00573,-0.002266,-0.02345,-0.027481,4258.350098,11384.100586,51156.988281,0.0,-17617.681641,-17579.160156,17958.240234,-17187.480469,4437.0,11341.799805,50863.589844,0.0,17037.271484,17467.109375,-17144.550781,17788.320312,0.0,0.0,0.0,0.0,0.0,0.0,0.0,0.0,0.0,0.0,0.0,0.0,0.0,0.0,0.0,0.0,0.0,0.0,0.0,0.0,0.0,0.0,0.0,0.0,0.0,0.0,0.0,0.0,0.0,0.0,0.0,0.0,4258.31543,11384.054688,51157.085938,0.0,-17617.683594,-17579.162109,17958.322266,-17187.582031,4436.96582,11341.714844,50863.691406,0.0,17037.810547,17467.115234,-17144.480469,17788.482422,31.266024,89.131264,22.735561,0.0,-5.580266,0.935556,40.763092,44.951397,32.577736,88.592072,22.593771,0.0,-83.202858,-2.178769,39.148521,32.471203,1.496,1.249,-45329.0,-128620.0,-509203.0,0.0,175099.0,174656.0,-179949.0,171267.0,-45278.0,-128155.0,-574426.0,0.0,-197016.0,-196802.0,192794.0,-201559.0,0.0,0.0,0.0,0.0,0.0,0.0,0.0,0.0,0.0,0.0,0.0,0.0,0.0,0.0,0.0,0.0,0.0,0.0,0.0,0.0,0.0,0.0,0.0,0.0
28,2.0275440216064453,31.266277,89.131599,22.735512,0.0,-5.580009,0.93583,40.753826,44.962749,32.577988,88.592728,22.593716,0.0,-83.303162,-2.179308,39.140984,32.452938,3.0,1.0,111.0,0.0,1.0,-80624.0,-27663.0,12764.0,-82406.0,30424.0,11982.0,-0.94548,-0.143083,0.292566,-0.305241,0.076088,-0.94923,0.113558,-0.986782,-0.115614,-0.952007,0.275983,-0.132349,0.286,0.956126,-0.063459,0.109029,-0.098265,-0.98917,-0.94548,-0.143083,0.292566,-0.305241,0.076088,-0.94923,0.113558,-0.986782,-0.115614,-0.952007,0.275983,-0.132349,0.286,0.956126,-0.063459,0.109029,-0.098265,-0.98917,-80624.0,-27663.0,12764.0,-82406.0,30424.0,11982.0,-1986.0,2130.0,-59208.0,0.0,-20653.0,-20668.0,-19587.0,-19705.0,4022.0,-2135.0,-9275.0,0.0,-7713.0,-2723.0,-2299.0,-3911.0,68.0,155.0,-45.0,0.0,830.0,114.0,-33.0,18.0,-92.0,-155.0,45.0,0.0,-155.0,-61.0,640.0,-750.0,-0.018546,-0.042166,0.012264,0.0,0.030375,0.004203,0.001236,0.000669,-0.024945,-0.041984,0.012195,0.0,-0.005697,-0.002265,-0.023445,-0.027471,4258.350098,11384.100586,51156.988281,0.0,-17617.681641,-17579.160156,17958.240234,-17187.480469,4437.0,11341.799805,50863.589844,0.0,17037.271484,17467.109375,-17144.550781,17788.320312,0.0,0.0,0.0,0.0,0.0,0.0,0.0,0.0,0.0,0.0,0.0,0.0,0.0,0.0,0.0,0.0,0.0,0.0,0.0,0.0,0.0,0.0,0.0,0.0,0.0,0.0,0.0,0.0,0.0,0.0,0.0,0.0,4258.31543,11384.054688,51157.085938,0.0,-17617.683594,-17579.162109,17958.322266,-17187.582031,4436.96582,11341.714844,50863.691406,0.0,17037.810547,17467.115234,-17144.480469,17788.482422,31.266024,89.131264,22.735561,0.0,-5.580266,0.935556,40.763092,44.951397,32.577736,88.592072,22.593771,0.0,-83.202858,-2.178769,39.148521,32.471203,1.496,1.249,-45329.0,-128620.0,-509203.0,0.0,175099.0,174656.0,-179949.0,171267.0,-45278.0,-128155.0,-574426.0,0.0,-197016.0,-196802.0,192794.0,-201559.0,0.0,0.0,0.0,0.0,0.0,0.0,0.0,0.0,0.0,0.0,0.0,0.0,0.0,0.0,0.0,0.0,0.0,0.0,0.0,0.0,0.0,0.0,0.0,0.0
29,2.1205039024353027,31.266277,89.131599,22.735512,0.0,-5.580009,0.93583,40.753826,44.962749,32.577988,88.592728,22.593716,0.0,-83.303162,-2.179308,39.140984,32.452938,3.0,1.0,111.0,0.0,1.0,-80624.0,-27663.0,12764.0,-82406.0,30424.0,11982.0,-0.94548,-0.143083,0.292566,-0.305241,0.076088,-0.94923,0.113558,-0.986782,-0.115614,-0.952007,0.275983,-0.132349,0.286,0.956126,-0.063459,0.109029,-0.098265,-0.98917,-0.94548,-0.143083,0.292566,-0.305241,0.076088,-0.94923,0.113558,-0.986782,-0.115614,-0.952007,0.275983,-0.132349,0.286,0.956126,-0.063459,0.109029,-0.098265,-0.98917,-80624.0,-27663.0,12764.0,-82406.0,30424.0,11982.0,-1986.0,2130.0,-59208.0,0.0,-20653.0,-20668.0,-19587.0,-19705.0,4022.0,-2135.0,-9275.0,0.0,-7713.0,-2723.0,-2299.0,-3911.0,68.0,155.0,-45.0,0.0,830.0,114.0,-33.0,18.0,-92.0,-155.0,45.0,0.0,-154.0,-61.0,640.0,-750.0,-0.018546,-0.042166,0.012264,0.0,0.030375,0.004202,0.001243,0.000661,-0.024945,-0.041984,0.012195,0.0,-0.005653,-0.002265,-0.02344,-0.027458,4258.350098,11384.100586,51156.988281,0.0,-17617.681641,-17579.160156,17958.240234,-17187.480469,4437.0,11341.799805,50863.589844,0.0,17037.271484,17467.109375,-17144.550781,17788.320312,0.0,0.0,0.0,0.0,0.0,0.0,0.0,0.0,0.0,0.0,0.0,0.0,0.0,0.0,0.0,0.0,0.0,0.0,0.0,0.0,0.0,0.0,0.0,0.0,0.0,0.0,0.0,0.0,0.0,0.0,0.0,0.0,4258.31543,11384.054688,51157.085938,0.0,-17617.683594,-17579.162109,17958.322266,-17187.582031,4436.96582,11341.714844,50863.691406,0.0,17037.810547,17467.115234,-17144.480469,17788.482422,31.266024,89.131264,22.735561,0.0,-5.580266,0.935556,40.763092,44.951397,32.577736,88.592072,22.593771,0.0,-83.202858,-2.178769,39.148521,32.471203,1.496,1.249,-45329.0,-128620.0,-509203.0,0.0,175099.0,174656.0,-179949.0,171267.0,-45278.0,-128155.0,-574426.0,0.0,-197016.0,-196802.0,192794.0,-201559.0,0.0,0.0,0.0,0.0,0.0,0.0,0.0,0.0,0.0,0.0,0.0,0.0,0.0,0.0,0.0,0.0,0.0,0.0,0.0,0.0,0.0,0.0,0.0,0.0
30,2.1955020427703857,31.266277,89.131599,22.735512,0.0,-5.580009,0.93583,40.753826,44.962749,32.577988,88.592728,22.593716,0.0,-83.303162,-2.179308,39.140984,32.452938,3.0,1.0,111.0,0.0,1.0,-80624.0,-27663.0,12764.0,-82406.0,30424.0,11982.0,-0.94548,-0.143083,0.292566,-0.305241,0.076088,-0.94923,0.113558,-0.986782,-0.115614,-0.952007,0.275983,-0.132349,0.286,0.956126,-0.063459,0.109029,-0.098265,-0.98917,-0.94548,-0.143083,0.292566,-0.305241,0.076088,-0.94923,0.113558,-0.986782,-0.115614,-0.952007,0.275983,-0.132349,0.286,0.956126,-0.063459,0.109029,-0.098265,-0.98917,-80624.0,-27663.0,12764.0,-82406.0,30424.0,11982.0,-1986.0,2130.0,-59208.0,0.0,-20653.0,-20668.0,-19587.0,-19705.0,4022.0,-2135.0,-9275.0,0.0,-7713.0,-2723.0,-2299.0,-3911.0,68.0,155.0,-45.0,0.0,830.0,114.0,-34.0,17.0,-92.0,-155.0,45.0,0.0,-153.0,-61.0,640.0,-750.0,-0.018546,-0.042166,0.012264,0.0,0.030374,0.004202,0.001249,0.000654,-0.024945,-0.041984,0.012195,0.0,-0.005618,-0.002265,-0.023435,-0.027447,4258.350098,11384.100586,51156.988281,0.0,-17617.681641,-17579.160156,17958.240234,-17187.480469,4437.0,11341.799805,50863.589844,0.0,17037.271484,17467.109375,-17144.550781,17788.320312,0.0,0.0,0.0,0.0,0.0,0.0,0.0,0.0,0.0,0.0,0.0,0.0,0.0,0.0,0.0,0.0,0.0,0.0,0.0,0.0,0.0,0.0,0.0,0.0,0.0,0.0,0.0,0.0,0.0,0.0,0.0,0.0,4258.31543,11384.054688,51157.085938,0.0,-17617.683594,-17579.162109,17958.322266,-17187.582031,4436.96582,11341.714844,50863.691406,0.0,17037.810547,17467.115234,-17144.480469,17788.482422,31.266024,89.131264,22.735561,0.0,-5.580266,0.935556,40.763092,44.951397,32.577736,88.592072,22.593771,0.0,-83.202858,-2.178769,39.148521,32.471203,1.496,1.249,-45329.0,-128620.0,-509203.0,0.0,175099.0,174656.0,-179949.0,171267.0,-45278.0,-128155.0,-574426.0,0.0,-197016.0,-196802.0,192794.0,-201559.0,0.0,0.0,0.0,0.0,0.0,0.0,0.0,0.0,0.0,0.0,0.0,0.0,0.0,0.0,0.0,0.0,0.0,0.0,0.0,0.0,0.0,0.0,0.0,0.0
31,2.2695488929748535,31.266277,89.131599,22.735512,0.0,-5.580009,0.93583,40.753826,44.962749,32.577988,88.592728,22.593716,0.0,-83.303162,-2.179308,39.140984,32.452938,3.0,1.0,111.0,0.0,1.0,-80624.0,-27663.0,12764.0,-82406.0,30424.0,11982.0,-0.94548,-0.143083,0.292566,-0.305241,0.076088,-0.94923,0.113558,-0.986782,-0.115614,-0.952007,0.275983,-0.132349,0.286,0.956126,-0.063459,0.109029,-0.098265,-0.98917,-0.94548,-0.143083,0.292566,-0.305241,0.076088,-0.94923,0.113558,-0.986782,-0.115614,-0.952007,0.275983,-0.132349,0.286,0.956126,-0.063459,0.109029,-0.098265,-0.98917,-80624.0,-27663.0,12764.0,-82406.0,30424.0,11982.0,-1986.0,2130.0,-59208.0,0.0,-20653.0,-20668.0,-19587.0,-19705.0,4022.0,-2135.0,-9275.0,0.0,-7713.0,-2723.0,-2299.0,-3911.0,68.0,155.0,-45.0,0.0,830.0,114.0,-34.0,17.0,-92.0,-155.0,45.0,0.0,-152.0,-61.0,640.0,-749.0,-0.018546,-0.042166,0.012264,0.0,0.030374,0.004202,0.001254,0.000648,-0.024945,-0.041984,0.012195,0.0,-0.005583,-0.002264,-0.023431,-0.027437,4258.350098,11384.100586,51156.988281,0.0,-17617.681641,-17579.160156,17958.240234,-17187.480469,4437.0,11341.799805,50863.589844,0.0,17037.271484,17467.109375,-17144.550781,17788.320312,0.0,0.0,0.0,0.0,0.0,0.0,0.0,0.0,0.0,0.0,0.0,0.0,0.0,0.0,0.0,0.0,0.0,0.0,0.0,0.0,0.0,0.0,0.0,0.0,0.0,0.0,0.0,0.0,0.0,0.0,0.0,0.0,4258.31543,11384.054688,51157.085938,0.0,-17617.683594,-17579.162109,17958.322266,-17187.582031,4436.96582,11341.714844,50863.691406,0.0,17037.810547,17467.115234,-17144.480469,17788.482422,31.266024,89.131264,22.735561,0.0,-5.580266,0.935556,40.763092,44.951397,32.577736,88.592072,22.593771,0.0,-83.202858,-2.178769,39.148521,32.471203,1.496,1.249,-45329.0,-128620.0,-509203.0,0.0,175099.0,174656.0,-179949.0,171267.0,-45278.0,-128155.0,-574426.0,0.0,-197016.0,-196802.0,192794.0,-201559.0,0.0,0.0,0.0,0.0,0.0,0.0,0.0,0.0,0.0,0.0,0.0,0.0,0.0,0.0,0.0,0.0,0.0,0.0,0.0,0.0,0.0,0.0,0.0,0.0
32,2.343503952026367,31.266277,89.131599,22.735512,0.0,-5.580009,0.93583,40.753826,44.962749,32.577988,88.592728,22.593716,0.0,-83.303162,-2.179308,39.140984,32.452938,3.0,1.0,111.0,0.0,1.0,-80624.0,-27663.0,12764.0,-82406.0,30424.0,11982.0,-0.94548,-0.143083,0.292566,-0.305241,0.076088,-0.94923,0.113558,-0.986782,-0.115614,-0.952007,0.275983,-0.132349,0.286,0.956126,-0.063459,0.109029,-0.098265,-0.98917,-0.94548,-0.143083,0.292566,-0.305241,0.076088,-0.94923,0.113558,-0.986782,-0.115614,-0.952007,0.275983,-0.132349,0.286,0.956126,-0.063459,0.109029,-0.098265,-0.98917,-80624.0,-27663.0,12764.0,-82406.0,30424.0,11982.0,-1986.0,2130.0,-59208.0,0.0,-20653.0,-20668.0,-19587.0,-19705.0,4022.0,-2135.0,-9275.0,0.0,-7713.0,-2723.0,-2299.0,-3911.0,68.0,155.0,-45.0,0.0,830.0,114.0,-34.0,17.0,-92.0,-155.0,45.0,0.0,-151.0,-61.0,640.0,-749.0,-0.018546,-0.042166,0.012264,0.0,0.030374,0.004202,0.001259,0.000641,-0.024945,-0.041984,0.012195,0.0,-0.005548,-0.002264,-0.023426,-0.027426,4258.350098,11384.100586,51156.988281,0.0,-17617.681641,-17579.160156,17958.240234,-17187.480469,4437.0,11341.799805,50863.589844,0.0,17037.271484,17467.109375,-17144.550781,17788.320312,0.0,0.0,0.0,0.0,0.0,0.0,0.0,0.0,0.0,0.0,0.0,0.0,0.0,0.0,0.0,0.0,0.0,0.0,0.0,0.0,0.0,0.0,0.0,0.0,0.0,0.0,0.0,0.0,0.0,0.0,0.0,0.0,4258.31543,11384.054688,51157.085938,0.0,-17617.683594,-17579.162109,17958.322266,-17187.582031,4436.96582,11341.714844,50863.691406,0.0,17037.810547,17467.115234,-17144.480469,17788.482422,31.266024,89.131264,22.735561,0.0,-5.580266,0.935556,40.763092,44.951397,32.577736,88.592072,22.593771,0.0,-83.202858,-2.178769,39.148521,32.471203,1.496,1.249,-45329.0,-128620.0,-509203.0,0.0,175099.0,174656.0,-179949.0,171267.0,-45278.0,-128155.0,-574426.0,0.0,-197016.0,-196802.0,192794.0,-201559.0,0.0,0.0,0.0,0.0,0.0,0.0,0.0,0.0,0.0,0.0,0.0,0.0,0.0,0.0,0.0,0.0,0.0,0.0,0.0,0.0,0.0,0.0,0.0,0.0
33,2.4155399799346924,31.266277,89.131599,22.735512,0.0,-5.580009,0.93583,40.753826,44.962749,32.577988,88.592728,22.593716,0.0,-83.303162,-2.179308,39.140984,32.452938,3.0,1.0,111.0,0.0,1.0,-80624.0,-27663.0,12764.0,-82406.0,30424.0,11982.0,-0.94548,-0.143083,0.292566,-0.305241,0.076088,-0.94923,0.113558,-0.986782,-0.115614,-0.952007,0.275983,-0.132349,0.286,0.956126,-0.063459,0.109029,-0.098265,-0.98917,-0.94548,-0.143083,0.292566,-0.305241,0.076088,-0.94923,0.113558,-0.986782,-0.115614,-0.952007,0.275983,-0.132349,0.286,0.956126,-0.063459,0.109029,-0.098265,-0.98917,-80624.0,-27663.0,12764.0,-82406.0,30424.0,11982.0,-1986.0,2130.0,-59208.0,0.0,-20653.0,-20668.0,-19587.0,-19705.0,4022.0,-2135.0,-9275.0,0.0,-7713.0,-2723.0,-2299.0,-3911.0,68.0,155.0,-45.0,0.0,830.0,114.0,-34.0,17.0,-92.0,-155.0,45.0,0.0,-150.0,-61.0,640.0,-749.0,-0.018546,-0.042166,0.012264,0.0,0.030374,0.004202,0.001264,0.000635,-0.024945,-0.041984,0.012195,0.0,-0.005514,-0.002264,-0.023422,-0.027416,4258.350098,11384.100586,51156.988281,0.0,-17617.681641,-17579.160156,17958.240234,-17187.480469,4437.0,11341.799805,50863.589844,0.0,17037.271484,17467.109375,-17144.550781,17788.320312,0.0,0.0,0.0,0.0,0.0,0.0,0.0,0.0,0.0,0.0,0.0,0.0,0.0,0.0,0.0,0.0,0.0,0.0,0.0,0.0,0.0,0.0,0.0,0.0,0.0,0.0,0.0,0.0,0.0,0.0,0.0,0.0,4258.31543,11384.054688,51157.085938,0.0,-17617.683594,-17579.162109,17958.322266,-17187.582031,4436.96582,11341.714844,50863.691406,0.0,17037.810547,17467.115234,-17144.480469,17788.482422,31.266024,89.131264,22.735561,0.0,-5.580266,0.935556,40.763092,44.951397,32.577736,88.592072,22.593771,0.0,-83.202858,-2.178769,39.148521,32.471203,1.496,1.249,-45329.0,-128620.0,-509203.0,0.0,175099.0,174656.0,-179949.0,171267.0,-45278.0,-128155.0,-574426.0,0.0,-197016.0,-196802.0,192794.0,-201559.0,0.0,0.0,0.0,0.0,0.0,0.0,0.0,0.0,0.0,0.0,0.0,0.0,0.0,0.0,0.0,0.0,0.0,0.0,0.0,0.0,0.0,0.0,0.0,0.0
34,2.485503911972046,31.266277,89.131599,22.735512,0.0,-5.580009,0.93583,40.753826,44.962749,32.577988,88.592728,22.593716,0.0,-83.286629,-2.179308,39.140984,32.452938,3.0,1.0,111.0,0.0,1.0,-80624.0,-27663.0,12764.0,-82406.0,30424.0,11982.0,-0.94548,-0.143083,0.292566,-0.305241,0.076088,-0.94923,0.113558,-0.986782,-0.115614,-0.952006,0.276032,-0.132253,0.286009,0.956141,-0.063189,0.109011,-0.097982,-0.9892,-0.94548,-0.143083,0.292566,-0.305241,0.076088,-0.94923,0.113558,-0.986782,-0.115614,-0.952006,0.276032,-0.132253,0.286009,0.956141,-0.063189,0.109011,-0.097982,-0.9892,-80624.0,-27663.0,12764.0,-82406.0,30424.0,11982.0,-1986.0,2130.0,-59208.0,0.0,-20653.0,-20668.0,-19587.0,-19705.0,4022.0,-2135.0,-9275.0,0.0,-7712.0,-2723.0,-2299.0,-3911.0,68.0,155.0,-45.0,0.0,830.0,114.0,-34.0,17.0,-92.0,-155.0,45.0,0.0,-153.0,-61.0,639.0,-748.0,-0.018546,-0.042166,0.012264,0.0,0.030373,0.004202,0.001269,0.000629,-0.024945,-0.041984,0.012195,0.0,-0.005622,-0.002263,-0.023417,-0.027406,4258.350098,11384.100586,51156.988281,0.0,-17617.681641,-17579.160156,17958.240234,-17187.480469,4437.0,11341.799805,50863.589844,0.0,17037.359375,17467.109375,-17144.550781,17788.320312,0.0,0.0,0.0,0.0,0.0,0.0,0.0,0.0,0.0,0.0,0.0,0.0,0.0,0.0,0.0,0.0,0.0,0.0,0.0,0.0,0.0,0.0,0.0,0.0,0.0,0.0,0.0,0.0,0.0,0.0,0.0,0.0,4258.31543,11384.054688,51157.085938,0.0,-17617.683594,-17579.162109,17958.322266,-17187.582031,4436.96582,11341.714844,50863.691406,0.0,17037.810547,17467.115234,-17144.480469,17788.482422,31.266024,89.131264,22.735561,0.0,-5.580266,0.935556,40.763092,44.951397,32.577736,88.592072,22.593771,0.0,-83.202858,-2.178769,39.148521,32.471203,1.496,1.249,-45329.0,-128620.0,-509203.0,0.0,175099.0,174656.0,-179949.0,171267.0,-45278.0,-128155.0,-574426.0,0.0,-197016.0,-196802.0,192794.0,-201559.0,0.0,0.0,0.0,0.0,0.0,0.0,0.0,0.0,0.0,0.0,0.0,0.0,0.0,0.0,0.0,0.0,0.0,0.0,0.0,0.0,0.0,0.0,0.0,0.0
35,2.5594980716705322,31.266277,89.131599,22.735512,0.0,-5.580009,0.93583,40.753826,44.962749,32.577988,88.592728,22.593716,0.0,-83.286629,-2.179308,39.140984,32.452938,3.0,1.0,111.0,0.0,1.0,-80624.0,-27663.0,12764.0,-82406.0,30424.0,11982.0,-0.94548,-0.143083,0.292566,-0.305241,0.076088,-0.94923,0.113558,-0.986782,-0.115614,-0.952006,0.276032,-0.132253,0.286009,0.956141,-0.063189,0.109011,-0.097982,-0.9892,-0.94548,-0.143083,0.292566,-0.305241,0.076088,-0.94923,0.113558,-0.986782,-0.115614,-0.952006,0.276032,-0.132253,0.286009,0.956141,-0.063189,0.109011,-0.097982,-0.9892,-80624.0,-27663.0,12764.0,-82406.0,30424.0,11982.0,-1986.0,2130.0,-59208.0,0.0,-20653.0,-20668.0,-19587.0,-19705.0,4022.0,-2135.0,-9275.0,0.0,-7712.0,-2723.0,-2299.0,-3911.0,68.0,155.0,-45.0,0.0,830.0,114.0,-34.0,17.0,-92.0,-155.0,45.0,0.0,-152.0,-61.0,639.0,-748.0,-0.018546,-0.042166,0.012264,0.0,0.030373,0.004202,0.001275,0.000622,-0.024945,-0.041984,0.012195,0.0,-0.005593,-0.002263,-0.023413,-0.027395,4258.350098,11384.100586,51156.988281,0.0,-17617.681641,-17579.160156,17958.240234,-17187.480469,4437.0,11341.799805,50863.589844,0.0,17037.359375,17467.109375,-17144.550781,17788.320312,0.0,0.0,0.0,0.0,0.0,0.0,0.0,0.0,0.0,0.0,0.0,0.0,0.0,0.0,0.0,0.0,0.0,0.0,0.0,0.0,0.0,0.0,0.0,0.0,0.0,0.0,0.0,0.0,0.0,0.0,0.0,0.0,4258.31543,11384.054688,51157.085938,0.0,-17617.683594,-17579.162109,17958.322266,-17187.582031,4436.96582,11341.714844,50863.691406,0.0,17037.810547,17467.115234,-17144.480469,17788.482422,31.266024,89.131264,22.735561,0.0,-5.580266,0.935556,40.763092,44.951397,32.577736,88.592072,22.593771,0.0,-83.202858,-2.178769,39.148521,32.471203,1.496,1.249,-45329.0,-128620.0,-509203.0,0.0,175099.0,174656.0,-179949.0,171267.0,-45278.0,-128155.0,-574426.0,0.0,-197016.0,-196802.0,192794.0,-201559.0,0.0,0.0,0.0,0.0,0.0,0.0,0.0,0.0,0.0,0.0,0.0,0.0,0.0,0.0,0.0,0.0,0.0,0.0,0.0,0.0,0.0,0.0,0.0,0.0
36,2.630497932434082,31.266277,89.131599,22.735512,0.0,-5.580009,0.93583,40.753826,44.962749,32.577988,88.592728,22.593716,0.0,-83.286629,-2.179308,39.140984,32.452938,3.0,1.0,111.0,0.0,1.0,-80624.0,-27663.0,12764.0,-82406.0,30424.0,11982.0,-0.94548,-0.143083,0.292566,-0.305241,0.076088,-0.94923,0.113558,-0.986782,-0.115614,-0.952006,0.276032,-0.132253,0.286009,0.956141,-0.063189,0.109011,-0.097982,-0.9892,-0.94548,-0.143083,0.292566,-0.305241,0.076088,-0.94923,0.113558,-0.986782,-0.115614,-0.952006,0.276032,-0.132253,0.286009,0.956141,-0.063189,0.109011,-0.097982,-0.9892,-80624.0,-27663.0,12764.0,-82406.0,30424.0,11982.0,-1986.0,2130.0,-59208.0,0.0,-20653.0,-20668.0,-19587.0,-19705.0,4022.0,-2135.0,-9275.0,0.0,-7712.0,-2723.0,-2299.0,-3911.0,68.0,155.0,-45.0,0.0,830.0,114.0,-34.0,16.0,-92.0,-155.0,45.0,0.0,-152.0,-61.0,639.0,-748.0,-0.018546,-0.042166,0.012264,0.0,0.030373,0.004202,0.00128,0.000616,-0.024945,-0.041984,0.012195,0.0,-0.005565,-0.002263,-0.023408,-0.027385,4258.350098,11384.100586,51156.988281,0.0,-17617.681641,-17579.160156,17958.240234,-17187.480469,4437.0,11341.799805,50863.589844,0.0,17037.359375,17467.109375,-17144.550781,17788.320312,0.0,0.0,0.0,0.0,0.0,0.0,0.0,0.0,0.0,0.0,0.0,0.0,0.0,0.0,0.0,0.0,0.0,0.0,0.0,0.0,0.0,0.0,0.0,0.0,0.0,0.0,0.0,0.0,0.0,0.0,0.0,0.0,4258.31543,11384.054688,51157.085938,0.0,-17617.683594,-17579.162109,17958.322266,-17187.582031,4436.96582,11341.714844,50863.691406,0.0,17037.810547,17467.115234,-17144.480469,17788.482422,31.266024,89.131264,22.735561,0.0,-5.580266,0.935556,40.763092,44.951397,32.577736,88.592072,22.593771,0.0,-83.202858,-2.178769,39.148521,32.471203,1.496,1.249,-45329.0,-128620.0,-509203.0,0.0,175099.0,174656.0,-179949.0,171267.0,-45278.0,-128155.0,-574426.0,0.0,-197016.0,-196802.0,192794.0,-201559.0,0.0,0.0,0.0,0.0,0.0,0.0,0.0,0.0,0.0,0.0,0.0,0.0,0.0,0.0,0.0,0.0,0.0,0.0,0.0,0.0,0.0,0.0,0.0,0.0
37,2.702543020248413,31.266277,89.131599,22.735512,0.0,-5.580009,0.93583,40.753826,44.962749,32.577988,88.592728,22.593716,0.0,-83.286629,-2.179308,39.140984,32.452938,3.0,1.0,111.0,0.0,1.0,-80624.0,-27663.0,12764.0,-82406.0,30424.0,11982.0,-0.94548,-0.143083,0.292566,-0.305241,0.076088,-0.94923,0.113558,-0.986782,-0.115614,-0.952006,0.276032,-0.132253,0.286009,0.956141,-0.063189,0.109011,-0.097982,-0.9892,-0.94548,-0.143083,0.292566,-0.305241,0.076088,-0.94923,0.113558,-0.986782,-0.115614,-0.952006,0.276032,-0.132253,0.286009,0.956141,-0.063189,0.109011,-0.097982,-0.9892,-80624.0,-27663.0,12764.0,-82406.0,30424.0,11982.0,-1986.0,2130.0,-59208.0,0.0,-20653.0,-20668.0,-19587.0,-19705.0,4022.0,-2135.0,-9275.0,0.0,-7712.0,-2723.0,-2299.0,-3911.0,68.0,155.0,-45.0,0.0,830.0,114.0,-35.0,16.0,-92.0,-155.0,45.0,0.0,-151.0,-61.0,639.0,-748.0,-0.018546,-0.042166,0.012264,0.0,0.030373,0.004202,0.001285,0.00061,-0.024945,-0.041984,0.012195,0.0,-0.005537,-0.002262,-0.023404,-0.027375,4258.350098,11384.100586,51156.988281,0.0,-17617.681641,-17579.160156,17958.240234,-17187.480469,4437.0,11341.799805,50863.589844,0.0,17037.359375,17467.109375,-17144.550781,17788.320312,0.0,0.0,0.0,0.0,0.0,0.0,0.0,0.0,0.0,0.0,0.0,0.0,0.0,0.0,0.0,0.0,0.0,0.0,0.0,0.0,0.0,0.0,0.0,0.0,0.0,0.0,0.0,0.0,0.0,0.0,0.0,0.0,4258.31543,11384.054688,51157.085938,0.0,-17617.683594,-17579.162109,17958.322266,-17187.582031,4436.96582,11341.714844,50863.691406,0.0,17037.810547,17467.115234,-17144.480469,17788.482422,31.266024,89.131264,22.735561,0.0,-5.580266,0.935556,40.763092,44.951397,32.577736,88.592072,22.593771,0.0,-83.202858,-2.178769,39.148521,32.471203,1.496,1.249,-45329.0,-128620.0,-509203.0,0.0,175099.0,174656.0,-179949.0,171267.0,-45278.0,-128155.0,-574426.0,0.0,-197016.0,-196802.0,192794.0,-201559.0,0.0,0.0,0.0,0.0,0.0,0.0,0.0,0.0,0.0,0.0,0.0,0.0,0.0,0.0,0.0,0.0,0.0,0.0,0.0,0.0,0.0,0.0,0.0,0.0
38,2.775496006011963,31.266277,89.131599,22.735512,0.0,-5.580009,0.93583,40.753826,44.962749,32.577988,88.592728,22.593716,0.0,-83.286629,-2.179308,39.140984,32.452938,3.0,1.0,111.0,0.0,1.0,-80624.0,-27663.0,12764.0,-82406.0,30424.0,11982.0,-0.94548,-0.143083,0.292566,-0.305241,0.076088,-0.94923,0.113558,-0.986782,-0.115614,-0.952006,0.276032,-0.132253,0.286009,0.956141,-0.063189,0.109011,-0.097982,-0.9892,-0.94548,-0.143083,0.292566,-0.305241,0.076088,-0.94923,0.113558,-0.986782,-0.115614,-0.952006,0.276032,-0.132253,0.286009,0.956141,-0.063189,0.109011,-0.097982,-0.9892,-80624.0,-27663.0,12764.0,-82406.0,30424.0,11982.0,-1986.0,2130.0,-59208.0,0.0,-20653.0,-20668.0,-19587.0,-19705.0,4022.0,-2135.0,-9275.0,0.0,-7712.0,-2723.0,-2299.0,-3911.0,68.0,155.0,-45.0,0.0,830.0,114.0,-35.0,16.0,-92.0,-155.0,45.0,0.0,-150.0,-61.0,639.0,-747.0,-0.018546,-0.042166,0.012264,0.0,0.030373,0.004201,0.00129,0.000603,-0.024945,-0.041984,0.012195,0.0,-0.005508,-0.002262,-0.0234,-0.027364,4258.350098,11384.100586,51156.988281,0.0,-17617.681641,-17579.160156,17958.240234,-17187.480469,4437.0,11341.799805,50863.589844,0.0,17037.359375,17467.109375,-17144.550781,17788.320312,0.0,0.0,0.0,0.0,0.0,0.0,0.0,0.0,0.0,0.0,0.0,0.0,0.0,0.0,0.0,0.0,0.0,0.0,0.0,0.0,0.0,0.0,0.0,0.0,0.0,0.0,0.0,0.0,0.0,0.0,0.0,0.0,4258.31543,11384.054688,51157.085938,0.0,-17617.683594,-17579.162109,17958.322266,-17187.582031,4436.96582,11341.714844,50863.691406,0.0,17037.810547,17467.115234,-17144.480469,17788.482422,31.266024,89.131264,22.735561,0.0,-5.580266,0.935556,40.763092,44.951397,32.577736,88.592072,22.593771,0.0,-83.202858,-2.178769,39.148521,32.471203,1.496,1.249,-45329.0,-128620.0,-509203.0,0.0,175099.0,174656.0,-179949.0,171267.0,-45278.0,-128155.0,-574426.0,0.0,-197016.0,-196802.0,192794.0,-201559.0,0.0,0.0,0.0,0.0,0.0,0.0,0.0,0.0,0.0,0.0,0.0,0.0,0.0,0.0,0.0,0.0,0.0,0.0,0.0,0.0,0.0,0.0,0.0,0.0
39,2.848496913909912,31.266277,89.131599,22.735512,0.0,-5.580009,0.93583,40.753826,44.962749,32.577988,88.592728,22.593716,0.0,-83.286629,-2.179308,39.140984,32.452938,3.0,1.0,111.0,0.0,1.0,-80624.0,-27663.0,12764.0,-82406.0,30424.0,11982.0,-0.94548,-0.143083,0.292566,-0.305241,0.076088,-0.94923,0.113558,-0.986782,-0.115614,-0.952006,0.276032,-0.132253,0.286009,0.956141,-0.063189,0.109011,-0.097982,-0.9892,-0.94548,-0.143083,0.292566,-0.305241,0.076088,-0.94923,0.113558,-0.986782,-0.115614,-0.952006,0.276032,-0.132253,0.286009,0.956141,-0.063189,0.109011,-0.097982,-0.9892,-80624.0,-27663.0,12764.0,-82406.0,30424.0,11982.0,-1986.0,2130.0,-59208.0,0.0,-20653.0,-20668.0,-19587.0,-19705.0,4022.0,-2135.0,-9275.0,0.0,-7712.0,-2723.0,-2299.0,-3911.0,68.0,155.0,-45.0,0.0,830.0,114.0,-35.0,16.0,-92.0,-155.0,45.0,0.0,-149.0,-61.0,639.0,-747.0,-0.018546,-0.042166,0.012264,0.0,0.030372,0.004201,0.001295,0.000597,-0.024945,-0.041984,0.012195,0.0,-0.00548,-0.002262,-0.023395,-0.027354,4258.350098,11384.100586,51156.988281,0.0,-17617.681641,-17579.160156,17958.240234,-17187.480469,4437.0,11341.799805,50863.589844,0.0,17037.359375,17467.109375,-17144.550781,17788.320312,0.0,0.0,0.0,0.0,0.0,0.0,0.0,0.0,0.0,0.0,0.0,0.0,0.0,0.0,0.0,0.0,0.0,0.0,0.0,0.0,0.0,0.0,0.0,0.0,0.0,0.0,0.0,0.0,0.0,0.0,0.0,0.0,4258.31543,11384.054688,51157.085938,0.0,-17617.683594,-17579.162109,17958.322266,-17187.582031,4436.96582,11341.714844,50863.691406,0.0,17037.810547,17467.115234,-17144.480469,17788.482422,31.266024,89.131264,22.735561,0.0,-5.580266,0.935556,40.763092,44.951397,32.577736,88.592072,22.593771,0.0,-83.202858,-2.178769,39.148521,32.471203,1.496,1.249,-45329.0,-128620.0,-509203.0,0.0,175099.0,174656.0,-179949.0,171267.0,-45278.0,-128155.0,-574426.0,0.0,-197016.0,-196802.0,192794.0,-201559.0,0.0,0.0,0.0,0.0,0.0,0.0,0.0,0.0,0.0,0.0,0.0,0.0,0.0,0.0,0.0,0.0,0.0,0.0,0.0,0.0,0.0,0.0,0.0,0.0
40,2.9225029945373535,31.266277,89.131599,22.735512,0.0,-5.580009,0.93583,40.753826,44.962749,32.577988,88.592728,22.593716,0.0,-83.286629,-2.179308,39.140984,32.452938,3.0,1.0,111.0,0.0,1.0,-80624.0,-27663.0,12764.0,-82406.0,30424.0,11982.0,-0.94548,-0.143083,0.292566,-0.305241,0.076088,-0.94923,0.113558,-0.986782,-0.115614,-0.952006,0.276032,-0.132253,0.286009,0.956141,-0.063189,0.109011,-0.097982,-0.9892,-0.94548,-0.143083,0.292566,-0.305241,0.076088,-0.94923,0.113558,-0.986782,-0.115614,-0.952006,0.276032,-0.132253,0.286009,0.956141,-0.063189,0.109011,-0.097982,-0.9892,-80624.0,-27663.0,12764.0,-82406.0,30424.0,11982.0,-1986.0,2130.0,-59208.0,0.0,-20653.0,-20668.0,-19587.0,-19705.0,4022.0,-2135.0,-9275.0,0.0,-7712.0,-2723.0,-2299.0,-3911.0,68.0,155.0,-45.0,0.0,830.0,114.0,-35.0,16.0,-92.0,-155.0,45.0,0.0,-148.0,-61.0,639.0,-747.0,-0.018546,-0.042166,0.012264,0.0,0.030372,0.004201,0.001301,0.00059,-0.024945,-0.041984,0.012195,0.0,-0.00545,-0.002261,-0.023391,-0.027343,4258.350098,11384.100586,51156.988281,0.0,-17617.681641,-17579.160156,17958.240234,-17187.480469,4437.0,11341.799805,50863.589844,0.0,17037.359375,17467.109375,-17144.550781,17788.320312,0.0,0.0,0.0,0.0,0.0,0.0,0.0,0.0,0.0,0.0,0.0,0.0,0.0,0.0,0.0,0.0,0.0,0.0,0.0,0.0,0.0,0.0,0.0,0.0,0.0,0.0,0.0,0.0,0.0,0.0,0.0,0.0,4258.31543,11384.054688,51157.085938,0.0,-17617.683594,-17579.162109,17958.322266,-17187.582031,4436.96582,11341.714844,50863.691406,0.0,17037.810547,17467.115234,-17144.480469,17788.482422,31.266024,89.131264,22.735561,0.0,-5.580266,0.935556,40.763092,44.951397,32.577736,88.592072,22.593771,0.0,-83.202858,-2.178769,39.148521,32.471203,1.496,1.249,-45329.0,-128620.0,-509203.0,0.0,175099.0,174656.0,-179949.0,171267.0,-45278.0,-128155.0,-574426.0,0.0,-197016.0,-196802.0,192794.0,-201559.0,0.0,0.0,0.0,0.0,0.0,0.0,0.0,0.0,0.0,0.0,0.0,0.0,0.0,0.0,0.0,0.0,0.0,0.0,0.0,0.0,0.0,0.0,0.0,0.0
41,2.9984700679779053,31.266277,89.131599,22.735512,0.0,-5.580009,0.93583,40.753826,44.962749,32.577988,88.592728,22.593716,0.0,-83.286629,-2.179308,39.140984,32.452938,3.0,1.0,111.0,0.0,1.0,-80624.0,-27663.0,12764.0,-82406.0,30424.0,11982.0,-0.94548,-0.143083,0.292566,-0.305241,0.076088,-0.94923,0.113558,-0.986782,-0.115614,-0.952006,0.276032,-0.132253,0.286009,0.956141,-0.063189,0.109011,-0.097982,-0.9892,-0.94548,-0.143083,0.292566,-0.305241,0.076088,-0.94923,0.113558,-0.986782,-0.115614,-0.952006,0.276032,-0.132253,0.286009,0.956141,-0.063189,0.109011,-0.097982,-0.9892,-80624.0,-27663.0,12764.0,-82406.0,30424.0,11982.0,-1986.0,2130.0,-59208.0,0.0,-20653.0,-20668.0,-19587.0,-19705.0,4022.0,-2135.0,-9275.0,0.0,-7712.0,-2723.0,-2299.0,-3911.0,68.0,155.0,-45.0,0.0,830.0,114.0,-35.0,15.0,-92.0,-155.0,45.0,0.0,-148.0,-61.0,639.0,-746.0,-0.018546,-0.042166,0.012264,0.0,0.030372,0.004201,0.001306,0.000583,-0.024945,-0.041984,0.012195,0.0,-0.005421,-0.002261,-0.023386,-0.027332,4258.350098,11384.100586,51156.988281,0.0,-17617.681641,-17579.160156,17958.240234,-17187.480469,4437.0,11341.799805,50863.589844,0.0,17037.359375,17467.109375,-17144.550781,17788.320312,0.0,0.0,0.0,0.0,0.0,0.0,0.0,0.0,0.0,0.0,0.0,0.0,0.0,0.0,0.0,0.0,0.0,0.0,0.0,0.0,0.0,0.0,0.0,0.0,0.0,0.0,0.0,0.0,0.0,0.0,0.0,0.0,4258.31543,11384.054688,51157.085938,0.0,-17617.683594,-17579.162109,17958.322266,-17187.582031,4436.96582,11341.714844,50863.691406,0.0,17037.810547,17467.115234,-17144.480469,17788.482422,31.266024,89.131264,22.735561,0.0,-5.580266,0.935556,40.763092,44.951397,32.577736,88.592072,22.593771,0.0,-83.202858,-2.178769,39.148521,32.471203,1.496,1.249,-45329.0,-128620.0,-509203.0,0.0,175099.0,174656.0,-179949.0,171267.0,-45278.0,-128155.0,-574426.0,0.0,-197016.0,-196802.0,192794.0,-201559.0,0.0,0.0,0.0,0.0,0.0,0.0,0.0,0.0,0.0,0.0,0.0,0.0,0.0,0.0,0.0,0.0,0.0,0.0,0.0,0.0,0.0,0.0,0.0,0.0
42,3.0675339698791504,31.266277,89.131599,22.735512,0.0,-5.580009,0.93583,40.753826,44.962749,32.577988,88.592728,22.593716,0.0,-83.286629,-2.179308,39.140984,32.452938,3.0,1.0,111.0,0.0,1.0,-80624.0,-27663.0,12764.0,-82406.0,30424.0,11982.0,-0.94548,-0.143083,0.292566,-0.305241,0.076088,-0.94923,0.113558,-0.986782,-0.115614,-0.952006,0.276032,-0.132253,0.286009,0.956141,-0.063189,0.109011,-0.097982,-0.9892,-0.94548,-0.143083,0.292566,-0.305241,0.076088,-0.94923,0.113558,-0.986782,-0.115614,-0.952006,0.276032,-0.132253,0.286009,0.956141,-0.063189,0.109011,-0.097982,-0.9892,-80624.0,-27663.0,12764.0,-82406.0,30424.0,11982.0,-1986.0,2130.0,-59208.0,0.0,-20653.0,-20668.0,-19587.0,-19705.0,4022.0,-2135.0,-9275.0,0.0,-7712.0,-2723.0,-2299.0,-3911.0,68.0,155.0,-45.0,0.0,830.0,114.0,-35.0,15.0,-92.0,-155.0,45.0,0.0,-147.0,-61.0,638.0,-746.0,-0.018546,-0.042166,0.012264,0.0,0.030372,0.004201,0.001311,0.000577,-0.024945,-0.041984,0.012195,0.0,-0.005393,-0.002261,-0.023382,-0.027322,4258.350098,11384.100586,51156.988281,0.0,-17617.681641,-17579.160156,17958.240234,-17187.480469,4437.0,11341.799805,50863.589844,0.0,17037.359375,17467.109375,-17144.550781,17788.320312,0.0,0.0,0.0,0.0,0.0,0.0,0.0,0.0,0.0,0.0,0.0,0.0,0.0,0.0,0.0,0.0,0.0,0.0,0.0,0.0,0.0,0.0,0.0,0.0,0.0,0.0,0.0,0.0,0.0,0.0,0.0,0.0,4258.31543,11384.054688,51157.085938,0.0,-17617.683594,-17579.162109,17958.322266,-17187.582031,4436.96582,11341.714844,50863.691406,0.0,17037.810547,17467.115234,-17144.480469,17788.482422,31.266024,89.131264,22.735561,0.0,-5.580266,0.935556,40.763092,44.951397,32.577736,88.592072,22.593771,0.0,-83.202858,-2.178769,39.148521,32.471203,1.496,1.249,-45329.0,-128620.0,-509203.0,0.0,175099.0,174656.0,-179949.0,171267.0,-45278.0,-128155.0,-574426.0,0.0,-197016.0,-196802.0,192794.0,-201559.0,0.0,0.0,0.0,0.0,0.0,0.0,0.0,0.0,0.0,0.0,0.0,0.0,0.0,0.0,0.0,0.0,0.0,0.0,0.0,0.0,0.0,0.0,0.0,0.0
43,3.1385040283203125,31.266277,89.131599,22.735512,0.0,-5.580009,0.93583,40.753826,44.962749,32.577988,88.592728,22.593716,0.0,-83.286629,-2.179308,39.140984,32.452938,3.0,1.0,111.0,0.0,1.0,-80624.0,-27663.0,12764.0,-82406.0,30424.0,11982.0,-0.94548,-0.143083,0.292566,-0.305241,0.076088,-0.94923,0.113558,-0.986782,-0.115614,-0.952006,0.276032,-0.132253,0.286009,0.956141,-0.063189,0.109011,-0.097982,-0.9892,-0.94548,-0.143083,0.292566,-0.305241,0.076088,-0.94923,0.113558,-0.986782,-0.115614,-0.952006,0.276032,-0.132253,0.286009,0.956141,-0.063189,0.109011,-0.097982,-0.9892,-80624.0,-27663.0,12764.0,-82406.0,30424.0,11982.0,-1986.0,2130.0,-59208.0,0.0,-20653.0,-20668.0,-19587.0,-19705.0,4022.0,-2135.0,-9275.0,0.0,-7712.0,-2723.0,-2299.0,-3911.0,68.0,155.0,-45.0,0.0,830.0,114.0,-35.0,15.0,-92.0,-155.0,45.0,0.0,-146.0,-61.0,638.0,-746.0,-0.018546,-0.042166,0.012264,0.0,0.030372,0.004201,0.001316,0.000571,-0.024945,-0.041984,0.012195,0.0,-0.005365,-0.00226,-0.023377,-0.027312,4258.350098,11384.100586,51156.988281,0.0,-17617.681641,-17579.160156,17958.240234,-17187.480469,4437.0,11341.799805,50863.589844,0.0,17037.359375,17467.109375,-17144.550781,17788.320312,0.0,0.0,0.0,0.0,0.0,0.0,0.0,0.0,0.0,0.0,0.0,0.0,0.0,0.0,0.0,0.0,0.0,0.0,0.0,0.0,0.0,0.0,0.0,0.0,0.0,0.0,0.0,0.0,0.0,0.0,0.0,0.0,4258.31543,11384.054688,51157.085938,0.0,-17617.683594,-17579.162109,17958.322266,-17187.582031,4436.96582,11341.714844,50863.691406,0.0,17037.810547,17467.115234,-17144.480469,17788.482422,31.266024,89.131264,22.735561,0.0,-5.580266,0.935556,40.763092,44.951397,32.577736,88.592072,22.593771,0.0,-83.202858,-2.178769,39.148521,32.471203,1.496,1.249,-45329.0,-128620.0,-509203.0,0.0,175099.0,174656.0,-179949.0,171267.0,-45278.0,-128155.0,-574426.0,0.0,-197016.0,-196802.0,192794.0,-201559.0,0.0,0.0,0.0,0.0,0.0,0.0,0.0,0.0,0.0,0.0,0.0,0.0,0.0,0.0,0.0,0.0,0.0,0.0,0.0,0.0,0.0,0.0,0.0,0.0
44,3.2146739959716797,31.266277,89.131599,22.735512,0.0,-5.580009,0.93583,40.753826,44.962749,32.577988,88.592728,22.593716,0.0,-83.286629,-2.179308,39.140984,32.452938,3.0,1.0,111.0,0.0,1.0,-80624.0,-27663.0,12764.0,-82406.0,30424.0,11982.0,-0.94548,-0.143083,0.292566,-0.305241,0.076088,-0.94923,0.113558,-0.986782,-0.115614,-0.952006,0.276032,-0.132253,0.286009,0.956141,-0.063189,0.109011,-0.097982,-0.9892,-0.94548,-0.143083,0.292566,-0.305241,0.076088,-0.94923,0.113558,-0.986782,-0.115614,-0.952006,0.276032,-0.132253,0.286009,0.956141,-0.063189,0.109011,-0.097982,-0.9892,-80624.0,-27663.0,12764.0,-82406.0,30424.0,11982.0,-1986.0,2130.0,-59208.0,0.0,-20653.0,-20668.0,-19587.0,-19705.0,4022.0,-2135.0,-9275.0,0.0,-7712.0,-2723.0,-2299.0,-3911.0,68.0,155.0,-45.0,0.0,829.0,114.0,-36.0,15.0,-92.0,-155.0,45.0,0.0,-145.0,-61.0,638.0,-746.0,-0.018546,-0.042166,0.012264,0.0,0.030371,0.004201,0.001322,0.000564,-0.024945,-0.041984,0.012195,0.0,-0.005335,-0.00226,-0.023373,-0.027301,4258.350098,11384.100586,51156.988281,0.0,-17617.681641,-17579.160156,17958.240234,-17187.480469,4437.0,11341.799805,50863.589844,0.0,17037.359375,17467.109375,-17144.550781,17788.320312,0.0,0.0,0.0,0.0,0.0,0.0,0.0,0.0,0.0,0.0,0.0,0.0,0.0,0.0,0.0,0.0,0.0,0.0,0.0,0.0,0.0,0.0,0.0,0.0,0.0,0.0,0.0,0.0,0.0,0.0,0.0,0.0,4258.31543,11384.054688,51157.085938,0.0,-17617.683594,-17579.162109,17958.322266,-17187.582031,4436.96582,11341.714844,50863.691406,0.0,17037.810547,17467.115234,-17144.480469,17788.482422,31.266024,89.131264,22.735561,0.0,-5.580266,0.935556,40.763092,44.951397,32.577736,88.592072,22.593771,0.0,-83.202858,-2.178769,39.148521,32.471203,1.496,1.249,-45329.0,-128620.0,-509203.0,0.0,175099.0,174656.0,-179949.0,171267.0,-45278.0,-128155.0,-574426.0,0.0,-197016.0,-196802.0,192794.0,-201559.0,0.0,0.0,0.0,0.0,0.0,0.0,0.0,0.0,0.0,0.0,0.0,0.0,0.0,0.0,0.0,0.0,0.0,0.0,0.0,0.0,0.0,0.0,0.0,0.0
45,3.2855429649353027,31.266277,89.131599,22.735512,0.0,-5.580009,0.93583,40.753826,44.962749,32.577988,88.592728,22.593716,0.0,-83.286629,-2.179308,39.140984,32.452938,3.0,1.0,111.0,0.0,1.0,-80624.0,-27663.0,12764.0,-82406.0,30424.0,11982.0,-0.94548,-0.143083,0.292566,-0.305241,0.076088,-0.94923,0.113558,-0.986782,-0.115614,-0.952006,0.276032,-0.132253,0.286009,0.956141,-0.063189,0.109011,-0.097982,-0.9892,-0.94548,-0.143083,0.292566,-0.305241,0.076088,-0.94923,0.113558,-0.986782,-0.115614,-0.952006,0.276032,-0.132253,0.286009,0.956141,-0.063189,0.109011,-0.097982,-0.9892,-80624.0,-27663.0,12764.0,-82406.0,30424.0,11982.0,-1986.0,2130.0,-59208.0,0.0,-20653.0,-20668.0,-19587.0,-19705.0,4022.0,-2135.0,-9275.0,0.0,-7712.0,-2723.0,-2299.0,-3911.0,68.0,155.0,-45.0,0.0,829.0,114.0,-36.0,15.0,-92.0,-155.0,45.0,0.0,-145.0,-61.0,638.0,-745.0,-0.018546,-0.042166,0.012264,0.0,0.030371,0.004201,0.001327,0.000558,-0.024945,-0.041984,0.012195,0.0,-0.005307,-0.00226,-0.023368,-0.027291,4258.350098,11384.100586,51156.988281,0.0,-17617.681641,-17579.160156,17958.240234,-17187.480469,4437.0,11341.799805,50863.589844,0.0,17037.359375,17467.109375,-17144.550781,17788.320312,0.0,0.0,0.0,0.0,0.0,0.0,0.0,0.0,0.0,0.0,0.0,0.0,0.0,0.0,0.0,0.0,0.0,0.0,0.0,0.0,0.0,0.0,0.0,0.0,0.0,0.0,0.0,0.0,0.0,0.0,0.0,0.0,4258.31543,11384.054688,51157.085938,0.0,-17617.683594,-17579.162109,17958.322266,-17187.582031,4436.96582,11341.714844,50863.691406,0.0,17037.810547,17467.115234,-17144.480469,17788.482422,31.266024,89.131264,22.735561,0.0,-5.580266,0.935556,40.763092,44.951397,32.577736,88.592072,22.593771,0.0,-83.202858,-2.178769,39.148521,32.471203,1.496,1.249,-45329.0,-128620.0,-509203.0,0.0,175099.0,174656.0,-179949.0,171267.0,-45278.0,-128155.0,-574426.0,0.0,-197016.0,-196802.0,192794.0,-201559.0,0.0,0.0,0.0,0.0,0.0,0.0,0.0,0.0,0.0,0.0,0.0,0.0,0.0,0.0,0.0,0.0,0.0,0.0,0.0,0.0,0.0,0.0,0.0,0.0
46,3.3585429191589355,31.266277,89.131599,22.735512,0.0,-5.580009,0.93583,40.753826,44.962749,32.577988,88.592728,22.593716,0.0,-83.286629,-2.179308,39.140984,32.452938,3.0,1.0,111.0,0.0,1.0,-80624.0,-27663.0,12764.0,-82406.0,30424.0,11982.0,-0.94548,-0.143083,0.292566,-0.305241,0.076088,-0.94923,0.113558,-0.986782,-0.115614,-0.952006,0.276032,-0.132253,0.286009,0.956141,-0.063189,0.109011,-0.097982,-0.9892,-0.94548,-0.143083,0.292566,-0.305241,0.076088,-0.94923,0.113558,-0.986782,-0.115614,-0.952006,0.276032,-0.132253,0.286009,0.956141,-0.063189,0.109011,-0.097982,-0.9892,-80624.0,-27663.0,12764.0,-82406.0,30424.0,11982.0,-1986.0,2130.0,-59208.0,0.0,-20653.0,-20668.0,-19587.0,-19705.0,4022.0,-2135.0,-9275.0,0.0,-7712.0,-2723.0,-2299.0,-3911.0,68.0,155.0,-45.0,0.0,829.0,114.0,-36.0,15.0,-92.0,-155.0,45.0,0.0,-144.0,-61.0,638.0,-745.0,-0.018546,-0.042166,0.012264,0.0,0.030371,0.004201,0.001332,0.000552,-0.024945,-0.041984,0.012195,0.0,-0.005279,-0.002259,-0.023364,-0.027281,4258.350098,11384.100586,51156.988281,0.0,-17617.681641,-17579.160156,17958.240234,-17187.480469,4437.0,11341.799805,50863.589844,0.0,17037.359375,17467.109375,-17144.550781,17788.320312,0.0,0.0,0.0,0.0,0.0,0.0,0.0,0.0,0.0,0.0,0.0,0.0,0.0,0.0,0.0,0.0,0.0,0.0,0.0,0.0,0.0,0.0,0.0,0.0,0.0,0.0,0.0,0.0,0.0,0.0,0.0,0.0,4258.31543,11384.054688,51157.085938,0.0,-17617.683594,-17579.162109,17958.322266,-17187.582031,4436.96582,11341.714844,50863.691406,0.0,17037.810547,17467.115234,-17144.480469,17788.482422,31.266024,89.131264,22.735561,0.0,-5.580266,0.935556,40.763092,44.951397,32.577736,88.592072,22.593771,0.0,-83.202858,-2.178769,39.148521,32.471203,1.496,1.249,-45329.0,-128620.0,-509203.0,0.0,175099.0,174656.0,-179949.0,171267.0,-45278.0,-128155.0,-574426.0,0.0,-197016.0,-196802.0,192794.0,-201559.0,0.0,0.0,0.0,0.0,0.0,0.0,0.0,0.0,0.0,0.0,0.0,0.0,0.0,0.0,0.0,0.0,0.0,0.0,0.0,0.0,0.0,0.0,0.0,0.0
47,3.4274990558624268,31.266277,89.131599,22.735512,0.0,-5.580009,0.93583,40.753826,44.962749,32.577988,88.592728,22.593716,0.0,-83.286629,-2.179308,39.140984,32.452938,3.0,1.0,111.0,0.0,1.0,-80624.0,-27663.0,12764.0,-82406.0,30424.0,11982.0,-0.94548,-0.143083,0.292566,-0.305241,0.076088,-0.94923,0.113558,-0.986782,-0.115614,-0.952006,0.276032,-0.132253,0.286009,0.956141,-0.063189,0.109011,-0.097982,-0.9892,-0.94548,-0.143083,0.292566,-0.305241,0.076088,-0.94923,0.113558,-0.986782,-0.115614,-0.952006,0.276032,-0.132253,0.286009,0.956141,-0.063189,0.109011,-0.097982,-0.9892,-80624.0,-27663.0,12764.0,-82406.0,30424.0,11982.0,-1986.0,2130.0,-59208.0,0.0,-20653.0,-20668.0,-19587.0,-19705.0,4022.0,-2135.0,-9275.0,0.0,-7712.0,-2723.0,-2299.0,-3911.0,68.0,155.0,-45.0,0.0,829.0,114.0,-36.0,14.0,-92.0,-155.0,45.0,0.0,-143.0,-61.0,638.0,-745.0,-0.018546,-0.042166,0.012264,0.0,0.030371,0.0042,0.001337,0.000545,-0.024945,-0.041984,0.012195,0.0,-0.005252,-0.002259,-0.02336,-0.027271,4258.350098,11384.100586,51156.988281,0.0,-17617.681641,-17579.160156,17958.240234,-17187.480469,4437.0,11341.799805,50863.589844,0.0,17037.359375,17467.109375,-17144.550781,17788.320312,0.0,0.0,0.0,0.0,0.0,0.0,0.0,0.0,0.0,0.0,0.0,0.0,0.0,0.0,0.0,0.0,0.0,0.0,0.0,0.0,0.0,0.0,0.0,0.0,0.0,0.0,0.0,0.0,0.0,0.0,0.0,0.0,4258.31543,11384.054688,51157.085938,0.0,-17617.683594,-17579.162109,17958.322266,-17187.582031,4436.96582,11341.714844,50863.691406,0.0,17037.810547,17467.115234,-17144.480469,17788.482422,31.266024,89.131264,22.735561,0.0,-5.580266,0.935556,40.763092,44.951397,32.577736,88.592072,22.593771,0.0,-83.202858,-2.178769,39.148521,32.471203,1.496,1.249,-45329.0,-128620.0,-509203.0,0.0,175099.0,174656.0,-179949.0,171267.0,-45278.0,-128155.0,-574426.0,0.0,-197016.0,-196802.0,192794.0,-201559.0,0.0,0.0,0.0,0.0,0.0,0.0,0.0,0.0,0.0,0.0,0.0,0.0,0.0,0.0,0.0,0.0,0.0,0.0,0.0,0.0,0.0,0.0,0.0,0.0
48,3.4995429515838623,31.266277,89.131599,22.735512,0.0,-5.580009,0.93583,40.753826,44.962749,32.577988,88.592728,22.593716,0.0,-83.286629,-2.179308,39.140984,32.452938,3.0,1.0,111.0,0.0,1.0,-80624.0,-27663.0,12764.0,-82406.0,30424.0,11982.0,-0.94548,-0.143083,0.292566,-0.305241,0.076088,-0.94923,0.113558,-0.986782,-0.115614,-0.952006,0.276032,-0.132253,0.286009,0.956141,-0.063189,0.109011,-0.097982,-0.9892,-0.94548,-0.143083,0.292566,-0.305241,0.076088,-0.94923,0.113558,-0.986782,-0.115614,-0.952006,0.276032,-0.132253,0.286009,0.956141,-0.063189,0.109011,-0.097982,-0.9892,-80624.0,-27663.0,12764.0,-82406.0,30424.0,11982.0,-1986.0,2130.0,-59208.0,0.0,-20653.0,-20668.0,-19587.0,-19705.0,4022.0,-2135.0,-9275.0,0.0,-7712.0,-2723.0,-2299.0,-3911.0,68.0,155.0,-45.0,0.0,829.0,114.0,-36.0,14.0,-92.0,-155.0,45.0,0.0,-142.0,-61.0,638.0,-744.0,-0.018546,-0.042166,0.012264,0.0,0.03037,0.0042,0.001342,0.000539,-0.024945,-0.041984,0.012195,0.0,-0.005223,-0.002259,-0.023355,-0.027261,4258.350098,11384.100586,51156.988281,0.0,-17617.681641,-17579.160156,17958.240234,-17187.480469,4437.0,11341.799805,50863.589844,0.0,17037.359375,17467.109375,-17144.550781,17788.320312,0.0,0.0,0.0,0.0,0.0,0.0,0.0,0.0,0.0,0.0,0.0,0.0,0.0,0.0,0.0,0.0,0.0,0.0,0.0,0.0,0.0,0.0,0.0,0.0,0.0,0.0,0.0,0.0,0.0,0.0,0.0,0.0,4258.31543,11384.054688,51157.085938,0.0,-17617.683594,-17579.162109,17958.322266,-17187.582031,4436.96582,11341.714844,50863.691406,0.0,17037.810547,17467.115234,-17144.480469,17788.482422,31.266024,89.131264,22.735561,0.0,-5.580266,0.935556,40.763092,44.951397,32.577736,88.592072,22.593771,0.0,-83.202858,-2.178769,39.148521,32.471203,1.496,1.249,-45329.0,-128620.0,-509203.0,0.0,175099.0,174656.0,-179949.0,171267.0,-45278.0,-128155.0,-574426.0,0.0,-197016.0,-196802.0,192794.0,-201559.0,0.0,0.0,0.0,0.0,0.0,0.0,0.0,0.0,0.0,0.0,0.0,0.0,0.0,0.0,0.0,0.0,0.0,0.0,0.0,0.0,0.0,0.0,0.0,0.0
49,3.5685389041900635,31.266277,89.131599,22.735512,0.0,-5.580009,0.93583,40.753826,44.962749,32.577988,88.592728,22.593716,0.0,-83.269783,-2.179308,39.140984,32.452938,3.0,1.0,111.0,0.0,1.0,-80624.0,-27663.0,12764.0,-82406.0,30424.0,11982.0,-0.94548,-0.143083,0.292566,-0.305241,0.076088,-0.94923,0.113558,-0.986782,-0.115614,-0.952005,0.276081,-0.132156,0.286019,0.956156,-0.062913,0.108993,-0.097693,-0.98923,-0.94548,-0.143083,0.292566,-0.305241,0.076088,-0.94923,0.113558,-0.986782,-0.115614,-0.952005,0.276081,-0.132156,0.286019,0.956156,-0.062913,0.108993,-0.097693,-0.98923,-80624.0,-27663.0,12764.0,-82406.0,30424.0,11982.0,-1986.0,2130.0,-59208.0,0.0,-20653.0,-20668.0,-19587.0,-19705.0,4022.0,-2135.0,-9275.0,0.0,-7711.0,-2723.0,-2299.0,-3911.0,68.0,155.0,-45.0,0.0,829.0,114.0,-36.0,14.0,-92.0,-155.0,45.0,0.0,-146.0,-61.0,638.0,-744.0,-0.018546,-0.042166,0.012264,0.0,0.03037,0.0042,0.001347,0.000533,-0.024945,-0.041984,0.012195,0.0,-0.005344,-0.002258,-0.023351,-0.027251,4258.350098,11384.100586,51156.988281,0.0,-17617.681641,-17579.160156,17958.240234,-17187.480469,4437.0,11341.799805,50863.589844,0.0,17037.451172,17467.109375,-17144.550781,17788.320312,0.0,0.0,0.0,0.0,0.0,0.0,0.0,0.0,0.0,0.0,0.0,0.0,0.0,0.0,0.0,0.0,0.0,0.0,0.0,0.0,0.0,0.0,0.0,0.0,0.0,0.0,0.0,0.0,0.0,0.0,0.0,0.0,4258.31543,11384.054688,51157.085938,0.0,-17617.683594,-17579.162109,17958.322266,-17187.582031,4436.96582,11341.714844,50863.691406,0.0,17037.810547,17467.115234,-17144.480469,17788.482422,31.266024,89.131264,22.735561,0.0,-5.580266,0.935556,40.763092,44.951397,32.577736,88.592072,22.593771,0.0,-83.202858,-2.178769,39.148521,32.471203,1.496,1.249,-45329.0,-128620.0,-509203.0,0.0,175099.0,174656.0,-179949.0,171267.0,-45278.0,-128155.0,-574426.0,0.0,-197016.0,-196802.0,192794.0,-201559.0,0.0,0.0,0.0,0.0,0.0,0.0,0.0,0.0,0.0,0.0,0.0,0.0,0.0,0.0,0.0,0.0,0.0,0.0,0.0,0.0,0.0,0.0,0.0,0.0
50,3.6394999027252197,31.266277,89.131599,22.735512,0.0,-5.580009,0.93583,40.753826,44.962749,32.577988,88.592728,22.593716,0.0,-83.269783,-2.179308,39.140984,32.452938,3.0,1.0,111.0,0.0,1.0,-80624.0,-27663.0,12764.0,-82406.0,30424.0,11982.0,-0.94548,-0.143083,0.292566,-0.305241,0.076088,-0.94923,0.113558,-0.986782,-0.115614,-0.952005,0.276081,-0.132156,0.286019,0.956156,-0.062913,0.108993,-0.097693,-0.98923,-0.94548,-0.143083,0.292566,-0.305241,0.076088,-0.94923,0.113558,-0.986782,-0.115614,-0.952005,0.276081,-0.132156,0.286019,0.956156,-0.062913,0.108993,-0.097693,-0.98923,-80624.0,-27663.0,12764.0,-82406.0,30424.0,11982.0,-1986.0,2130.0,-59208.0,0.0,-20653.0,-20668.0,-19587.0,-19705.0,4022.0,-2135.0,-9275.0,0.0,-7711.0,-2723.0,-2299.0,-3911.0,68.0,155.0,-45.0,0.0,829.0,114.0,-36.0,14.0,-92.0,-155.0,45.0,0.0,-145.0,-61.0,638.0,-744.0,-0.018546,-0.042166,0.012264,0.0,0.03037,0.0042,0.001352,0.000527,-0.024945,-0.041984,0.012195,0.0,-0.005321,-0.002258,-0.023347,-0.027241,4258.350098,11384.100586,51156.988281,0.0,-17617.681641,-17579.160156,17958.240234,-17187.480469,4437.0,11341.799805,50863.589844,0.0,17037.451172,17467.109375,-17144.550781,17788.320312,0.0,0.0,0.0,0.0,0.0,0.0,0.0,0.0,0.0,0.0,0.0,0.0,0.0,0.0,0.0,0.0,0.0,0.0,0.0,0.0,0.0,0.0,0.0,0.0,0.0,0.0,0.0,0.0,0.0,0.0,0.0,0.0,4258.31543,11384.054688,51157.085938,0.0,-17617.683594,-17579.162109,17958.322266,-17187.582031,4436.96582,11341.714844,50863.691406,0.0,17037.810547,17467.115234,-17144.480469,17788.482422,31.266024,89.131264,22.735561,0.0,-5.580266,0.935556,40.763092,44.951397,32.577736,88.592072,22.593771,0.0,-83.202858,-2.178769,39.148521,32.471203,1.496,1.249,-45329.0,-128620.0,-509203.0,0.0,175099.0,174656.0,-179949.0,171267.0,-45278.0,-128155.0,-574426.0,0.0,-197016.0,-196802.0,192794.0,-201559.0,0.0,0.0,0.0,0.0,0.0,0.0,0.0,0.0,0.0,0.0,0.0,0.0,0.0,0.0,0.0,0.0,0.0,0.0,0.0,0.0,0.0,0.0,0.0,0.0
