MHC-RobotSimulators-Research/Data_Analysis_MotionReplication/mai_plotter/raven_data/with_offsets/twoarm_p5_phys2.csv
,time,jpos0,jpos1,jpos2,jpos3,jpos4,jpos5,jpos6,jpos7,jpos8,jpos9,jpos10,jpos11,jpos12,jpos13,jpos14,jpos15,runlevel,sublevel,last_seq,type0,type1,pos0,pos1,pos2,pos3,pos4,pos5,ori0,ori1,ori2,ori3,ori4,ori5,ori6,ori7,ori8,ori9,ori10,ori11,ori12,ori13,ori14,ori15,ori16,ori17,ori_d0,ori_d1,ori_d2,ori_d3,ori_d4,ori_d5,ori_d6,ori_d7,ori_d8,ori_d9,ori_d10,ori_d11,ori_d12,ori_d13,ori_d14,ori_d15,ori_d16,ori_d17,pos_d0,pos_d1,pos_d2,pos_d3,pos_d4,pos_d5,encVals0,encVals1,encVals2,encVals3,encVals4,encVals5,encVals6,encVals7,encVals8,encVals9,encVals10,encVals11,encVals12,encVals13,encVals14,encVals15,dac_vals0,dac_vals1,dac_vals2,dac_vals3,dac_vals4,dac_vals5,dac_vals6,dac_vals7,dac_vals8,dac_vals9,dac_vals10,dac_vals11,dac_vals12,dac_vals13,dac_vals14,dac_vals15,Tau0,Tau1,Tau2,Tau3,Tau4,Tau5,Tau6,Tau7,Tau8,Tau9,Tau10,Tau11,Tau12,Tau13,Tau14,Tau15,mpos0,mpos1,mpos2,mpos3,mpos4,mpos5,mpos6,mpos7,mpos8,mpos9,mpos10,mpos11,mpos12,mpos13,mpos14,mpos15,mvel0,mvel1,mvel2,mvel3,mvel4,mvel5,mvel6,mvel7,mvel8,mvel9,mvel10,mvel11,mvel12,mvel13,mvel14,mvel15,jvel0,jvel1,jvel2,jvel3,jvel4,jvel5,jvel6,jvel7,jvel8,jvel9,jvel10,jvel11,jvel12,jvel13,jvel14,jvel15,mpos_d0,mpos_d1,mpos_d2,mpos_d3,mpos_d4,mpos_d5,mpos_d6,mpos_d7,mpos_d8,mpos_d9,mpos_d10,mpos_d11,mpos_d12,mpos_d13,mpos_d14,mpos_d15,jpos_d0,jpos_d1,jpos_d2,jpos_d3,jpos_d4,jpos_d5,jpos_d6,jpos_d7,jpos_d8,jpos_d9,jpos_d10,jpos_d11,jpos_d12,jpos_d13,jpos_d14,jpos_d15,grasp_d0,grasp_d1,encoffsets0,encoffsets1,encoffsets2,encoffsets3,encoffsets4,encoffsets5,encoffsets6,encoffsets7,encoffsets8,encoffsets9,encoffsets10,encoffsets11,encoffsets12,encoffsets13,encoffsets14,encoffsets15,jac_vel0,jac_vel1,jac_vel2,jac_vel3,jac_vel4,jac_vel5,jac_vel6,jac_vel7,jac_vel8,jac_vel9,jac_vel10,jac_vel11,jac_f0,jac_f1,jac_f2,jac_f3,jac_f4,jac_f5,jac_f6,jac_f7,jac_f8,jac_f9,jac_f10,jac_f11
0,0.0,30.658995,89.67688,22.821234,0.0,-82.213409,3.399107,28.571356,33.844303,30.733004,89.603905,22.85556,0.0,-87.920853,-1.086497,34.41888,29.788288,3.0,1.0,111.0,0.0,1.0,-79484.0,-26418.0,12412.0,-78785.0,26509.0,12717.0,-0.936998,0.292747,0.190616,-0.339053,-0.893513,-0.294409,0.08413,-0.34049,0.936477,-0.950826,0.250716,-0.181856,0.275007,0.953501,-0.123316,0.142482,-0.167264,-0.975562,-0.93701,0.292471,0.190979,-0.339035,-0.893083,-0.295732,0.084067,-0.341852,0.935986,-0.9509,0.251045,-0.181015,0.274794,0.953912,-0.120579,0.142402,-0.1644,-0.976061,-79485.0,-26417.0,12412.0,-78785.0,26510.0,12717.0,-1067.0,1513.0,-61256.0,0.0,-25951.0,-21126.0,-19197.0,-21643.0,1230.0,-1132.0,-3144.0,0.0,-5882.0,-506.0,226.0,-2124.0,57.0,160.0,-44.0,0.0,-688.0,-257.0,535.0,-453.0,-58.0,-158.0,45.0,0.0,-249.0,-591.0,571.0,-848.0,-0.015668,-0.043321,0.012123,0.0,-0.02521,-0.009435,-0.01958,-0.016581,-0.015906,-0.042834,0.012203,0.0,-0.009133,-0.021651,-0.020896,-0.031033,4175.640137,11439.629883,51341.3125,0.0,-18094.501953,-17620.380859,17923.140625,-17361.900391,4185.720215,11432.070312,51415.378906,0.0,17202.060547,17666.640625,-17371.800781,17949.150391,0.0,0.0,0.0,0.0,0.0,0.0,0.0,0.0,0.0,0.0,0.0,0.0,0.0,0.0,0.0,0.0,0.0,0.0,0.0,0.0,0.0,0.0,0.0,0.0,0.0,0.0,0.0,0.0,0.0,0.0,0.0,0.0,4175.621094,11439.519531,51341.347656,0.0,-18094.052734,-17620.388672,17923.255859,-17361.685547,4185.729492,11432.037109,51415.445312,0.0,17202.960938,17666.642578,-17371.310547,17949.367188,30.658852,89.676003,22.821259,0.0,-82.13031,3.398372,28.584629,33.867771,30.733074,89.603622,22.855593,0.0,-87.754089,-1.086289,34.473358,29.812506,1.09,1.122,-45329.0,-128620.0,-509203.0,0.0,175099.0,174656.0,-179949.0,171267.0,-45278.0,-128155.0,-574426.0,0.0,-197016.0,-196802.0,192794.0,-201559.0,0.0,0.0,0.0,0.0,0.0,0.0,0.0,0.0,0.0,0.0,0.0,0.0,0.0,0.0,0.0,0.0,0.0,0.0,0.0,0.0,0.0,0.0,0.0,0.0
1,0.08094000816345215,30.658995,89.67688,22.821234,0.0,-82.213409,3.399107,28.571356,33.844303,30.733004,89.603905,22.85556,0.0,-87.920853,-1.086497,34.41888,29.788288,3.0,1.0,111.0,0.0,1.0,-79484.0,-26418.0,12412.0,-78785.0,26509.0,12717.0,-0.936998,0.292747,0.190616,-0.339053,-0.893513,-0.294409,0.08413,-0.34049,0.936477,-0.950826,0.250716,-0.181856,0.275007,0.953501,-0.123316,0.142482,-0.167264,-0.975562,-0.936998,0.292747,0.190616,-0.339053,-0.893513,-0.294409,0.08413,-0.34049,0.936477,-0.950826,0.250716,-0.181856,0.275007,0.953501,-0.123316,0.142482,-0.167264,-0.975562,-79484.0,-26418.0,12412.0,-78785.0,26509.0,12717.0,-1067.0,1513.0,-61256.0,0.0,-25951.0,-21126.0,-19197.0,-21643.0,1230.0,-1132.0,-3144.0,0.0,-5882.0,-506.0,226.0,-2124.0,57.0,160.0,-44.0,0.0,-688.0,-257.0,534.0,-452.0,-58.0,-158.0,45.0,0.0,-247.0,-591.0,570.0,-847.0,-0.015668,-0.043321,0.012123,0.0,-0.025178,-0.009435,-0.019572,-0.016566,-0.015906,-0.042834,0.012203,0.0,-0.009069,-0.021651,-0.020862,-0.031017,4175.640137,11439.629883,51341.3125,0.0,-18094.501953,-17620.380859,17923.140625,-17361.900391,4185.720215,11432.070312,51415.378906,0.0,17202.060547,17666.640625,-17371.800781,17949.150391,0.0,0.0,0.0,0.0,0.0,0.0,0.0,0.0,0.0,0.0,0.0,0.0,0.0,0.0,0.0,0.0,0.0,0.0,0.0,0.0,0.0,0.0,0.0,0.0,0.0,0.0,0.0,0.0,0.0,0.0,0.0,0.0,4175.621094,11439.519531,51341.347656,0.0,-18094.052734,-17620.388672,17923.255859,-17361.685547,4185.729492,11432.037109,51415.445312,0.0,17202.960938,17666.642578,-17371.310547,17949.367188,30.658852,89.676003,22.821259,0.0,-82.13031,3.398372,28.584629,33.867771,30.733074,89.603622,22.855593,0.0,-87.754089,-1.086289,34.473358,29.812506,1.089,1.12,-45329.0,-128620.0,-509203.0,0.0,175099.0,174656.0,-179949.0,171267.0,-45278.0,-128155.0,-574426.0,0.0,-197016.0,-196802.0,192794.0,-201559.0,0.0,0.0,0.0,0.0,0.0,0.0,0.0,0.0,0.0,0.0,0.0,0.0,0.0,0.0,0.0,0.0,0.0,0.0,0.0,0.0,0.0,0.0,0.0,0.0
2,0.1628868579864502,30.658995,89.67688,22.821234,0.0,-82.213409,3.399107,28.571356,33.844303,30.733004,89.603905,22.85556,0.0,-87.920853,-1.086497,34.41888,29.788288,3.0,1.0,111.0,0.0,1.0,-79484.0,-26418.0,12412.0,-78785.0,26509.0,12717.0,-0.936998,0.292747,0.190616,-0.339053,-0.893513,-0.294409,0.08413,-0.34049,0.936477,-0.950826,0.250716,-0.181856,0.275007,0.953501,-0.123316,0.142482,-0.167264,-0.975562,-0.936998,0.292747,0.190616,-0.339053,-0.893513,-0.294409,0.08413,-0.34049,0.936477,-0.950826,0.250716,-0.181856,0.275007,0.953501,-0.123316,0.142482,-0.167264,-0.975562,-79484.0,-26418.0,12412.0,-78785.0,26509.0,12717.0,-1067.0,1513.0,-61256.0,0.0,-25951.0,-21126.0,-19197.0,-21643.0,1230.0,-1132.0,-3144.0,0.0,-5882.0,-506.0,226.0,-2124.0,57.0,160.0,-44.0,0.0,-687.0,-257.0,534.0,-452.0,-58.0,-158.0,45.0,0.0,-246.0,-591.0,569.0,-847.0,-0.015668,-0.043321,0.012123,0.0,-0.025146,-0.009436,-0.019563,-0.01655,-0.015906,-0.042834,0.012203,0.0,-0.009004,-0.021651,-0.020827,-0.031002,4175.640137,11439.629883,51341.3125,0.0,-18094.501953,-17620.380859,17923.140625,-17361.900391,4185.720215,11432.070312,51415.378906,0.0,17202.060547,17666.640625,-17371.800781,17949.150391,0.0,0.0,0.0,0.0,0.0,0.0,0.0,0.0,0.0,0.0,0.0,0.0,0.0,0.0,0.0,0.0,0.0,0.0,0.0,0.0,0.0,0.0,0.0,0.0,0.0,0.0,0.0,0.0,0.0,0.0,0.0,0.0,4175.621094,11439.519531,51341.347656,0.0,-18094.052734,-17620.388672,17923.255859,-17361.685547,4185.729492,11432.037109,51415.445312,0.0,17202.960938,17666.642578,-17371.310547,17949.367188,30.658852,89.676003,22.821259,0.0,-82.13031,3.398372,28.584629,33.867771,30.733074,89.603622,22.855593,0.0,-87.754089,-1.086289,34.473358,29.812506,1.089,1.12,-45329.0,-128620.0,-509203.0,0.0,175099.0,174656.0,-179949.0,171267.0,-45278.0,-128155.0,-574426.0,0.0,-197016.0,-196802.0,192794.0,-201559.0,0.0,0.0,0.0,0.0,0.0,0.0,0.0,0.0,0.0,0.0,0.0,0.0,0.0,0.0,0.0,0.0,0.0,0.0,0.0,0.0,0.0,0.0,0.0,0.0
3,0.24090003967285156,30.658995,89.67688,22.821234,0.0,-82.213409,3.399107,28.571356,33.844303,30.733004,89.603905,22.85556,0.0,-87.920853,-1.086497,34.41888,29.788288,3.0,1.0,111.0,0.0,1.0,-79484.0,-26418.0,12412.0,-78785.0,26509.0,12717.0,-0.936998,0.292747,0.190616,-0.339053,-0.893513,-0.294409,0.08413,-0.34049,0.936477,-0.950826,0.250716,-0.181856,0.275007,0.953501,-0.123316,0.142482,-0.167264,-0.975562,-0.936998,0.292747,0.190616,-0.339053,-0.893513,-0.294409,0.08413,-0.34049,0.936477,-0.950826,0.250716,-0.181856,0.275007,0.953501,-0.123316,0.142482,-0.167264,-0.975562,-79484.0,-26418.0,12412.0,-78785.0,26509.0,12717.0,-1067.0,1513.0,-61256.0,0.0,-25951.0,-21126.0,-19197.0,-21643.0,1230.0,-1132.0,-3144.0,0.0,-5882.0,-506.0,226.0,-2124.0,57.0,160.0,-44.0,0.0,-686.0,-257.0,534.0,-451.0,-58.0,-158.0,45.0,0.0,-244.0,-591.0,568.0,-846.0,-0.015668,-0.043321,0.012123,0.0,-0.025116,-0.009436,-0.019555,-0.016536,-0.015906,-0.042834,0.012203,0.0,-0.008943,-0.021651,-0.020793,-0.030987,4175.640137,11439.629883,51341.3125,0.0,-18094.501953,-17620.380859,17923.140625,-17361.900391,4185.720215,11432.070312,51415.378906,0.0,17202.060547,17666.640625,-17371.800781,17949.150391,0.0,0.0,0.0,0.0,0.0,0.0,0.0,0.0,0.0,0.0,0.0,0.0,0.0,0.0,0.0,0.0,0.0,0.0,0.0,0.0,0.0,0.0,0.0,0.0,0.0,0.0,0.0,0.0,0.0,0.0,0.0,0.0,4175.621094,11439.519531,51341.347656,0.0,-18094.052734,-17620.388672,17923.255859,-17361.685547,4185.729492,11432.037109,51415.445312,0.0,17202.960938,17666.642578,-17371.310547,17949.367188,30.658852,89.676003,22.821259,0.0,-82.13031,3.398372,28.584629,33.867771,30.733074,89.603622,22.855593,0.0,-87.754089,-1.086289,34.473358,29.812506,1.089,1.12,-45329.0,-128620.0,-509203.0,0.0,175099.0,174656.0,-179949.0,171267.0,-45278.0,-128155.0,-574426.0,0.0,-197016.0,-196802.0,192794.0,-201559.0,0.0,0.0,0.0,0.0,0.0,0.0,0.0,0.0,0.0,0.0,0.0,0.0,0.0,0.0,0.0,0.0,0.0,0.0,0.0,0.0,0.0,0.0,0.0,0.0
4,0.32000303268432617,30.658995,89.67688,22.821234,0.0,-82.213409,3.399107,28.571356,33.844303,30.733004,89.603905,22.85556,0.0,-87.920853,-1.086497,34.41888,29.788288,3.0,1.0,111.0,0.0,1.0,-79484.0,-26418.0,12412.0,-78785.0,26509.0,12717.0,-0.936998,0.292747,0.190616,-0.339053,-0.893513,-0.294409,0.08413,-0.34049,0.936477,-0.950826,0.250716,-0.181856,0.275007,0.953501,-0.123316,0.142482,-0.167264,-0.975562,-0.936998,0.292747,0.190616,-0.339053,-0.893513,-0.294409,0.08413,-0.34049,0.936477,-0.950826,0.250716,-0.181856,0.275007,0.953501,-0.123316,0.142482,-0.167264,-0.975562,-79484.0,-26418.0,12412.0,-78785.0,26509.0,12717.0,-1067.0,1513.0,-61256.0,0.0,-25951.0,-21126.0,-19197.0,-21643.0,1230.0,-1132.0,-3144.0,0.0,-5882.0,-506.0,226.0,-2124.0,57.0,160.0,-44.0,0.0,-685.0,-257.0,534.0,-451.0,-58.0,-158.0,45.0,0.0,-242.0,-591.0,567.0,-846.0,-0.015668,-0.043321,0.012123,0.0,-0.025085,-0.009437,-0.019547,-0.016521,-0.015906,-0.042834,0.012203,0.0,-0.008881,-0.021651,-0.020759,-0.030972,4175.640137,11439.629883,51341.3125,0.0,-18094.501953,-17620.380859,17923.140625,-17361.900391,4185.720215,11432.070312,51415.378906,0.0,17202.060547,17666.640625,-17371.800781,17949.150391,0.0,0.0,0.0,0.0,0.0,0.0,0.0,0.0,0.0,0.0,0.0,0.0,0.0,0.0,0.0,0.0,0.0,0.0,0.0,0.0,0.0,0.0,0.0,0.0,0.0,0.0,0.0,0.0,0.0,0.0,0.0,0.0,4175.621094,11439.519531,51341.347656,0.0,-18094.052734,-17620.388672,17923.255859,-17361.685547,4185.729492,11432.037109,51415.445312,0.0,17202.960938,17666.642578,-17371.310547,17949.367188,30.658852,89.676003,22.821259,0.0,-82.13031,3.398372,28.584629,33.867771,30.733074,89.603622,22.855593,0.0,-87.754089,-1.086289,34.473358,29.812506,1.089,1.12,-45329.0,-128620.0,-509203.0,0.0,175099.0,174656.0,-179949.0,171267.0,-45278.0,-128155.0,-574426.0,0.0,-197016.0,-196802.0,192794.0,-201559.0,0.0,0.0,0.0,0.0,0.0,0.0,0.0,0.0,0.0,0.0,0.0,0.0,0.0,0.0,0.0,0.0,0.0,0.0,0.0,0.0,0.0,0.0,0.0,0.0
5,0.3989980220794678,30.658995,89.67688,22.821234,0.0,-82.213409,3.399107,28.571356,33.844303,30.733004,89.603905,22.85556,0.0,-87.90432,-1.086497,34.41888,29.788288,3.0,1.0,111.0,0.0,1.0,-79484.0,-26418.0,12412.0,-78785.0,26509.0,12717.0,-0.936998,0.292747,0.190616,-0.339053,-0.893513,-0.294409,0.08413,-0.34049,0.936477,-0.950827,0.250773,-0.181772,0.27501,0.953535,-0.123045,0.14247,-0.166983,-0.975612,-0.936998,0.292747,0.190616,-0.339053,-0.893513,-0.294409,0.08413,-0.34049,0.936477,-0.950827,0.250773,-0.181772,0.27501,0.953535,-0.123045,0.14247,-0.166983,-0.975612,-79484.0,-26418.0,12412.0,-78785.0,26509.0,12717.0,-1067.0,1513.0,-61256.0,0.0,-25951.0,-21126.0,-19197.0,-21643.0,1230.0,-1132.0,-3144.0,0.0,-5881.0,-506.0,226.0,-2124.0,57.0,160.0,-44.0,0.0,-684.0,-257.0,533.0,-451.0,-58.0,-158.0,45.0,0.0,-244.0,-591.0,566.0,-846.0,-0.015668,-0.043321,0.012123,0.0,-0.025054,-0.009437,-0.019539,-0.016506,-0.015906,-0.042834,0.012203,0.0,-0.008961,-0.02165,-0.020725,-0.030958,4175.640137,11439.629883,51341.3125,0.0,-18094.501953,-17620.380859,17923.140625,-17361.900391,4185.720215,11432.070312,51415.378906,0.0,17202.150391,17666.640625,-17371.800781,17949.150391,0.0,0.0,0.0,0.0,0.0,0.0,0.0,0.0,0.0,0.0,0.0,0.0,0.0,0.0,0.0,0.0,0.0,0.0,0.0,0.0,0.0,0.0,0.0,0.0,0.0,0.0,0.0,0.0,0.0,0.0,0.0,0.0,4175.621094,11439.519531,51341.347656,0.0,-18094.052734,-17620.388672,17923.255859,-17361.685547,4185.729492,11432.037109,51415.445312,0.0,17202.960938,17666.642578,-17371.310547,17949.367188,30.658852,89.676003,22.821259,0.0,-82.13031,3.398372,28.584629,33.867771,30.733074,89.603622,22.855593,0.0,-87.754089,-1.086289,34.473358,29.812506,1.089,1.12,-45329.0,-128620.0,-509203.0,0.0,175099.0,174656.0,-179949.0,171267.0,-45278.0,-128155.0,-574426.0,0.0,-197016.0,-196802.0,192794.0,-201559.0,0.0,0.0,0.0,0.0,0.0,0.0,0.0,0.0,0.0,0.0,0.0,0.0,0.0,0.0,0.0,0.0,0.0,0.0,0.0,0.0,0.0,0.0,0.0,0.0
6,0.4920330047607422,30.658995,89.67688,22.821234,0.0,-82.213409,3.399107,28.571356,33.844303,30.733004,89.603905,22.85556,0.0,-87.90432,-1.086497,34.41888,29.788288,3.0,1.0,111.0,0.0,1.0,-79484.0,-26418.0,12412.0,-78785.0,26509.0,12717.0,-0.936998,0.292747,0.190616,-0.339053,-0.893513,-0.294409,0.08413,-0.34049,0.936477,-0.950827,0.250773,-0.181772,0.27501,0.953535,-0.123045,0.14247,-0.166983,-0.975612,-0.936998,0.292747,0.190616,-0.339053,-0.893513,-0.294409,0.08413,-0.34049,0.936477,-0.950827,0.250773,-0.181772,0.27501,0.953535,-0.123045,0.14247,-0.166983,-0.975612,-79484.0,-26418.0,12412.0,-78785.0,26509.0,12717.0,-1067.0,1513.0,-61256.0,0.0,-25951.0,-21126.0,-19197.0,-21643.0,1230.0,-1132.0,-3144.0,0.0,-5881.0,-506.0,226.0,-2124.0,57.0,160.0,-44.0,0.0,-683.0,-257.0,533.0,-450.0,-58.0,-158.0,45.0,0.0,-243.0,-591.0,565.0,-845.0,-0.015668,-0.043321,0.012123,0.0,-0.025018,-0.009438,-0.01953,-0.016488,-0.015906,-0.042834,0.012203,0.0,-0.008895,-0.02165,-0.020685,-0.03094,4175.640137,11439.629883,51341.3125,0.0,-18094.501953,-17620.380859,17923.140625,-17361.900391,4185.720215,11432.070312,51415.378906,0.0,17202.150391,17666.640625,-17371.800781,17949.150391,0.0,0.0,0.0,0.0,0.0,0.0,0.0,0.0,0.0,0.0,0.0,0.0,0.0,0.0,0.0,0.0,0.0,0.0,0.0,0.0,0.0,0.0,0.0,0.0,0.0,0.0,0.0,0.0,0.0,0.0,0.0,0.0,4175.621094,11439.519531,51341.347656,0.0,-18094.052734,-17620.388672,17923.255859,-17361.685547,4185.729492,11432.037109,51415.445312,0.0,17202.960938,17666.642578,-17371.310547,17949.367188,30.658852,89.676003,22.821259,0.0,-82.13031,3.398372,28.584629,33.867771,30.733074,89.603622,22.855593,0.0,-87.754089,-1.086289,34.473358,29.812506,1.089,1.12,-45329.0,-128620.0,-509203.0,0.0,175099.0,174656.0,-179949.0,171267.0,-45278.0,-128155.0,-574426.0,0.0,-197016.0,-196802.0,192794.0,-201559.0,0.0,0.0,0.0,0.0,0.0,0.0,0.0,0.0,0.0,0.0,0.0,0.0,0.0,0.0,0.0,0.0,0.0,0.0,0.0,0.0,0.0,0.0,0.0,0.0
7,0.5680370330810547,30.658995,89.67688,22.821234,0.0,-82.213409,3.399107,28.571356,33.844303,30.733004,89.603905,22.85556,0.0,-87.90432,-1.086497,34.41888,29.788288,3.0,1.0,111.0,0.0,1.0,-79484.0,-26418.0,12412.0,-78785.0,26509.0,12717.0,-0.936998,0.292747,0.190616,-0.339053,-0.893513,-0.294409,0.08413,-0.34049,0.936477,-0.950827,0.250773,-0.181772,0.27501,0.953535,-0.123045,0.14247,-0.166983,-0.975612,-0.936998,0.292747,0.190616,-0.339053,-0.893513,-0.294409,0.08413,-0.34049,0.936477,-0.950827,0.250773,-0.181772,0.27501,0.953535,-0.123045,0.14247,-0.166983,-0.975612,-79484.0,-26418.0,12412.0,-78785.0,26509.0,12717.0,-1067.0,1513.0,-61256.0,0.0,-25951.0,-21126.0,-19197.0,-21643.0,1230.0,-1132.0,-3144.0,0.0,-5881.0,-506.0,226.0,-2124.0,57.0,160.0,-44.0,0.0,-682.0,-257.0,533.0,-450.0,-58.0,-158.0,45.0,0.0,-241.0,-591.0,564.0,-845.0,-0.015668,-0.043321,0.012123,0.0,-0.024988,-0.009438,-0.019522,-0.016474,-0.015906,-0.042834,0.012203,0.0,-0.008841,-0.02165,-0.020653,-0.030926,4175.640137,11439.629883,51341.3125,0.0,-18094.501953,-17620.380859,17923.140625,-17361.900391,4185.720215,11432.070312,51415.378906,0.0,17202.150391,17666.640625,-17371.800781,17949.150391,0.0,0.0,0.0,0.0,0.0,0.0,0.0,0.0,0.0,0.0,0.0,0.0,0.0,0.0,0.0,0.0,0.0,0.0,0.0,0.0,0.0,0.0,0.0,0.0,0.0,0.0,0.0,0.0,0.0,0.0,0.0,0.0,4175.621094,11439.519531,51341.347656,0.0,-18094.052734,-17620.388672,17923.255859,-17361.685547,4185.729492,11432.037109,51415.445312,0.0,17202.960938,17666.642578,-17371.310547,17949.367188,30.658852,89.676003,22.821259,0.0,-82.13031,3.398372,28.584629,33.867771,30.733074,89.603622,22.855593,0.0,-87.754089,-1.086289,34.473358,29.812506,1.089,1.12,-45329.0,-128620.0,-509203.0,0.0,175099.0,174656.0,-179949.0,171267.0,-45278.0,-128155.0,-574426.0,0.0,-197016.0,-196802.0,192794.0,-201559.0,0.0,0.0,0.0,0.0,0.0,0.0,0.0,0.0,0.0,0.0,0.0,0.0,0.0,0.0,0.0,0.0,0.0,0.0,0.0,0.0,0.0,0.0,0.0,0.0
8,0.6410088539123535,30.658995,89.67688,22.821234,0.0,-82.213409,3.399107,28.571356,33.844303,30.733004,89.603905,22.85556,0.0,-87.90432,-1.086497,34.41888,29.788288,3.0,1.0,111.0,0.0,1.0,-79484.0,-26418.0,12412.0,-78785.0,26509.0,12717.0,-0.936998,0.292747,0.190616,-0.339053,-0.893513,-0.294409,0.08413,-0.34049,0.936477,-0.950827,0.250773,-0.181772,0.27501,0.953535,-0.123045,0.14247,-0.166983,-0.975612,-0.936998,0.292747,0.190616,-0.339053,-0.893513,-0.294409,0.08413,-0.34049,0.936477,-0.950827,0.250773,-0.181772,0.27501,0.953535,-0.123045,0.14247,-0.166983,-0.975612,-79484.0,-26418.0,12412.0,-78785.0,26509.0,12717.0,-1067.0,1513.0,-61256.0,0.0,-25951.0,-21126.0,-19197.0,-21643.0,1230.0,-1132.0,-3144.0,0.0,-5881.0,-506.0,226.0,-2124.0,57.0,160.0,-44.0,0.0,-682.0,-257.0,533.0,-449.0,-58.0,-158.0,45.0,0.0,-240.0,-591.0,563.0,-844.0,-0.015668,-0.043321,0.012123,0.0,-0.02496,-0.009439,-0.019515,-0.01646,-0.015906,-0.042834,0.012203,0.0,-0.008789,-0.02165,-0.020621,-0.030912,4175.640137,11439.629883,51341.3125,0.0,-18094.501953,-17620.380859,17923.140625,-17361.900391,4185.720215,11432.070312,51415.378906,0.0,17202.150391,17666.640625,-17371.800781,17949.150391,0.0,0.0,0.0,0.0,0.0,0.0,0.0,0.0,0.0,0.0,0.0,0.0,0.0,0.0,0.0,0.0,0.0,0.0,0.0,0.0,0.0,0.0,0.0,0.0,0.0,0.0,0.0,0.0,0.0,0.0,0.0,0.0,4175.621094,11439.519531,51341.347656,0.0,-18094.052734,-17620.388672,17923.255859,-17361.685547,4185.729492,11432.037109,51415.445312,0.0,17202.960938,17666.642578,-17371.310547,17949.367188,30.658852,89.676003,22.821259,0.0,-82.13031,3.398372,28.584629,33.867771,30.733074,89.603622,22.855593,0.0,-87.754089,-1.086289,34.473358,29.812506,1.089,1.12,-45329.0,-128620.0,-509203.0,0.0,175099.0,174656.0,-179949.0,171267.0,-45278.0,-128155.0,-574426.0,0.0,-197016.0,-196802.0,192794.0,-201559.0,0.0,0.0,0.0,0.0,0.0,0.0,0.0,0.0,0.0,0.0,0.0,0.0,0.0,0.0,0.0,0.0,0.0,0.0,0.0,0.0,0.0,0.0,0.0,0.0
9,0.7260138988494873,30.658995,89.67688,22.821234,0.0,-82.213409,3.399107,28.571356,33.844303,30.733004,89.603905,22.85556,0.0,-87.90432,-1.086497,34.41888,29.788288,3.0,1.0,111.0,0.0,1.0,-79484.0,-26418.0,12412.0,-78785.0,26509.0,12717.0,-0.936998,0.292747,0.190616,-0.339053,-0.893513,-0.294409,0.08413,-0.34049,0.936477,-0.950827,0.250773,-0.181772,0.27501,0.953535,-0.123045,0.14247,-0.166983,-0.975612,-0.936998,0.292747,0.190616,-0.339053,-0.893513,-0.294409,0.08413,-0.34049,0.936477,-0.950827,0.250773,-0.181772,0.27501,0.953535,-0.123045,0.14247,-0.166983,-0.975612,-79484.0,-26418.0,12412.0,-78785.0,26509.0,12717.0,-1067.0,1513.0,-61256.0,0.0,-25951.0,-21126.0,-19197.0,-21643.0,1230.0,-1132.0,-3144.0,0.0,-5881.0,-506.0,226.0,-2124.0,57.0,158.0,-45.0,0.0,-700.0,-257.0,538.0,-456.0,-59.0,-158.0,45.0,0.0,-274.0,-591.0,578.0,-853.0,-0.015613,-0.042992,0.012343,0.0,-0.025647,-0.009436,-0.019696,-0.016721,-0.01605,-0.042902,0.012294,0.0,-0.010027,-0.021648,-0.021175,-0.031238,4175.640137,11439.629883,51341.3125,0.0,-18094.501953,-17620.380859,17923.140625,-17361.900391,4185.720215,11432.070312,51415.378906,0.0,17202.150391,17666.640625,-17371.800781,17949.150391,0.0,0.0,0.0,0.0,0.0,0.0,0.0,0.0,0.0,0.0,0.0,0.0,0.0,0.0,0.0,0.0,0.0,0.0,0.0,0.0,0.0,0.0,0.0,0.0,0.0,0.0,0.0,0.0,0.0,0.0,0.0,0.0,4175.631348,11439.583008,51341.433594,0.0,-18094.503906,-17620.384766,17923.044922,-17361.992188,4185.702148,11432.024414,51415.480469,0.0,17202.152344,17666.642578,-17371.962891,17948.988281,30.65893,89.676506,22.821293,0.0,-82.213646,3.39879,28.561058,33.834045,30.73287,89.603554,22.855612,0.0,-87.903969,-1.086195,34.400795,29.770479,1.089,1.12,-45329.0,-128620.0,-509203.0,0.0,175099.0,174656.0,-179949.0,171267.0,-45278.0,-128155.0,-574426.0,0.0,-197016.0,-196802.0,192794.0,-201559.0,0.0,0.0,0.0,0.0,0.0,0.0,0.0,0.0,0.0,0.0,0.0,0.0,0.0,0.0,0.0,0.0,0.0,0.0,0.0,0.0,0.0,0.0,0.0,0.0
10,0.7979919910430908,30.658995,89.67688,22.821234,0.0,-82.213409,3.399107,28.571356,33.844303,30.733004,89.603905,22.85556,0.0,-87.90432,-1.086497,34.41888,29.788288,3.0,1.0,111.0,0.0,1.0,-79484.0,-26418.0,12412.0,-78785.0,26509.0,12717.0,-0.936998,0.292747,0.190616,-0.339053,-0.893513,-0.294409,0.08413,-0.34049,0.936477,-0.950827,0.250773,-0.181772,0.27501,0.953535,-0.123045,0.14247,-0.166983,-0.975612,-0.936998,0.292747,0.190616,-0.339053,-0.893513,-0.294409,0.08413,-0.34049,0.936477,-0.950827,0.250773,-0.181772,0.27501,0.953535,-0.123045,0.14247,-0.166983,-0.975612,-79484.0,-26418.0,12412.0,-78785.0,26509.0,12717.0,-1067.0,1513.0,-61256.0,0.0,-25951.0,-21126.0,-19197.0,-21643.0,1230.0,-1132.0,-3144.0,0.0,-5881.0,-506.0,226.0,-2124.0,57.0,158.0,-45.0,0.0,-700.0,-257.0,538.0,-457.0,-59.0,-158.0,45.0,0.0,-274.0,-591.0,578.0,-853.0,-0.015613,-0.042992,0.012343,0.0,-0.025647,-0.009436,-0.019702,-0.016727,-0.01605,-0.042902,0.012294,0.0,-0.010027,-0.021648,-0.021185,-0.031248,4175.640137,11439.629883,51341.3125,0.0,-18094.501953,-17620.380859,17923.140625,-17361.900391,4185.720215,11432.070312,51415.378906,0.0,17202.150391,17666.640625,-17371.800781,17949.150391,0.0,0.0,0.0,0.0,0.0,0.0,0.0,0.0,0.0,0.0,0.0,0.0,0.0,0.0,0.0,0.0,0.0,0.0,0.0,0.0,0.0,0.0,0.0,0.0,0.0,0.0,0.0,0.0,0.0,0.0,0.0,0.0,4175.631348,11439.583008,51341.433594,0.0,-18094.503906,-17620.384766,17923.044922,-17361.992188,4185.702148,11432.024414,51415.480469,0.0,17202.152344,17666.642578,-17371.962891,17948.988281,30.65893,89.676506,22.821293,0.0,-82.213646,3.39879,28.561058,33.834045,30.73287,89.603554,22.855612,0.0,-87.903969,-1.086195,34.400795,29.770479,1.089,1.12,-45329.0,-128620.0,-509203.0,0.0,175099.0,174656.0,-179949.0,171267.0,-45278.0,-128155.0,-574426.0,0.0,-197016.0,-196802.0,192794.0,-201559.0,0.0,0.0,0.0,0.0,0.0,0.0,0.0,0.0,0.0,0.0,0.0,0.0,0.0,0.0,0.0,0.0,0.0,0.0,0.0,0.0,0.0,0.0,0.0,0.0
11,0.8719968795776367,30.658995,89.67688,22.821234,0.0,-82.213409,3.399107,28.571356,33.844303,30.733004,89.603905,22.85556,0.0,-87.90432,-1.086497,34.41888,29.788288,3.0,1.0,111.0,0.0,1.0,-79484.0,-26418.0,12412.0,-78785.0,26509.0,12717.0,-0.936998,0.292747,0.190616,-0.339053,-0.893513,-0.294409,0.08413,-0.34049,0.936477,-0.950827,0.250773,-0.181772,0.27501,0.953535,-0.123045,0.14247,-0.166983,-0.975612,-0.936998,0.292747,0.190616,-0.339053,-0.893513,-0.294409,0.08413,-0.34049,0.936477,-0.950827,0.250773,-0.181772,0.27501,0.953535,-0.123045,0.14247,-0.166983,-0.975612,-79484.0,-26418.0,12412.0,-78785.0,26509.0,12717.0,-1067.0,1513.0,-61256.0,0.0,-25951.0,-21126.0,-19197.0,-21643.0,1230.0,-1132.0,-3144.0,0.0,-5881.0,-506.0,226.0,-2124.0,57.0,158.0,-45.0,0.0,-700.0,-257.0,538.0,-457.0,-59.0,-158.0,45.0,0.0,-274.0,-591.0,579.0,-854.0,-0.015613,-0.042992,0.012343,0.0,-0.025647,-0.009436,-0.019708,-0.016733,-0.01605,-0.042902,0.012294,0.0,-0.010027,-0.021648,-0.021196,-0.031258,4175.640137,11439.629883,51341.3125,0.0,-18094.501953,-17620.380859,17923.140625,-17361.900391,4185.720215,11432.070312,51415.378906,0.0,17202.150391,17666.640625,-17371.800781,17949.150391,0.0,0.0,0.0,0.0,0.0,0.0,0.0,0.0,0.0,0.0,0.0,0.0,0.0,0.0,0.0,0.0,0.0,0.0,0.0,0.0,0.0,0.0,0.0,0.0,0.0,0.0,0.0,0.0,0.0,0.0,0.0,0.0,4175.631348,11439.583008,51341.433594,0.0,-18094.503906,-17620.384766,17923.044922,-17361.992188,4185.702148,11432.024414,51415.480469,0.0,17202.152344,17666.642578,-17371.962891,17948.988281,30.65893,89.676506,22.821293,0.0,-82.213646,3.39879,28.561058,33.834045,30.73287,89.603554,22.855612,0.0,-87.903969,-1.086195,34.400795,29.770479,1.089,1.12,-45329.0,-128620.0,-509203.0,0.0,175099.0,174656.0,-179949.0,171267.0,-45278.0,-128155.0,-574426.0,0.0,-197016.0,-196802.0,192794.0,-201559.0,0.0,0.0,0.0,0.0,0.0,0.0,0.0,0.0,0.0,0.0,0.0,0.0,0.0,0.0,0.0,0.0,0.0,0.0,0.0,0.0,0.0,0.0,0.0,0.0
12,0.9459998607635498,30.658995,89.67688,22.821234,0.0,-82.213409,3.399107,28.571356,33.844303,30.733004,89.603905,22.85556,0.0,-87.90432,-1.086497,34.41888,29.788288,3.0,1.0,111.0,0.0,1.0,-79484.0,-26418.0,12412.0,-78785.0,26509.0,12717.0,-0.936998,0.292747,0.190616,-0.339053,-0.893513,-0.294409,0.08413,-0.34049,0.936477,-0.950827,0.250773,-0.181772,0.27501,0.953535,-0.123045,0.14247,-0.166983,-0.975612,-0.936998,0.292747,0.190616,-0.339053,-0.893513,-0.294409,0.08413,-0.34049,0.936477,-0.950827,0.250773,-0.181772,0.27501,0.953535,-0.123045,0.14247,-0.166983,-0.975612,-79484.0,-26418.0,12412.0,-78785.0,26509.0,12717.0,-1067.0,1513.0,-61256.0,0.0,-25951.0,-21126.0,-19197.0,-21643.0,1230.0,-1132.0,-3144.0,0.0,-5881.0,-506.0,226.0,-2124.0,57.0,158.0,-45.0,0.0,-700.0,-257.0,538.0,-457.0,-59.0,-158.0,45.0,0.0,-274.0,-591.0,579.0,-854.0,-0.015613,-0.042992,0.012343,0.0,-0.025648,-0.009437,-0.019714,-0.016739,-0.01605,-0.042902,0.012294,0.0,-0.010027,-0.021648,-0.021206,-0.031269,4175.640137,11439.629883,51341.3125,0.0,-18094.501953,-17620.380859,17923.140625,-17361.900391,4185.720215,11432.070312,51415.378906,0.0,17202.150391,17666.640625,-17371.800781,17949.150391,0.0,0.0,0.0,0.0,0.0,0.0,0.0,0.0,0.0,0.0,0.0,0.0,0.0,0.0,0.0,0.0,0.0,0.0,0.0,0.0,0.0,0.0,0.0,0.0,0.0,0.0,0.0,0.0,0.0,0.0,0.0,0.0,4175.631348,11439.583008,51341.433594,0.0,-18094.503906,-17620.384766,17923.044922,-17361.992188,4185.702148,11432.024414,51415.480469,0.0,17202.152344,17666.642578,-17371.962891,17948.988281,30.65893,89.676506,22.821293,0.0,-82.213646,3.39879,28.561058,33.834045,30.73287,89.603554,22.855612,0.0,-87.903969,-1.086195,34.400795,29.770479,1.089,1.12,-45329.0,-128620.0,-509203.0,0.0,175099.0,174656.0,-179949.0,171267.0,-45278.0,-128155.0,-574426.0,0.0,-197016.0,-196802.0,192794.0,-201559.0,0.0,0.0,0.0,0.0,0.0,0.0,0.0,0.0,0.0,0.0,0.0,0.0,0.0,0.0,0.0,0.0,0.0,0.0,0.0,0.0,0.0,0.0,0.0,0.0
13,1.0429978370666504,30.658995,89.67688,22.821234,0.0,-82.213409,3.399107,28.571356,33.844303,30.733004,89.603905,22.85556,0.0,-87.90432,-1.086497,34.41888,29.788288,3.0,1.0,111.0,0.0,1.0,-79484.0,-26418.0,12412.0,-78785.0,26509.0,12717.0,-0.936998,0.292747,0.190616,-0.339053,-0.893513,-0.294409,0.08413,-0.34049,0.936477,-0.950827,0.250773,-0.181772,0.27501,0.953535,-0.123045,0.14247,-0.166983,-0.975612,-0.936998,0.292747,0.190616,-0.339053,-0.893513,-0.294409,0.08413,-0.34049,0.936477,-0.950827,0.250773,-0.181772,0.27501,0.953535,-0.123045,0.14247,-0.166983,-0.975612,-79484.0,-26418.0,12412.0,-78785.0,26509.0,12717.0,-1067.0,1513.0,-61256.0,0.0,-25951.0,-21126.0,-19197.0,-21643.0,1230.0,-1132.0,-3144.0,0.0,-5881.0,-506.0,226.0,-2124.0,57.0,158.0,-45.0,0.0,-700.0,-257.0,538.0,-457.0,-59.0,-158.0,45.0,0.0,-274.0,-591.0,579.0,-854.0,-0.015613,-0.042992,0.012343,0.0,-0.025648,-0.009437,-0.019722,-0.016746,-0.01605,-0.042902,0.012294,0.0,-0.010027,-0.021647,-0.02122,-0.031282,4175.640137,11439.629883,51341.3125,0.0,-18094.501953,-17620.380859,17923.140625,-17361.900391,4185.720215,11432.070312,51415.378906,0.0,17202.150391,17666.640625,-17371.800781,17949.150391,0.0,0.0,0.0,0.0,0.0,0.0,0.0,0.0,0.0,0.0,0.0,0.0,0.0,0.0,0.0,0.0,0.0,0.0,0.0,0.0,0.0,0.0,0.0,0.0,0.0,0.0,0.0,0.0,0.0,0.0,0.0,0.0,4175.631348,11439.583008,51341.433594,0.0,-18094.503906,-17620.384766,17923.044922,-17361.992188,4185.702148,11432.024414,51415.480469,0.0,17202.152344,17666.642578,-17371.962891,17948.988281,30.65893,89.676506,22.821293,0.0,-82.213646,3.39879,28.561058,33.834045,30.73287,89.603554,22.855612,0.0,-87.903969,-1.086195,34.400795,29.770479,1.089,1.12,-45329.0,-128620.0,-509203.0,0.0,175099.0,174656.0,-179949.0,171267.0,-45278.0,-128155.0,-574426.0,0.0,-197016.0,-196802.0,192794.0,-201559.0,0.0,0.0,0.0,0.0,0.0,0.0,0.0,0.0,0.0,0.0,0.0,0.0,0.0,0.0,0.0,0.0,0.0,0.0,0.0,0.0,0.0,0.0,0.0,0.0
14,1.113999843597412,30.658995,89.67688,22.821234,0.0,-82.213409,3.399107,28.571356,33.844303,30.733004,89.603905,22.85556,0.0,-87.90432,-1.086497,34.41888,29.788288,3.0,1.0,111.0,0.0,1.0,-79484.0,-26418.0,12412.0,-78785.0,26509.0,12717.0,-0.936998,0.292747,0.190616,-0.339053,-0.893513,-0.294409,0.08413,-0.34049,0.936477,-0.950827,0.250773,-0.181772,0.27501,0.953535,-0.123045,0.14247,-0.166983,-0.975612,-0.936998,0.292747,0.190616,-0.339053,-0.893513,-0.294409,0.08413,-0.34049,0.936477,-0.950827,0.250773,-0.181772,0.27501,0.953535,-0.123045,0.14247,-0.166983,-0.975612,-79484.0,-26418.0,12412.0,-78785.0,26509.0,12717.0,-1067.0,1513.0,-61256.0,0.0,-25951.0,-21126.0,-19197.0,-21643.0,1230.0,-1132.0,-3144.0,0.0,-5881.0,-506.0,226.0,-2124.0,57.0,158.0,-45.0,0.0,-700.0,-257.0,539.0,-457.0,-59.0,-158.0,45.0,0.0,-274.0,-591.0,580.0,-855.0,-0.015613,-0.042992,0.012343,0.0,-0.025648,-0.009437,-0.019728,-0.016752,-0.01605,-0.042902,0.012294,0.0,-0.010026,-0.021647,-0.021229,-0.031292,4175.640137,11439.629883,51341.3125,0.0,-18094.501953,-17620.380859,17923.140625,-17361.900391,4185.720215,11432.070312,51415.378906,0.0,17202.150391,17666.640625,-17371.800781,17949.150391,0.0,0.0,0.0,0.0,0.0,0.0,0.0,0.0,0.0,0.0,0.0,0.0,0.0,0.0,0.0,0.0,0.0,0.0,0.0,0.0,0.0,0.0,0.0,0.0,0.0,0.0,0.0,0.0,0.0,0.0,0.0,0.0,4175.631348,11439.583008,51341.433594,0.0,-18094.503906,-17620.384766,17923.044922,-17361.992188,4185.702148,11432.024414,51415.480469,0.0,17202.152344,17666.642578,-17371.962891,17948.988281,30.65893,89.676506,22.821293,0.0,-82.213646,3.39879,28.561058,33.834045,30.73287,89.603554,22.855612,0.0,-87.903969,-1.086195,34.400795,29.770479,1.089,1.12,-45329.0,-128620.0,-509203.0,0.0,175099.0,174656.0,-179949.0,171267.0,-45278.0,-128155.0,-574426.0,0.0,-197016.0,-196802.0,192794.0,-201559.0,0.0,0.0,0.0,0.0,0.0,0.0,0.0,0.0,0.0,0.0,0.0,0.0,0.0,0.0,0.0,0.0,0.0,0.0,0.0,0.0,0.0,0.0,0.0,0.0
15,1.1838898658752441,30.658995,89.67688,22.821234,0.0,-82.213409,3.399107,28.571356,33.844303,30.733004,89.603905,22.85556,0.0,-87.90432,-1.086497,34.41888,29.788288,3.0,1.0,111.0,0.0,1.0,-79484.0,-26418.0,12412.0,-78785.0,26509.0,12717.0,-0.936998,0.292747,0.190616,-0.339053,-0.893513,-0.294409,0.08413,-0.34049,0.936477,-0.950827,0.250773,-0.181772,0.27501,0.953535,-0.123045,0.14247,-0.166983,-0.975612,-0.936998,0.292747,0.190616,-0.339053,-0.893513,-0.294409,0.08413,-0.34049,0.936477,-0.950827,0.250773,-0.181772,0.27501,0.953535,-0.123045,0.14247,-0.166983,-0.975612,-79484.0,-26418.0,12412.0,-78785.0,26509.0,12717.0,-1067.0,1513.0,-61256.0,0.0,-25951.0,-21126.0,-19197.0,-21643.0,1230.0,-1132.0,-3144.0,0.0,-5881.0,-506.0,226.0,-2124.0,57.0,158.0,-45.0,0.0,-700.0,-257.0,539.0,-457.0,-59.0,-158.0,45.0,0.0,-274.0,-591.0,580.0,-855.0,-0.015613,-0.042992,0.012343,0.0,-0.025648,-0.009437,-0.019734,-0.016758,-0.01605,-0.042902,0.012294,0.0,-0.010026,-0.021647,-0.021239,-0.031302,4175.640137,11439.629883,51341.3125,0.0,-18094.501953,-17620.380859,17923.140625,-17361.900391,4185.720215,11432.070312,51415.378906,0.0,17202.150391,17666.640625,-17371.800781,17949.150391,0.0,0.0,0.0,0.0,0.0,0.0,0.0,0.0,0.0,0.0,0.0,0.0,0.0,0.0,0.0,0.0,0.0,0.0,0.0,0.0,0.0,0.0,0.0,0.0,0.0,0.0,0.0,0.0,0.0,0.0,0.0,0.0,4175.631348,11439.583008,51341.433594,0.0,-18094.503906,-17620.384766,17923.044922,-17361.992188,4185.702148,11432.024414,51415.480469,0.0,17202.152344,17666.642578,-17371.962891,17948.988281,30.65893,89.676506,22.821293,0.0,-82.213646,3.39879,28.561058,33.834045,30.73287,89.603554,22.855612,0.0,-87.903969,-1.086195,34.400795,29.770479,1.089,1.12,-45329.0,-128620.0,-509203.0,0.0,175099.0,174656.0,-179949.0,171267.0,-45278.0,-128155.0,-574426.0,0.0,-197016.0,-196802.0,192794.0,-201559.0,0.0,0.0,0.0,0.0,0.0,0.0,0.0,0.0,0.0,0.0,0.0,0.0,0.0,0.0,0.0,0.0,0.0,0.0,0.0,0.0,0.0,0.0,0.0,0.0
16,1.2551028728485107,30.658995,89.67688,22.821234,0.0,-82.213409,3.399107,28.571356,33.844303,30.733004,89.603905,22.85556,0.0,-87.90432,-1.086497,34.41888,29.788288,3.0,1.0,111.0,0.0,1.0,-79484.0,-26418.0,12412.0,-78785.0,26509.0,12717.0,-0.936998,0.292747,0.190616,-0.339053,-0.893513,-0.294409,0.08413,-0.34049,0.936477,-0.950827,0.250773,-0.181772,0.27501,0.953535,-0.123045,0.14247,-0.166983,-0.975612,-0.936998,0.292747,0.190616,-0.339053,-0.893513,-0.294409,0.08413,-0.34049,0.936477,-0.950827,0.250773,-0.181772,0.27501,0.953535,-0.123045,0.14247,-0.166983,-0.975612,-79484.0,-26418.0,12412.0,-78785.0,26509.0,12717.0,-1067.0,1513.0,-61256.0,0.0,-25951.0,-21126.0,-19197.0,-21643.0,1230.0,-1132.0,-3144.0,0.0,-5881.0,-506.0,226.0,-2124.0,57.0,158.0,-45.0,0.0,-700.0,-257.0,539.0,-458.0,-59.0,-158.0,45.0,0.0,-273.0,-591.0,580.0,-855.0,-0.015613,-0.042992,0.012343,0.0,-0.025649,-0.009438,-0.019739,-0.016763,-0.01605,-0.042902,0.012294,0.0,-0.010026,-0.021647,-0.021249,-0.031312,4175.640137,11439.629883,51341.3125,0.0,-18094.501953,-17620.380859,17923.140625,-17361.900391,4185.720215,11432.070312,51415.378906,0.0,17202.150391,17666.640625,-17371.800781,17949.150391,0.0,0.0,0.0,0.0,0.0,0.0,0.0,0.0,0.0,0.0,0.0,0.0,0.0,0.0,0.0,0.0,0.0,0.0,0.0,0.0,0.0,0.0,0.0,0.0,0.0,0.0,0.0,0.0,0.0,0.0,0.0,0.0,4175.631348,11439.583008,51341.433594,0.0,-18094.503906,-17620.384766,17923.044922,-17361.992188,4185.702148,11432.024414,51415.480469,0.0,17202.152344,17666.642578,-17371.962891,17948.988281,30.65893,89.676506,22.821293,0.0,-82.213646,3.39879,28.561058,33.834045,30.73287,89.603554,22.855612,0.0,-87.903969,-1.086195,34.400795,29.770479,1.089,1.12,-45329.0,-128620.0,-509203.0,0.0,175099.0,174656.0,-179949.0,171267.0,-45278.0,-128155.0,-574426.0,0.0,-197016.0,-196802.0,192794.0,-201559.0,0.0,0.0,0.0,0.0,0.0,0.0,0.0,0.0,0.0,0.0,0.0,0.0,0.0,0.0,0.0,0.0,0.0,0.0,0.0,0.0,0.0,0.0,0.0,0.0
17,1.3278868198394775,30.658995,89.67688,22.821234,0.0,-82.213409,3.399107,28.571356,33.844303,30.733004,89.603905,22.85556,0.0,-87.90432,-1.086497,34.41888,29.788288,3.0,1.0,111.0,0.0,1.0,-79484.0,-26418.0,12412.0,-78785.0,26509.0,12717.0,-0.936998,0.292747,0.190616,-0.339053,-0.893513,-0.294409,0.08413,-0.34049,0.936477,-0.950827,0.250773,-0.181772,0.27501,0.953535,-0.123045,0.14247,-0.166983,-0.975612,-0.936998,0.292747,0.190616,-0.339053,-0.893513,-0.294409,0.08413,-0.34049,0.936477,-0.950827,0.250773,-0.181772,0.27501,0.953535,-0.123045,0.14247,-0.166983,-0.975612,-79484.0,-26418.0,12412.0,-78785.0,26509.0,12717.0,-1067.0,1513.0,-61256.0,0.0,-25951.0,-21126.0,-19197.0,-21643.0,1230.0,-1132.0,-3144.0,0.0,-5881.0,-506.0,226.0,-2124.0,57.0,158.0,-45.0,0.0,-700.0,-257.0,539.0,-458.0,-59.0,-158.0,45.0,0.0,-273.0,-591.0,580.0,-855.0,-0.015613,-0.042992,0.012343,0.0,-0.025649,-0.009438,-0.019745,-0.016769,-0.01605,-0.042902,0.012294,0.0,-0.010026,-0.021647,-0.021259,-0.031322,4175.640137,11439.629883,51341.3125,0.0,-18094.501953,-17620.380859,17923.140625,-17361.900391,4185.720215,11432.070312,51415.378906,0.0,17202.150391,17666.640625,-17371.800781,17949.150391,0.0,0.0,0.0,0.0,0.0,0.0,0.0,0.0,0.0,0.0,0.0,0.0,0.0,0.0,0.0,0.0,0.0,0.0,0.0,0.0,0.0,0.0,0.0,0.0,0.0,0.0,0.0,0.0,0.0,0.0,0.0,0.0,4175.631348,11439.583008,51341.433594,0.0,-18094.503906,-17620.384766,17923.044922,-17361.992188,4185.702148,11432.024414,51415.480469,0.0,17202.152344,17666.642578,-17371.962891,17948.988281,30.65893,89.676506,22.821293,0.0,-82.213646,3.39879,28.561058,33.834045,30.73287,89.603554,22.855612,0.0,-87.903969,-1.086195,34.400795,29.770479,1.089,1.12,-45329.0,-128620.0,-509203.0,0.0,175099.0,174656.0,-179949.0,171267.0,-45278.0,-128155.0,-574426.0,0.0,-197016.0,-196802.0,192794.0,-201559.0,0.0,0.0,0.0,0.0,0.0,0.0,0.0,0.0,0.0,0.0,0.0,0.0,0.0,0.0,0.0,0.0,0.0,0.0,0.0,0.0,0.0,0.0,0.0,0.0
18,1.4009859561920166,30.658995,89.67688,22.821234,0.0,-82.213409,3.399107,28.571356,33.844303,30.733004,89.603905,22.85556,0.0,-87.90432,-1.086497,34.41888,29.788288,3.0,1.0,111.0,0.0,1.0,-79484.0,-26418.0,12412.0,-78785.0,26509.0,12717.0,-0.936998,0.292747,0.190616,-0.339053,-0.893513,-0.294409,0.08413,-0.34049,0.936477,-0.950827,0.250773,-0.181772,0.27501,0.953535,-0.123045,0.14247,-0.166983,-0.975612,-0.936998,0.292747,0.190616,-0.339053,-0.893513,-0.294409,0.08413,-0.34049,0.936477,-0.950827,0.250773,-0.181772,0.27501,0.953535,-0.123045,0.14247,-0.166983,-0.975612,-79484.0,-26418.0,12412.0,-78785.0,26509.0,12717.0,-1067.0,1513.0,-61256.0,0.0,-25951.0,-21126.0,-19197.0,-21643.0,1230.0,-1132.0,-3144.0,0.0,-5881.0,-506.0,226.0,-2124.0,57.0,158.0,-45.0,0.0,-700.0,-257.0,539.0,-458.0,-59.0,-158.0,45.0,0.0,-273.0,-591.0,581.0,-856.0,-0.015613,-0.042992,0.012343,0.0,-0.025649,-0.009438,-0.019751,-0.016775,-0.01605,-0.042902,0.012294,0.0,-0.010026,-0.021646,-0.02127,-0.031332,4175.640137,11439.629883,51341.3125,0.0,-18094.501953,-17620.380859,17923.140625,-17361.900391,4185.720215,11432.070312,51415.378906,0.0,17202.150391,17666.640625,-17371.800781,17949.150391,0.0,0.0,0.0,0.0,0.0,0.0,0.0,0.0,0.0,0.0,0.0,0.0,0.0,0.0,0.0,0.0,0.0,0.0,0.0,0.0,0.0,0.0,0.0,0.0,0.0,0.0,0.0,0.0,0.0,0.0,0.0,0.0,4175.631348,11439.583008,51341.433594,0.0,-18094.503906,-17620.384766,17923.044922,-17361.992188,4185.702148,11432.024414,51415.480469,0.0,17202.152344,17666.642578,-17371.962891,17948.988281,30.65893,89.676506,22.821293,0.0,-82.213646,3.39879,28.561058,33.834045,30.73287,89.603554,22.855612,0.0,-87.903969,-1.086195,34.400795,29.770479,1.089,1.12,-45329.0,-128620.0,-509203.0,0.0,175099.0,174656.0,-179949.0,171267.0,-45278.0,-128155.0,-574426.0,0.0,-197016.0,-196802.0,192794.0,-201559.0,0.0,0.0,0.0,0.0,0.0,0.0,0.0,0.0,0.0,0.0,0.0,0.0,0.0,0.0,0.0,0.0,0.0,0.0,0.0,0.0,0.0,0.0,0.0,0.0
19,1.4739229679107666,30.658995,89.67688,22.821234,0.0,-82.213409,3.399107,28.571356,33.844303,30.733004,89.603905,22.85556,0.0,-87.90432,-1.086497,34.41888,29.788288,3.0,1.0,111.0,0.0,1.0,-79484.0,-26418.0,12412.0,-78785.0,26509.0,12717.0,-0.936998,0.292747,0.190616,-0.339053,-0.893513,-0.294409,0.08413,-0.34049,0.936477,-0.950827,0.250773,-0.181772,0.27501,0.953535,-0.123045,0.14247,-0.166983,-0.975612,-0.936998,0.292747,0.190616,-0.339053,-0.893513,-0.294409,0.08413,-0.34049,0.936477,-0.950827,0.250773,-0.181772,0.27501,0.953535,-0.123045,0.14247,-0.166983,-0.975612,-79484.0,-26418.0,12412.0,-78785.0,26509.0,12717.0,-1067.0,1513.0,-61256.0,0.0,-25951.0,-21126.0,-19197.0,-21643.0,1230.0,-1132.0,-3144.0,0.0,-5881.0,-506.0,226.0,-2124.0,57.0,158.0,-45.0,0.0,-700.0,-257.0,539.0,-458.0,-59.0,-158.0,45.0,0.0,-273.0,-591.0,581.0,-856.0,-0.015613,-0.042992,0.012343,0.0,-0.025649,-0.009438,-0.019757,-0.01678,-0.01605,-0.042902,0.012294,0.0,-0.010026,-0.021646,-0.02128,-0.031343,4175.640137,11439.629883,51341.3125,0.0,-18094.501953,-17620.380859,17923.140625,-17361.900391,4185.720215,11432.070312,51415.378906,0.0,17202.150391,17666.640625,-17371.800781,17949.150391,0.0,0.0,0.0,0.0,0.0,0.0,0.0,0.0,0.0,0.0,0.0,0.0,0.0,0.0,0.0,0.0,0.0,0.0,0.0,0.0,0.0,0.0,0.0,0.0,0.0,0.0,0.0,0.0,0.0,0.0,0.0,0.0,4175.631348,11439.583008,51341.433594,0.0,-18094.503906,-17620.384766,17923.044922,-17361.992188,4185.702148,11432.024414,51415.480469,0.0,17202.152344,17666.642578,-17371.962891,17948.988281,30.65893,89.676506,22.821293,0.0,-82.213646,3.39879,28.561058,33.834045,30.73287,89.603554,22.855612,0.0,-87.903969,-1.086195,34.400795,29.770479,1.089,1.12,-45329.0,-128620.0,-509203.0,0.0,175099.0,174656.0,-179949.0,171267.0,-45278.0,-128155.0,-574426.0,0.0,-197016.0,-196802.0,192794.0,-201559.0,0.0,0.0,0.0,0.0,0.0,0.0,0.0,0.0,0.0,0.0,0.0,0.0,0.0,0.0,0.0,0.0,0.0,0.0,0.0,0.0,0.0,0.0,0.0,0.0
20,1.5439000129699707,30.658995,89.67688,22.821234,0.0,-82.213409,3.399107,28.571356,33.844303,30.733004,89.603905,22.85556,0.0,-87.90432,-1.086497,34.41888,29.788288,3.0,1.0,111.0,0.0,1.0,-79484.0,-26418.0,12412.0,-78785.0,26509.0,12717.0,-0.936998,0.292747,0.190616,-0.339053,-0.893513,-0.294409,0.08413,-0.34049,0.936477,-0.950827,0.250773,-0.181772,0.27501,0.953535,-0.123045,0.14247,-0.166983,-0.975612,-0.936998,0.292747,0.190616,-0.339053,-0.893513,-0.294409,0.08413,-0.34049,0.936477,-0.950827,0.250773,-0.181772,0.27501,0.953535,-0.123045,0.14247,-0.166983,-0.975612,-79484.0,-26418.0,12412.0,-78785.0,26509.0,12717.0,-1067.0,1513.0,-61256.0,0.0,-25951.0,-21126.0,-19197.0,-21643.0,1230.0,-1132.0,-3144.0,0.0,-5881.0,-506.0,226.0,-2124.0,57.0,158.0,-45.0,0.0,-700.0,-257.0,540.0,-458.0,-59.0,-158.0,45.0,0.0,-273.0,-591.0,581.0,-856.0,-0.015613,-0.042992,0.012343,0.0,-0.025649,-0.009438,-0.019763,-0.016786,-0.01605,-0.042902,0.012294,0.0,-0.010026,-0.021646,-0.02129,-0.031352,4175.640137,11439.629883,51341.3125,0.0,-18094.501953,-17620.380859,17923.140625,-17361.900391,4185.720215,11432.070312,51415.378906,0.0,17202.150391,17666.640625,-17371.800781,17949.150391,0.0,0.0,0.0,0.0,0.0,0.0,0.0,0.0,0.0,0.0,0.0,0.0,0.0,0.0,0.0,0.0,0.0,0.0,0.0,0.0,0.0,0.0,0.0,0.0,0.0,0.0,0.0,0.0,0.0,0.0,0.0,0.0,4175.631348,11439.583008,51341.433594,0.0,-18094.503906,-17620.384766,17923.044922,-17361.992188,4185.702148,11432.024414,51415.480469,0.0,17202.152344,17666.642578,-17371.962891,17948.988281,30.65893,89.676506,22.821293,0.0,-82.213646,3.39879,28.561058,33.834045,30.73287,89.603554,22.855612,0.0,-87.903969,-1.086195,34.400795,29.770479,1.089,1.12,-45329.0,-128620.0,-509203.0,0.0,175099.0,174656.0,-179949.0,171267.0,-45278.0,-128155.0,-574426.0,0.0,-197016.0,-196802.0,192794.0,-201559.0,0.0,0.0,0.0,0.0,0.0,0.0,0.0,0.0,0.0,0.0,0.0,0.0,0.0,0.0,0.0,0.0,0.0,0.0,0.0,0.0,0.0,0.0,0.0,0.0
21,1.6238420009613037,30.658995,89.67688,22.821234,0.0,-82.213409,3.399107,28.571356,33.844303,30.733004,89.603905,22.85556,0.0,-87.90432,-1.086497,34.41888,29.788288,3.0,1.0,111.0,0.0,1.0,-79484.0,-26418.0,12412.0,-78785.0,26509.0,12717.0,-0.936998,0.292747,0.190616,-0.339053,-0.893513,-0.294409,0.08413,-0.34049,0.936477,-0.950827,0.250773,-0.181772,0.27501,0.953535,-0.123045,0.14247,-0.166983,-0.975612,-0.936998,0.292747,0.190616,-0.339053,-0.893513,-0.294409,0.08413,-0.34049,0.936477,-0.950827,0.250773,-0.181772,0.27501,0.953535,-0.123045,0.14247,-0.166983,-0.975612,-79484.0,-26418.0,12412.0,-78785.0,26509.0,12717.0,-1067.0,1513.0,-61256.0,0.0,-25951.0,-21126.0,-19197.0,-21643.0,1230.0,-1132.0,-3144.0,0.0,-5881.0,-506.0,226.0,-2124.0,57.0,158.0,-45.0,0.0,-700.0,-257.0,540.0,-458.0,-59.0,-158.0,45.0,0.0,-273.0,-591.0,582.0,-857.0,-0.015613,-0.042992,0.012343,0.0,-0.02565,-0.009439,-0.01977,-0.016792,-0.01605,-0.042902,0.012294,0.0,-0.010026,-0.021646,-0.021301,-0.031364,4175.640137,11439.629883,51341.3125,0.0,-18094.501953,-17620.380859,17923.140625,-17361.900391,4185.720215,11432.070312,51415.378906,0.0,17202.150391,17666.640625,-17371.800781,17949.150391,0.0,0.0,0.0,0.0,0.0,0.0,0.0,0.0,0.0,0.0,0.0,0.0,0.0,0.0,0.0,0.0,0.0,0.0,0.0,0.0,0.0,0.0,0.0,0.0,0.0,0.0,0.0,0.0,0.0,0.0,0.0,0.0,4175.631348,11439.583008,51341.433594,0.0,-18094.503906,-17620.384766,17923.044922,-17361.992188,4185.702148,11432.024414,51415.480469,0.0,17202.152344,17666.642578,-17371.962891,17948.988281,30.65893,89.676506,22.821293,0.0,-82.213646,3.39879,28.561058,33.834045,30.73287,89.603554,22.855612,0.0,-87.903969,-1.086195,34.400795,29.770479,1.089,1.12,-45329.0,-128620.0,-509203.0,0.0,175099.0,174656.0,-179949.0,171267.0,-45278.0,-128155.0,-574426.0,0.0,-197016.0,-196802.0,192794.0,-201559.0,0.0,0.0,0.0,0.0,0.0,0.0,0.0,0.0,0.0,0.0,0.0,0.0,0.0,0.0,0.0,0.0,0.0,0.0,0.0,0.0,0.0,0.0,0.0,0.0
22,1.693938970565796,30.658995,89.67688,22.821234,0.0,-82.213409,3.399107,28.571356,33.844303,30.733004,89.603905,22.85556,0.0,-87.90432,-1.086497,34.41888,29.788288,3.0,1.0,111.0,0.0,1.0,-79484.0,-26418.0,12412.0,-78785.0,26509.0,12717.0,-0.936998,0.292747,0.190616,-0.339053,-0.893513,-0.294409,0.08413,-0.34049,0.936477,-0.950827,0.250773,-0.181772,0.27501,0.953535,-0.123045,0.14247,-0.166983,-0.975612,-0.936998,0.292747,0.190616,-0.339053,-0.893513,-0.294409,0.08413,-0.34049,0.936477,-0.950827,0.250773,-0.181772,0.27501,0.953535,-0.123045,0.14247,-0.166983,-0.975612,-79484.0,-26418.0,12412.0,-78785.0,26509.0,12717.0,-1067.0,1513.0,-61256.0,0.0,-25951.0,-21126.0,-19197.0,-21643.0,1230.0,-1132.0,-3144.0,0.0,-5881.0,-506.0,226.0,-2124.0,57.0,158.0,-45.0,0.0,-700.0,-257.0,540.0,-459.0,-59.0,-158.0,45.0,0.0,-273.0,-591.0,582.0,-857.0,-0.015613,-0.042992,0.012343,0.0,-0.02565,-0.009439,-0.019775,-0.016798,-0.01605,-0.042902,0.012294,0.0,-0.010026,-0.021646,-0.021311,-0.031374,4175.640137,11439.629883,51341.3125,0.0,-18094.501953,-17620.380859,17923.140625,-17361.900391,4185.720215,11432.070312,51415.378906,0.0,17202.150391,17666.640625,-17371.800781,17949.150391,0.0,0.0,0.0,0.0,0.0,0.0,0.0,0.0,0.0,0.0,0.0,0.0,0.0,0.0,0.0,0.0,0.0,0.0,0.0,0.0,0.0,0.0,0.0,0.0,0.0,0.0,0.0,0.0,0.0,0.0,0.0,0.0,4175.631348,11439.583008,51341.433594,0.0,-18094.503906,-17620.384766,17923.044922,-17361.992188,4185.702148,11432.024414,51415.480469,0.0,17202.152344,17666.642578,-17371.962891,17948.988281,30.65893,89.676506,22.821293,0.0,-82.213646,3.39879,28.561058,33.834045,30.73287,89.603554,22.855612,0.0,-87.903969,-1.086195,34.400795,29.770479,1.089,1.12,-45329.0,-128620.0,-509203.0,0.0,175099.0,174656.0,-179949.0,171267.0,-45278.0,-128155.0,-574426.0,0.0,-197016.0,-196802.0,192794.0,-201559.0,0.0,0.0,0.0,0.0,0.0,0.0,0.0,0.0,0.0,0.0,0.0,0.0,0.0,0.0,0.0,0.0,0.0,0.0,0.0,0.0,0.0,0.0,0.0,0.0
23,1.7638988494873047,30.658995,89.67688,22.821234,0.0,-82.213409,3.399107,28.571356,33.844303,30.733004,89.603905,22.85556,0.0,-87.90432,-1.086497,34.41888,29.788288,3.0,1.0,111.0,0.0,1.0,-79484.0,-26418.0,12412.0,-78785.0,26509.0,12717.0,-0.936998,0.292747,0.190616,-0.339053,-0.893513,-0.294409,0.08413,-0.34049,0.936477,-0.950827,0.250773,-0.181772,0.27501,0.953535,-0.123045,0.14247,-0.166983,-0.975612,-0.936998,0.292747,0.190616,-0.339053,-0.893513,-0.294409,0.08413,-0.34049,0.936477,-0.950827,0.250773,-0.181772,0.27501,0.953535,-0.123045,0.14247,-0.166983,-0.975612,-79484.0,-26418.0,12412.0,-78785.0,26509.0,12717.0,-1067.0,1513.0,-61256.0,0.0,-25951.0,-21126.0,-19197.0,-21643.0,1230.0,-1132.0,-3144.0,0.0,-5881.0,-506.0,226.0,-2124.0,57.0,158.0,-45.0,0.0,-700.0,-257.0,540.0,-459.0,-59.0,-158.0,45.0,0.0,-273.0,-591.0,582.0,-857.0,-0.015613,-0.042992,0.012343,0.0,-0.02565,-0.009439,-0.019781,-0.016803,-0.01605,-0.042902,0.012294,0.0,-0.010025,-0.021645,-0.021321,-0.031383,4175.640137,11439.629883,51341.3125,0.0,-18094.501953,-17620.380859,17923.140625,-17361.900391,4185.720215,11432.070312,51415.378906,0.0,17202.150391,17666.640625,-17371.800781,17949.150391,0.0,0.0,0.0,0.0,0.0,0.0,0.0,0.0,0.0,0.0,0.0,0.0,0.0,0.0,0.0,0.0,0.0,0.0,0.0,0.0,0.0,0.0,0.0,0.0,0.0,0.0,0.0,0.0,0.0,0.0,0.0,0.0,4175.631348,11439.583008,51341.433594,0.0,-18094.503906,-17620.384766,17923.044922,-17361.992188,4185.702148,11432.024414,51415.480469,0.0,17202.152344,17666.642578,-17371.962891,17948.988281,30.65893,89.676506,22.821293,0.0,-82.213646,3.39879,28.561058,33.834045,30.73287,89.603554,22.855612,0.0,-87.903969,-1.086195,34.400795,29.770479,1.089,1.12,-45329.0,-128620.0,-509203.0,0.0,175099.0,174656.0,-179949.0,171267.0,-45278.0,-128155.0,-574426.0,0.0,-197016.0,-196802.0,192794.0,-201559.0,0.0,0.0,0.0,0.0,0.0,0.0,0.0,0.0,0.0,0.0,0.0,0.0,0.0,0.0,0.0,0.0,0.0,0.0,0.0,0.0,0.0,0.0,0.0,0.0
24,1.844944953918457,30.658995,89.67688,22.821234,0.0,-82.213409,3.399107,28.571356,33.844303,30.733004,89.603905,22.85556,0.0,-87.90432,-1.086497,34.41888,29.788288,3.0,1.0,111.0,0.0,1.0,-79484.0,-26418.0,12412.0,-78785.0,26509.0,12717.0,-0.936998,0.292747,0.190616,-0.339053,-0.893513,-0.294409,0.08413,-0.34049,0.936477,-0.950827,0.250773,-0.181772,0.27501,0.953535,-0.123045,0.14247,-0.166983,-0.975612,-0.936998,0.292747,0.190616,-0.339053,-0.893513,-0.294409,0.08413,-0.34049,0.936477,-0.950827,0.250773,-0.181772,0.27501,0.953535,-0.123045,0.14247,-0.166983,-0.975612,-79484.0,-26418.0,12412.0,-78785.0,26509.0,12717.0,-1067.0,1513.0,-61256.0,0.0,-25951.0,-21126.0,-19197.0,-21643.0,1230.0,-1132.0,-3144.0,0.0,-5881.0,-506.0,226.0,-2124.0,57.0,158.0,-45.0,0.0,-700.0,-257.0,540.0,-459.0,-59.0,-158.0,45.0,0.0,-273.0,-591.0,582.0,-857.0,-0.015613,-0.042992,0.012343,0.0,-0.02565,-0.009439,-0.019788,-0.01681,-0.01605,-0.042902,0.012294,0.0,-0.010025,-0.021645,-0.021332,-0.031395,4175.640137,11439.629883,51341.3125,0.0,-18094.501953,-17620.380859,17923.140625,-17361.900391,4185.720215,11432.070312,51415.378906,0.0,17202.150391,17666.640625,-17371.800781,17949.150391,0.0,0.0,0.0,0.0,0.0,0.0,0.0,0.0,0.0,0.0,0.0,0.0,0.0,0.0,0.0,0.0,0.0,0.0,0.0,0.0,0.0,0.0,0.0,0.0,0.0,0.0,0.0,0.0,0.0,0.0,0.0,0.0,4175.631348,11439.583008,51341.433594,0.0,-18094.503906,-17620.384766,17923.044922,-17361.992188,4185.702148,11432.024414,51415.480469,0.0,17202.152344,17666.642578,-17371.962891,17948.988281,30.65893,89.676506,22.821293,0.0,-82.213646,3.39879,28.561058,33.834045,30.73287,89.603554,22.855612,0.0,-87.903969,-1.086195,34.400795,29.770479,1.089,1.12,-45329.0,-128620.0,-509203.0,0.0,175099.0,174656.0,-179949.0,171267.0,-45278.0,-128155.0,-574426.0,0.0,-197016.0,-196802.0,192794.0,-201559.0,0.0,0.0,0.0,0.0,0.0,0.0,0.0,0.0,0.0,0.0,0.0,0.0,0.0,0.0,0.0,0.0,0.0,0.0,0.0,0.0,0.0,0.0,0.0,0.0
25,1.9148600101470947,30.658995,89.67688,22.821234,0.0,-82.213409,3.399107,28.571356,33.844303,30.733004,89.603905,22.85556,0.0,-87.90432,-1.086497,34.41888,29.788288,3.0,1.0,111.0,0.0,1.0,-79484.0,-26418.0,12412.0,-78785.0,26509.0,12717.0,-0.936998,0.292747,0.190616,-0.339053,-0.893513,-0.294409,0.08413,-0.34049,0.936477,-0.950827,0.250773,-0.181772,0.27501,0.953535,-0.123045,0.14247,-0.166983,-0.975612,-0.936998,0.292747,0.190616,-0.339053,-0.893513,-0.294409,0.08413,-0.34049,0.936477,-0.950827,0.250773,-0.181772,0.27501,0.953535,-0.123045,0.14247,-0.166983,-0.975612,-79484.0,-26418.0,12412.0,-78785.0,26509.0,12717.0,-1067.0,1513.0,-61256.0,0.0,-25951.0,-21126.0,-19197.0,-21643.0,1230.0,-1132.0,-3144.0,0.0,-5881.0,-506.0,226.0,-2124.0,57.0,158.0,-45.0,0.0,-700.0,-257.0,540.0,-459.0,-59.0,-158.0,45.0,0.0,-273.0,-591.0,583.0,-858.0,-0.015613,-0.042992,0.012343,0.0,-0.025651,-0.00944,-0.019794,-0.016815,-0.01605,-0.042902,0.012294,0.0,-0.010025,-0.021645,-0.021342,-0.031404,4175.640137,11439.629883,51341.3125,0.0,-18094.501953,-17620.380859,17923.140625,-17361.900391,4185.720215,11432.070312,51415.378906,0.0,17202.150391,17666.640625,-17371.800781,17949.150391,0.0,0.0,0.0,0.0,0.0,0.0,0.0,0.0,0.0,0.0,0.0,0.0,0.0,0.0,0.0,0.0,0.0,0.0,0.0,0.0,0.0,0.0,0.0,0.0,0.0,0.0,0.0,0.0,0.0,0.0,0.0,0.0,4175.631348,11439.583008,51341.433594,0.0,-18094.503906,-17620.384766,17923.044922,-17361.992188,4185.702148,11432.024414,51415.480469,0.0,17202.152344,17666.642578,-17371.962891,17948.988281,30.65893,89.676506,22.821293,0.0,-82.213646,3.39879,28.561058,33.834045,30.73287,89.603554,22.855612,0.0,-87.903969,-1.086195,34.400795,29.770479,1.089,1.12,-45329.0,-128620.0,-509203.0,0.0,175099.0,174656.0,-179949.0,171267.0,-45278.0,-128155.0,-574426.0,0.0,-197016.0,-196802.0,192794.0,-201559.0,0.0,0.0,0.0,0.0,0.0,0.0,0.0,0.0,0.0,0.0,0.0,0.0,0.0,0.0,0.0,0.0,0.0,0.0,0.0,0.0,0.0,0.0,0.0,0.0
26,1.9918978214263916,30.658995,89.67688,22.821234,0.0,-82.213409,3.399107,28.571356,33.844303,30.733004,89.603905,22.85556,0.0,-87.90432,-1.086497,34.41888,29.788288,3.0,1.0,111.0,0.0,1.0,-79484.0,-26418.0,12412.0,-78785.0,26509.0,12717.0,-0.936998,0.292747,0.190616,-0.339053,-0.893513,-0.294409,0.08413,-0.34049,0.936477,-0.950827,0.250773,-0.181772,0.27501,0.953535,-0.123045,0.14247,-0.166983,-0.975612,-0.936998,0.292747,0.190616,-0.339053,-0.893513,-0.294409,0.08413,-0.34049,0.936477,-0.950827,0.250773,-0.181772,0.27501,0.953535,-0.123045,0.14247,-0.166983,-0.975612,-79484.0,-26418.0,12412.0,-78785.0,26509.0,12717.0,-1067.0,1513.0,-61256.0,0.0,-25951.0,-21126.0,-19197.0,-21643.0,1230.0,-1132.0,-3144.0,0.0,-5881.0,-506.0,226.0,-2124.0,57.0,158.0,-45.0,0.0,-700.0,-257.0,541.0,-459.0,-59.0,-158.0,45.0,0.0,-273.0,-591.0,583.0,-858.0,-0.015613,-0.042992,0.012343,0.0,-0.025651,-0.00944,-0.0198,-0.016821,-0.01605,-0.042902,0.012294,0.0,-0.010025,-0.021645,-0.021352,-0.031415,4175.640137,11439.629883,51341.3125,0.0,-18094.501953,-17620.380859,17923.140625,-17361.900391,4185.720215,11432.070312,51415.378906,0.0,17202.150391,17666.640625,-17371.800781,17949.150391,0.0,0.0,0.0,0.0,0.0,0.0,0.0,0.0,0.0,0.0,0.0,0.0,0.0,0.0,0.0,0.0,0.0,0.0,0.0,0.0,0.0,0.0,0.0,0.0,0.0,0.0,0.0,0.0,0.0,0.0,0.0,0.0,4175.631348,11439.583008,51341.433594,0.0,-18094.503906,-17620.384766,17923.044922,-17361.992188,4185.702148,11432.024414,51415.480469,0.0,17202.152344,17666.642578,-17371.962891,17948.988281,30.65893,89.676506,22.821293,0.0,-82.213646,3.39879,28.561058,33.834045,30.73287,89.603554,22.855612,0.0,-87.903969,-1.086195,34.400795,29.770479,1.089,1.12,-45329.0,-128620.0,-509203.0,0.0,175099.0,174656.0,-179949.0,171267.0,-45278.0,-128155.0,-574426.0,0.0,-197016.0,-196802.0,192794.0,-201559.0,0.0,0.0,0.0,0.0,0.0,0.0,0.0,0.0,0.0,0.0,0.0,0.0,0.0,0.0,0.0,0.0,0.0,0.0,0.0,0.0,0.0,0.0,0.0,0.0
27,2.0618948936462402,30.658995,89.67688,22.821234,0.0,-82.213409,3.399107,28.571356,33.844303,30.733004,89.603905,22.85556,0.0,-87.90432,-1.086497,34.41888,29.788288,3.0,1.0,111.0,0.0,1.0,-79484.0,-26418.0,12412.0,-78785.0,26509.0,12717.0,-0.936998,0.292747,0.190616,-0.339053,-0.893513,-0.294409,0.08413,-0.34049,0.936477,-0.950827,0.250773,-0.181772,0.27501,0.953535,-0.123045,0.14247,-0.166983,-0.975612,-0.936998,0.292747,0.190616,-0.339053,-0.893513,-0.294409,0.08413,-0.34049,0.936477,-0.950827,0.250773,-0.181772,0.27501,0.953535,-0.123045,0.14247,-0.166983,-0.975612,-79484.0,-26418.0,12412.0,-78785.0,26509.0,12717.0,-1067.0,1513.0,-61256.0,0.0,-25951.0,-21126.0,-19197.0,-21643.0,1230.0,-1132.0,-3144.0,0.0,-5881.0,-506.0,226.0,-2124.0,57.0,158.0,-45.0,0.0,-701.0,-257.0,541.0,-459.0,-59.0,-158.0,45.0,0.0,-273.0,-591.0,583.0,-858.0,-0.015613,-0.042992,0.012343,0.0,-0.025651,-0.00944,-0.019806,-0.016827,-0.01605,-0.042902,0.012294,0.0,-0.010025,-0.021644,-0.021362,-0.031425,4175.640137,11439.629883,51341.3125,0.0,-18094.501953,-17620.380859,17923.140625,-17361.900391,4185.720215,11432.070312,51415.378906,0.0,17202.150391,17666.640625,-17371.800781,17949.150391,0.0,0.0,0.0,0.0,0.0,0.0,0.0,0.0,0.0,0.0,0.0,0.0,0.0,0.0,0.0,0.0,0.0,0.0,0.0,0.0,0.0,0.0,0.0,0.0,0.0,0.0,0.0,0.0,0.0,0.0,0.0,0.0,4175.631348,11439.583008,51341.433594,0.0,-18094.503906,-17620.384766,17923.044922,-17361.992188,4185.702148,11432.024414,51415.480469,0.0,17202.152344,17666.642578,-17371.962891,17948.988281,30.65893,89.676506,22.821293,0.0,-82.213646,3.39879,28.561058,33.834045,30.73287,89.603554,22.855612,0.0,-87.903969,-1.086195,34.400795,29.770479,1.089,1.12,-45329.0,-128620.0,-509203.0,0.0,175099.0,174656.0,-179949.0,171267.0,-45278.0,-128155.0,-574426.0,0.0,-197016.0,-196802.0,192794.0,-201559.0,0.0,0.0,0.0,0.0,0.0,0.0,0.0,0.0,0.0,0.0,0.0,0.0,0.0,0.0,0.0,0.0,0.0,0.0,0.0,0.0,0.0,0.0,0.0,0.0
28,2.1329479217529297,30.658995,89.67688,22.821234,0.0,-82.213409,3.399107,28.571356,33.844303,30.733004,89.603905,22.85556,0.0,-87.90432,-1.086497,34.41888,29.788288,3.0,1.0,111.0,0.0,1.0,-79484.0,-26418.0,12412.0,-78785.0,26509.0,12717.0,-0.936998,0.292747,0.190616,-0.339053,-0.893513,-0.294409,0.08413,-0.34049,0.936477,-0.950827,0.250773,-0.181772,0.27501,0.953535,-0.123045,0.14247,-0.166983,-0.975612,-0.936998,0.292747,0.190616,-0.339053,-0.893513,-0.294409,0.08413,-0.34049,0.936477,-0.950827,0.250773,-0.181772,0.27501,0.953535,-0.123045,0.14247,-0.166983,-0.975612,-79484.0,-26418.0,12412.0,-78785.0,26509.0,12717.0,-1067.0,1513.0,-61256.0,0.0,-25951.0,-21126.0,-19197.0,-21643.0,1230.0,-1132.0,-3144.0,0.0,-5881.0,-506.0,226.0,-2124.0,57.0,158.0,-45.0,0.0,-701.0,-257.0,541.0,-460.0,-59.0,-158.0,45.0,0.0,-273.0,-591.0,584.0,-859.0,-0.015613,-0.042992,0.012343,0.0,-0.025651,-0.00944,-0.019811,-0.016833,-0.01605,-0.042902,0.012294,0.0,-0.010025,-0.021644,-0.021372,-0.031435,4175.640137,11439.629883,51341.3125,0.0,-18094.501953,-17620.380859,17923.140625,-17361.900391,4185.720215,11432.070312,51415.378906,0.0,17202.150391,17666.640625,-17371.800781,17949.150391,0.0,0.0,0.0,0.0,0.0,0.0,0.0,0.0,0.0,0.0,0.0,0.0,0.0,0.0,0.0,0.0,0.0,0.0,0.0,0.0,0.0,0.0,0.0,0.0,0.0,0.0,0.0,0.0,0.0,0.0,0.0,0.0,4175.631348,11439.583008,51341.433594,0.0,-18094.503906,-17620.384766,17923.044922,-17361.992188,4185.702148,11432.024414,51415.480469,0.0,17202.152344,17666.642578,-17371.962891,17948.988281,30.65893,89.676506,22.821293,0.0,-82.213646,3.39879,28.561058,33.834045,30.73287,89.603554,22.855612,0.0,-87.903969,-1.086195,34.400795,29.770479,1.089,1.12,-45329.0,-128620.0,-509203.0,0.0,175099.0,174656.0,-179949.0,171267.0,-45278.0,-128155.0,-574426.0,0.0,-197016.0,-196802.0,192794.0,-201559.0,0.0,0.0,0.0,0.0,0.0,0.0,0.0,0.0,0.0,0.0,0.0,0.0,0.0,0.0,0.0,0.0,0.0,0.0,0.0,0.0,0.0,0.0,0.0,0.0
29,2.2049720287323,30.658995,89.67688,22.821234,0.0,-82.213409,3.399107,28.571356,33.844303,30.733004,89.603905,22.85556,0.0,-87.90432,-1.086497,34.41888,29.788288,3.0,1.0,111.0,0.0,1.0,-79484.0,-26418.0,12412.0,-78785.0,26509.0,12717.0,-0.936998,0.292747,0.190616,-0.339053,-0.893513,-0.294409,0.08413,-0.34049,0.936477,-0.950827,0.250773,-0.181772,0.27501,0.953535,-0.123045,0.14247,-0.166983,-0.975612,-0.936998,0.292747,0.190616,-0.339053,-0.893513,-0.294409,0.08413,-0.34049,0.936477,-0.950827,0.250773,-0.181772,0.27501,0.953535,-0.123045,0.14247,-0.166983,-0.975612,-79484.0,-26418.0,12412.0,-78785.0,26509.0,12717.0,-1067.0,1513.0,-61256.0,0.0,-25951.0,-21126.0,-19197.0,-21643.0,1230.0,-1132.0,-3144.0,0.0,-5881.0,-506.0,226.0,-2124.0,57.0,158.0,-45.0,0.0,-701.0,-257.0,541.0,-460.0,-59.0,-158.0,45.0,0.0,-273.0,-591.0,584.0,-859.0,-0.015613,-0.042992,0.012343,0.0,-0.025651,-0.00944,-0.019817,-0.016838,-0.01605,-0.042902,0.012294,0.0,-0.010025,-0.021644,-0.021382,-0.031445,4175.640137,11439.629883,51341.3125,0.0,-18094.501953,-17620.380859,17923.140625,-17361.900391,4185.720215,11432.070312,51415.378906,0.0,17202.150391,17666.640625,-17371.800781,17949.150391,0.0,0.0,0.0,0.0,0.0,0.0,0.0,0.0,0.0,0.0,0.0,0.0,0.0,0.0,0.0,0.0,0.0,0.0,0.0,0.0,0.0,0.0,0.0,0.0,0.0,0.0,0.0,0.0,0.0,0.0,0.0,0.0,4175.631348,11439.583008,51341.433594,0.0,-18094.503906,-17620.384766,17923.044922,-17361.992188,4185.702148,11432.024414,51415.480469,0.0,17202.152344,17666.642578,-17371.962891,17948.988281,30.65893,89.676506,22.821293,0.0,-82.213646,3.39879,28.561058,33.834045,30.73287,89.603554,22.855612,0.0,-87.903969,-1.086195,34.400795,29.770479,1.089,1.12,-45329.0,-128620.0,-509203.0,0.0,175099.0,174656.0,-179949.0,171267.0,-45278.0,-128155.0,-574426.0,0.0,-197016.0,-196802.0,192794.0,-201559.0,0.0,0.0,0.0,0.0,0.0,0.0,0.0,0.0,0.0,0.0,0.0,0.0,0.0,0.0,0.0,0.0,0.0,0.0,0.0,0.0,0.0,0.0,0.0,0.0
30,2.2788889408111572,30.658995,89.67688,22.821234,0.0,-82.213409,3.399107,28.571356,33.844303,30.733004,89.603905,22.85556,0.0,-87.90432,-1.086497,34.41888,29.788288,3.0,1.0,111.0,0.0,1.0,-79484.0,-26418.0,12412.0,-78785.0,26509.0,12717.0,-0.936998,0.292747,0.190616,-0.339053,-0.893513,-0.294409,0.08413,-0.34049,0.936477,-0.950827,0.250773,-0.181772,0.27501,0.953535,-0.123045,0.14247,-0.166983,-0.975612,-0.936998,0.292747,0.190616,-0.339053,-0.893513,-0.294409,0.08413,-0.34049,0.936477,-0.950827,0.250773,-0.181772,0.27501,0.953535,-0.123045,0.14247,-0.166983,-0.975612,-79484.0,-26418.0,12412.0,-78785.0,26509.0,12717.0,-1067.0,1513.0,-61256.0,0.0,-25951.0,-21126.0,-19197.0,-21643.0,1230.0,-1132.0,-3144.0,0.0,-5881.0,-506.0,226.0,-2124.0,57.0,158.0,-45.0,0.0,-701.0,-257.0,541.0,-460.0,-59.0,-158.0,45.0,0.0,-273.0,-591.0,584.0,-859.0,-0.015613,-0.042992,0.012343,0.0,-0.025652,-0.009441,-0.019823,-0.016844,-0.01605,-0.042902,0.012294,0.0,-0.010025,-0.021644,-0.021393,-0.031455,4175.640137,11439.629883,51341.3125,0.0,-18094.501953,-17620.380859,17923.140625,-17361.900391,4185.720215,11432.070312,51415.378906,0.0,17202.150391,17666.640625,-17371.800781,17949.150391,0.0,0.0,0.0,0.0,0.0,0.0,0.0,0.0,0.0,0.0,0.0,0.0,0.0,0.0,0.0,0.0,0.0,0.0,0.0,0.0,0.0,0.0,0.0,0.0,0.0,0.0,0.0,0.0,0.0,0.0,0.0,0.0,4175.631348,11439.583008,51341.433594,0.0,-18094.503906,-17620.384766,17923.044922,-17361.992188,4185.702148,11432.024414,51415.480469,0.0,17202.152344,17666.642578,-17371.962891,17948.988281,30.65893,89.676506,22.821293,0.0,-82.213646,3.39879,28.561058,33.834045,30.73287,89.603554,22.855612,0.0,-87.903969,-1.086195,34.400795,29.770479,1.089,1.12,-45329.0,-128620.0,-509203.0,0.0,175099.0,174656.0,-179949.0,171267.0,-45278.0,-128155.0,-574426.0,0.0,-197016.0,-196802.0,192794.0,-201559.0,0.0,0.0,0.0,0.0,0.0,0.0,0.0,0.0,0.0,0.0,0.0,0.0,0.0,0.0,0.0,0.0,0.0,0.0,0.0,0.0,0.0,0.0,0.0,0.0
31,2.3578929901123047,30.658995,89.67688,22.821234,0.0,-82.213409,3.399107,28.571356,33.844303,30.733004,89.603905,22.85556,0.0,-87.90432,-1.086497,34.41888,29.788288,3.0,1.0,111.0,0.0,1.0,-79484.0,-26418.0,12412.0,-78785.0,26509.0,12717.0,-0.936998,0.292747,0.190616,-0.339053,-0.893513,-0.294409,0.08413,-0.34049,0.936477,-0.950827,0.250773,-0.181772,0.27501,0.953535,-0.123045,0.14247,-0.166983,-0.975612,-0.936998,0.292747,0.190616,-0.339053,-0.893513,-0.294409,0.08413,-0.34049,0.936477,-0.950827,0.250773,-0.181772,0.27501,0.953535,-0.123045,0.14247,-0.166983,-0.975612,-79484.0,-26418.0,12412.0,-78785.0,26509.0,12717.0,-1067.0,1513.0,-61256.0,0.0,-25951.0,-21126.0,-19197.0,-21643.0,1230.0,-1132.0,-3144.0,0.0,-5881.0,-506.0,226.0,-2124.0,57.0,158.0,-45.0,0.0,-701.0,-258.0,541.0,-460.0,-59.0,-158.0,45.0,0.0,-273.0,-591.0,584.0,-859.0,-0.015613,-0.042992,0.012343,0.0,-0.025652,-0.009441,-0.01983,-0.01685,-0.01605,-0.042902,0.012294,0.0,-0.010025,-0.021644,-0.021404,-0.031467,4175.640137,11439.629883,51341.3125,0.0,-18094.501953,-17620.380859,17923.140625,-17361.900391,4185.720215,11432.070312,51415.378906,0.0,17202.150391,17666.640625,-17371.800781,17949.150391,0.0,0.0,0.0,0.0,0.0,0.0,0.0,0.0,0.0,0.0,0.0,0.0,0.0,0.0,0.0,0.0,0.0,0.0,0.0,0.0,0.0,0.0,0.0,0.0,0.0,0.0,0.0,0.0,0.0,0.0,0.0,0.0,4175.631348,11439.583008,51341.433594,0.0,-18094.503906,-17620.384766,17923.044922,-17361.992188,4185.702148,11432.024414,51415.480469,0.0,17202.152344,17666.642578,-17371.962891,17948.988281,30.65893,89.676506,22.821293,0.0,-82.213646,3.39879,28.561058,33.834045,30.73287,89.603554,22.855612,0.0,-87.903969,-1.086195,34.400795,29.770479,1.089,1.12,-45329.0,-128620.0,-509203.0,0.0,175099.0,174656.0,-179949.0,171267.0,-45278.0,-128155.0,-574426.0,0.0,-197016.0,-196802.0,192794.0,-201559.0,0.0,0.0,0.0,0.0,0.0,0.0,0.0,0.0,0.0,0.0,0.0,0.0,0.0,0.0,0.0,0.0,0.0,0.0,0.0,0.0,0.0,0.0,0.0,0.0
32,2.428903818130493,30.658995,89.67688,22.821234,0.0,-82.213409,3.399107,28.571356,33.844303,30.733004,89.603905,22.85556,0.0,-87.90432,-1.086497,34.41888,29.788288,3.0,1.0,111.0,0.0,1.0,-79484.0,-26418.0,12412.0,-78785.0,26509.0,12717.0,-0.936998,0.292747,0.190616,-0.339053,-0.893513,-0.294409,0.08413,-0.34049,0.936477,-0.950827,0.250773,-0.181772,0.27501,0.953535,-0.123045,0.14247,-0.166983,-0.975612,-0.936998,0.292747,0.190616,-0.339053,-0.893513,-0.294409,0.08413,-0.34049,0.936477,-0.950827,0.250773,-0.181772,0.27501,0.953535,-0.123045,0.14247,-0.166983,-0.975612,-79484.0,-26418.0,12412.0,-78785.0,26509.0,12717.0,-1067.0,1513.0,-61256.0,0.0,-25951.0,-21126.0,-19197.0,-21643.0,1230.0,-1132.0,-3144.0,0.0,-5881.0,-506.0,226.0,-2124.0,57.0,158.0,-45.0,0.0,-701.0,-258.0,542.0,-460.0,-59.0,-158.0,45.0,0.0,-273.0,-591.0,585.0,-860.0,-0.015613,-0.042992,0.012343,0.0,-0.025652,-0.009441,-0.019836,-0.016856,-0.01605,-0.042902,0.012294,0.0,-0.010024,-0.021643,-0.021414,-0.031476,4175.640137,11439.629883,51341.3125,0.0,-18094.501953,-17620.380859,17923.140625,-17361.900391,4185.720215,11432.070312,51415.378906,0.0,17202.150391,17666.640625,-17371.800781,17949.150391,0.0,0.0,0.0,0.0,0.0,0.0,0.0,0.0,0.0,0.0,0.0,0.0,0.0,0.0,0.0,0.0,0.0,0.0,0.0,0.0,0.0,0.0,0.0,0.0,0.0,0.0,0.0,0.0,0.0,0.0,0.0,0.0,4175.631348,11439.583008,51341.433594,0.0,-18094.503906,-17620.384766,17923.044922,-17361.992188,4185.702148,11432.024414,51415.480469,0.0,17202.152344,17666.642578,-17371.962891,17948.988281,30.65893,89.676506,22.821293,0.0,-82.213646,3.39879,28.561058,33.834045,30.73287,89.603554,22.855612,0.0,-87.903969,-1.086195,34.400795,29.770479,1.089,1.12,-45329.0,-128620.0,-509203.0,0.0,175099.0,174656.0,-179949.0,171267.0,-45278.0,-128155.0,-574426.0,0.0,-197016.0,-196802.0,192794.0,-201559.0,0.0,0.0,0.0,0.0,0.0,0.0,0.0,0.0,0.0,0.0,0.0,0.0,0.0,0.0,0.0,0.0,0.0,0.0,0.0,0.0,0.0,0.0,0.0,0.0
33,2.5019729137420654,30.658995,89.67688,22.821234,0.0,-82.213409,3.399107,28.571356,33.844303,30.733004,89.603905,22.85556,0.0,-87.90432,-1.086497,34.41888,29.788288,3.0,1.0,111.0,0.0,1.0,-79484.0,-26418.0,12412.0,-78785.0,26509.0,12717.0,-0.936998,0.292747,0.190616,-0.339053,-0.893513,-0.294409,0.08413,-0.34049,0.936477,-0.950827,0.250773,-0.181772,0.27501,0.953535,-0.123045,0.14247,-0.166983,-0.975612,-0.936998,0.292747,0.190616,-0.339053,-0.893513,-0.294409,0.08413,-0.34049,0.936477,-0.950827,0.250773,-0.181772,0.27501,0.953535,-0.123045,0.14247,-0.166983,-0.975612,-79484.0,-26418.0,12412.0,-78785.0,26509.0,12717.0,-1067.0,1513.0,-61256.0,0.0,-25951.0,-21126.0,-19197.0,-21643.0,1230.0,-1132.0,-3144.0,0.0,-5881.0,-506.0,226.0,-2124.0,57.0,158.0,-45.0,0.0,-701.0,-258.0,542.0,-460.0,-59.0,-158.0,45.0,0.0,-273.0,-591.0,585.0,-860.0,-0.015613,-0.042992,0.012343,0.0,-0.025652,-0.009441,-0.019842,-0.016862,-0.01605,-0.042902,0.012294,0.0,-0.010024,-0.021643,-0.021424,-0.031487,4175.640137,11439.629883,51341.3125,0.0,-18094.501953,-17620.380859,17923.140625,-17361.900391,4185.720215,11432.070312,51415.378906,0.0,17202.150391,17666.640625,-17371.800781,17949.150391,0.0,0.0,0.0,0.0,0.0,0.0,0.0,0.0,0.0,0.0,0.0,0.0,0.0,0.0,0.0,0.0,0.0,0.0,0.0,0.0,0.0,0.0,0.0,0.0,0.0,0.0,0.0,0.0,0.0,0.0,0.0,0.0,4175.631348,11439.583008,51341.433594,0.0,-18094.503906,-17620.384766,17923.044922,-17361.992188,4185.702148,11432.024414,51415.480469,0.0,17202.152344,17666.642578,-17371.962891,17948.988281,30.65893,89.676506,22.821293,0.0,-82.213646,3.39879,28.561058,33.834045,30.73287,89.603554,22.855612,0.0,-87.903969,-1.086195,34.400795,29.770479,1.089,1.12,-45329.0,-128620.0,-509203.0,0.0,175099.0,174656.0,-179949.0,171267.0,-45278.0,-128155.0,-574426.0,0.0,-197016.0,-196802.0,192794.0,-201559.0,0.0,0.0,0.0,0.0,0.0,0.0,0.0,0.0,0.0,0.0,0.0,0.0,0.0,0.0,0.0,0.0,0.0,0.0,0.0,0.0,0.0,0.0,0.0,0.0
34,2.5769009590148926,30.658995,89.67688,22.821234,0.0,-82.213409,3.399107,28.571356,33.844303,30.733004,89.603905,22.85556,0.0,-87.90432,-1.086497,34.41888,29.788288,3.0,1.0,111.0,0.0,1.0,-79484.0,-26418.0,12412.0,-78785.0,26509.0,12717.0,-0.936998,0.292747,0.190616,-0.339053,-0.893513,-0.294409,0.08413,-0.34049,0.936477,-0.950827,0.250773,-0.181772,0.27501,0.953535,-0.123045,0.14247,-0.166983,-0.975612,-0.936998,0.292747,0.190616,-0.339053,-0.893513,-0.294409,0.08413,-0.34049,0.936477,-0.950827,0.250773,-0.181772,0.27501,0.953535,-0.123045,0.14247,-0.166983,-0.975612,-79484.0,-26418.0,12412.0,-78785.0,26509.0,12717.0,-1067.0,1513.0,-61256.0,0.0,-25951.0,-21126.0,-19197.0,-21643.0,1230.0,-1132.0,-3144.0,0.0,-5881.0,-506.0,226.0,-2124.0,57.0,158.0,-45.0,0.0,-701.0,-258.0,542.0,-460.0,-59.0,-158.0,45.0,0.0,-273.0,-591.0,585.0,-860.0,-0.015613,-0.042992,0.012343,0.0,-0.025653,-0.009442,-0.019848,-0.016868,-0.01605,-0.042902,0.012294,0.0,-0.010024,-0.021643,-0.021434,-0.031497,4175.640137,11439.629883,51341.3125,0.0,-18094.501953,-17620.380859,17923.140625,-17361.900391,4185.720215,11432.070312,51415.378906,0.0,17202.150391,17666.640625,-17371.800781,17949.150391,0.0,0.0,0.0,0.0,0.0,0.0,0.0,0.0,0.0,0.0,0.0,0.0,0.0,0.0,0.0,0.0,0.0,0.0,0.0,0.0,0.0,0.0,0.0,0.0,0.0,0.0,0.0,0.0,0.0,0.0,0.0,0.0,4175.631348,11439.583008,51341.433594,0.0,-18094.503906,-17620.384766,17923.044922,-17361.992188,4185.702148,11432.024414,51415.480469,0.0,17202.152344,17666.642578,-17371.962891,17948.988281,30.65893,89.676506,22.821293,0.0,-82.213646,3.39879,28.561058,33.834045,30.73287,89.603554,22.855612,0.0,-87.903969,-1.086195,34.400795,29.770479,1.089,1.12,-45329.0,-128620.0,-509203.0,0.0,175099.0,174656.0,-179949.0,171267.0,-45278.0,-128155.0,-574426.0,0.0,-197016.0,-196802.0,192794.0,-201559.0,0.0,0.0,0.0,0.0,0.0,0.0,0.0,0.0,0.0,0.0,0.0,0.0,0.0,0.0,0.0,0.0,0.0,0.0,0.0,0.0,0.0,0.0,0.0,0.0
35,2.650001049041748,30.658995,89.67688,22.821234,0.0,-82.213409,3.399107,28.571356,33.844303,30.733004,89.603905,22.85556,0.0,-87.90432,-1.086497,34.41888,29.788288,3.0,1.0,111.0,0.0,1.0,-79484.0,-26418.0,12412.0,-78785.0,26509.0,12717.0,-0.936998,0.292747,0.190616,-0.339053,-0.893513,-0.294409,0.08413,-0.34049,0.936477,-0.950827,0.250773,-0.181772,0.27501,0.953535,-0.123045,0.14247,-0.166983,-0.975612,-0.936998,0.292747,0.190616,-0.339053,-0.893513,-0.294409,0.08413,-0.34049,0.936477,-0.950827,0.250773,-0.181772,0.27501,0.953535,-0.123045,0.14247,-0.166983,-0.975612,-79484.0,-26418.0,12412.0,-78785.0,26509.0,12717.0,-1067.0,1513.0,-61256.0,0.0,-25951.0,-21126.0,-19197.0,-21643.0,1230.0,-1132.0,-3144.0,0.0,-5881.0,-506.0,226.0,-2124.0,57.0,158.0,-45.0,0.0,-701.0,-258.0,542.0,-461.0,-59.0,-158.0,45.0,0.0,-273.0,-591.0,586.0,-861.0,-0.015613,-0.042992,0.012343,0.0,-0.025653,-0.009442,-0.019854,-0.016873,-0.01605,-0.042902,0.012294,0.0,-0.010024,-0.021643,-0.021445,-0.031507,4175.640137,11439.629883,51341.3125,0.0,-18094.501953,-17620.380859,17923.140625,-17361.900391,4185.720215,11432.070312,51415.378906,0.0,17202.150391,17666.640625,-17371.800781,17949.150391,0.0,0.0,0.0,0.0,0.0,0.0,0.0,0.0,0.0,0.0,0.0,0.0,0.0,0.0,0.0,0.0,0.0,0.0,0.0,0.0,0.0,0.0,0.0,0.0,0.0,0.0,0.0,0.0,0.0,0.0,0.0,0.0,4175.631348,11439.583008,51341.433594,0.0,-18094.503906,-17620.384766,17923.044922,-17361.992188,4185.702148,11432.024414,51415.480469,0.0,17202.152344,17666.642578,-17371.962891,17948.988281,30.65893,89.676506,22.821293,0.0,-82.213646,3.39879,28.561058,33.834045,30.73287,89.603554,22.855612,0.0,-87.903969,-1.086195,34.400795,29.770479,1.089,1.12,-45329.0,-128620.0,-509203.0,0.0,175099.0,174656.0,-179949.0,171267.0,-45278.0,-128155.0,-574426.0,0.0,-197016.0,-196802.0,192794.0,-201559.0,0.0,0.0,0.0,0.0,0.0,0.0,0.0,0.0,0.0,0.0,0.0,0.0,0.0,0.0,0.0,0.0,0.0,0.0,0.0,0.0,0.0,0.0,0.0,0.0
36,2.725937843322754,30.658995,89.67688,22.821234,0.0,-82.213409,3.399107,28.571356,33.844303,30.733004,89.603905,22.85556,0.0,-87.90432,-1.086497,34.41888,29.788288,3.0,1.0,111.0,0.0,1.0,-79484.0,-26418.0,12412.0,-78785.0,26509.0,12717.0,-0.936998,0.292747,0.190616,-0.339053,-0.893513,-0.294409,0.08413,-0.34049,0.936477,-0.950827,0.250773,-0.181772,0.27501,0.953535,-0.123045,0.14247,-0.166983,-0.975612,-0.936998,0.292747,0.190616,-0.339053,-0.893513,-0.294409,0.08413,-0.34049,0.936477,-0.950827,0.250773,-0.181772,0.27501,0.953535,-0.123045,0.14247,-0.166983,-0.975612,-79484.0,-26418.0,12412.0,-78785.0,26509.0,12717.0,-1067.0,1513.0,-61256.0,0.0,-25951.0,-21126.0,-19197.0,-21643.0,1230.0,-1132.0,-3144.0,0.0,-5881.0,-506.0,226.0,-2124.0,57.0,158.0,-45.0,0.0,-701.0,-258.0,542.0,-461.0,-59.0,-158.0,45.0,0.0,-273.0,-591.0,586.0,-861.0,-0.015613,-0.042992,0.012343,0.0,-0.025653,-0.009442,-0.01986,-0.016879,-0.01605,-0.042902,0.012294,0.0,-0.010024,-0.021642,-0.021455,-0.031518,4175.640137,11439.629883,51341.3125,0.0,-18094.501953,-17620.380859,17923.140625,-17361.900391,4185.720215,11432.070312,51415.378906,0.0,17202.150391,17666.640625,-17371.800781,17949.150391,0.0,0.0,0.0,0.0,0.0,0.0,0.0,0.0,0.0,0.0,0.0,0.0,0.0,0.0,0.0,0.0,0.0,0.0,0.0,0.0,0.0,0.0,0.0,0.0,0.0,0.0,0.0,0.0,0.0,0.0,0.0,0.0,4175.631348,11439.583008,51341.433594,0.0,-18094.503906,-17620.384766,17923.044922,-17361.992188,4185.702148,11432.024414,51415.480469,0.0,17202.152344,17666.642578,-17371.962891,17948.988281,30.65893,89.676506,22.821293,0.0,-82.213646,3.39879,28.561058,33.834045,30.73287,89.603554,22.855612,0.0,-87.903969,-1.086195,34.400795,29.770479,1.089,1.12,-45329.0,-128620.0,-509203.0,0.0,175099.0,174656.0,-179949.0,171267.0,-45278.0,-128155.0,-574426.0,0.0,-197016.0,-196802.0,192794.0,-201559.0,0.0,0.0,0.0,0.0,0.0,0.0,0.0,0.0,0.0,0.0,0.0,0.0,0.0,0.0,0.0,0.0,0.0,0.0,0.0,0.0,0.0,0.0,0.0,0.0
37,2.795938014984131,30.658995,89.67688,22.821234,0.0,-82.213409,3.399107,28.571356,33.844303,30.733004,89.603905,22.85556,0.0,-87.90432,-1.086497,34.41888,29.788288,3.0,1.0,111.0,0.0,1.0,-79484.0,-26418.0,12412.0,-78785.0,26509.0,12717.0,-0.936998,0.292747,0.190616,-0.339053,-0.893513,-0.294409,0.08413,-0.34049,0.936477,-0.950827,0.250773,-0.181772,0.27501,0.953535,-0.123045,0.14247,-0.166983,-0.975612,-0.936998,0.292747,0.190616,-0.339053,-0.893513,-0.294409,0.08413,-0.34049,0.936477,-0.950827,0.250773,-0.181772,0.27501,0.953535,-0.123045,0.14247,-0.166983,-0.975612,-79484.0,-26418.0,12412.0,-78785.0,26509.0,12717.0,-1067.0,1513.0,-61256.0,0.0,-25951.0,-21126.0,-19197.0,-21643.0,1230.0,-1132.0,-3144.0,0.0,-5881.0,-506.0,226.0,-2124.0,57.0,158.0,-45.0,0.0,-701.0,-258.0,542.0,-461.0,-59.0,-158.0,45.0,0.0,-273.0,-591.0,586.0,-861.0,-0.015613,-0.042992,0.012343,0.0,-0.025653,-0.009442,-0.019866,-0.016885,-0.01605,-0.042902,0.012294,0.0,-0.010024,-0.021642,-0.021465,-0.031528,4175.640137,11439.629883,51341.3125,0.0,-18094.501953,-17620.380859,17923.140625,-17361.900391,4185.720215,11432.070312,51415.378906,0.0,17202.150391,17666.640625,-17371.800781,17949.150391,0.0,0.0,0.0,0.0,0.0,0.0,0.0,0.0,0.0,0.0,0.0,0.0,0.0,0.0,0.0,0.0,0.0,0.0,0.0,0.0,0.0,0.0,0.0,0.0,0.0,0.0,0.0,0.0,0.0,0.0,0.0,0.0,4175.631348,11439.583008,51341.433594,0.0,-18094.503906,-17620.384766,17923.044922,-17361.992188,4185.702148,11432.024414,51415.480469,0.0,17202.152344,17666.642578,-17371.962891,17948.988281,30.65893,89.676506,22.821293,0.0,-82.213646,3.39879,28.561058,33.834045,30.73287,89.603554,22.855612,0.0,-87.903969,-1.086195,34.400795,29.770479,1.089,1.12,-45329.0,-128620.0,-509203.0,0.0,175099.0,174656.0,-179949.0,171267.0,-45278.0,-128155.0,-574426.0,0.0,-197016.0,-196802.0,192794.0,-201559.0,0.0,0.0,0.0,0.0,0.0,0.0,0.0,0.0,0.0,0.0,0.0,0.0,0.0,0.0,0.0,0.0,0.0,0.0,0.0,0.0,0.0,0.0,0.0,0.0
38,2.867940902709961,30.658995,89.67688,22.821234,0.0,-82.213409,3.399107,28.571356,33.844303,30.733004,89.603905,22.85556,0.0,-87.90432,-1.086497,34.41888,29.788288,3.0,1.0,111.0,0.0,1.0,-79484.0,-26418.0,12412.0,-78785.0,26509.0,12717.0,-0.936998,0.292747,0.190616,-0.339053,-0.893513,-0.294409,0.08413,-0.34049,0.936477,-0.950827,0.250773,-0.181772,0.27501,0.953535,-0.123045,0.14247,-0.166983,-0.975612,-0.936998,0.292747,0.190616,-0.339053,-0.893513,-0.294409,0.08413,-0.34049,0.936477,-0.950827,0.250773,-0.181772,0.27501,0.953535,-0.123045,0.14247,-0.166983,-0.975612,-79484.0,-26418.0,12412.0,-78785.0,26509.0,12717.0,-1067.0,1513.0,-61256.0,0.0,-25951.0,-21126.0,-19197.0,-21643.0,1230.0,-1132.0,-3144.0,0.0,-5881.0,-506.0,226.0,-2124.0,57.0,158.0,-45.0,0.0,-701.0,-258.0,543.0,-461.0,-59.0,-158.0,45.0,0.0,-273.0,-591.0,586.0,-861.0,-0.015613,-0.042992,0.012343,0.0,-0.025653,-0.009442,-0.019872,-0.016891,-0.01605,-0.042902,0.012294,0.0,-0.010024,-0.021642,-0.021475,-0.031538,4175.640137,11439.629883,51341.3125,0.0,-18094.501953,-17620.380859,17923.140625,-17361.900391,4185.720215,11432.070312,51415.378906,0.0,17202.150391,17666.640625,-17371.800781,17949.150391,0.0,0.0,0.0,0.0,0.0,0.0,0.0,0.0,0.0,0.0,0.0,0.0,0.0,0.0,0.0,0.0,0.0,0.0,0.0,0.0,0.0,0.0,0.0,0.0,0.0,0.0,0.0,0.0,0.0,0.0,0.0,0.0,4175.631348,11439.583008,51341.433594,0.0,-18094.503906,-17620.384766,17923.044922,-17361.992188,4185.702148,11432.024414,51415.480469,0.0,17202.152344,17666.642578,-17371.962891,17948.988281,30.65893,89.676506,22.821293,0.0,-82.213646,3.39879,28.561058,33.834045,30.73287,89.603554,22.855612,0.0,-87.903969,-1.086195,34.400795,29.770479,1.089,1.12,-45329.0,-128620.0,-509203.0,0.0,175099.0,174656.0,-179949.0,171267.0,-45278.0,-128155.0,-574426.0,0.0,-197016.0,-196802.0,192794.0,-201559.0,0.0,0.0,0.0,0.0,0.0,0.0,0.0,0.0,0.0,0.0,0.0,0.0,0.0,0.0,0.0,0.0,0.0,0.0,0.0,0.0,0.0,0.0,0.0,0.0
39,2.9399399757385254,30.658995,89.67688,22.821234,0.0,-82.213409,3.399107,28.571356,33.844303,30.733004,89.603905,22.85556,0.0,-87.90432,-1.086497,34.41888,29.788288,3.0,1.0,111.0,0.0,1.0,-79484.0,-26418.0,12412.0,-78785.0,26509.0,12717.0,-0.936998,0.292747,0.190616,-0.339053,-0.893513,-0.294409,0.08413,-0.34049,0.936477,-0.950827,0.250773,-0.181772,0.27501,0.953535,-0.123045,0.14247,-0.166983,-0.975612,-0.936998,0.292747,0.190616,-0.339053,-0.893513,-0.294409,0.08413,-0.34049,0.936477,-0.950827,0.250773,-0.181772,0.27501,0.953535,-0.123045,0.14247,-0.166983,-0.975612,-79484.0,-26418.0,12412.0,-78785.0,26509.0,12717.0,-1067.0,1513.0,-61256.0,0.0,-25951.0,-21126.0,-19197.0,-21643.0,1230.0,-1132.0,-3144.0,0.0,-5881.0,-506.0,226.0,-2124.0,57.0,158.0,-45.0,0.0,-701.0,-258.0,543.0,-461.0,-59.0,-158.0,45.0,0.0,-273.0,-591.0,587.0,-862.0,-0.015613,-0.042992,0.012343,0.0,-0.025654,-0.009443,-0.019878,-0.016896,-0.01605,-0.042902,0.012294,0.0,-0.010024,-0.021642,-0.021485,-0.031548,4175.640137,11439.629883,51341.3125,0.0,-18094.501953,-17620.380859,17923.140625,-17361.900391,4185.720215,11432.070312,51415.378906,0.0,17202.150391,17666.640625,-17371.800781,17949.150391,0.0,0.0,0.0,0.0,0.0,0.0,0.0,0.0,0.0,0.0,0.0,0.0,0.0,0.0,0.0,0.0,0.0,0.0,0.0,0.0,0.0,0.0,0.0,0.0,0.0,0.0,0.0,0.0,0.0,0.0,0.0,0.0,4175.631348,11439.583008,51341.433594,0.0,-18094.503906,-17620.384766,17923.044922,-17361.992188,4185.702148,11432.024414,51415.480469,0.0,17202.152344,17666.642578,-17371.962891,17948.988281,30.65893,89.676506,22.821293,0.0,-82.213646,3.39879,28.561058,33.834045,30.73287,89.603554,22.855612,0.0,-87.903969,-1.086195,34.400795,29.770479,1.089,1.12,-45329.0,-128620.0,-509203.0,0.0,175099.0,174656.0,-179949.0,171267.0,-45278.0,-128155.0,-574426.0,0.0,-197016.0,-196802.0,192794.0,-201559.0,0.0,0.0,0.0,0.0,0.0,0.0,0.0,0.0,0.0,0.0,0.0,0.0,0.0,0.0,0.0,0.0,0.0,0.0,0.0,0.0,0.0,0.0,0.0,0.0
40,3.009938955307007,30.658995,89.67688,22.821234,0.0,-82.213409,3.399107,28.571356,33.844303,30.733004,89.603905,22.85556,0.0,-87.90432,-1.086497,34.41888,29.788288,3.0,1.0,111.0,0.0,1.0,-79484.0,-26418.0,12412.0,-78785.0,26509.0,12717.0,-0.936998,0.292747,0.190616,-0.339053,-0.893513,-0.294409,0.08413,-0.34049,0.936477,-0.950827,0.250773,-0.181772,0.27501,0.953535,-0.123045,0.14247,-0.166983,-0.975612,-0.936998,0.292747,0.190616,-0.339053,-0.893513,-0.294409,0.08413,-0.34049,0.936477,-0.950827,0.250773,-0.181772,0.27501,0.953535,-0.123045,0.14247,-0.166983,-0.975612,-79484.0,-26418.0,12412.0,-78785.0,26509.0,12717.0,-1067.0,1513.0,-61256.0,0.0,-25951.0,-21126.0,-19197.0,-21643.0,1230.0,-1132.0,-3144.0,0.0,-5881.0,-506.0,226.0,-2124.0,57.0,158.0,-45.0,0.0,-701.0,-258.0,543.0,-461.0,-59.0,-158.0,45.0,0.0,-273.0,-591.0,587.0,-862.0,-0.015613,-0.042992,0.012343,0.0,-0.025654,-0.009443,-0.019883,-0.016902,-0.01605,-0.042902,0.012294,0.0,-0.010024,-0.021642,-0.021495,-0.031558,4175.640137,11439.629883,51341.3125,0.0,-18094.501953,-17620.380859,17923.140625,-17361.900391,4185.720215,11432.070312,51415.378906,0.0,17202.150391,17666.640625,-17371.800781,17949.150391,0.0,0.0,0.0,0.0,0.0,0.0,0.0,0.0,0.0,0.0,0.0,0.0,0.0,0.0,0.0,0.0,0.0,0.0,0.0,0.0,0.0,0.0,0.0,0.0,0.0,0.0,0.0,0.0,0.0,0.0,0.0,0.0,4175.631348,11439.583008,51341.433594,0.0,-18094.503906,-17620.384766,17923.044922,-17361.992188,4185.702148,11432.024414,51415.480469,0.0,17202.152344,17666.642578,-17371.962891,17948.988281,30.65893,89.676506,22.821293,0.0,-82.213646,3.39879,28.561058,33.834045,30.73287,89.603554,22.855612,0.0,-87.903969,-1.086195,34.400795,29.770479,1.089,1.12,-45329.0,-128620.0,-509203.0,0.0,175099.0,174656.0,-179949.0,171267.0,-45278.0,-128155.0,-574426.0,0.0,-197016.0,-196802.0,192794.0,-201559.0,0.0,0.0,0.0,0.0,0.0,0.0,0.0,0.0,0.0,0.0,0.0,0.0,0.0,0.0,0.0,0.0,0.0,0.0,0.0,0.0,0.0,0.0,0.0,0.0
41,3.0798888206481934,30.658995,89.67688,22.821234,0.0,-82.213409,3.399107,28.571356,33.844303,30.733004,89.603905,22.85556,0.0,-87.90432,-1.086497,34.41888,29.788288,3.0,1.0,111.0,0.0,1.0,-79484.0,-26418.0,12412.0,-78785.0,26509.0,12717.0,-0.936998,0.292747,0.190616,-0.339053,-0.893513,-0.294409,0.08413,-0.34049,0.936477,-0.950827,0.250773,-0.181772,0.27501,0.953535,-0.123045,0.14247,-0.166983,-0.975612,-0.936998,0.292747,0.190616,-0.339053,-0.893513,-0.294409,0.08413,-0.34049,0.936477,-0.950827,0.250773,-0.181772,0.27501,0.953535,-0.123045,0.14247,-0.166983,-0.975612,-79484.0,-26418.0,12412.0,-78785.0,26509.0,12717.0,-1067.0,1513.0,-61256.0,0.0,-25951.0,-21126.0,-19197.0,-21643.0,1230.0,-1132.0,-3144.0,0.0,-5881.0,-506.0,226.0,-2124.0,57.0,158.0,-45.0,0.0,-701.0,-258.0,543.0,-462.0,-59.0,-158.0,45.0,0.0,-273.0,-591.0,587.0,-862.0,-0.015613,-0.042992,0.012343,0.0,-0.025654,-0.009443,-0.019889,-0.016907,-0.01605,-0.042902,0.012294,0.0,-0.010023,-0.021641,-0.021505,-0.031568,4175.640137,11439.629883,51341.3125,0.0,-18094.501953,-17620.380859,17923.140625,-17361.900391,4185.720215,11432.070312,51415.378906,0.0,17202.150391,17666.640625,-17371.800781,17949.150391,0.0,0.0,0.0,0.0,0.0,0.0,0.0,0.0,0.0,0.0,0.0,0.0,0.0,0.0,0.0,0.0,0.0,0.0,0.0,0.0,0.0,0.0,0.0,0.0,0.0,0.0,0.0,0.0,0.0,0.0,0.0,0.0,4175.631348,11439.583008,51341.433594,0.0,-18094.503906,-17620.384766,17923.044922,-17361.992188,4185.702148,11432.024414,51415.480469,0.0,17202.152344,17666.642578,-17371.962891,17948.988281,30.65893,89.676506,22.821293,0.0,-82.213646,3.39879,28.561058,33.834045,30.73287,89.603554,22.855612,0.0,-87.903969,-1.086195,34.400795,29.770479,1.089,1.12,-45329.0,-128620.0,-509203.0,0.0,175099.0,174656.0,-179949.0,171267.0,-45278.0,-128155.0,-574426.0,0.0,-197016.0,-196802.0,192794.0,-201559.0,0.0,0.0,0.0,0.0,0.0,0.0,0.0,0.0,0.0,0.0,0.0,0.0,0.0,0.0,0.0,0.0,0.0,0.0,0.0,0.0,0.0,0.0,0.0,0.0
42,3.150974988937378,30.658995,89.67688,22.821234,0.0,-82.213409,3.399107,28.571356,33.844303,30.733004,89.603905,22.85556,0.0,-87.90432,-1.086497,34.41888,29.788288,3.0,1.0,111.0,0.0,1.0,-79484.0,-26418.0,12412.0,-78785.0,26509.0,12717.0,-0.936998,0.292747,0.190616,-0.339053,-0.893513,-0.294409,0.08413,-0.34049,0.936477,-0.950827,0.250773,-0.181772,0.27501,0.953535,-0.123045,0.14247,-0.166983,-0.975612,-0.936998,0.292747,0.190616,-0.339053,-0.893513,-0.294409,0.08413,-0.34049,0.936477,-0.950827,0.250773,-0.181772,0.27501,0.953535,-0.123045,0.14247,-0.166983,-0.975612,-79484.0,-26418.0,12412.0,-78785.0,26509.0,12717.0,-1067.0,1513.0,-61256.0,0.0,-25951.0,-21126.0,-19197.0,-21643.0,1230.0,-1132.0,-3144.0,0.0,-5881.0,-506.0,226.0,-2124.0,57.0,158.0,-45.0,0.0,-701.0,-258.0,543.0,-462.0,-59.0,-158.0,45.0,0.0,-273.0,-591.0,587.0,-862.0,-0.015613,-0.042992,0.012343,0.0,-0.025654,-0.009443,-0.019895,-0.016913,-0.01605,-0.042902,0.012294,0.0,-0.010023,-0.021641,-0.021515,-0.031578,4175.640137,11439.629883,51341.3125,0.0,-18094.501953,-17620.380859,17923.140625,-17361.900391,4185.720215,11432.070312,51415.378906,0.0,17202.150391,17666.640625,-17371.800781,17949.150391,0.0,0.0,0.0,0.0,0.0,0.0,0.0,0.0,0.0,0.0,0.0,0.0,0.0,0.0,0.0,0.0,0.0,0.0,0.0,0.0,0.0,0.0,0.0,0.0,0.0,0.0,0.0,0.0,0.0,0.0,0.0,0.0,4175.631348,11439.583008,51341.433594,0.0,-18094.503906,-17620.384766,17923.044922,-17361.992188,4185.702148,11432.024414,51415.480469,0.0,17202.152344,17666.642578,-17371.962891,17948.988281,30.65893,89.676506,22.821293,0.0,-82.213646,3.39879,28.561058,33.834045,30.73287,89.603554,22.855612,0.0,-87.903969,-1.086195,34.400795,29.770479,1.089,1.12,-45329.0,-128620.0,-509203.0,0.0,175099.0,174656.0,-179949.0,171267.0,-45278.0,-128155.0,-574426.0,0.0,-197016.0,-196802.0,192794.0,-201559.0,0.0,0.0,0.0,0.0,0.0,0.0,0.0,0.0,0.0,0.0,0.0,0.0,0.0,0.0,0.0,0.0,0.0,0.0,0.0,0.0,0.0,0.0,0.0,0.0
43,3.221992015838623,30.658995,89.67688,22.821234,0.0,-82.213409,3.399107,28.571356,33.844303,30.733004,89.603905,22.85556,0.0,-87.90432,-1.086497,34.41888,29.788288,3.0,1.0,111.0,0.0,1.0,-79484.0,-26418.0,12412.0,-78785.0,26509.0,12717.0,-0.936998,0.292747,0.190616,-0.339053,-0.893513,-0.294409,0.08413,-0.34049,0.936477,-0.950827,0.250773,-0.181772,0.27501,0.953535,-0.123045,0.14247,-0.166983,-0.975612,-0.936998,0.292747,0.190616,-0.339053,-0.893513,-0.294409,0.08413,-0.34049,0.936477,-0.950827,0.250773,-0.181772,0.27501,0.953535,-0.123045,0.14247,-0.166983,-0.975612,-79484.0,-26418.0,12412.0,-78785.0,26509.0,12717.0,-1067.0,1513.0,-61256.0,0.0,-25951.0,-21126.0,-19197.0,-21643.0,1230.0,-1132.0,-3144.0,0.0,-5881.0,-506.0,226.0,-2124.0,57.0,158.0,-45.0,0.0,-701.0,-258.0,543.0,-462.0,-59.0,-158.0,45.0,0.0,-273.0,-591.0,588.0,-863.0,-0.015613,-0.042992,0.012343,0.0,-0.025654,-0.009443,-0.019901,-0.016919,-0.01605,-0.042902,0.012294,0.0,-0.010023,-0.021641,-0.021525,-0.031588,4175.640137,11439.629883,51341.3125,0.0,-18094.501953,-17620.380859,17923.140625,-17361.900391,4185.720215,11432.070312,51415.378906,0.0,17202.150391,17666.640625,-17371.800781,17949.150391,0.0,0.0,0.0,0.0,0.0,0.0,0.0,0.0,0.0,0.0,0.0,0.0,0.0,0.0,0.0,0.0,0.0,0.0,0.0,0.0,0.0,0.0,0.0,0.0,0.0,0.0,0.0,0.0,0.0,0.0,0.0,0.0,4175.631348,11439.583008,51341.433594,0.0,-18094.503906,-17620.384766,17923.044922,-17361.992188,4185.702148,11432.024414,51415.480469,0.0,17202.152344,17666.642578,-17371.962891,17948.988281,30.65893,89.676506,22.821293,0.0,-82.213646,3.39879,28.561058,33.834045,30.73287,89.603554,22.855612,0.0,-87.903969,-1.086195,34.400795,29.770479,1.089,1.12,-45329.0,-128620.0,-509203.0,0.0,175099.0,174656.0,-179949.0,171267.0,-45278.0,-128155.0,-574426.0,0.0,-197016.0,-196802.0,192794.0,-201559.0,0.0,0.0,0.0,0.0,0.0,0.0,0.0,0.0,0.0,0.0,0.0,0.0,0.0,0.0,0.0,0.0,0.0,0.0,0.0,0.0,0.0,0.0,0.0,0.0
44,3.2949390411376953,30.658995,89.67688,22.821234,0.0,-82.213409,3.399107,28.571356,33.844303,30.733004,89.603905,22.85556,0.0,-87.90432,-1.086497,34.41888,29.788288,3.0,1.0,111.0,0.0,1.0,-79484.0,-26418.0,12412.0,-78785.0,26509.0,12717.0,-0.936998,0.292747,0.190616,-0.339053,-0.893513,-0.294409,0.08413,-0.34049,0.936477,-0.950827,0.250773,-0.181772,0.27501,0.953535,-0.123045,0.14247,-0.166983,-0.975612,-0.936998,0.292747,0.190616,-0.339053,-0.893513,-0.294409,0.08413,-0.34049,0.936477,-0.950827,0.250773,-0.181772,0.27501,0.953535,-0.123045,0.14247,-0.166983,-0.975612,-79484.0,-26418.0,12412.0,-78785.0,26509.0,12717.0,-1067.0,1513.0,-61256.0,0.0,-25951.0,-21126.0,-19197.0,-21643.0,1230.0,-1132.0,-3144.0,0.0,-5881.0,-506.0,226.0,-2124.0,57.0,158.0,-45.0,0.0,-701.0,-258.0,544.0,-462.0,-59.0,-158.0,45.0,0.0,-273.0,-591.0,588.0,-863.0,-0.015613,-0.042992,0.012343,0.0,-0.025655,-0.009444,-0.019907,-0.016924,-0.01605,-0.042902,0.012294,0.0,-0.010023,-0.021641,-0.021535,-0.031598,4175.640137,11439.629883,51341.3125,0.0,-18094.501953,-17620.380859,17923.140625,-17361.900391,4185.720215,11432.070312,51415.378906,0.0,17202.150391,17666.640625,-17371.800781,17949.150391,0.0,0.0,0.0,0.0,0.0,0.0,0.0,0.0,0.0,0.0,0.0,0.0,0.0,0.0,0.0,0.0,0.0,0.0,0.0,0.0,0.0,0.0,0.0,0.0,0.0,0.0,0.0,0.0,0.0,0.0,0.0,0.0,4175.631348,11439.583008,51341.433594,0.0,-18094.503906,-17620.384766,17923.044922,-17361.992188,4185.702148,11432.024414,51415.480469,0.0,17202.152344,17666.642578,-17371.962891,17948.988281,30.65893,89.676506,22.821293,0.0,-82.213646,3.39879,28.561058,33.834045,30.73287,89.603554,22.855612,0.0,-87.903969,-1.086195,34.400795,29.770479,1.089,1.12,-45329.0,-128620.0,-509203.0,0.0,175099.0,174656.0,-179949.0,171267.0,-45278.0,-128155.0,-574426.0,0.0,-197016.0,-196802.0,192794.0,-201559.0,0.0,0.0,0.0,0.0,0.0,0.0,0.0,0.0,0.0,0.0,0.0,0.0,0.0,0.0,0.0,0.0,0.0,0.0,0.0,0.0,0.0,0.0,0.0,0.0
45,3.3680899143218994,30.658995,89.67688,22.821234,0.0,-82.213409,3.399107,28.571356,33.844303,30.733004,89.603905,22.85556,0.0,-87.90432,-1.086497,34.41888,29.788288,3.0,1.0,111.0,0.0,1.0,-79484.0,-26418.0,12412.0,-78785.0,26509.0,12717.0,-0.936998,0.292747,0.190616,-0.339053,-0.893513,-0.294409,0.08413,-0.34049,0.936477,-0.950827,0.250773,-0.181772,0.27501,0.953535,-0.123045,0.14247,-0.166983,-0.975612,-0.936998,0.292747,0.190616,-0.339053,-0.893513,-0.294409,0.08413,-0.34049,0.936477,-0.950827,0.250773,-0.181772,0.27501,0.953535,-0.123045,0.14247,-0.166983,-0.975612,-79484.0,-26418.0,12412.0,-78785.0,26509.0,12717.0,-1067.0,1513.0,-61256.0,0.0,-25951.0,-21126.0,-19197.0,-21643.0,1230.0,-1132.0,-3144.0,0.0,-5881.0,-506.0,226.0,-2124.0,57.0,158.0,-45.0,0.0,-701.0,-258.0,544.0,-462.0,-59.0,-158.0,45.0,0.0,-273.0,-591.0,588.0,-863.0,-0.015613,-0.042992,0.012343,0.0,-0.025655,-0.009444,-0.019913,-0.01693,-0.01605,-0.042902,0.012294,0.0,-0.010023,-0.021641,-0.021545,-0.031608,4175.640137,11439.629883,51341.3125,0.0,-18094.501953,-17620.380859,17923.140625,-17361.900391,4185.720215,11432.070312,51415.378906,0.0,17202.150391,17666.640625,-17371.800781,17949.150391,0.0,0.0,0.0,0.0,0.0,0.0,0.0,0.0,0.0,0.0,0.0,0.0,0.0,0.0,0.0,0.0,0.0,0.0,0.0,0.0,0.0,0.0,0.0,0.0,0.0,0.0,0.0,0.0,0.0,0.0,0.0,0.0,4175.631348,11439.583008,51341.433594,0.0,-18094.503906,-17620.384766,17923.044922,-17361.992188,4185.702148,11432.024414,51415.480469,0.0,17202.152344,17666.642578,-17371.962891,17948.988281,30.65893,89.676506,22.821293,0.0,-82.213646,3.39879,28.561058,33.834045,30.73287,89.603554,22.855612,0.0,-87.903969,-1.086195,34.400795,29.770479,1.089,1.12,-45329.0,-128620.0,-509203.0,0.0,175099.0,174656.0,-179949.0,171267.0,-45278.0,-128155.0,-574426.0,0.0,-197016.0,-196802.0,192794.0,-201559.0,0.0,0.0,0.0,0.0,0.0,0.0,0.0,0.0,0.0,0.0,0.0,0.0,0.0,0.0,0.0,0.0,0.0,0.0,0.0,0.0,0.0,0.0,0.0,0.0
46,3.4419379234313965,30.658995,89.67688,22.821234,0.0,-82.213409,3.399107,28.571356,33.844303,30.733004,89.603905,22.85556,0.0,-87.90432,-1.086497,34.41888,29.788288,3.0,1.0,111.0,0.0,1.0,-79484.0,-26418.0,12412.0,-78785.0,26509.0,12717.0,-0.936998,0.292747,0.190616,-0.339053,-0.893513,-0.294409,0.08413,-0.34049,0.936477,-0.950827,0.250773,-0.181772,0.27501,0.953535,-0.123045,0.14247,-0.166983,-0.975612,-0.936998,0.292747,0.190616,-0.339053,-0.893513,-0.294409,0.08413,-0.34049,0.936477,-0.950827,0.250773,-0.181772,0.27501,0.953535,-0.123045,0.14247,-0.166983,-0.975612,-79484.0,-26418.0,12412.0,-78785.0,26509.0,12717.0,-1067.0,1513.0,-61256.0,0.0,-25951.0,-21126.0,-19197.0,-21643.0,1230.0,-1132.0,-3144.0,0.0,-5881.0,-506.0,226.0,-2124.0,57.0,158.0,-45.0,0.0,-701.0,-258.0,544.0,-462.0,-59.0,-158.0,45.0,0.0,-273.0,-591.0,589.0,-864.0,-0.015613,-0.042992,0.012343,0.0,-0.025655,-0.009444,-0.019919,-0.016936,-0.01605,-0.042902,0.012294,0.0,-0.010023,-0.02164,-0.021556,-0.031618,4175.640137,11439.629883,51341.3125,0.0,-18094.501953,-17620.380859,17923.140625,-17361.900391,4185.720215,11432.070312,51415.378906,0.0,17202.150391,17666.640625,-17371.800781,17949.150391,0.0,0.0,0.0,0.0,0.0,0.0,0.0,0.0,0.0,0.0,0.0,0.0,0.0,0.0,0.0,0.0,0.0,0.0,0.0,0.0,0.0,0.0,0.0,0.0,0.0,0.0,0.0,0.0,0.0,0.0,0.0,0.0,4175.631348,11439.583008,51341.433594,0.0,-18094.503906,-17620.384766,17923.044922,-17361.992188,4185.702148,11432.024414,51415.480469,0.0,17202.152344,17666.642578,-17371.962891,17948.988281,30.65893,89.676506,22.821293,0.0,-82.213646,3.39879,28.561058,33.834045,30.73287,89.603554,22.855612,0.0,-87.903969,-1.086195,34.400795,29.770479,1.089,1.12,-45329.0,-128620.0,-509203.0,0.0,175099.0,174656.0,-179949.0,171267.0,-45278.0,-128155.0,-574426.0,0.0,-197016.0,-196802.0,192794.0,-201559.0,0.0,0.0,0.0,0.0,0.0,0.0,0.0,0.0,0.0,0.0,0.0,0.0,0.0,0.0,0.0,0.0,0.0,0.0,0.0,0.0,0.0,0.0,0.0,0.0
47,3.515983819961548,30.658995,89.67688,22.821234,0.0,-82.213409,3.399107,28.571356,33.844303,30.733004,89.603905,22.85556,0.0,-87.90432,-1.086497,34.41888,29.788288,3.0,1.0,111.0,0.0,1.0,-79484.0,-26418.0,12412.0,-78785.0,26509.0,12717.0,-0.936998,0.292747,0.190616,-0.339053,-0.893513,-0.294409,0.08413,-0.34049,0.936477,-0.950827,0.250773,-0.181772,0.27501,0.953535,-0.123045,0.14247,-0.166983,-0.975612,-0.936998,0.292747,0.190616,-0.339053,-0.893513,-0.294409,0.08413,-0.34049,0.936477,-0.950827,0.250773,-0.181772,0.27501,0.953535,-0.123045,0.14247,-0.166983,-0.975612,-79484.0,-26418.0,12412.0,-78785.0,26509.0,12717.0,-1067.0,1513.0,-61256.0,0.0,-25951.0,-21126.0,-19197.0,-21643.0,1230.0,-1132.0,-3144.0,0.0,-5881.0,-506.0,226.0,-2124.0,57.0,158.0,-45.0,0.0,-701.0,-258.0,544.0,-462.0,-59.0,-158.0,45.0,0.0,-273.0,-591.0,589.0,-864.0,-0.015613,-0.042992,0.012343,0.0,-0.025655,-0.009444,-0.019925,-0.016942,-0.01605,-0.042902,0.012294,0.0,-0.010023,-0.02164,-0.021566,-0.031629,4175.640137,11439.629883,51341.3125,0.0,-18094.501953,-17620.380859,17923.140625,-17361.900391,4185.720215,11432.070312,51415.378906,0.0,17202.150391,17666.640625,-17371.800781,17949.150391,0.0,0.0,0.0,0.0,0.0,0.0,0.0,0.0,0.0,0.0,0.0,0.0,0.0,0.0,0.0,0.0,0.0,0.0,0.0,0.0,0.0,0.0,0.0,0.0,0.0,0.0,0.0,0.0,0.0,0.0,0.0,0.0,4175.631348,11439.583008,51341.433594,0.0,-18094.503906,-17620.384766,17923.044922,-17361.992188,4185.702148,11432.024414,51415.480469,0.0,17202.152344,17666.642578,-17371.962891,17948.988281,30.65893,89.676506,22.821293,0.0,-82.213646,3.39879,28.561058,33.834045,30.73287,89.603554,22.855612,0.0,-87.903969,-1.086195,34.400795,29.770479,1.089,1.12,-45329.0,-128620.0,-509203.0,0.0,175099.0,174656.0,-179949.0,171267.0,-45278.0,-128155.0,-574426.0,0.0,-197016.0,-196802.0,192794.0,-201559.0,0.0,0.0,0.0,0.0,0.0,0.0,0.0,0.0,0.0,0.0,0.0,0.0,0.0,0.0,0.0,0.0,0.0,0.0,0.0,0.0,0.0,0.0,0.0,0.0
48,3.5870440006256104,30.658995,89.67688,22.821234,0.0,-82.213409,3.399107,28.571356,33.844303,30.733004,89.603905,22.85556,0.0,-87.90432,-1.086497,34.41888,29.788288,3.0,1.0,111.0,0.0,1.0,-79484.0,-26418.0,12412.0,-78785.0,26509.0,12717.0,-0.936998,0.292747,0.190616,-0.339053,-0.893513,-0.294409,0.08413,-0.34049,0.936477,-0.950827,0.250773,-0.181772,0.27501,0.953535,-0.123045,0.14247,-0.166983,-0.975612,-0.936998,0.292747,0.190616,-0.339053,-0.893513,-0.294409,0.08413,-0.34049,0.936477,-0.950827,0.250773,-0.181772,0.27501,0.953535,-0.123045,0.14247,-0.166983,-0.975612,-79484.0,-26418.0,12412.0,-78785.0,26509.0,12717.0,-1067.0,1513.0,-61256.0,0.0,-25951.0,-21126.0,-19197.0,-21643.0,1230.0,-1132.0,-3144.0,0.0,-5881.0,-506.0,226.0,-2124.0,57.0,158.0,-45.0,0.0,-701.0,-258.0,544.0,-463.0,-59.0,-158.0,45.0,0.0,-273.0,-591.0,589.0,-864.0,-0.015613,-0.042992,0.012343,0.0,-0.025656,-0.009445,-0.019931,-0.016947,-0.01605,-0.042902,0.012294,0.0,-0.010023,-0.02164,-0.021576,-0.031639,4175.640137,11439.629883,51341.3125,0.0,-18094.501953,-17620.380859,17923.140625,-17361.900391,4185.720215,11432.070312,51415.378906,0.0,17202.150391,17666.640625,-17371.800781,17949.150391,0.0,0.0,0.0,0.0,0.0,0.0,0.0,0.0,0.0,0.0,0.0,0.0,0.0,0.0,0.0,0.0,0.0,0.0,0.0,0.0,0.0,0.0,0.0,0.0,0.0,0.0,0.0,0.0,0.0,0.0,0.0,0.0,4175.631348,11439.583008,51341.433594,0.0,-18094.503906,-17620.384766,17923.044922,-17361.992188,4185.702148,11432.024414,51415.480469,0.0,17202.152344,17666.642578,-17371.962891,17948.988281,30.65893,89.676506,22.821293,0.0,-82.213646,3.39879,28.561058,33.834045,30.73287,89.603554,22.855612,0.0,-87.903969,-1.086195,34.400795,29.770479,1.089,1.12,-45329.0,-128620.0,-509203.0,0.0,175099.0,174656.0,-179949.0,171267.0,-45278.0,-128155.0,-574426.0,0.0,-197016.0,-196802.0,192794.0,-201559.0,0.0,0.0,0.0,0.0,0.0,0.0,0.0,0.0,0.0,0.0,0.0,0.0,0.0,0.0,0.0,0.0,0.0,0.0,0.0,0.0,0.0,0.0,0.0,0.0
49,3.658939838409424,30.689392,89.672462,22.821033,0.0,-82.213409,3.399107,28.571356,33.844303,30.733004,89.603905,22.85556,0.0,-87.90432,-1.086497,34.41888,29.788288,3.0,1.0,111.0,0.0,1.0,-79475.0,-26460.0,12408.0,-78785.0,26509.0,12717.0,-0.936828,0.293217,0.190727,-0.339537,-0.893343,-0.29437,0.08407,-0.340533,0.936467,-0.950827,0.250773,-0.181772,0.27501,0.953535,-0.123045,0.14247,-0.166983,-0.975612,-0.936828,0.293217,0.190727,-0.339537,-0.893343,-0.29437,0.08407,-0.340533,0.936467,-0.950827,0.250773,-0.181772,0.27501,0.953535,-0.123045,0.14247,-0.166983,-0.975612,-79475.0,-26460.0,12408.0,-78785.0,26509.0,12717.0,-1113.0,1513.0,-61256.0,0.0,-25951.0,-21126.0,-19197.0,-21643.0,1230.0,-1132.0,-3144.0,0.0,-5881.0,-506.0,226.0,-2124.0,-265.0,123.0,17.0,0.0,-701.0,-258.0,544.0,-463.0,-59.0,-158.0,45.0,0.0,-273.0,-591.0,589.0,-864.0,0.071767,-0.033515,-0.004826,0.0,-0.025656,-0.009445,-0.019936,-0.016953,-0.01605,-0.042902,0.012294,0.0,-0.010023,-0.02164,-0.021586,-0.031649,4179.780273,11439.629883,51341.3125,0.0,-18094.501953,-17620.380859,17923.140625,-17361.900391,4185.720215,11432.070312,51415.378906,0.0,17202.150391,17666.640625,-17371.800781,17949.150391,180.098419,0.0,0.0,0.0,0.0,0.0,0.0,0.0,0.0,0.0,0.0,0.0,0.0,0.0,0.0,0.0,1.322345,-0.192335,-0.008757,0.0,0.0,0.0,0.0,0.0,0.0,0.0,0.0,0.0,0.0,0.0,0.0,0.0,4201.29248,11441.394531,51334.875,0.0,-18094.503906,-17620.384766,17923.044922,-17361.992188,4185.702148,11432.024414,51415.480469,0.0,17202.152344,17666.642578,-17371.962891,17948.988281,30.84734,89.664001,22.816887,0.0,-82.213646,3.39879,28.561058,33.834045,30.73287,89.603554,22.855612,0.0,-87.903969,-1.086195,34.400795,29.770479,1.089,1.12,-45329.0,-128620.0,-509203.0,0.0,175099.0,174656.0,-179949.0,171267.0,-45278.0,-128155.0,-574426.0,0.0,-197016.0,-196802.0,192794.0,-201559.0,-0.000509,4e-06,0.046311,0.054801,0.020036,-0.026885,0.0,0.0,0.0,0.0,0.0,0.0,-0.000509,4e-06,0.046311,0.054801,0.020036,-0.026885,0.0,0.0,0.0,0.0,0.0,0.0
50,3.7559850215911865,31.026403,89.586411,22.818476,0.0,-82.299431,3.277493,28.683773,33.69183,30.733004,89.603905,22.85556,0.0,-87.90432,-1.086497,34.41888,29.788288,3.0,1.0,111.0,0.0,1.0,-79374.0,-26935.0,12343.0,-78785.0,26509.0,12717.0,-0.935257,0.296587,0.19321,-0.343437,-0.892485,-0.292441,0.085703,-0.339863,0.936562,-0.950827,0.250773,-0.181772,0.27501,0.953535,-0.123045,0.14247,-0.166983,-0.975612,-0.935257,0.296587,0.19321,-0.343437,-0.892485,-0.292441,0.085703,-0.339863,0.936562,-0.950827,0.250773,-0.181772,0.27501,0.953535,-0.123045,0.14247,-0.166983,-0.975612,-79374.0,-26935.0,12343.0,-78785.0,26509.0,12717.0,-1623.0,1563.0,-61241.0,0.0,-25951.0,-21133.0,-19197.0,-21647.0,1230.0,-1132.0,-3144.0,0.0,-5881.0,-506.0,226.0,-2124.0,-201.0,487.0,53.0,0.0,-681.0,-231.0,556.0,-443.0,-59.0,-158.0,45.0,0.0,-273.0,-591.0,590.0,-865.0,0.054485,-0.131848,-0.01435,0.0,-0.024921,-0.008471,-0.020354,-0.016235,-0.01605,-0.042902,0.012294,0.0,-0.010022,-0.021639,-0.0216,-0.031662,4225.680176,11435.129883,51339.964844,0.0,-18094.501953,-17621.009766,17923.140625,-17362.261719,4185.720215,11432.070312,51415.378906,0.0,17202.150391,17666.640625,-17371.800781,17949.150391,629.907288,-90.04921,-87.426414,0.0,0.0,0.0,0.0,0.0,0.0,0.0,0.0,0.0,0.0,0.0,0.0,0.0,4.624997,-1.413717,-0.065145,0.0,-5.571063,-3.342638,5.013957,-5.013957,0.0,0.0,0.0,0.0,0.0,0.0,0.0,0.0,4256.214355,11415.71582,51322.902344,0.0,-18094.037109,-17619.919922,17922.582031,-17361.529297,4185.702148,11432.024414,51415.480469,0.0,17202.152344,17666.642578,-17371.962891,17948.988281,31.250595,89.394051,22.810377,0.0,-82.213646,3.39879,28.561058,33.834045,30.73287,89.603554,22.855612,0.0,-87.903969,-1.086195,34.400795,29.770479,1.088,1.12,-45329.0,-128620.0,-509203.0,0.0,175099.0,174656.0,-179949.0,171267.0,-45278.0,-128155.0,-574426.0,0.0,-197016.0,-196802.0,192794.0,-201559.0,-0.001797,-0.058309,0.162578,0.163196,0.031525,0.08351,0.0,0.0,0.0,0.0,0.0,0.0,-0.001797,-0.058309,0.162578,0.163196,0.031525,0.08351,0.0,0.0,0.0,0.0,0.0,0.0
