MHC-RobotSimulators-Research/Data_Analysis_MotionReplication/mai_plotter/raven_data/with_offsets/twoarm_p5_phys1.csv
,time,jpos0,jpos1,jpos2,jpos3,jpos4,jpos5,jpos6,jpos7,jpos8,jpos9,jpos10,jpos11,jpos12,jpos13,jpos14,jpos15,runlevel,sublevel,last_seq,type0,type1,pos0,pos1,pos2,pos3,pos4,pos5,ori0,ori1,ori2,ori3,ori4,ori5,ori6,ori7,ori8,ori9,ori10,ori11,ori12,ori13,ori14,ori15,ori16,ori17,ori_d0,ori_d1,ori_d2,ori_d3,ori_d4,ori_d5,ori_d6,ori_d7,ori_d8,ori_d9,ori_d10,ori_d11,ori_d12,ori_d13,ori_d14,ori_d15,ori_d16,ori_d17,pos_d0,pos_d1,pos_d2,pos_d3,pos_d4,pos_d5,encVals0,encVals1,encVals2,encVals3,encVals4,encVals5,encVals6,encVals7,encVals8,encVals9,encVals10,encVals11,encVals12,encVals13,encVals14,encVals15,dac_vals0,dac_vals1,dac_vals2,dac_vals3,dac_vals4,dac_vals5,dac_vals6,dac_vals7,dac_vals8,dac_vals9,dac_vals10,dac_vals11,dac_vals12,dac_vals13,dac_vals14,dac_vals15,Tau0,Tau1,Tau2,Tau3,Tau4,Tau5,Tau6,Tau7,Tau8,Tau9,Tau10,Tau11,Tau12,Tau13,Tau14,Tau15,mpos0,mpos1,mpos2,mpos3,mpos4,mpos5,mpos6,mpos7,mpos8,mpos9,mpos10,mpos11,mpos12,mpos13,mpos14,mpos15,mvel0,mvel1,mvel2,mvel3,mvel4,mvel5,mvel6,mvel7,mvel8,mvel9,mvel10,mvel11,mvel12,mvel13,mvel14,mvel15,jvel0,jvel1,jvel2,jvel3,jvel4,jvel5,jvel6,jvel7,jvel8,jvel9,jvel10,jvel11,jvel12,jvel13,jvel14,jvel15,mpos_d0,mpos_d1,mpos_d2,mpos_d3,mpos_d4,mpos_d5,mpos_d6,mpos_d7,mpos_d8,mpos_d9,mpos_d10,mpos_d11,mpos_d12,mpos_d13,mpos_d14,mpos_d15,jpos_d0,jpos_d1,jpos_d2,jpos_d3,jpos_d4,jpos_d5,jpos_d6,jpos_d7,jpos_d8,jpos_d9,jpos_d10,jpos_d11,jpos_d12,jpos_d13,jpos_d14,jpos_d15,grasp_d0,grasp_d1,encoffsets0,encoffsets1,encoffsets2,encoffsets3,encoffsets4,encoffsets5,encoffsets6,encoffsets7,encoffsets8,encoffsets9,encoffsets10,encoffsets11,encoffsets12,encoffsets13,encoffsets14,encoffsets15,jac_vel0,jac_vel1,jac_vel2,jac_vel3,jac_vel4,jac_vel5,jac_vel6,jac_vel7,jac_vel8,jac_vel9,jac_vel10,jac_vel11,jac_f0,jac_f1,jac_f2,jac_f3,jac_f4,jac_f5,jac_f6,jac_f7,jac_f8,jac_f9,jac_f10,jac_f11
0,0.0,29.956551,90.396721,22.925005,0.0,-89.512245,-0.019395,27.643791,28.436344,29.917564,90.308334,22.933569,0.0,-90.235397,-0.173077,28.534876,28.986557,3.0,1.0,111.0,0.0,1.0,-77758.0,-25237.0,13648.0,-77666.0,25118.0,13484.0,-0.936229,0.275209,0.218483,-0.311036,-0.93835,-0.150849,0.163499,-0.209186,0.964111,-0.938234,0.272545,-0.213158,0.306933,0.939974,-0.149136,0.159717,-0.20535,-0.965568,-0.936212,0.275037,0.218774,-0.310917,-0.938398,-0.150796,0.163823,-0.209198,0.964053,-0.938462,0.272552,-0.212143,0.306134,0.940794,-0.145561,0.159909,-0.201548,-0.966337,-77758.0,-25237.0,13648.0,-77668.0,25119.0,13484.0,-4.0,679.0,-63753.0,0.0,-27247.0,-22326.0,-19792.0,-22871.0,-4.0,-341.0,-1289.0,0.0,-5383.0,223.0,1406.0,-1612.0,46.0,171.0,-44.0,0.0,-902.0,680.0,550.0,-533.0,-44.0,-162.0,42.0,0.0,-429.0,426.0,407.0,-924.0,-0.012539,-0.046465,0.012126,0.0,-0.033039,0.024886,-0.02016,-0.019507,-0.012013,-0.04401,0.011565,0.0,-0.015706,0.015594,-0.014928,-0.03382,4079.969971,11514.69043,51566.039062,0.0,-18211.140625,-17728.380859,17976.691406,-17472.419922,4074.660156,11503.259766,51582.328125,0.0,17246.970703,17732.25,-17478.0,17995.230469,0.0,0.0,0.0,0.0,0.0,0.0,0.0,0.0,0.0,0.0,0.0,0.0,0.0,0.0,0.0,0.0,0.0,0.0,0.0,0.0,0.0,0.0,0.0,0.0,0.0,0.0,0.0,0.0,0.0,0.0,0.0,0.0,4079.936279,11514.202148,51566.070312,0.0,-18211.146484,-17728.5625,17976.742188,-17472.361328,4074.681396,11503.203125,51582.140625,0.0,17248.144531,17732.257812,-17477.019531,17995.310547,29.956301,90.392746,22.925053,0.0,-89.513466,-0.03969,27.659782,28.432787,29.917721,90.307838,22.933485,0.0,-90.017609,-0.172342,28.643591,28.995962,0.979,1.006,-45329.0,-128620.0,-509203.0,0.0,175099.0,174656.0,-179949.0,171267.0,-45278.0,-128155.0,-574426.0,0.0,-197016.0,-196802.0,192794.0,-201559.0,0.0,0.0,0.0,0.0,0.0,0.0,0.0,0.0,0.0,0.0,0.0,0.0,0.0,0.0,0.0,0.0,0.0,0.0,0.0,0.0,0.0,0.0,0.0,0.0
1,0.0868070125579834,29.956551,90.396721,22.925005,0.0,-89.512245,-0.019395,27.643791,28.436344,29.917564,90.308334,22.933569,0.0,-90.235397,-0.173077,28.534876,28.986557,3.0,1.0,111.0,0.0,1.0,-77758.0,-25237.0,13648.0,-77666.0,25118.0,13484.0,-0.936229,0.275209,0.218483,-0.311036,-0.93835,-0.150849,0.163499,-0.209186,0.964111,-0.938234,0.272545,-0.213158,0.306933,0.939974,-0.149136,0.159717,-0.20535,-0.965568,-0.936229,0.275209,0.218483,-0.311036,-0.93835,-0.150849,0.163499,-0.209186,0.964111,-0.938234,0.272545,-0.213158,0.306933,0.939974,-0.149136,0.159717,-0.20535,-0.965568,-77758.0,-25237.0,13648.0,-77666.0,25118.0,13484.0,-4.0,679.0,-63753.0,0.0,-27247.0,-22326.0,-19792.0,-22871.0,-4.0,-341.0,-1289.0,0.0,-5383.0,223.0,1406.0,-1612.0,46.0,171.0,-44.0,0.0,-902.0,679.0,550.0,-532.0,-44.0,-162.0,42.0,0.0,-426.0,426.0,405.0,-924.0,-0.012539,-0.046465,0.012126,0.0,-0.033039,0.024873,-0.020156,-0.019502,-0.012013,-0.04401,0.011565,0.0,-0.015616,0.015595,-0.014854,-0.033814,4079.969971,11514.69043,51566.039062,0.0,-18211.140625,-17728.380859,17976.691406,-17472.419922,4074.660156,11503.259766,51582.328125,0.0,17246.970703,17732.25,-17478.0,17995.230469,0.0,0.0,0.0,0.0,0.0,0.0,0.0,0.0,0.0,0.0,0.0,0.0,0.0,0.0,0.0,0.0,0.0,0.0,0.0,0.0,0.0,0.0,0.0,0.0,0.0,0.0,0.0,0.0,0.0,0.0,0.0,0.0,4079.936279,11514.202148,51566.070312,0.0,-18211.146484,-17728.5625,17976.742188,-17472.361328,4074.681396,11503.203125,51582.140625,0.0,17248.144531,17732.257812,-17477.019531,17995.310547,29.956301,90.392746,22.925053,0.0,-89.513466,-0.03969,27.659782,28.432787,29.917721,90.307838,22.933485,0.0,-90.017609,-0.172342,28.643591,28.995962,0.978,1.003,-45329.0,-128620.0,-509203.0,0.0,175099.0,174656.0,-179949.0,171267.0,-45278.0,-128155.0,-574426.0,0.0,-197016.0,-196802.0,192794.0,-201559.0,0.0,0.0,0.0,0.0,0.0,0.0,0.0,0.0,0.0,0.0,0.0,0.0,0.0,0.0,0.0,0.0,0.0,0.0,0.0,0.0,0.0,0.0,0.0,0.0
2,0.16008615493774414,29.956551,90.396721,22.925005,0.0,-89.512245,-0.019395,27.643791,28.436344,29.917564,90.308334,22.933569,0.0,-90.235397,-0.173077,28.534876,28.986557,3.0,1.0,111.0,0.0,1.0,-77758.0,-25237.0,13648.0,-77666.0,25118.0,13484.0,-0.936229,0.275209,0.218483,-0.311036,-0.93835,-0.150849,0.163499,-0.209186,0.964111,-0.938234,0.272545,-0.213158,0.306933,0.939974,-0.149136,0.159717,-0.20535,-0.965568,-0.936229,0.275209,0.218483,-0.311036,-0.93835,-0.150849,0.163499,-0.209186,0.964111,-0.938234,0.272545,-0.213158,0.306933,0.939974,-0.149136,0.159717,-0.20535,-0.965568,-77758.0,-25237.0,13648.0,-77666.0,25118.0,13484.0,-4.0,679.0,-63753.0,0.0,-27247.0,-22326.0,-19792.0,-22871.0,-4.0,-341.0,-1289.0,0.0,-5383.0,223.0,1406.0,-1612.0,46.0,171.0,-44.0,0.0,-902.0,679.0,550.0,-532.0,-44.0,-162.0,42.0,0.0,-424.0,426.0,404.0,-923.0,-0.012539,-0.046465,0.012126,0.0,-0.03304,0.024861,-0.020152,-0.019499,-0.012013,-0.04401,0.011565,0.0,-0.015542,0.015595,-0.014791,-0.033809,4079.969971,11514.69043,51566.039062,0.0,-18211.140625,-17728.380859,17976.691406,-17472.419922,4074.660156,11503.259766,51582.328125,0.0,17246.970703,17732.25,-17478.0,17995.230469,0.0,0.0,0.0,0.0,0.0,0.0,0.0,0.0,0.0,0.0,0.0,0.0,0.0,0.0,0.0,0.0,0.0,0.0,0.0,0.0,0.0,0.0,0.0,0.0,0.0,0.0,0.0,0.0,0.0,0.0,0.0,0.0,4079.936279,11514.202148,51566.070312,0.0,-18211.146484,-17728.5625,17976.742188,-17472.361328,4074.681396,11503.203125,51582.140625,0.0,17248.144531,17732.257812,-17477.019531,17995.310547,29.956301,90.392746,22.925053,0.0,-89.513466,-0.03969,27.659782,28.432787,29.917721,90.307838,22.933485,0.0,-90.017609,-0.172342,28.643591,28.995962,0.978,1.003,-45329.0,-128620.0,-509203.0,0.0,175099.0,174656.0,-179949.0,171267.0,-45278.0,-128155.0,-574426.0,0.0,-197016.0,-196802.0,192794.0,-201559.0,0.0,0.0,0.0,0.0,0.0,0.0,0.0,0.0,0.0,0.0,0.0,0.0,0.0,0.0,0.0,0.0,0.0,0.0,0.0,0.0,0.0,0.0,0.0,0.0
3,0.2328941822052002,29.956551,90.396721,22.925005,0.0,-89.512245,-0.019395,27.643791,28.436344,29.917564,90.308334,22.933569,0.0,-90.235397,-0.173077,28.534876,28.986557,3.0,1.0,111.0,0.0,1.0,-77758.0,-25237.0,13648.0,-77666.0,25118.0,13484.0,-0.936229,0.275209,0.218483,-0.311036,-0.93835,-0.150849,0.163499,-0.209186,0.964111,-0.938234,0.272545,-0.213158,0.306933,0.939974,-0.149136,0.159717,-0.20535,-0.965568,-0.936229,0.275209,0.218483,-0.311036,-0.93835,-0.150849,0.163499,-0.209186,0.964111,-0.938234,0.272545,-0.213158,0.306933,0.939974,-0.149136,0.159717,-0.20535,-0.965568,-77758.0,-25237.0,13648.0,-77666.0,25118.0,13484.0,-4.0,679.0,-63753.0,0.0,-27247.0,-22326.0,-19792.0,-22871.0,-4.0,-341.0,-1289.0,0.0,-5383.0,223.0,1406.0,-1612.0,46.0,171.0,-44.0,0.0,-902.0,679.0,550.0,-532.0,-44.0,-162.0,42.0,0.0,-422.0,426.0,402.0,-923.0,-0.012539,-0.046465,0.012126,0.0,-0.03304,0.02485,-0.020149,-0.019495,-0.012013,-0.04401,0.011565,0.0,-0.015467,0.015595,-0.014729,-0.033803,4079.969971,11514.69043,51566.039062,0.0,-18211.140625,-17728.380859,17976.691406,-17472.419922,4074.660156,11503.259766,51582.328125,0.0,17246.970703,17732.25,-17478.0,17995.230469,0.0,0.0,0.0,0.0,0.0,0.0,0.0,0.0,0.0,0.0,0.0,0.0,0.0,0.0,0.0,0.0,0.0,0.0,0.0,0.0,0.0,0.0,0.0,0.0,0.0,0.0,0.0,0.0,0.0,0.0,0.0,0.0,4079.936279,11514.202148,51566.070312,0.0,-18211.146484,-17728.5625,17976.742188,-17472.361328,4074.681396,11503.203125,51582.140625,0.0,17248.144531,17732.257812,-17477.019531,17995.310547,29.956301,90.392746,22.925053,0.0,-89.513466,-0.03969,27.659782,28.432787,29.917721,90.307838,22.933485,0.0,-90.017609,-0.172342,28.643591,28.995962,0.978,1.003,-45329.0,-128620.0,-509203.0,0.0,175099.0,174656.0,-179949.0,171267.0,-45278.0,-128155.0,-574426.0,0.0,-197016.0,-196802.0,192794.0,-201559.0,0.0,0.0,0.0,0.0,0.0,0.0,0.0,0.0,0.0,0.0,0.0,0.0,0.0,0.0,0.0,0.0,0.0,0.0,0.0,0.0,0.0,0.0,0.0,0.0
4,0.30609703063964844,29.956551,90.396721,22.925005,0.0,-89.512245,-0.019395,27.643791,28.436344,29.917564,90.308334,22.933569,0.0,-90.235397,-0.173077,28.534876,28.986557,3.0,1.0,111.0,0.0,1.0,-77758.0,-25237.0,13648.0,-77666.0,25118.0,13484.0,-0.936229,0.275209,0.218483,-0.311036,-0.93835,-0.150849,0.163499,-0.209186,0.964111,-0.938234,0.272545,-0.213158,0.306933,0.939974,-0.149136,0.159717,-0.20535,-0.965568,-0.936229,0.275209,0.218483,-0.311036,-0.93835,-0.150849,0.163499,-0.209186,0.964111,-0.938234,0.272545,-0.213158,0.306933,0.939974,-0.149136,0.159717,-0.20535,-0.965568,-77758.0,-25237.0,13648.0,-77666.0,25118.0,13484.0,-4.0,679.0,-63753.0,0.0,-27247.0,-22326.0,-19792.0,-22871.0,-4.0,-341.0,-1289.0,0.0,-5383.0,223.0,1406.0,-1612.0,46.0,171.0,-44.0,0.0,-902.0,678.0,550.0,-532.0,-44.0,-162.0,42.0,0.0,-420.0,426.0,400.0,-923.0,-0.012539,-0.046465,0.012126,0.0,-0.033041,0.024838,-0.020145,-0.019491,-0.012013,-0.04401,0.011565,0.0,-0.015392,0.015596,-0.014667,-0.033798,4079.969971,11514.69043,51566.039062,0.0,-18211.140625,-17728.380859,17976.691406,-17472.419922,4074.660156,11503.259766,51582.328125,0.0,17246.970703,17732.25,-17478.0,17995.230469,0.0,0.0,0.0,0.0,0.0,0.0,0.0,0.0,0.0,0.0,0.0,0.0,0.0,0.0,0.0,0.0,0.0,0.0,0.0,0.0,0.0,0.0,0.0,0.0,0.0,0.0,0.0,0.0,0.0,0.0,0.0,0.0,4079.936279,11514.202148,51566.070312,0.0,-18211.146484,-17728.5625,17976.742188,-17472.361328,4074.681396,11503.203125,51582.140625,0.0,17248.144531,17732.257812,-17477.019531,17995.310547,29.956301,90.392746,22.925053,0.0,-89.513466,-0.03969,27.659782,28.432787,29.917721,90.307838,22.933485,0.0,-90.017609,-0.172342,28.643591,28.995962,0.978,1.003,-45329.0,-128620.0,-509203.0,0.0,175099.0,174656.0,-179949.0,171267.0,-45278.0,-128155.0,-574426.0,0.0,-197016.0,-196802.0,192794.0,-201559.0,0.0,0.0,0.0,0.0,0.0,0.0,0.0,0.0,0.0,0.0,0.0,0.0,0.0,0.0,0.0,0.0,0.0,0.0,0.0,0.0,0.0,0.0,0.0,0.0
5,0.3849911689758301,29.956551,90.396721,22.925005,0.0,-89.512245,-0.019395,27.643791,28.436344,29.917564,90.308334,22.933569,0.0,-90.235397,-0.173077,28.534876,28.986557,3.0,1.0,111.0,0.0,1.0,-77758.0,-25237.0,13648.0,-77666.0,25118.0,13484.0,-0.936229,0.275209,0.218483,-0.311036,-0.93835,-0.150849,0.163499,-0.209186,0.964111,-0.938234,0.272545,-0.213158,0.306933,0.939974,-0.149136,0.159717,-0.20535,-0.965568,-0.936229,0.275209,0.218483,-0.311036,-0.93835,-0.150849,0.163499,-0.209186,0.964111,-0.938234,0.272545,-0.213158,0.306933,0.939974,-0.149136,0.159717,-0.20535,-0.965568,-77758.0,-25237.0,13648.0,-77666.0,25118.0,13484.0,-4.0,679.0,-63753.0,0.0,-27247.0,-22326.0,-19792.0,-22871.0,-4.0,-341.0,-1289.0,0.0,-5383.0,223.0,1406.0,-1612.0,46.0,171.0,-44.0,0.0,-902.0,678.0,550.0,-532.0,-44.0,-162.0,42.0,0.0,-418.0,426.0,398.0,-923.0,-0.012539,-0.046465,0.012126,0.0,-0.033041,0.024826,-0.020142,-0.019487,-0.012013,-0.04401,0.011565,0.0,-0.015311,0.015596,-0.014599,-0.033793,4079.969971,11514.69043,51566.039062,0.0,-18211.140625,-17728.380859,17976.691406,-17472.419922,4074.660156,11503.259766,51582.328125,0.0,17246.970703,17732.25,-17478.0,17995.230469,0.0,0.0,0.0,0.0,0.0,0.0,0.0,0.0,0.0,0.0,0.0,0.0,0.0,0.0,0.0,0.0,0.0,0.0,0.0,0.0,0.0,0.0,0.0,0.0,0.0,0.0,0.0,0.0,0.0,0.0,0.0,0.0,4079.936279,11514.202148,51566.070312,0.0,-18211.146484,-17728.5625,17976.742188,-17472.361328,4074.681396,11503.203125,51582.140625,0.0,17248.144531,17732.257812,-17477.019531,17995.310547,29.956301,90.392746,22.925053,0.0,-89.513466,-0.03969,27.659782,28.432787,29.917721,90.307838,22.933485,0.0,-90.017609,-0.172342,28.643591,28.995962,0.978,1.003,-45329.0,-128620.0,-509203.0,0.0,175099.0,174656.0,-179949.0,171267.0,-45278.0,-128155.0,-574426.0,0.0,-197016.0,-196802.0,192794.0,-201559.0,0.0,0.0,0.0,0.0,0.0,0.0,0.0,0.0,0.0,0.0,0.0,0.0,0.0,0.0,0.0,0.0,0.0,0.0,0.0,0.0,0.0,0.0,0.0,0.0
6,0.456989049911499,29.956551,90.396721,22.925005,0.0,-89.512245,-0.019395,27.643791,28.436344,29.917564,90.308334,22.933569,0.0,-90.235397,-0.173077,28.534876,28.986557,3.0,1.0,111.0,0.0,1.0,-77758.0,-25237.0,13648.0,-77666.0,25118.0,13484.0,-0.936229,0.275209,0.218483,-0.311036,-0.93835,-0.150849,0.163499,-0.209186,0.964111,-0.938234,0.272545,-0.213158,0.306933,0.939974,-0.149136,0.159717,-0.20535,-0.965568,-0.936229,0.275209,0.218483,-0.311036,-0.93835,-0.150849,0.163499,-0.209186,0.964111,-0.938234,0.272545,-0.213158,0.306933,0.939974,-0.149136,0.159717,-0.20535,-0.965568,-77758.0,-25237.0,13648.0,-77666.0,25118.0,13484.0,-4.0,679.0,-63753.0,0.0,-27247.0,-22326.0,-19792.0,-22871.0,-4.0,-341.0,-1289.0,0.0,-5383.0,223.0,1406.0,-1612.0,46.0,171.0,-44.0,0.0,-902.0,678.0,550.0,-532.0,-44.0,-162.0,42.0,0.0,-416.0,426.0,397.0,-923.0,-0.012539,-0.046465,0.012126,0.0,-0.033042,0.024814,-0.020138,-0.019483,-0.012013,-0.04401,0.011565,0.0,-0.015237,0.015597,-0.014537,-0.033787,4079.969971,11514.69043,51566.039062,0.0,-18211.140625,-17728.380859,17976.691406,-17472.419922,4074.660156,11503.259766,51582.328125,0.0,17246.970703,17732.25,-17478.0,17995.230469,0.0,0.0,0.0,0.0,0.0,0.0,0.0,0.0,0.0,0.0,0.0,0.0,0.0,0.0,0.0,0.0,0.0,0.0,0.0,0.0,0.0,0.0,0.0,0.0,0.0,0.0,0.0,0.0,0.0,0.0,0.0,0.0,4079.936279,11514.202148,51566.070312,0.0,-18211.146484,-17728.5625,17976.742188,-17472.361328,4074.681396,11503.203125,51582.140625,0.0,17248.144531,17732.257812,-17477.019531,17995.310547,29.956301,90.392746,22.925053,0.0,-89.513466,-0.03969,27.659782,28.432787,29.917721,90.307838,22.933485,0.0,-90.017609,-0.172342,28.643591,28.995962,0.978,1.003,-45329.0,-128620.0,-509203.0,0.0,175099.0,174656.0,-179949.0,171267.0,-45278.0,-128155.0,-574426.0,0.0,-197016.0,-196802.0,192794.0,-201559.0,0.0,0.0,0.0,0.0,0.0,0.0,0.0,0.0,0.0,0.0,0.0,0.0,0.0,0.0,0.0,0.0,0.0,0.0,0.0,0.0,0.0,0.0,0.0,0.0
7,0.5269801616668701,29.956551,90.396721,22.925005,0.0,-89.512245,-0.019395,27.643791,28.436344,29.917564,90.308334,22.933569,0.0,-90.235397,-0.173077,28.534876,28.986557,3.0,1.0,111.0,0.0,1.0,-77758.0,-25237.0,13648.0,-77666.0,25118.0,13484.0,-0.936229,0.275209,0.218483,-0.311036,-0.93835,-0.150849,0.163499,-0.209186,0.964111,-0.938234,0.272545,-0.213158,0.306933,0.939974,-0.149136,0.159717,-0.20535,-0.965568,-0.936229,0.275209,0.218483,-0.311036,-0.93835,-0.150849,0.163499,-0.209186,0.964111,-0.938234,0.272545,-0.213158,0.306933,0.939974,-0.149136,0.159717,-0.20535,-0.965568,-77758.0,-25237.0,13648.0,-77666.0,25118.0,13484.0,-4.0,679.0,-63753.0,0.0,-27247.0,-22326.0,-19792.0,-22871.0,-4.0,-341.0,-1289.0,0.0,-5383.0,223.0,1406.0,-1612.0,46.0,171.0,-44.0,0.0,-902.0,677.0,550.0,-532.0,-44.0,-162.0,42.0,0.0,-414.0,426.0,395.0,-923.0,-0.012539,-0.046465,0.012126,0.0,-0.033042,0.024803,-0.020135,-0.019479,-0.012013,-0.04401,0.011565,0.0,-0.015165,0.015597,-0.014478,-0.033782,4079.969971,11514.69043,51566.039062,0.0,-18211.140625,-17728.380859,17976.691406,-17472.419922,4074.660156,11503.259766,51582.328125,0.0,17246.970703,17732.25,-17478.0,17995.230469,0.0,0.0,0.0,0.0,0.0,0.0,0.0,0.0,0.0,0.0,0.0,0.0,0.0,0.0,0.0,0.0,0.0,0.0,0.0,0.0,0.0,0.0,0.0,0.0,0.0,0.0,0.0,0.0,0.0,0.0,0.0,0.0,4079.936279,11514.202148,51566.070312,0.0,-18211.146484,-17728.5625,17976.742188,-17472.361328,4074.681396,11503.203125,51582.140625,0.0,17248.144531,17732.257812,-17477.019531,17995.310547,29.956301,90.392746,22.925053,0.0,-89.513466,-0.03969,27.659782,28.432787,29.917721,90.307838,22.933485,0.0,-90.017609,-0.172342,28.643591,28.995962,0.978,1.003,-45329.0,-128620.0,-509203.0,0.0,175099.0,174656.0,-179949.0,171267.0,-45278.0,-128155.0,-574426.0,0.0,-197016.0,-196802.0,192794.0,-201559.0,0.0,0.0,0.0,0.0,0.0,0.0,0.0,0.0,0.0,0.0,0.0,0.0,0.0,0.0,0.0,0.0,0.0,0.0,0.0,0.0,0.0,0.0,0.0,0.0
8,0.6049871444702148,29.956551,90.396721,22.925005,0.0,-89.512245,-0.019395,27.643791,28.436344,29.917564,90.308334,22.933569,0.0,-90.235397,-0.173077,28.534876,28.986557,3.0,1.0,111.0,0.0,1.0,-77758.0,-25237.0,13648.0,-77666.0,25118.0,13484.0,-0.936229,0.275209,0.218483,-0.311036,-0.93835,-0.150849,0.163499,-0.209186,0.964111,-0.938234,0.272545,-0.213158,0.306933,0.939974,-0.149136,0.159717,-0.20535,-0.965568,-0.936229,0.275209,0.218483,-0.311036,-0.93835,-0.150849,0.163499,-0.209186,0.964111,-0.938234,0.272545,-0.213158,0.306933,0.939974,-0.149136,0.159717,-0.20535,-0.965568,-77758.0,-25237.0,13648.0,-77666.0,25118.0,13484.0,-4.0,679.0,-63753.0,0.0,-27247.0,-22326.0,-19792.0,-22871.0,-4.0,-341.0,-1289.0,0.0,-5383.0,223.0,1406.0,-1612.0,46.0,171.0,-44.0,0.0,-902.0,677.0,550.0,-532.0,-44.0,-162.0,42.0,0.0,-412.0,426.0,393.0,-923.0,-0.012539,-0.046465,0.012126,0.0,-0.033042,0.024791,-0.020132,-0.019475,-0.012013,-0.04401,0.011565,0.0,-0.015085,0.015598,-0.014411,-0.033777,4079.969971,11514.69043,51566.039062,0.0,-18211.140625,-17728.380859,17976.691406,-17472.419922,4074.660156,11503.259766,51582.328125,0.0,17246.970703,17732.25,-17478.0,17995.230469,0.0,0.0,0.0,0.0,0.0,0.0,0.0,0.0,0.0,0.0,0.0,0.0,0.0,0.0,0.0,0.0,0.0,0.0,0.0,0.0,0.0,0.0,0.0,0.0,0.0,0.0,0.0,0.0,0.0,0.0,0.0,0.0,4079.936279,11514.202148,51566.070312,0.0,-18211.146484,-17728.5625,17976.742188,-17472.361328,4074.681396,11503.203125,51582.140625,0.0,17248.144531,17732.257812,-17477.019531,17995.310547,29.956301,90.392746,22.925053,0.0,-89.513466,-0.03969,27.659782,28.432787,29.917721,90.307838,22.933485,0.0,-90.017609,-0.172342,28.643591,28.995962,0.978,1.003,-45329.0,-128620.0,-509203.0,0.0,175099.0,174656.0,-179949.0,171267.0,-45278.0,-128155.0,-574426.0,0.0,-197016.0,-196802.0,192794.0,-201559.0,0.0,0.0,0.0,0.0,0.0,0.0,0.0,0.0,0.0,0.0,0.0,0.0,0.0,0.0,0.0,0.0,0.0,0.0,0.0,0.0,0.0,0.0,0.0,0.0
9,0.6819992065429688,29.956551,90.396721,22.925005,0.0,-89.512245,-0.019395,27.643791,28.436344,29.917564,90.308334,22.933569,0.0,-90.235397,-0.173077,28.534876,28.986557,3.0,1.0,111.0,0.0,1.0,-77758.0,-25237.0,13648.0,-77666.0,25118.0,13484.0,-0.936229,0.275209,0.218483,-0.311036,-0.93835,-0.150849,0.163499,-0.209186,0.964111,-0.938234,0.272545,-0.213158,0.306933,0.939974,-0.149136,0.159717,-0.20535,-0.965568,-0.936229,0.275209,0.218483,-0.311036,-0.93835,-0.150849,0.163499,-0.209186,0.964111,-0.938234,0.272545,-0.213158,0.306933,0.939974,-0.149136,0.159717,-0.20535,-0.965568,-77758.0,-25237.0,13648.0,-77666.0,25118.0,13484.0,-4.0,679.0,-63753.0,0.0,-27247.0,-22326.0,-19792.0,-22871.0,-4.0,-341.0,-1289.0,0.0,-5383.0,223.0,1406.0,-1612.0,46.0,171.0,-44.0,0.0,-903.0,677.0,550.0,-532.0,-44.0,-162.0,42.0,0.0,-410.0,426.0,392.0,-922.0,-0.012539,-0.046465,0.012126,0.0,-0.033043,0.024779,-0.020128,-0.019471,-0.012013,-0.04401,0.011565,0.0,-0.015006,0.015598,-0.014345,-0.033771,4079.969971,11514.69043,51566.039062,0.0,-18211.140625,-17728.380859,17976.691406,-17472.419922,4074.660156,11503.259766,51582.328125,0.0,17246.970703,17732.25,-17478.0,17995.230469,0.0,0.0,0.0,0.0,0.0,0.0,0.0,0.0,0.0,0.0,0.0,0.0,0.0,0.0,0.0,0.0,0.0,0.0,0.0,0.0,0.0,0.0,0.0,0.0,0.0,0.0,0.0,0.0,0.0,0.0,0.0,0.0,4079.936279,11514.202148,51566.070312,0.0,-18211.146484,-17728.5625,17976.742188,-17472.361328,4074.681396,11503.203125,51582.140625,0.0,17248.144531,17732.257812,-17477.019531,17995.310547,29.956301,90.392746,22.925053,0.0,-89.513466,-0.03969,27.659782,28.432787,29.917721,90.307838,22.933485,0.0,-90.017609,-0.172342,28.643591,28.995962,0.978,1.003,-45329.0,-128620.0,-509203.0,0.0,175099.0,174656.0,-179949.0,171267.0,-45278.0,-128155.0,-574426.0,0.0,-197016.0,-196802.0,192794.0,-201559.0,0.0,0.0,0.0,0.0,0.0,0.0,0.0,0.0,0.0,0.0,0.0,0.0,0.0,0.0,0.0,0.0,0.0,0.0,0.0,0.0,0.0,0.0,0.0,0.0
10,0.753993034362793,29.956551,90.396721,22.925005,0.0,-89.512245,-0.019395,27.643791,28.436344,29.917564,90.308334,22.933569,0.0,-90.235397,-0.173077,28.534876,28.986557,3.0,1.0,111.0,0.0,1.0,-77758.0,-25237.0,13648.0,-77666.0,25118.0,13484.0,-0.936229,0.275209,0.218483,-0.311036,-0.93835,-0.150849,0.163499,-0.209186,0.964111,-0.938234,0.272545,-0.213158,0.306933,0.939974,-0.149136,0.159717,-0.20535,-0.965568,-0.936229,0.275209,0.218483,-0.311036,-0.93835,-0.150849,0.163499,-0.209186,0.964111,-0.938234,0.272545,-0.213158,0.306933,0.939974,-0.149136,0.159717,-0.20535,-0.965568,-77758.0,-25237.0,13648.0,-77666.0,25118.0,13484.0,-4.0,679.0,-63753.0,0.0,-27247.0,-22326.0,-19792.0,-22871.0,-4.0,-341.0,-1289.0,0.0,-5383.0,223.0,1406.0,-1612.0,46.0,171.0,-44.0,0.0,-903.0,676.0,549.0,-532.0,-44.0,-162.0,42.0,0.0,-408.0,426.0,390.0,-922.0,-0.012539,-0.046465,0.012126,0.0,-0.033043,0.024767,-0.020125,-0.019468,-0.012013,-0.04401,0.011565,0.0,-0.014933,0.015598,-0.014283,-0.033766,4079.969971,11514.69043,51566.039062,0.0,-18211.140625,-17728.380859,17976.691406,-17472.419922,4074.660156,11503.259766,51582.328125,0.0,17246.970703,17732.25,-17478.0,17995.230469,0.0,0.0,0.0,0.0,0.0,0.0,0.0,0.0,0.0,0.0,0.0,0.0,0.0,0.0,0.0,0.0,0.0,0.0,0.0,0.0,0.0,0.0,0.0,0.0,0.0,0.0,0.0,0.0,0.0,0.0,0.0,0.0,4079.936279,11514.202148,51566.070312,0.0,-18211.146484,-17728.5625,17976.742188,-17472.361328,4074.681396,11503.203125,51582.140625,0.0,17248.144531,17732.257812,-17477.019531,17995.310547,29.956301,90.392746,22.925053,0.0,-89.513466,-0.03969,27.659782,28.432787,29.917721,90.307838,22.933485,0.0,-90.017609,-0.172342,28.643591,28.995962,0.978,1.003,-45329.0,-128620.0,-509203.0,0.0,175099.0,174656.0,-179949.0,171267.0,-45278.0,-128155.0,-574426.0,0.0,-197016.0,-196802.0,192794.0,-201559.0,0.0,0.0,0.0,0.0,0.0,0.0,0.0,0.0,0.0,0.0,0.0,0.0,0.0,0.0,0.0,0.0,0.0,0.0,0.0,0.0,0.0,0.0,0.0,0.0
11,0.827003002166748,29.956551,90.396721,22.925005,0.0,-89.512245,-0.019395,27.643791,28.436344,29.917564,90.308334,22.933569,0.0,-90.235397,-0.173077,28.534876,28.986557,3.0,1.0,111.0,0.0,1.0,-77758.0,-25237.0,13648.0,-77666.0,25118.0,13484.0,-0.936229,0.275209,0.218483,-0.311036,-0.93835,-0.150849,0.163499,-0.209186,0.964111,-0.938234,0.272545,-0.213158,0.306933,0.939974,-0.149136,0.159717,-0.20535,-0.965568,-0.936229,0.275209,0.218483,-0.311036,-0.93835,-0.150849,0.163499,-0.209186,0.964111,-0.938234,0.272545,-0.213158,0.306933,0.939974,-0.149136,0.159717,-0.20535,-0.965568,-77758.0,-25237.0,13648.0,-77666.0,25118.0,13484.0,-4.0,679.0,-63753.0,0.0,-27247.0,-22326.0,-19792.0,-22871.0,-4.0,-341.0,-1289.0,0.0,-5383.0,223.0,1406.0,-1612.0,46.0,171.0,-44.0,0.0,-903.0,676.0,549.0,-531.0,-44.0,-162.0,42.0,0.0,-406.0,426.0,388.0,-922.0,-0.012539,-0.046465,0.012126,0.0,-0.033044,0.024756,-0.020121,-0.019464,-0.012013,-0.04401,0.011565,0.0,-0.014858,0.015599,-0.014221,-0.033761,4079.969971,11514.69043,51566.039062,0.0,-18211.140625,-17728.380859,17976.691406,-17472.419922,4074.660156,11503.259766,51582.328125,0.0,17246.970703,17732.25,-17478.0,17995.230469,0.0,0.0,0.0,0.0,0.0,0.0,0.0,0.0,0.0,0.0,0.0,0.0,0.0,0.0,0.0,0.0,0.0,0.0,0.0,0.0,0.0,0.0,0.0,0.0,0.0,0.0,0.0,0.0,0.0,0.0,0.0,0.0,4079.936279,11514.202148,51566.070312,0.0,-18211.146484,-17728.5625,17976.742188,-17472.361328,4074.681396,11503.203125,51582.140625,0.0,17248.144531,17732.257812,-17477.019531,17995.310547,29.956301,90.392746,22.925053,0.0,-89.513466,-0.03969,27.659782,28.432787,29.917721,90.307838,22.933485,0.0,-90.017609,-0.172342,28.643591,28.995962,0.978,1.003,-45329.0,-128620.0,-509203.0,0.0,175099.0,174656.0,-179949.0,171267.0,-45278.0,-128155.0,-574426.0,0.0,-197016.0,-196802.0,192794.0,-201559.0,0.0,0.0,0.0,0.0,0.0,0.0,0.0,0.0,0.0,0.0,0.0,0.0,0.0,0.0,0.0,0.0,0.0,0.0,0.0,0.0,0.0,0.0,0.0,0.0
12,0.9009830951690674,29.956551,90.396721,22.925005,0.0,-89.512245,-0.019395,27.643791,28.436344,29.917564,90.308334,22.933569,0.0,-90.235397,-0.173077,28.534876,28.986557,3.0,1.0,111.0,0.0,1.0,-77758.0,-25237.0,13648.0,-77666.0,25118.0,13484.0,-0.936229,0.275209,0.218483,-0.311036,-0.93835,-0.150849,0.163499,-0.209186,0.964111,-0.938234,0.272545,-0.213158,0.306933,0.939974,-0.149136,0.159717,-0.20535,-0.965568,-0.936229,0.275209,0.218483,-0.311036,-0.93835,-0.150849,0.163499,-0.209186,0.964111,-0.938234,0.272545,-0.213158,0.306933,0.939974,-0.149136,0.159717,-0.20535,-0.965568,-77758.0,-25237.0,13648.0,-77666.0,25118.0,13484.0,-4.0,679.0,-63753.0,0.0,-27247.0,-22326.0,-19792.0,-22871.0,-4.0,-341.0,-1289.0,0.0,-5383.0,223.0,1406.0,-1612.0,46.0,171.0,-44.0,0.0,-903.0,676.0,549.0,-531.0,-44.0,-162.0,42.0,0.0,-403.0,426.0,386.0,-922.0,-0.012539,-0.046465,0.012126,0.0,-0.033044,0.024744,-0.020118,-0.01946,-0.012013,-0.04401,0.011565,0.0,-0.014782,0.015599,-0.014158,-0.033756,4079.969971,11514.69043,51566.039062,0.0,-18211.140625,-17728.380859,17976.691406,-17472.419922,4074.660156,11503.259766,51582.328125,0.0,17246.970703,17732.25,-17478.0,17995.230469,0.0,0.0,0.0,0.0,0.0,0.0,0.0,0.0,0.0,0.0,0.0,0.0,0.0,0.0,0.0,0.0,0.0,0.0,0.0,0.0,0.0,0.0,0.0,0.0,0.0,0.0,0.0,0.0,0.0,0.0,0.0,0.0,4079.936279,11514.202148,51566.070312,0.0,-18211.146484,-17728.5625,17976.742188,-17472.361328,4074.681396,11503.203125,51582.140625,0.0,17248.144531,17732.257812,-17477.019531,17995.310547,29.956301,90.392746,22.925053,0.0,-89.513466,-0.03969,27.659782,28.432787,29.917721,90.307838,22.933485,0.0,-90.017609,-0.172342,28.643591,28.995962,0.978,1.003,-45329.0,-128620.0,-509203.0,0.0,175099.0,174656.0,-179949.0,171267.0,-45278.0,-128155.0,-574426.0,0.0,-197016.0,-196802.0,192794.0,-201559.0,0.0,0.0,0.0,0.0,0.0,0.0,0.0,0.0,0.0,0.0,0.0,0.0,0.0,0.0,0.0,0.0,0.0,0.0,0.0,0.0,0.0,0.0,0.0,0.0
13,0.975999116897583,29.956551,90.396721,22.925005,0.0,-89.512245,-0.019395,27.643791,28.436344,29.917564,90.308334,22.933569,0.0,-90.235397,-0.173077,28.534876,28.986557,3.0,1.0,111.0,0.0,1.0,-77758.0,-25237.0,13648.0,-77666.0,25118.0,13484.0,-0.936229,0.275209,0.218483,-0.311036,-0.93835,-0.150849,0.163499,-0.209186,0.964111,-0.938234,0.272545,-0.213158,0.306933,0.939974,-0.149136,0.159717,-0.20535,-0.965568,-0.936229,0.275209,0.218483,-0.311036,-0.93835,-0.150849,0.163499,-0.209186,0.964111,-0.938234,0.272545,-0.213158,0.306933,0.939974,-0.149136,0.159717,-0.20535,-0.965568,-77758.0,-25237.0,13648.0,-77666.0,25118.0,13484.0,-4.0,679.0,-63753.0,0.0,-27247.0,-22326.0,-19792.0,-22871.0,-4.0,-341.0,-1289.0,0.0,-5383.0,223.0,1406.0,-1612.0,46.0,171.0,-44.0,0.0,-903.0,675.0,549.0,-531.0,-44.0,-162.0,42.0,0.0,-401.0,426.0,385.0,-922.0,-0.012539,-0.046465,0.012126,0.0,-0.033045,0.024732,-0.020115,-0.019456,-0.012013,-0.04401,0.011565,0.0,-0.014705,0.0156,-0.014093,-0.03375,4079.969971,11514.69043,51566.039062,0.0,-18211.140625,-17728.380859,17976.691406,-17472.419922,4074.660156,11503.259766,51582.328125,0.0,17246.970703,17732.25,-17478.0,17995.230469,0.0,0.0,0.0,0.0,0.0,0.0,0.0,0.0,0.0,0.0,0.0,0.0,0.0,0.0,0.0,0.0,0.0,0.0,0.0,0.0,0.0,0.0,0.0,0.0,0.0,0.0,0.0,0.0,0.0,0.0,0.0,0.0,4079.936279,11514.202148,51566.070312,0.0,-18211.146484,-17728.5625,17976.742188,-17472.361328,4074.681396,11503.203125,51582.140625,0.0,17248.144531,17732.257812,-17477.019531,17995.310547,29.956301,90.392746,22.925053,0.0,-89.513466,-0.03969,27.659782,28.432787,29.917721,90.307838,22.933485,0.0,-90.017609,-0.172342,28.643591,28.995962,0.978,1.003,-45329.0,-128620.0,-509203.0,0.0,175099.0,174656.0,-179949.0,171267.0,-45278.0,-128155.0,-574426.0,0.0,-197016.0,-196802.0,192794.0,-201559.0,0.0,0.0,0.0,0.0,0.0,0.0,0.0,0.0,0.0,0.0,0.0,0.0,0.0,0.0,0.0,0.0,0.0,0.0,0.0,0.0,0.0,0.0,0.0,0.0
14,1.057948112487793,29.956551,90.396721,22.925005,0.0,-89.512245,-0.019395,27.643791,28.436344,29.917564,90.308334,22.933569,0.0,-90.235397,-0.173077,28.534876,28.986557,3.0,1.0,111.0,0.0,1.0,-77758.0,-25237.0,13648.0,-77666.0,25118.0,13484.0,-0.936229,0.275209,0.218483,-0.311036,-0.93835,-0.150849,0.163499,-0.209186,0.964111,-0.938234,0.272545,-0.213158,0.306933,0.939974,-0.149136,0.159717,-0.20535,-0.965568,-0.936229,0.275209,0.218483,-0.311036,-0.93835,-0.150849,0.163499,-0.209186,0.964111,-0.938234,0.272545,-0.213158,0.306933,0.939974,-0.149136,0.159717,-0.20535,-0.965568,-77758.0,-25237.0,13648.0,-77666.0,25118.0,13484.0,-4.0,679.0,-63753.0,0.0,-27247.0,-22326.0,-19792.0,-22871.0,-4.0,-341.0,-1289.0,0.0,-5383.0,223.0,1406.0,-1612.0,46.0,162.0,-45.0,0.0,-901.0,679.0,555.0,-537.0,-44.0,-161.0,45.0,0.0,-450.0,426.0,412.0,-929.0,-0.012521,-0.043893,0.012309,0.0,-0.032998,0.024879,-0.020335,-0.019679,-0.012141,-0.043753,0.012279,0.0,-0.016472,0.015594,-0.015095,-0.034027,4079.969971,11514.69043,51566.039062,0.0,-18211.140625,-17728.380859,17976.691406,-17472.419922,4074.660156,11503.259766,51582.328125,0.0,17246.970703,17732.25,-17478.0,17995.230469,0.0,0.0,0.0,0.0,0.0,0.0,0.0,0.0,0.0,0.0,0.0,0.0,0.0,0.0,0.0,0.0,0.0,0.0,0.0,0.0,0.0,0.0,0.0,0.0,0.0,0.0,0.0,0.0,0.0,0.0,0.0,0.0,4079.939697,11514.693359,51566.136719,0.0,-18211.117188,-17728.380859,17976.488281,-17472.619141,4074.656982,11503.251953,51582.414062,0.0,17246.970703,17732.25,-17478.240234,17994.988281,29.956329,90.396782,22.925053,0.0,-89.50811,-0.019395,27.621145,28.414127,29.91754,90.308266,22.933611,0.0,-90.23539,-0.173026,28.507971,28.959698,0.978,1.003,-45329.0,-128620.0,-509203.0,0.0,175099.0,174656.0,-179949.0,171267.0,-45278.0,-128155.0,-574426.0,0.0,-197016.0,-196802.0,192794.0,-201559.0,0.0,0.0,0.0,0.0,0.0,0.0,0.0,0.0,0.0,0.0,0.0,0.0,0.0,0.0,0.0,0.0,0.0,0.0,0.0,0.0,0.0,0.0,0.0,0.0
15,1.1299850940704346,29.956551,90.396721,22.925005,0.0,-89.512245,-0.019395,27.643791,28.436344,29.917564,90.308334,22.933569,0.0,-90.235397,-0.173077,28.534876,28.986557,3.0,1.0,111.0,0.0,1.0,-77758.0,-25237.0,13648.0,-77666.0,25118.0,13484.0,-0.936229,0.275209,0.218483,-0.311036,-0.93835,-0.150849,0.163499,-0.209186,0.964111,-0.938234,0.272545,-0.213158,0.306933,0.939974,-0.149136,0.159717,-0.20535,-0.965568,-0.936229,0.275209,0.218483,-0.311036,-0.93835,-0.150849,0.163499,-0.209186,0.964111,-0.938234,0.272545,-0.213158,0.306933,0.939974,-0.149136,0.159717,-0.20535,-0.965568,-77758.0,-25237.0,13648.0,-77666.0,25118.0,13484.0,-4.0,679.0,-63753.0,0.0,-27247.0,-22326.0,-19792.0,-22871.0,-4.0,-341.0,-1289.0,0.0,-5383.0,223.0,1406.0,-1612.0,46.0,162.0,-45.0,0.0,-901.0,679.0,556.0,-538.0,-44.0,-161.0,45.0,0.0,-450.0,426.0,412.0,-930.0,-0.012521,-0.043893,0.012309,0.0,-0.032997,0.024879,-0.020347,-0.019691,-0.012141,-0.043753,0.012279,0.0,-0.016472,0.015594,-0.01511,-0.034042,4079.969971,11514.69043,51566.039062,0.0,-18211.140625,-17728.380859,17976.691406,-17472.419922,4074.660156,11503.259766,51582.328125,0.0,17246.970703,17732.25,-17478.0,17995.230469,0.0,0.0,0.0,0.0,0.0,0.0,0.0,0.0,0.0,0.0,0.0,0.0,0.0,0.0,0.0,0.0,0.0,0.0,0.0,0.0,0.0,0.0,0.0,0.0,0.0,0.0,0.0,0.0,0.0,0.0,0.0,0.0,4079.939697,11514.693359,51566.136719,0.0,-18211.117188,-17728.380859,17976.488281,-17472.619141,4074.656982,11503.251953,51582.414062,0.0,17246.970703,17732.25,-17478.240234,17994.988281,29.956329,90.396782,22.925053,0.0,-89.50811,-0.019395,27.621145,28.414127,29.91754,90.308266,22.933611,0.0,-90.23539,-0.173026,28.507971,28.959698,0.978,1.003,-45329.0,-128620.0,-509203.0,0.0,175099.0,174656.0,-179949.0,171267.0,-45278.0,-128155.0,-574426.0,0.0,-197016.0,-196802.0,192794.0,-201559.0,0.0,0.0,0.0,0.0,0.0,0.0,0.0,0.0,0.0,0.0,0.0,0.0,0.0,0.0,0.0,0.0,0.0,0.0,0.0,0.0,0.0,0.0,0.0,0.0
16,1.2098941802978516,29.956551,90.396721,22.925005,0.0,-89.512245,-0.019395,27.643791,28.436344,29.917564,90.308334,22.933569,0.0,-90.235397,-0.173077,28.534876,28.986557,3.0,1.0,111.0,0.0,1.0,-77758.0,-25237.0,13648.0,-77666.0,25118.0,13484.0,-0.936229,0.275209,0.218483,-0.311036,-0.93835,-0.150849,0.163499,-0.209186,0.964111,-0.938234,0.272545,-0.213158,0.306933,0.939974,-0.149136,0.159717,-0.20535,-0.965568,-0.936229,0.275209,0.218483,-0.311036,-0.93835,-0.150849,0.163499,-0.209186,0.964111,-0.938234,0.272545,-0.213158,0.306933,0.939974,-0.149136,0.159717,-0.20535,-0.965568,-77758.0,-25237.0,13648.0,-77666.0,25118.0,13484.0,-4.0,679.0,-63753.0,0.0,-27247.0,-22326.0,-19792.0,-22871.0,-4.0,-341.0,-1289.0,0.0,-5383.0,223.0,1406.0,-1612.0,46.0,162.0,-45.0,0.0,-901.0,679.0,556.0,-538.0,-44.0,-161.0,45.0,0.0,-450.0,426.0,413.0,-930.0,-0.012521,-0.043893,0.012309,0.0,-0.032995,0.024879,-0.020362,-0.019705,-0.012141,-0.043753,0.012279,0.0,-0.016472,0.015594,-0.015127,-0.034059,4079.969971,11514.69043,51566.039062,0.0,-18211.140625,-17728.380859,17976.691406,-17472.419922,4074.660156,11503.259766,51582.328125,0.0,17246.970703,17732.25,-17478.0,17995.230469,0.0,0.0,0.0,0.0,0.0,0.0,0.0,0.0,0.0,0.0,0.0,0.0,0.0,0.0,0.0,0.0,0.0,0.0,0.0,0.0,0.0,0.0,0.0,0.0,0.0,0.0,0.0,0.0,0.0,0.0,0.0,0.0,4079.939697,11514.693359,51566.136719,0.0,-18211.117188,-17728.380859,17976.488281,-17472.619141,4074.656982,11503.251953,51582.414062,0.0,17246.970703,17732.25,-17478.240234,17994.988281,29.956329,90.396782,22.925053,0.0,-89.50811,-0.019395,27.621145,28.414127,29.91754,90.308266,22.933611,0.0,-90.23539,-0.173026,28.507971,28.959698,0.978,1.003,-45329.0,-128620.0,-509203.0,0.0,175099.0,174656.0,-179949.0,171267.0,-45278.0,-128155.0,-574426.0,0.0,-197016.0,-196802.0,192794.0,-201559.0,0.0,0.0,0.0,0.0,0.0,0.0,0.0,0.0,0.0,0.0,0.0,0.0,0.0,0.0,0.0,0.0,0.0,0.0,0.0,0.0,0.0,0.0,0.0,0.0
17,1.2879550457000732,29.956551,90.396721,22.925005,0.0,-89.512245,-0.019395,27.643791,28.436344,29.917564,90.308334,22.933569,0.0,-90.235397,-0.173077,28.534876,28.986557,3.0,1.0,111.0,0.0,1.0,-77758.0,-25237.0,13648.0,-77666.0,25118.0,13484.0,-0.936229,0.275209,0.218483,-0.311036,-0.93835,-0.150849,0.163499,-0.209186,0.964111,-0.938234,0.272545,-0.213158,0.306933,0.939974,-0.149136,0.159717,-0.20535,-0.965568,-0.936229,0.275209,0.218483,-0.311036,-0.93835,-0.150849,0.163499,-0.209186,0.964111,-0.938234,0.272545,-0.213158,0.306933,0.939974,-0.149136,0.159717,-0.20535,-0.965568,-77758.0,-25237.0,13648.0,-77666.0,25118.0,13484.0,-4.0,679.0,-63753.0,0.0,-27247.0,-22326.0,-19792.0,-22871.0,-4.0,-341.0,-1289.0,0.0,-5383.0,223.0,1406.0,-1612.0,46.0,162.0,-45.0,0.0,-901.0,679.0,556.0,-538.0,-44.0,-161.0,45.0,0.0,-450.0,426.0,413.0,-931.0,-0.012521,-0.043893,0.012309,0.0,-0.032994,0.024879,-0.020375,-0.019719,-0.012141,-0.043753,0.012279,0.0,-0.016472,0.015594,-0.015144,-0.034075,4079.969971,11514.69043,51566.039062,0.0,-18211.140625,-17728.380859,17976.691406,-17472.419922,4074.660156,11503.259766,51582.328125,0.0,17246.970703,17732.25,-17478.0,17995.230469,0.0,0.0,0.0,0.0,0.0,0.0,0.0,0.0,0.0,0.0,0.0,0.0,0.0,0.0,0.0,0.0,0.0,0.0,0.0,0.0,0.0,0.0,0.0,0.0,0.0,0.0,0.0,0.0,0.0,0.0,0.0,0.0,4079.939697,11514.693359,51566.136719,0.0,-18211.117188,-17728.380859,17976.488281,-17472.619141,4074.656982,11503.251953,51582.414062,0.0,17246.970703,17732.25,-17478.240234,17994.988281,29.956329,90.396782,22.925053,0.0,-89.50811,-0.019395,27.621145,28.414127,29.91754,90.308266,22.933611,0.0,-90.23539,-0.173026,28.507971,28.959698,0.978,1.003,-45329.0,-128620.0,-509203.0,0.0,175099.0,174656.0,-179949.0,171267.0,-45278.0,-128155.0,-574426.0,0.0,-197016.0,-196802.0,192794.0,-201559.0,0.0,0.0,0.0,0.0,0.0,0.0,0.0,0.0,0.0,0.0,0.0,0.0,0.0,0.0,0.0,0.0,0.0,0.0,0.0,0.0,0.0,0.0,0.0,0.0
18,1.368990182876587,29.956551,90.396721,22.925005,0.0,-89.512245,-0.019395,27.643791,28.436344,29.917564,90.308334,22.933569,0.0,-90.235397,-0.173077,28.534876,28.986557,3.0,1.0,111.0,0.0,1.0,-77758.0,-25237.0,13648.0,-77666.0,25118.0,13484.0,-0.936229,0.275209,0.218483,-0.311036,-0.93835,-0.150849,0.163499,-0.209186,0.964111,-0.938234,0.272545,-0.213158,0.306933,0.939974,-0.149136,0.159717,-0.20535,-0.965568,-0.936229,0.275209,0.218483,-0.311036,-0.93835,-0.150849,0.163499,-0.209186,0.964111,-0.938234,0.272545,-0.213158,0.306933,0.939974,-0.149136,0.159717,-0.20535,-0.965568,-77758.0,-25237.0,13648.0,-77666.0,25118.0,13484.0,-4.0,679.0,-63753.0,0.0,-27247.0,-22326.0,-19792.0,-22871.0,-4.0,-341.0,-1289.0,0.0,-5383.0,223.0,1406.0,-1612.0,46.0,162.0,-45.0,0.0,-901.0,679.0,557.0,-539.0,-44.0,-161.0,45.0,0.0,-450.0,426.0,414.0,-931.0,-0.012521,-0.043893,0.012309,0.0,-0.032992,0.024879,-0.02039,-0.019733,-0.012141,-0.043753,0.012279,0.0,-0.016472,0.015594,-0.015161,-0.034092,4079.969971,11514.69043,51566.039062,0.0,-18211.140625,-17728.380859,17976.691406,-17472.419922,4074.660156,11503.259766,51582.328125,0.0,17246.970703,17732.25,-17478.0,17995.230469,0.0,0.0,0.0,0.0,0.0,0.0,0.0,0.0,0.0,0.0,0.0,0.0,0.0,0.0,0.0,0.0,0.0,0.0,0.0,0.0,0.0,0.0,0.0,0.0,0.0,0.0,0.0,0.0,0.0,0.0,0.0,0.0,4079.939697,11514.693359,51566.136719,0.0,-18211.117188,-17728.380859,17976.488281,-17472.619141,4074.656982,11503.251953,51582.414062,0.0,17246.970703,17732.25,-17478.240234,17994.988281,29.956329,90.396782,22.925053,0.0,-89.50811,-0.019395,27.621145,28.414127,29.91754,90.308266,22.933611,0.0,-90.23539,-0.173026,28.507971,28.959698,0.978,1.003,-45329.0,-128620.0,-509203.0,0.0,175099.0,174656.0,-179949.0,171267.0,-45278.0,-128155.0,-574426.0,0.0,-197016.0,-196802.0,192794.0,-201559.0,0.0,0.0,0.0,0.0,0.0,0.0,0.0,0.0,0.0,0.0,0.0,0.0,0.0,0.0,0.0,0.0,0.0,0.0,0.0,0.0,0.0,0.0,0.0,0.0
19,1.4449660778045654,29.956551,90.396721,22.925005,0.0,-89.512245,-0.019395,27.643791,28.436344,29.917564,90.308334,22.933569,0.0,-90.235397,-0.173077,28.534876,28.986557,3.0,1.0,111.0,0.0,1.0,-77758.0,-25237.0,13648.0,-77666.0,25118.0,13484.0,-0.936229,0.275209,0.218483,-0.311036,-0.93835,-0.150849,0.163499,-0.209186,0.964111,-0.938234,0.272545,-0.213158,0.306933,0.939974,-0.149136,0.159717,-0.20535,-0.965568,-0.936229,0.275209,0.218483,-0.311036,-0.93835,-0.150849,0.163499,-0.209186,0.964111,-0.938234,0.272545,-0.213158,0.306933,0.939974,-0.149136,0.159717,-0.20535,-0.965568,-77758.0,-25237.0,13648.0,-77666.0,25118.0,13484.0,-4.0,679.0,-63753.0,0.0,-27247.0,-22326.0,-19792.0,-22871.0,-4.0,-341.0,-1289.0,0.0,-5383.0,223.0,1406.0,-1612.0,46.0,162.0,-45.0,0.0,-901.0,679.0,557.0,-539.0,-44.0,-161.0,45.0,0.0,-450.0,426.0,414.0,-932.0,-0.012521,-0.043893,0.012309,0.0,-0.03299,0.024879,-0.020403,-0.019746,-0.012141,-0.043753,0.012279,0.0,-0.016472,0.015594,-0.015177,-0.034108,4079.969971,11514.69043,51566.039062,0.0,-18211.140625,-17728.380859,17976.691406,-17472.419922,4074.660156,11503.259766,51582.328125,0.0,17246.970703,17732.25,-17478.0,17995.230469,0.0,0.0,0.0,0.0,0.0,0.0,0.0,0.0,0.0,0.0,0.0,0.0,0.0,0.0,0.0,0.0,0.0,0.0,0.0,0.0,0.0,0.0,0.0,0.0,0.0,0.0,0.0,0.0,0.0,0.0,0.0,0.0,4079.939697,11514.693359,51566.136719,0.0,-18211.117188,-17728.380859,17976.488281,-17472.619141,4074.656982,11503.251953,51582.414062,0.0,17246.970703,17732.25,-17478.240234,17994.988281,29.956329,90.396782,22.925053,0.0,-89.50811,-0.019395,27.621145,28.414127,29.91754,90.308266,22.933611,0.0,-90.23539,-0.173026,28.507971,28.959698,0.978,1.003,-45329.0,-128620.0,-509203.0,0.0,175099.0,174656.0,-179949.0,171267.0,-45278.0,-128155.0,-574426.0,0.0,-197016.0,-196802.0,192794.0,-201559.0,0.0,0.0,0.0,0.0,0.0,0.0,0.0,0.0,0.0,0.0,0.0,0.0,0.0,0.0,0.0,0.0,0.0,0.0,0.0,0.0,0.0,0.0,0.0,0.0
20,1.5209670066833496,29.956551,90.396721,22.925005,0.0,-89.512245,-0.019395,27.643791,28.436344,29.917564,90.308334,22.933569,0.0,-90.235397,-0.173077,28.534876,28.986557,3.0,1.0,111.0,0.0,1.0,-77758.0,-25237.0,13648.0,-77666.0,25118.0,13484.0,-0.936229,0.275209,0.218483,-0.311036,-0.93835,-0.150849,0.163499,-0.209186,0.964111,-0.938234,0.272545,-0.213158,0.306933,0.939974,-0.149136,0.159717,-0.20535,-0.965568,-0.936229,0.275209,0.218483,-0.311036,-0.93835,-0.150849,0.163499,-0.209186,0.964111,-0.938234,0.272545,-0.213158,0.306933,0.939974,-0.149136,0.159717,-0.20535,-0.965568,-77758.0,-25237.0,13648.0,-77666.0,25118.0,13484.0,-4.0,679.0,-63753.0,0.0,-27247.0,-22326.0,-19792.0,-22871.0,-4.0,-341.0,-1289.0,0.0,-5383.0,223.0,1406.0,-1612.0,46.0,162.0,-45.0,0.0,-901.0,679.0,557.0,-539.0,-44.0,-161.0,45.0,0.0,-450.0,426.0,415.0,-932.0,-0.012521,-0.043893,0.012309,0.0,-0.032989,0.024879,-0.020417,-0.019759,-0.012141,-0.043753,0.012279,0.0,-0.016472,0.015594,-0.015193,-0.034125,4079.969971,11514.69043,51566.039062,0.0,-18211.140625,-17728.380859,17976.691406,-17472.419922,4074.660156,11503.259766,51582.328125,0.0,17246.970703,17732.25,-17478.0,17995.230469,0.0,0.0,0.0,0.0,0.0,0.0,0.0,0.0,0.0,0.0,0.0,0.0,0.0,0.0,0.0,0.0,0.0,0.0,0.0,0.0,0.0,0.0,0.0,0.0,0.0,0.0,0.0,0.0,0.0,0.0,0.0,0.0,4079.939697,11514.693359,51566.136719,0.0,-18211.117188,-17728.380859,17976.488281,-17472.619141,4074.656982,11503.251953,51582.414062,0.0,17246.970703,17732.25,-17478.240234,17994.988281,29.956329,90.396782,22.925053,0.0,-89.50811,-0.019395,27.621145,28.414127,29.91754,90.308266,22.933611,0.0,-90.23539,-0.173026,28.507971,28.959698,0.978,1.003,-45329.0,-128620.0,-509203.0,0.0,175099.0,174656.0,-179949.0,171267.0,-45278.0,-128155.0,-574426.0,0.0,-197016.0,-196802.0,192794.0,-201559.0,0.0,0.0,0.0,0.0,0.0,0.0,0.0,0.0,0.0,0.0,0.0,0.0,0.0,0.0,0.0,0.0,0.0,0.0,0.0,0.0,0.0,0.0,0.0,0.0
21,1.603999137878418,29.956551,90.396721,22.925005,0.0,-89.512245,-0.019395,27.643791,28.436344,29.917564,90.308334,22.933569,0.0,-90.235397,-0.173077,28.534876,28.986557,3.0,1.0,111.0,0.0,1.0,-77758.0,-25237.0,13648.0,-77666.0,25118.0,13484.0,-0.936229,0.275209,0.218483,-0.311036,-0.93835,-0.150849,0.163499,-0.209186,0.964111,-0.938234,0.272545,-0.213158,0.306933,0.939974,-0.149136,0.159717,-0.20535,-0.965568,-0.936229,0.275209,0.218483,-0.311036,-0.93835,-0.150849,0.163499,-0.209186,0.964111,-0.938234,0.272545,-0.213158,0.306933,0.939974,-0.149136,0.159717,-0.20535,-0.965568,-77758.0,-25237.0,13648.0,-77666.0,25118.0,13484.0,-4.0,679.0,-63753.0,0.0,-27247.0,-22326.0,-19792.0,-22871.0,-4.0,-341.0,-1289.0,0.0,-5383.0,223.0,1406.0,-1612.0,46.0,162.0,-45.0,0.0,-901.0,679.0,558.0,-540.0,-44.0,-161.0,45.0,0.0,-450.0,426.0,415.0,-933.0,-0.012521,-0.043893,0.012309,0.0,-0.032987,0.024879,-0.020431,-0.019774,-0.012141,-0.043753,0.012279,0.0,-0.016472,0.015594,-0.01521,-0.034142,4079.969971,11514.69043,51566.039062,0.0,-18211.140625,-17728.380859,17976.691406,-17472.419922,4074.660156,11503.259766,51582.328125,0.0,17246.970703,17732.25,-17478.0,17995.230469,0.0,0.0,0.0,0.0,0.0,0.0,0.0,0.0,0.0,0.0,0.0,0.0,0.0,0.0,0.0,0.0,0.0,0.0,0.0,0.0,0.0,0.0,0.0,0.0,0.0,0.0,0.0,0.0,0.0,0.0,0.0,0.0,4079.939697,11514.693359,51566.136719,0.0,-18211.117188,-17728.380859,17976.488281,-17472.619141,4074.656982,11503.251953,51582.414062,0.0,17246.970703,17732.25,-17478.240234,17994.988281,29.956329,90.396782,22.925053,0.0,-89.50811,-0.019395,27.621145,28.414127,29.91754,90.308266,22.933611,0.0,-90.23539,-0.173026,28.507971,28.959698,0.978,1.003,-45329.0,-128620.0,-509203.0,0.0,175099.0,174656.0,-179949.0,171267.0,-45278.0,-128155.0,-574426.0,0.0,-197016.0,-196802.0,192794.0,-201559.0,0.0,0.0,0.0,0.0,0.0,0.0,0.0,0.0,0.0,0.0,0.0,0.0,0.0,0.0,0.0,0.0,0.0,0.0,0.0,0.0,0.0,0.0,0.0,0.0
22,1.6749730110168457,29.956551,90.396721,22.925005,0.0,-89.512245,-0.019395,27.643791,28.436344,29.917564,90.308334,22.933569,0.0,-90.235397,-0.173077,28.534876,28.986557,3.0,1.0,111.0,0.0,1.0,-77758.0,-25237.0,13648.0,-77666.0,25118.0,13484.0,-0.936229,0.275209,0.218483,-0.311036,-0.93835,-0.150849,0.163499,-0.209186,0.964111,-0.938234,0.272545,-0.213158,0.306933,0.939974,-0.149136,0.159717,-0.20535,-0.965568,-0.936229,0.275209,0.218483,-0.311036,-0.93835,-0.150849,0.163499,-0.209186,0.964111,-0.938234,0.272545,-0.213158,0.306933,0.939974,-0.149136,0.159717,-0.20535,-0.965568,-77758.0,-25237.0,13648.0,-77666.0,25118.0,13484.0,-4.0,679.0,-63753.0,0.0,-27247.0,-22326.0,-19792.0,-22871.0,-4.0,-341.0,-1289.0,0.0,-5383.0,223.0,1406.0,-1612.0,46.0,162.0,-45.0,0.0,-901.0,679.0,558.0,-540.0,-44.0,-161.0,45.0,0.0,-450.0,426.0,416.0,-933.0,-0.012521,-0.043893,0.012309,0.0,-0.032985,0.024879,-0.020444,-0.019786,-0.012141,-0.043753,0.012279,0.0,-0.016472,0.015594,-0.015225,-0.034157,4079.969971,11514.69043,51566.039062,0.0,-18211.140625,-17728.380859,17976.691406,-17472.419922,4074.660156,11503.259766,51582.328125,0.0,17246.970703,17732.25,-17478.0,17995.230469,0.0,0.0,0.0,0.0,0.0,0.0,0.0,0.0,0.0,0.0,0.0,0.0,0.0,0.0,0.0,0.0,0.0,0.0,0.0,0.0,0.0,0.0,0.0,0.0,0.0,0.0,0.0,0.0,0.0,0.0,0.0,0.0,4079.939697,11514.693359,51566.136719,0.0,-18211.117188,-17728.380859,17976.488281,-17472.619141,4074.656982,11503.251953,51582.414062,0.0,17246.970703,17732.25,-17478.240234,17994.988281,29.956329,90.396782,22.925053,0.0,-89.50811,-0.019395,27.621145,28.414127,29.91754,90.308266,22.933611,0.0,-90.23539,-0.173026,28.507971,28.959698,0.978,1.003,-45329.0,-128620.0,-509203.0,0.0,175099.0,174656.0,-179949.0,171267.0,-45278.0,-128155.0,-574426.0,0.0,-197016.0,-196802.0,192794.0,-201559.0,0.0,0.0,0.0,0.0,0.0,0.0,0.0,0.0,0.0,0.0,0.0,0.0,0.0,0.0,0.0,0.0,0.0,0.0,0.0,0.0,0.0,0.0,0.0,0.0
23,1.7469770908355713,29.956551,90.396721,22.925005,0.0,-89.512245,-0.019395,27.643791,28.436344,29.917564,90.308334,22.933569,0.0,-90.235397,-0.173077,28.534876,28.986557,3.0,1.0,111.0,0.0,1.0,-77758.0,-25237.0,13648.0,-77666.0,25118.0,13484.0,-0.936229,0.275209,0.218483,-0.311036,-0.93835,-0.150849,0.163499,-0.209186,0.964111,-0.938234,0.272545,-0.213158,0.306933,0.939974,-0.149136,0.159717,-0.20535,-0.965568,-0.936229,0.275209,0.218483,-0.311036,-0.93835,-0.150849,0.163499,-0.209186,0.964111,-0.938234,0.272545,-0.213158,0.306933,0.939974,-0.149136,0.159717,-0.20535,-0.965568,-77758.0,-25237.0,13648.0,-77666.0,25118.0,13484.0,-4.0,679.0,-63753.0,0.0,-27247.0,-22326.0,-19792.0,-22871.0,-4.0,-341.0,-1289.0,0.0,-5383.0,223.0,1406.0,-1612.0,46.0,162.0,-45.0,0.0,-901.0,679.0,559.0,-541.0,-44.0,-161.0,45.0,0.0,-450.0,426.0,416.0,-933.0,-0.012521,-0.043893,0.012309,0.0,-0.032984,0.024879,-0.020457,-0.019799,-0.012141,-0.043753,0.012279,0.0,-0.016472,0.015594,-0.01524,-0.034172,4079.969971,11514.69043,51566.039062,0.0,-18211.140625,-17728.380859,17976.691406,-17472.419922,4074.660156,11503.259766,51582.328125,0.0,17246.970703,17732.25,-17478.0,17995.230469,0.0,0.0,0.0,0.0,0.0,0.0,0.0,0.0,0.0,0.0,0.0,0.0,0.0,0.0,0.0,0.0,0.0,0.0,0.0,0.0,0.0,0.0,0.0,0.0,0.0,0.0,0.0,0.0,0.0,0.0,0.0,0.0,4079.939697,11514.693359,51566.136719,0.0,-18211.117188,-17728.380859,17976.488281,-17472.619141,4074.656982,11503.251953,51582.414062,0.0,17246.970703,17732.25,-17478.240234,17994.988281,29.956329,90.396782,22.925053,0.0,-89.50811,-0.019395,27.621145,28.414127,29.91754,90.308266,22.933611,0.0,-90.23539,-0.173026,28.507971,28.959698,0.978,1.003,-45329.0,-128620.0,-509203.0,0.0,175099.0,174656.0,-179949.0,171267.0,-45278.0,-128155.0,-574426.0,0.0,-197016.0,-196802.0,192794.0,-201559.0,0.0,0.0,0.0,0.0,0.0,0.0,0.0,0.0,0.0,0.0,0.0,0.0,0.0,0.0,0.0,0.0,0.0,0.0,0.0,0.0,0.0,0.0,0.0,0.0
24,1.8249900341033936,29.956551,90.396721,22.925005,0.0,-89.512245,-0.019395,27.643791,28.436344,29.917564,90.308334,22.933569,0.0,-90.235397,-0.173077,28.534876,28.986557,3.0,1.0,111.0,0.0,1.0,-77758.0,-25237.0,13648.0,-77666.0,25118.0,13484.0,-0.936229,0.275209,0.218483,-0.311036,-0.93835,-0.150849,0.163499,-0.209186,0.964111,-0.938234,0.272545,-0.213158,0.306933,0.939974,-0.149136,0.159717,-0.20535,-0.965568,-0.936229,0.275209,0.218483,-0.311036,-0.93835,-0.150849,0.163499,-0.209186,0.964111,-0.938234,0.272545,-0.213158,0.306933,0.939974,-0.149136,0.159717,-0.20535,-0.965568,-77758.0,-25237.0,13648.0,-77666.0,25118.0,13484.0,-4.0,679.0,-63753.0,0.0,-27247.0,-22326.0,-19792.0,-22871.0,-4.0,-341.0,-1289.0,0.0,-5383.0,223.0,1406.0,-1612.0,46.0,162.0,-45.0,0.0,-901.0,679.0,559.0,-541.0,-44.0,-161.0,45.0,0.0,-450.0,426.0,416.0,-934.0,-0.012521,-0.043893,0.012309,0.0,-0.032982,0.024879,-0.020471,-0.019812,-0.012141,-0.043753,0.012279,0.0,-0.016472,0.015594,-0.015256,-0.034189,4079.969971,11514.69043,51566.039062,0.0,-18211.140625,-17728.380859,17976.691406,-17472.419922,4074.660156,11503.259766,51582.328125,0.0,17246.970703,17732.25,-17478.0,17995.230469,0.0,0.0,0.0,0.0,0.0,0.0,0.0,0.0,0.0,0.0,0.0,0.0,0.0,0.0,0.0,0.0,0.0,0.0,0.0,0.0,0.0,0.0,0.0,0.0,0.0,0.0,0.0,0.0,0.0,0.0,0.0,0.0,4079.939697,11514.693359,51566.136719,0.0,-18211.117188,-17728.380859,17976.488281,-17472.619141,4074.656982,11503.251953,51582.414062,0.0,17246.970703,17732.25,-17478.240234,17994.988281,29.956329,90.396782,22.925053,0.0,-89.50811,-0.019395,27.621145,28.414127,29.91754,90.308266,22.933611,0.0,-90.23539,-0.173026,28.507971,28.959698,0.978,1.003,-45329.0,-128620.0,-509203.0,0.0,175099.0,174656.0,-179949.0,171267.0,-45278.0,-128155.0,-574426.0,0.0,-197016.0,-196802.0,192794.0,-201559.0,0.0,0.0,0.0,0.0,0.0,0.0,0.0,0.0,0.0,0.0,0.0,0.0,0.0,0.0,0.0,0.0,0.0,0.0,0.0,0.0,0.0,0.0,0.0,0.0
25,1.8999412059783936,29.956551,90.396721,22.925005,0.0,-89.512245,-0.019395,27.643791,28.436344,29.917564,90.308334,22.933569,0.0,-90.235397,-0.173077,28.534876,28.986557,3.0,1.0,111.0,0.0,1.0,-77758.0,-25237.0,13648.0,-77666.0,25118.0,13484.0,-0.936229,0.275209,0.218483,-0.311036,-0.93835,-0.150849,0.163499,-0.209186,0.964111,-0.938234,0.272545,-0.213158,0.306933,0.939974,-0.149136,0.159717,-0.20535,-0.965568,-0.936229,0.275209,0.218483,-0.311036,-0.93835,-0.150849,0.163499,-0.209186,0.964111,-0.938234,0.272545,-0.213158,0.306933,0.939974,-0.149136,0.159717,-0.20535,-0.965568,-77758.0,-25237.0,13648.0,-77666.0,25118.0,13484.0,-4.0,679.0,-63753.0,0.0,-27247.0,-22326.0,-19792.0,-22871.0,-4.0,-341.0,-1289.0,0.0,-5383.0,223.0,1406.0,-1612.0,46.0,162.0,-45.0,0.0,-901.0,679.0,559.0,-541.0,-44.0,-161.0,45.0,0.0,-450.0,426.0,417.0,-934.0,-0.012521,-0.043893,0.012309,0.0,-0.032981,0.024879,-0.020484,-0.019826,-0.012141,-0.043753,0.012279,0.0,-0.016472,0.015594,-0.015272,-0.034205,4079.969971,11514.69043,51566.039062,0.0,-18211.140625,-17728.380859,17976.691406,-17472.419922,4074.660156,11503.259766,51582.328125,0.0,17246.970703,17732.25,-17478.0,17995.230469,0.0,0.0,0.0,0.0,0.0,0.0,0.0,0.0,0.0,0.0,0.0,0.0,0.0,0.0,0.0,0.0,0.0,0.0,0.0,0.0,0.0,0.0,0.0,0.0,0.0,0.0,0.0,0.0,0.0,0.0,0.0,0.0,4079.939697,11514.693359,51566.136719,0.0,-18211.117188,-17728.380859,17976.488281,-17472.619141,4074.656982,11503.251953,51582.414062,0.0,17246.970703,17732.25,-17478.240234,17994.988281,29.956329,90.396782,22.925053,0.0,-89.50811,-0.019395,27.621145,28.414127,29.91754,90.308266,22.933611,0.0,-90.23539,-0.173026,28.507971,28.959698,0.978,1.003,-45329.0,-128620.0,-509203.0,0.0,175099.0,174656.0,-179949.0,171267.0,-45278.0,-128155.0,-574426.0,0.0,-197016.0,-196802.0,192794.0,-201559.0,0.0,0.0,0.0,0.0,0.0,0.0,0.0,0.0,0.0,0.0,0.0,0.0,0.0,0.0,0.0,0.0,0.0,0.0,0.0,0.0,0.0,0.0,0.0,0.0
26,1.97395920753479,29.956551,90.396721,22.925005,0.0,-89.512245,-0.019395,27.643791,28.436344,29.917564,90.308334,22.933569,0.0,-90.235397,-0.173077,28.534876,28.986557,3.0,1.0,111.0,0.0,1.0,-77758.0,-25237.0,13648.0,-77666.0,25118.0,13484.0,-0.936229,0.275209,0.218483,-0.311036,-0.93835,-0.150849,0.163499,-0.209186,0.964111,-0.938234,0.272545,-0.213158,0.306933,0.939974,-0.149136,0.159717,-0.20535,-0.965568,-0.936229,0.275209,0.218483,-0.311036,-0.93835,-0.150849,0.163499,-0.209186,0.964111,-0.938234,0.272545,-0.213158,0.306933,0.939974,-0.149136,0.159717,-0.20535,-0.965568,-77758.0,-25237.0,13648.0,-77666.0,25118.0,13484.0,-4.0,679.0,-63753.0,0.0,-27247.0,-22326.0,-19792.0,-22871.0,-4.0,-341.0,-1289.0,0.0,-5383.0,223.0,1406.0,-1612.0,46.0,162.0,-45.0,0.0,-901.0,679.0,560.0,-542.0,-44.0,-161.0,45.0,0.0,-450.0,426.0,417.0,-935.0,-0.012521,-0.043893,0.012309,0.0,-0.032979,0.024879,-0.020497,-0.019838,-0.012141,-0.043753,0.012279,0.0,-0.016472,0.015594,-0.015288,-0.03422,4079.969971,11514.69043,51566.039062,0.0,-18211.140625,-17728.380859,17976.691406,-17472.419922,4074.660156,11503.259766,51582.328125,0.0,17246.970703,17732.25,-17478.0,17995.230469,0.0,0.0,0.0,0.0,0.0,0.0,0.0,0.0,0.0,0.0,0.0,0.0,0.0,0.0,0.0,0.0,0.0,0.0,0.0,0.0,0.0,0.0,0.0,0.0,0.0,0.0,0.0,0.0,0.0,0.0,0.0,0.0,4079.939697,11514.693359,51566.136719,0.0,-18211.117188,-17728.380859,17976.488281,-17472.619141,4074.656982,11503.251953,51582.414062,0.0,17246.970703,17732.25,-17478.240234,17994.988281,29.956329,90.396782,22.925053,0.0,-89.50811,-0.019395,27.621145,28.414127,29.91754,90.308266,22.933611,0.0,-90.23539,-0.173026,28.507971,28.959698,0.978,1.003,-45329.0,-128620.0,-509203.0,0.0,175099.0,174656.0,-179949.0,171267.0,-45278.0,-128155.0,-574426.0,0.0,-197016.0,-196802.0,192794.0,-201559.0,0.0,0.0,0.0,0.0,0.0,0.0,0.0,0.0,0.0,0.0,0.0,0.0,0.0,0.0,0.0,0.0,0.0,0.0,0.0,0.0,0.0,0.0,0.0,0.0
27,2.0459470748901367,29.956551,90.396721,22.925005,0.0,-89.512245,-0.019395,27.643791,28.436344,29.917564,90.308334,22.933569,0.0,-90.235397,-0.173077,28.534876,28.986557,3.0,1.0,111.0,0.0,1.0,-77758.0,-25237.0,13648.0,-77666.0,25118.0,13484.0,-0.936229,0.275209,0.218483,-0.311036,-0.93835,-0.150849,0.163499,-0.209186,0.964111,-0.938234,0.272545,-0.213158,0.306933,0.939974,-0.149136,0.159717,-0.20535,-0.965568,-0.936229,0.275209,0.218483,-0.311036,-0.93835,-0.150849,0.163499,-0.209186,0.964111,-0.938234,0.272545,-0.213158,0.306933,0.939974,-0.149136,0.159717,-0.20535,-0.965568,-77758.0,-25237.0,13648.0,-77666.0,25118.0,13484.0,-4.0,679.0,-63753.0,0.0,-27247.0,-22326.0,-19792.0,-22871.0,-4.0,-341.0,-1289.0,0.0,-5383.0,223.0,1406.0,-1612.0,46.0,162.0,-45.0,0.0,-901.0,679.0,560.0,-542.0,-44.0,-161.0,45.0,0.0,-450.0,426.0,418.0,-935.0,-0.012521,-0.043893,0.012309,0.0,-0.032978,0.024879,-0.02051,-0.019851,-0.012141,-0.043753,0.012279,0.0,-0.016472,0.015594,-0.015303,-0.034236,4079.969971,11514.69043,51566.039062,0.0,-18211.140625,-17728.380859,17976.691406,-17472.419922,4074.660156,11503.259766,51582.328125,0.0,17246.970703,17732.25,-17478.0,17995.230469,0.0,0.0,0.0,0.0,0.0,0.0,0.0,0.0,0.0,0.0,0.0,0.0,0.0,0.0,0.0,0.0,0.0,0.0,0.0,0.0,0.0,0.0,0.0,0.0,0.0,0.0,0.0,0.0,0.0,0.0,0.0,0.0,4079.939697,11514.693359,51566.136719,0.0,-18211.117188,-17728.380859,17976.488281,-17472.619141,4074.656982,11503.251953,51582.414062,0.0,17246.970703,17732.25,-17478.240234,17994.988281,29.956329,90.396782,22.925053,0.0,-89.50811,-0.019395,27.621145,28.414127,29.91754,90.308266,22.933611,0.0,-90.23539,-0.173026,28.507971,28.959698,0.978,1.003,-45329.0,-128620.0,-509203.0,0.0,175099.0,174656.0,-179949.0,171267.0,-45278.0,-128155.0,-574426.0,0.0,-197016.0,-196802.0,192794.0,-201559.0,0.0,0.0,0.0,0.0,0.0,0.0,0.0,0.0,0.0,0.0,0.0,0.0,0.0,0.0,0.0,0.0,0.0,0.0,0.0,0.0,0.0,0.0,0.0,0.0
28,2.1259660720825195,29.956551,90.396721,22.925005,0.0,-89.512245,-0.019395,27.643791,28.436344,29.917564,90.308334,22.933569,0.0,-90.235397,-0.173077,28.534876,28.986557,3.0,1.0,111.0,0.0,1.0,-77758.0,-25237.0,13648.0,-77666.0,25118.0,13484.0,-0.936229,0.275209,0.218483,-0.311036,-0.93835,-0.150849,0.163499,-0.209186,0.964111,-0.938234,0.272545,-0.213158,0.306933,0.939974,-0.149136,0.159717,-0.20535,-0.965568,-0.936229,0.275209,0.218483,-0.311036,-0.93835,-0.150849,0.163499,-0.209186,0.964111,-0.938234,0.272545,-0.213158,0.306933,0.939974,-0.149136,0.159717,-0.20535,-0.965568,-77758.0,-25237.0,13648.0,-77666.0,25118.0,13484.0,-4.0,679.0,-63753.0,0.0,-27247.0,-22326.0,-19792.0,-22871.0,-4.0,-341.0,-1289.0,0.0,-5383.0,223.0,1406.0,-1612.0,46.0,162.0,-45.0,0.0,-901.0,679.0,560.0,-542.0,-44.0,-161.0,45.0,0.0,-450.0,426.0,418.0,-936.0,-0.012521,-0.043893,0.012309,0.0,-0.032976,0.024879,-0.020524,-0.019865,-0.012141,-0.043753,0.012279,0.0,-0.016472,0.015594,-0.01532,-0.034253,4079.969971,11514.69043,51566.039062,0.0,-18211.140625,-17728.380859,17976.691406,-17472.419922,4074.660156,11503.259766,51582.328125,0.0,17246.970703,17732.25,-17478.0,17995.230469,0.0,0.0,0.0,0.0,0.0,0.0,0.0,0.0,0.0,0.0,0.0,0.0,0.0,0.0,0.0,0.0,0.0,0.0,0.0,0.0,0.0,0.0,0.0,0.0,0.0,0.0,0.0,0.0,0.0,0.0,0.0,0.0,4079.939697,11514.693359,51566.136719,0.0,-18211.117188,-17728.380859,17976.488281,-17472.619141,4074.656982,11503.251953,51582.414062,0.0,17246.970703,17732.25,-17478.240234,17994.988281,29.956329,90.396782,22.925053,0.0,-89.50811,-0.019395,27.621145,28.414127,29.91754,90.308266,22.933611,0.0,-90.23539,-0.173026,28.507971,28.959698,0.978,1.003,-45329.0,-128620.0,-509203.0,0.0,175099.0,174656.0,-179949.0,171267.0,-45278.0,-128155.0,-574426.0,0.0,-197016.0,-196802.0,192794.0,-201559.0,0.0,0.0,0.0,0.0,0.0,0.0,0.0,0.0,0.0,0.0,0.0,0.0,0.0,0.0,0.0,0.0,0.0,0.0,0.0,0.0,0.0,0.0,0.0,0.0
29,2.203005075454712,29.956551,90.396721,22.925005,0.0,-89.512245,-0.019395,27.643791,28.436344,29.917564,90.308334,22.933569,0.0,-90.235397,-0.173077,28.534876,28.986557,3.0,1.0,111.0,0.0,1.0,-77758.0,-25237.0,13648.0,-77666.0,25118.0,13484.0,-0.936229,0.275209,0.218483,-0.311036,-0.93835,-0.150849,0.163499,-0.209186,0.964111,-0.938234,0.272545,-0.213158,0.306933,0.939974,-0.149136,0.159717,-0.20535,-0.965568,-0.936229,0.275209,0.218483,-0.311036,-0.93835,-0.150849,0.163499,-0.209186,0.964111,-0.938234,0.272545,-0.213158,0.306933,0.939974,-0.149136,0.159717,-0.20535,-0.965568,-77758.0,-25237.0,13648.0,-77666.0,25118.0,13484.0,-4.0,679.0,-63753.0,0.0,-27247.0,-22326.0,-19792.0,-22871.0,-4.0,-341.0,-1289.0,0.0,-5383.0,223.0,1406.0,-1612.0,46.0,162.0,-45.0,0.0,-901.0,679.0,561.0,-543.0,-44.0,-161.0,45.0,0.0,-450.0,426.0,419.0,-936.0,-0.012521,-0.043893,0.012309,0.0,-0.032974,0.024879,-0.020538,-0.019878,-0.012141,-0.043753,0.012279,0.0,-0.016472,0.015594,-0.015336,-0.034269,4079.969971,11514.69043,51566.039062,0.0,-18211.140625,-17728.380859,17976.691406,-17472.419922,4074.660156,11503.259766,51582.328125,0.0,17246.970703,17732.25,-17478.0,17995.230469,0.0,0.0,0.0,0.0,0.0,0.0,0.0,0.0,0.0,0.0,0.0,0.0,0.0,0.0,0.0,0.0,0.0,0.0,0.0,0.0,0.0,0.0,0.0,0.0,0.0,0.0,0.0,0.0,0.0,0.0,0.0,0.0,4079.939697,11514.693359,51566.136719,0.0,-18211.117188,-17728.380859,17976.488281,-17472.619141,4074.656982,11503.251953,51582.414062,0.0,17246.970703,17732.25,-17478.240234,17994.988281,29.956329,90.396782,22.925053,0.0,-89.50811,-0.019395,27.621145,28.414127,29.91754,90.308266,22.933611,0.0,-90.23539,-0.173026,28.507971,28.959698,0.978,1.003,-45329.0,-128620.0,-509203.0,0.0,175099.0,174656.0,-179949.0,171267.0,-45278.0,-128155.0,-574426.0,0.0,-197016.0,-196802.0,192794.0,-201559.0,0.0,0.0,0.0,0.0,0.0,0.0,0.0,0.0,0.0,0.0,0.0,0.0,0.0,0.0,0.0,0.0,0.0,0.0,0.0,0.0,0.0,0.0,0.0,0.0
30,2.2779672145843506,29.956551,90.396721,22.925005,0.0,-89.512245,-0.019395,27.643791,28.436344,29.917564,90.308334,22.933569,0.0,-90.235397,-0.173077,28.534876,28.986557,3.0,1.0,111.0,0.0,1.0,-77758.0,-25237.0,13648.0,-77666.0,25118.0,13484.0,-0.936229,0.275209,0.218483,-0.311036,-0.93835,-0.150849,0.163499,-0.209186,0.964111,-0.938234,0.272545,-0.213158,0.306933,0.939974,-0.149136,0.159717,-0.20535,-0.965568,-0.936229,0.275209,0.218483,-0.311036,-0.93835,-0.150849,0.163499,-0.209186,0.964111,-0.938234,0.272545,-0.213158,0.306933,0.939974,-0.149136,0.159717,-0.20535,-0.965568,-77758.0,-25237.0,13648.0,-77666.0,25118.0,13484.0,-4.0,679.0,-63753.0,0.0,-27247.0,-22326.0,-19792.0,-22871.0,-4.0,-341.0,-1289.0,0.0,-5383.0,223.0,1406.0,-1612.0,46.0,162.0,-45.0,0.0,-901.0,679.0,561.0,-543.0,-44.0,-161.0,45.0,0.0,-450.0,426.0,419.0,-936.0,-0.012521,-0.043893,0.012309,0.0,-0.032973,0.024879,-0.020551,-0.019891,-0.012141,-0.043753,0.012279,0.0,-0.016472,0.015594,-0.015352,-0.034285,4079.969971,11514.69043,51566.039062,0.0,-18211.140625,-17728.380859,17976.691406,-17472.419922,4074.660156,11503.259766,51582.328125,0.0,17246.970703,17732.25,-17478.0,17995.230469,0.0,0.0,0.0,0.0,0.0,0.0,0.0,0.0,0.0,0.0,0.0,0.0,0.0,0.0,0.0,0.0,0.0,0.0,0.0,0.0,0.0,0.0,0.0,0.0,0.0,0.0,0.0,0.0,0.0,0.0,0.0,0.0,4079.939697,11514.693359,51566.136719,0.0,-18211.117188,-17728.380859,17976.488281,-17472.619141,4074.656982,11503.251953,51582.414062,0.0,17246.970703,17732.25,-17478.240234,17994.988281,29.956329,90.396782,22.925053,0.0,-89.50811,-0.019395,27.621145,28.414127,29.91754,90.308266,22.933611,0.0,-90.23539,-0.173026,28.507971,28.959698,0.978,1.003,-45329.0,-128620.0,-509203.0,0.0,175099.0,174656.0,-179949.0,171267.0,-45278.0,-128155.0,-574426.0,0.0,-197016.0,-196802.0,192794.0,-201559.0,0.0,0.0,0.0,0.0,0.0,0.0,0.0,0.0,0.0,0.0,0.0,0.0,0.0,0.0,0.0,0.0,0.0,0.0,0.0,0.0,0.0,0.0,0.0,0.0
31,2.352971076965332,29.956551,90.396721,22.925005,0.0,-89.512245,-0.019395,27.643791,28.436344,29.917564,90.308334,22.933569,0.0,-90.235397,-0.173077,28.534876,28.986557,3.0,1.0,111.0,0.0,1.0,-77758.0,-25237.0,13648.0,-77666.0,25118.0,13484.0,-0.936229,0.275209,0.218483,-0.311036,-0.93835,-0.150849,0.163499,-0.209186,0.964111,-0.938234,0.272545,-0.213158,0.306933,0.939974,-0.149136,0.159717,-0.20535,-0.965568,-0.936229,0.275209,0.218483,-0.311036,-0.93835,-0.150849,0.163499,-0.209186,0.964111,-0.938234,0.272545,-0.213158,0.306933,0.939974,-0.149136,0.159717,-0.20535,-0.965568,-77758.0,-25237.0,13648.0,-77666.0,25118.0,13484.0,-4.0,679.0,-63753.0,0.0,-27247.0,-22326.0,-19792.0,-22871.0,-4.0,-341.0,-1289.0,0.0,-5383.0,223.0,1406.0,-1612.0,46.0,162.0,-45.0,0.0,-901.0,679.0,561.0,-543.0,-44.0,-161.0,45.0,0.0,-450.0,426.0,419.0,-937.0,-0.012521,-0.043893,0.012309,0.0,-0.032971,0.024879,-0.020564,-0.019905,-0.012141,-0.043753,0.012279,0.0,-0.016472,0.015594,-0.015367,-0.034301,4079.969971,11514.69043,51566.039062,0.0,-18211.140625,-17728.380859,17976.691406,-17472.419922,4074.660156,11503.259766,51582.328125,0.0,17246.970703,17732.25,-17478.0,17995.230469,0.0,0.0,0.0,0.0,0.0,0.0,0.0,0.0,0.0,0.0,0.0,0.0,0.0,0.0,0.0,0.0,0.0,0.0,0.0,0.0,0.0,0.0,0.0,0.0,0.0,0.0,0.0,0.0,0.0,0.0,0.0,0.0,4079.939697,11514.693359,51566.136719,0.0,-18211.117188,-17728.380859,17976.488281,-17472.619141,4074.656982,11503.251953,51582.414062,0.0,17246.970703,17732.25,-17478.240234,17994.988281,29.956329,90.396782,22.925053,0.0,-89.50811,-0.019395,27.621145,28.414127,29.91754,90.308266,22.933611,0.0,-90.23539,-0.173026,28.507971,28.959698,0.978,1.003,-45329.0,-128620.0,-509203.0,0.0,175099.0,174656.0,-179949.0,171267.0,-45278.0,-128155.0,-574426.0,0.0,-197016.0,-196802.0,192794.0,-201559.0,0.0,0.0,0.0,0.0,0.0,0.0,0.0,0.0,0.0,0.0,0.0,0.0,0.0,0.0,0.0,0.0,0.0,0.0,0.0,0.0,0.0,0.0,0.0,0.0
32,2.4239981174468994,29.956551,90.396721,22.925005,0.0,-89.512245,-0.019395,27.643791,28.436344,29.917564,90.308334,22.933569,0.0,-90.235397,-0.173077,28.534876,28.986557,3.0,1.0,111.0,0.0,1.0,-77758.0,-25237.0,13648.0,-77666.0,25118.0,13484.0,-0.936229,0.275209,0.218483,-0.311036,-0.93835,-0.150849,0.163499,-0.209186,0.964111,-0.938234,0.272545,-0.213158,0.306933,0.939974,-0.149136,0.159717,-0.20535,-0.965568,-0.936229,0.275209,0.218483,-0.311036,-0.93835,-0.150849,0.163499,-0.209186,0.964111,-0.938234,0.272545,-0.213158,0.306933,0.939974,-0.149136,0.159717,-0.20535,-0.965568,-77758.0,-25237.0,13648.0,-77666.0,25118.0,13484.0,-4.0,679.0,-63753.0,0.0,-27247.0,-22326.0,-19792.0,-22871.0,-4.0,-341.0,-1289.0,0.0,-5383.0,223.0,1406.0,-1612.0,46.0,162.0,-45.0,0.0,-901.0,679.0,562.0,-544.0,-44.0,-161.0,45.0,0.0,-450.0,426.0,420.0,-937.0,-0.012521,-0.043893,0.012309,0.0,-0.03297,0.024879,-0.020577,-0.019917,-0.012141,-0.043753,0.012279,0.0,-0.016472,0.015594,-0.015382,-0.034316,4079.969971,11514.69043,51566.039062,0.0,-18211.140625,-17728.380859,17976.691406,-17472.419922,4074.660156,11503.259766,51582.328125,0.0,17246.970703,17732.25,-17478.0,17995.230469,0.0,0.0,0.0,0.0,0.0,0.0,0.0,0.0,0.0,0.0,0.0,0.0,0.0,0.0,0.0,0.0,0.0,0.0,0.0,0.0,0.0,0.0,0.0,0.0,0.0,0.0,0.0,0.0,0.0,0.0,0.0,0.0,4079.939697,11514.693359,51566.136719,0.0,-18211.117188,-17728.380859,17976.488281,-17472.619141,4074.656982,11503.251953,51582.414062,0.0,17246.970703,17732.25,-17478.240234,17994.988281,29.956329,90.396782,22.925053,0.0,-89.50811,-0.019395,27.621145,28.414127,29.91754,90.308266,22.933611,0.0,-90.23539,-0.173026,28.507971,28.959698,0.978,1.003,-45329.0,-128620.0,-509203.0,0.0,175099.0,174656.0,-179949.0,171267.0,-45278.0,-128155.0,-574426.0,0.0,-197016.0,-196802.0,192794.0,-201559.0,0.0,0.0,0.0,0.0,0.0,0.0,0.0,0.0,0.0,0.0,0.0,0.0,0.0,0.0,0.0,0.0,0.0,0.0,0.0,0.0,0.0,0.0,0.0,0.0
33,2.4959681034088135,29.956551,90.396721,22.925005,0.0,-89.512245,-0.019395,27.643791,28.436344,29.917564,90.308334,22.933569,0.0,-90.235397,-0.173077,28.534876,28.986557,3.0,1.0,111.0,0.0,1.0,-77758.0,-25237.0,13648.0,-77666.0,25118.0,13484.0,-0.936229,0.275209,0.218483,-0.311036,-0.93835,-0.150849,0.163499,-0.209186,0.964111,-0.938234,0.272545,-0.213158,0.306933,0.939974,-0.149136,0.159717,-0.20535,-0.965568,-0.936229,0.275209,0.218483,-0.311036,-0.93835,-0.150849,0.163499,-0.209186,0.964111,-0.938234,0.272545,-0.213158,0.306933,0.939974,-0.149136,0.159717,-0.20535,-0.965568,-77758.0,-25237.0,13648.0,-77666.0,25118.0,13484.0,-4.0,679.0,-63753.0,0.0,-27247.0,-22326.0,-19792.0,-22871.0,-4.0,-341.0,-1289.0,0.0,-5383.0,223.0,1406.0,-1612.0,46.0,162.0,-45.0,0.0,-900.0,679.0,562.0,-544.0,-44.0,-161.0,45.0,0.0,-450.0,426.0,420.0,-938.0,-0.012521,-0.043893,0.012309,0.0,-0.032968,0.024879,-0.02059,-0.019929,-0.012141,-0.043753,0.012279,0.0,-0.016472,0.015594,-0.015397,-0.034331,4079.969971,11514.69043,51566.039062,0.0,-18211.140625,-17728.380859,17976.691406,-17472.419922,4074.660156,11503.259766,51582.328125,0.0,17246.970703,17732.25,-17478.0,17995.230469,0.0,0.0,0.0,0.0,0.0,0.0,0.0,0.0,0.0,0.0,0.0,0.0,0.0,0.0,0.0,0.0,0.0,0.0,0.0,0.0,0.0,0.0,0.0,0.0,0.0,0.0,0.0,0.0,0.0,0.0,0.0,0.0,4079.939697,11514.693359,51566.136719,0.0,-18211.117188,-17728.380859,17976.488281,-17472.619141,4074.656982,11503.251953,51582.414062,0.0,17246.970703,17732.25,-17478.240234,17994.988281,29.956329,90.396782,22.925053,0.0,-89.50811,-0.019395,27.621145,28.414127,29.91754,90.308266,22.933611,0.0,-90.23539,-0.173026,28.507971,28.959698,0.978,1.003,-45329.0,-128620.0,-509203.0,0.0,175099.0,174656.0,-179949.0,171267.0,-45278.0,-128155.0,-574426.0,0.0,-197016.0,-196802.0,192794.0,-201559.0,0.0,0.0,0.0,0.0,0.0,0.0,0.0,0.0,0.0,0.0,0.0,0.0,0.0,0.0,0.0,0.0,0.0,0.0,0.0,0.0,0.0,0.0,0.0,0.0
34,2.5689680576324463,29.956551,90.396721,22.925005,0.0,-89.512245,-0.019395,27.643791,28.436344,29.917564,90.308334,22.933569,0.0,-90.235397,-0.173077,28.534876,28.986557,3.0,1.0,111.0,0.0,1.0,-77758.0,-25237.0,13648.0,-77666.0,25118.0,13484.0,-0.936229,0.275209,0.218483,-0.311036,-0.93835,-0.150849,0.163499,-0.209186,0.964111,-0.938234,0.272545,-0.213158,0.306933,0.939974,-0.149136,0.159717,-0.20535,-0.965568,-0.936229,0.275209,0.218483,-0.311036,-0.93835,-0.150849,0.163499,-0.209186,0.964111,-0.938234,0.272545,-0.213158,0.306933,0.939974,-0.149136,0.159717,-0.20535,-0.965568,-77758.0,-25237.0,13648.0,-77666.0,25118.0,13484.0,-4.0,679.0,-63753.0,0.0,-27247.0,-22326.0,-19792.0,-22871.0,-4.0,-341.0,-1289.0,0.0,-5383.0,223.0,1406.0,-1612.0,46.0,162.0,-45.0,0.0,-900.0,679.0,563.0,-544.0,-44.0,-161.0,45.0,0.0,-450.0,426.0,421.0,-938.0,-0.012521,-0.043893,0.012309,0.0,-0.032967,0.024879,-0.020603,-0.019942,-0.012141,-0.043753,0.012279,0.0,-0.016472,0.015594,-0.015413,-0.034346,4079.969971,11514.69043,51566.039062,0.0,-18211.140625,-17728.380859,17976.691406,-17472.419922,4074.660156,11503.259766,51582.328125,0.0,17246.970703,17732.25,-17478.0,17995.230469,0.0,0.0,0.0,0.0,0.0,0.0,0.0,0.0,0.0,0.0,0.0,0.0,0.0,0.0,0.0,0.0,0.0,0.0,0.0,0.0,0.0,0.0,0.0,0.0,0.0,0.0,0.0,0.0,0.0,0.0,0.0,0.0,4079.939697,11514.693359,51566.136719,0.0,-18211.117188,-17728.380859,17976.488281,-17472.619141,4074.656982,11503.251953,51582.414062,0.0,17246.970703,17732.25,-17478.240234,17994.988281,29.956329,90.396782,22.925053,0.0,-89.50811,-0.019395,27.621145,28.414127,29.91754,90.308266,22.933611,0.0,-90.23539,-0.173026,28.507971,28.959698,0.978,1.003,-45329.0,-128620.0,-509203.0,0.0,175099.0,174656.0,-179949.0,171267.0,-45278.0,-128155.0,-574426.0,0.0,-197016.0,-196802.0,192794.0,-201559.0,0.0,0.0,0.0,0.0,0.0,0.0,0.0,0.0,0.0,0.0,0.0,0.0,0.0,0.0,0.0,0.0,0.0,0.0,0.0,0.0,0.0,0.0,0.0,0.0
35,2.6419310569763184,29.956551,90.396721,22.925005,0.0,-89.512245,-0.019395,27.643791,28.436344,29.917564,90.308334,22.933569,0.0,-90.235397,-0.173077,28.534876,28.986557,3.0,1.0,111.0,0.0,1.0,-77758.0,-25237.0,13648.0,-77666.0,25118.0,13484.0,-0.936229,0.275209,0.218483,-0.311036,-0.93835,-0.150849,0.163499,-0.209186,0.964111,-0.938234,0.272545,-0.213158,0.306933,0.939974,-0.149136,0.159717,-0.20535,-0.965568,-0.936229,0.275209,0.218483,-0.311036,-0.93835,-0.150849,0.163499,-0.209186,0.964111,-0.938234,0.272545,-0.213158,0.306933,0.939974,-0.149136,0.159717,-0.20535,-0.965568,-77758.0,-25237.0,13648.0,-77666.0,25118.0,13484.0,-4.0,679.0,-63753.0,0.0,-27247.0,-22326.0,-19792.0,-22871.0,-4.0,-341.0,-1289.0,0.0,-5383.0,223.0,1406.0,-1612.0,46.0,162.0,-45.0,0.0,-900.0,679.0,563.0,-545.0,-44.0,-161.0,45.0,0.0,-450.0,426.0,421.0,-939.0,-0.012521,-0.043893,0.012309,0.0,-0.032965,0.024879,-0.020616,-0.019955,-0.012141,-0.043753,0.012279,0.0,-0.016472,0.015594,-0.015428,-0.034362,4079.969971,11514.69043,51566.039062,0.0,-18211.140625,-17728.380859,17976.691406,-17472.419922,4074.660156,11503.259766,51582.328125,0.0,17246.970703,17732.25,-17478.0,17995.230469,0.0,0.0,0.0,0.0,0.0,0.0,0.0,0.0,0.0,0.0,0.0,0.0,0.0,0.0,0.0,0.0,0.0,0.0,0.0,0.0,0.0,0.0,0.0,0.0,0.0,0.0,0.0,0.0,0.0,0.0,0.0,0.0,4079.939697,11514.693359,51566.136719,0.0,-18211.117188,-17728.380859,17976.488281,-17472.619141,4074.656982,11503.251953,51582.414062,0.0,17246.970703,17732.25,-17478.240234,17994.988281,29.956329,90.396782,22.925053,0.0,-89.50811,-0.019395,27.621145,28.414127,29.91754,90.308266,22.933611,0.0,-90.23539,-0.173026,28.507971,28.959698,0.978,1.003,-45329.0,-128620.0,-509203.0,0.0,175099.0,174656.0,-179949.0,171267.0,-45278.0,-128155.0,-574426.0,0.0,-197016.0,-196802.0,192794.0,-201559.0,0.0,0.0,0.0,0.0,0.0,0.0,0.0,0.0,0.0,0.0,0.0,0.0,0.0,0.0,0.0,0.0,0.0,0.0,0.0,0.0,0.0,0.0,0.0,0.0
36,2.7139601707458496,29.956551,90.396721,22.925005,0.0,-89.512245,-0.019395,27.643791,28.436344,29.917564,90.308334,22.933569,0.0,-90.235397,-0.173077,28.534876,28.986557,3.0,1.0,111.0,0.0,1.0,-77758.0,-25237.0,13648.0,-77666.0,25118.0,13484.0,-0.936229,0.275209,0.218483,-0.311036,-0.93835,-0.150849,0.163499,-0.209186,0.964111,-0.938234,0.272545,-0.213158,0.306933,0.939974,-0.149136,0.159717,-0.20535,-0.965568,-0.936229,0.275209,0.218483,-0.311036,-0.93835,-0.150849,0.163499,-0.209186,0.964111,-0.938234,0.272545,-0.213158,0.306933,0.939974,-0.149136,0.159717,-0.20535,-0.965568,-77758.0,-25237.0,13648.0,-77666.0,25118.0,13484.0,-4.0,679.0,-63753.0,0.0,-27247.0,-22326.0,-19792.0,-22871.0,-4.0,-341.0,-1289.0,0.0,-5383.0,223.0,1406.0,-1612.0,46.0,162.0,-45.0,0.0,-900.0,679.0,563.0,-545.0,-44.0,-161.0,45.0,0.0,-450.0,426.0,422.0,-939.0,-0.012521,-0.043893,0.012309,0.0,-0.032964,0.024879,-0.020628,-0.019967,-0.012141,-0.043753,0.012279,0.0,-0.016472,0.015594,-0.015443,-0.034377,4079.969971,11514.69043,51566.039062,0.0,-18211.140625,-17728.380859,17976.691406,-17472.419922,4074.660156,11503.259766,51582.328125,0.0,17246.970703,17732.25,-17478.0,17995.230469,0.0,0.0,0.0,0.0,0.0,0.0,0.0,0.0,0.0,0.0,0.0,0.0,0.0,0.0,0.0,0.0,0.0,0.0,0.0,0.0,0.0,0.0,0.0,0.0,0.0,0.0,0.0,0.0,0.0,0.0,0.0,0.0,4079.939697,11514.693359,51566.136719,0.0,-18211.117188,-17728.380859,17976.488281,-17472.619141,4074.656982,11503.251953,51582.414062,0.0,17246.970703,17732.25,-17478.240234,17994.988281,29.956329,90.396782,22.925053,0.0,-89.50811,-0.019395,27.621145,28.414127,29.91754,90.308266,22.933611,0.0,-90.23539,-0.173026,28.507971,28.959698,0.978,1.003,-45329.0,-128620.0,-509203.0,0.0,175099.0,174656.0,-179949.0,171267.0,-45278.0,-128155.0,-574426.0,0.0,-197016.0,-196802.0,192794.0,-201559.0,0.0,0.0,0.0,0.0,0.0,0.0,0.0,0.0,0.0,0.0,0.0,0.0,0.0,0.0,0.0,0.0,0.0,0.0,0.0,0.0,0.0,0.0,0.0,0.0
37,2.793999195098877,29.956551,90.396721,22.925005,0.0,-89.512245,-0.019395,27.643791,28.436344,29.917564,90.308334,22.933569,0.0,-90.235397,-0.173077,28.534876,28.986557,3.0,1.0,111.0,0.0,1.0,-77758.0,-25237.0,13648.0,-77666.0,25118.0,13484.0,-0.936229,0.275209,0.218483,-0.311036,-0.93835,-0.150849,0.163499,-0.209186,0.964111,-0.938234,0.272545,-0.213158,0.306933,0.939974,-0.149136,0.159717,-0.20535,-0.965568,-0.936229,0.275209,0.218483,-0.311036,-0.93835,-0.150849,0.163499,-0.209186,0.964111,-0.938234,0.272545,-0.213158,0.306933,0.939974,-0.149136,0.159717,-0.20535,-0.965568,-77758.0,-25237.0,13648.0,-77666.0,25118.0,13484.0,-4.0,679.0,-63753.0,0.0,-27247.0,-22326.0,-19792.0,-22871.0,-4.0,-341.0,-1289.0,0.0,-5383.0,223.0,1406.0,-1612.0,46.0,162.0,-45.0,0.0,-900.0,679.0,564.0,-546.0,-44.0,-161.0,45.0,0.0,-450.0,426.0,422.0,-939.0,-0.012521,-0.043893,0.012309,0.0,-0.032962,0.024879,-0.020642,-0.019981,-0.012141,-0.043753,0.012279,0.0,-0.016472,0.015594,-0.01546,-0.034394,4079.969971,11514.69043,51566.039062,0.0,-18211.140625,-17728.380859,17976.691406,-17472.419922,4074.660156,11503.259766,51582.328125,0.0,17246.970703,17732.25,-17478.0,17995.230469,0.0,0.0,0.0,0.0,0.0,0.0,0.0,0.0,0.0,0.0,0.0,0.0,0.0,0.0,0.0,0.0,0.0,0.0,0.0,0.0,0.0,0.0,0.0,0.0,0.0,0.0,0.0,0.0,0.0,0.0,0.0,0.0,4079.939697,11514.693359,51566.136719,0.0,-18211.117188,-17728.380859,17976.488281,-17472.619141,4074.656982,11503.251953,51582.414062,0.0,17246.970703,17732.25,-17478.240234,17994.988281,29.956329,90.396782,22.925053,0.0,-89.50811,-0.019395,27.621145,28.414127,29.91754,90.308266,22.933611,0.0,-90.23539,-0.173026,28.507971,28.959698,0.978,1.003,-45329.0,-128620.0,-509203.0,0.0,175099.0,174656.0,-179949.0,171267.0,-45278.0,-128155.0,-574426.0,0.0,-197016.0,-196802.0,192794.0,-201559.0,0.0,0.0,0.0,0.0,0.0,0.0,0.0,0.0,0.0,0.0,0.0,0.0,0.0,0.0,0.0,0.0,0.0,0.0,0.0,0.0,0.0,0.0,0.0,0.0
38,2.864960193634033,29.956551,90.396721,22.925005,0.0,-89.512245,-0.019395,27.643791,28.436344,29.917564,90.308334,22.933569,0.0,-90.235397,-0.173077,28.534876,28.986557,3.0,1.0,111.0,0.0,1.0,-77758.0,-25237.0,13648.0,-77666.0,25118.0,13484.0,-0.936229,0.275209,0.218483,-0.311036,-0.93835,-0.150849,0.163499,-0.209186,0.964111,-0.938234,0.272545,-0.213158,0.306933,0.939974,-0.149136,0.159717,-0.20535,-0.965568,-0.936229,0.275209,0.218483,-0.311036,-0.93835,-0.150849,0.163499,-0.209186,0.964111,-0.938234,0.272545,-0.213158,0.306933,0.939974,-0.149136,0.159717,-0.20535,-0.965568,-77758.0,-25237.0,13648.0,-77666.0,25118.0,13484.0,-4.0,679.0,-63753.0,0.0,-27247.0,-22326.0,-19792.0,-22871.0,-4.0,-341.0,-1289.0,0.0,-5383.0,223.0,1406.0,-1612.0,46.0,162.0,-45.0,0.0,-900.0,679.0,564.0,-546.0,-44.0,-161.0,45.0,0.0,-450.0,426.0,422.0,-940.0,-0.012521,-0.043893,0.012309,0.0,-0.032961,0.024879,-0.020655,-0.019994,-0.012141,-0.043753,0.012279,0.0,-0.016472,0.015594,-0.015475,-0.034409,4079.969971,11514.69043,51566.039062,0.0,-18211.140625,-17728.380859,17976.691406,-17472.419922,4074.660156,11503.259766,51582.328125,0.0,17246.970703,17732.25,-17478.0,17995.230469,0.0,0.0,0.0,0.0,0.0,0.0,0.0,0.0,0.0,0.0,0.0,0.0,0.0,0.0,0.0,0.0,0.0,0.0,0.0,0.0,0.0,0.0,0.0,0.0,0.0,0.0,0.0,0.0,0.0,0.0,0.0,0.0,4079.939697,11514.693359,51566.136719,0.0,-18211.117188,-17728.380859,17976.488281,-17472.619141,4074.656982,11503.251953,51582.414062,0.0,17246.970703,17732.25,-17478.240234,17994.988281,29.956329,90.396782,22.925053,0.0,-89.50811,-0.019395,27.621145,28.414127,29.91754,90.308266,22.933611,0.0,-90.23539,-0.173026,28.507971,28.959698,0.978,1.003,-45329.0,-128620.0,-509203.0,0.0,175099.0,174656.0,-179949.0,171267.0,-45278.0,-128155.0,-574426.0,0.0,-197016.0,-196802.0,192794.0,-201559.0,0.0,0.0,0.0,0.0,0.0,0.0,0.0,0.0,0.0,0.0,0.0,0.0,0.0,0.0,0.0,0.0,0.0,0.0,0.0,0.0,0.0,0.0,0.0,0.0
39,2.935962200164795,29.956551,90.396721,22.925005,0.0,-89.512245,-0.019395,27.643791,28.436344,29.917564,90.308334,22.933569,0.0,-90.235397,-0.173077,28.534876,28.986557,3.0,1.0,111.0,0.0,1.0,-77758.0,-25237.0,13648.0,-77666.0,25118.0,13484.0,-0.936229,0.275209,0.218483,-0.311036,-0.93835,-0.150849,0.163499,-0.209186,0.964111,-0.938234,0.272545,-0.213158,0.306933,0.939974,-0.149136,0.159717,-0.20535,-0.965568,-0.936229,0.275209,0.218483,-0.311036,-0.93835,-0.150849,0.163499,-0.209186,0.964111,-0.938234,0.272545,-0.213158,0.306933,0.939974,-0.149136,0.159717,-0.20535,-0.965568,-77758.0,-25237.0,13648.0,-77666.0,25118.0,13484.0,-4.0,679.0,-63753.0,0.0,-27247.0,-22326.0,-19792.0,-22871.0,-4.0,-341.0,-1289.0,0.0,-5383.0,223.0,1406.0,-1612.0,46.0,162.0,-45.0,0.0,-900.0,679.0,564.0,-546.0,-44.0,-161.0,45.0,0.0,-450.0,426.0,423.0,-940.0,-0.012521,-0.043893,0.012309,0.0,-0.032959,0.024879,-0.020668,-0.020006,-0.012141,-0.043753,0.012279,0.0,-0.016472,0.015594,-0.01549,-0.034424,4079.969971,11514.69043,51566.039062,0.0,-18211.140625,-17728.380859,17976.691406,-17472.419922,4074.660156,11503.259766,51582.328125,0.0,17246.970703,17732.25,-17478.0,17995.230469,0.0,0.0,0.0,0.0,0.0,0.0,0.0,0.0,0.0,0.0,0.0,0.0,0.0,0.0,0.0,0.0,0.0,0.0,0.0,0.0,0.0,0.0,0.0,0.0,0.0,0.0,0.0,0.0,0.0,0.0,0.0,0.0,4079.939697,11514.693359,51566.136719,0.0,-18211.117188,-17728.380859,17976.488281,-17472.619141,4074.656982,11503.251953,51582.414062,0.0,17246.970703,17732.25,-17478.240234,17994.988281,29.956329,90.396782,22.925053,0.0,-89.50811,-0.019395,27.621145,28.414127,29.91754,90.308266,22.933611,0.0,-90.23539,-0.173026,28.507971,28.959698,0.978,1.003,-45329.0,-128620.0,-509203.0,0.0,175099.0,174656.0,-179949.0,171267.0,-45278.0,-128155.0,-574426.0,0.0,-197016.0,-196802.0,192794.0,-201559.0,0.0,0.0,0.0,0.0,0.0,0.0,0.0,0.0,0.0,0.0,0.0,0.0,0.0,0.0,0.0,0.0,0.0,0.0,0.0,0.0,0.0,0.0,0.0,0.0
40,3.005959987640381,29.956551,90.396721,22.925005,0.0,-89.512245,-0.019395,27.643791,28.436344,29.917564,90.308334,22.933569,0.0,-90.235397,-0.173077,28.534876,28.986557,3.0,1.0,111.0,0.0,1.0,-77758.0,-25237.0,13648.0,-77666.0,25118.0,13484.0,-0.936229,0.275209,0.218483,-0.311036,-0.93835,-0.150849,0.163499,-0.209186,0.964111,-0.938234,0.272545,-0.213158,0.306933,0.939974,-0.149136,0.159717,-0.20535,-0.965568,-0.936229,0.275209,0.218483,-0.311036,-0.93835,-0.150849,0.163499,-0.209186,0.964111,-0.938234,0.272545,-0.213158,0.306933,0.939974,-0.149136,0.159717,-0.20535,-0.965568,-77758.0,-25237.0,13648.0,-77666.0,25118.0,13484.0,-4.0,679.0,-63753.0,0.0,-27247.0,-22326.0,-19792.0,-22871.0,-4.0,-341.0,-1289.0,0.0,-5383.0,223.0,1406.0,-1612.0,46.0,162.0,-45.0,0.0,-900.0,679.0,565.0,-547.0,-44.0,-161.0,45.0,0.0,-450.0,426.0,423.0,-941.0,-0.012521,-0.043893,0.012309,0.0,-0.032958,0.024879,-0.02068,-0.020018,-0.012141,-0.043753,0.012279,0.0,-0.016472,0.015594,-0.015505,-0.034439,4079.969971,11514.69043,51566.039062,0.0,-18211.140625,-17728.380859,17976.691406,-17472.419922,4074.660156,11503.259766,51582.328125,0.0,17246.970703,17732.25,-17478.0,17995.230469,0.0,0.0,0.0,0.0,0.0,0.0,0.0,0.0,0.0,0.0,0.0,0.0,0.0,0.0,0.0,0.0,0.0,0.0,0.0,0.0,0.0,0.0,0.0,0.0,0.0,0.0,0.0,0.0,0.0,0.0,0.0,0.0,4079.939697,11514.693359,51566.136719,0.0,-18211.117188,-17728.380859,17976.488281,-17472.619141,4074.656982,11503.251953,51582.414062,0.0,17246.970703,17732.25,-17478.240234,17994.988281,29.956329,90.396782,22.925053,0.0,-89.50811,-0.019395,27.621145,28.414127,29.91754,90.308266,22.933611,0.0,-90.23539,-0.173026,28.507971,28.959698,0.978,1.003,-45329.0,-128620.0,-509203.0,0.0,175099.0,174656.0,-179949.0,171267.0,-45278.0,-128155.0,-574426.0,0.0,-197016.0,-196802.0,192794.0,-201559.0,0.0,0.0,0.0,0.0,0.0,0.0,0.0,0.0,0.0,0.0,0.0,0.0,0.0,0.0,0.0,0.0,0.0,0.0,0.0,0.0,0.0,0.0,0.0,0.0
41,3.0779240131378174,29.956551,90.396721,22.925005,0.0,-89.512245,-0.019395,27.643791,28.436344,29.917564,90.308334,22.933569,0.0,-90.235397,-0.173077,28.534876,28.986557,3.0,1.0,111.0,0.0,1.0,-77758.0,-25237.0,13648.0,-77666.0,25118.0,13484.0,-0.936229,0.275209,0.218483,-0.311036,-0.93835,-0.150849,0.163499,-0.209186,0.964111,-0.938234,0.272545,-0.213158,0.306933,0.939974,-0.149136,0.159717,-0.20535,-0.965568,-0.936229,0.275209,0.218483,-0.311036,-0.93835,-0.150849,0.163499,-0.209186,0.964111,-0.938234,0.272545,-0.213158,0.306933,0.939974,-0.149136,0.159717,-0.20535,-0.965568,-77758.0,-25237.0,13648.0,-77666.0,25118.0,13484.0,-4.0,679.0,-63753.0,0.0,-27247.0,-22326.0,-19792.0,-22871.0,-4.0,-341.0,-1289.0,0.0,-5383.0,223.0,1406.0,-1612.0,46.0,162.0,-45.0,0.0,-900.0,679.0,565.0,-547.0,-44.0,-161.0,45.0,0.0,-450.0,426.0,424.0,-941.0,-0.012521,-0.043893,0.012309,0.0,-0.032956,0.024879,-0.020693,-0.020031,-0.012141,-0.043753,0.012279,0.0,-0.016472,0.015594,-0.01552,-0.034454,4079.969971,11514.69043,51566.039062,0.0,-18211.140625,-17728.380859,17976.691406,-17472.419922,4074.660156,11503.259766,51582.328125,0.0,17246.970703,17732.25,-17478.0,17995.230469,0.0,0.0,0.0,0.0,0.0,0.0,0.0,0.0,0.0,0.0,0.0,0.0,0.0,0.0,0.0,0.0,0.0,0.0,0.0,0.0,0.0,0.0,0.0,0.0,0.0,0.0,0.0,0.0,0.0,0.0,0.0,0.0,4079.939697,11514.693359,51566.136719,0.0,-18211.117188,-17728.380859,17976.488281,-17472.619141,4074.656982,11503.251953,51582.414062,0.0,17246.970703,17732.25,-17478.240234,17994.988281,29.956329,90.396782,22.925053,0.0,-89.50811,-0.019395,27.621145,28.414127,29.91754,90.308266,22.933611,0.0,-90.23539,-0.173026,28.507971,28.959698,0.978,1.003,-45329.0,-128620.0,-509203.0,0.0,175099.0,174656.0,-179949.0,171267.0,-45278.0,-128155.0,-574426.0,0.0,-197016.0,-196802.0,192794.0,-201559.0,0.0,0.0,0.0,0.0,0.0,0.0,0.0,0.0,0.0,0.0,0.0,0.0,0.0,0.0,0.0,0.0,0.0,0.0,0.0,0.0,0.0,0.0,0.0,0.0
42,3.148959159851074,29.956551,90.396721,22.925005,0.0,-89.512245,-0.019395,27.643791,28.436344,29.917564,90.308334,22.933569,0.0,-90.235397,-0.173077,28.534876,28.986557,3.0,1.0,111.0,0.0,1.0,-77758.0,-25237.0,13648.0,-77666.0,25118.0,13484.0,-0.936229,0.275209,0.218483,-0.311036,-0.93835,-0.150849,0.163499,-0.209186,0.964111,-0.938234,0.272545,-0.213158,0.306933,0.939974,-0.149136,0.159717,-0.20535,-0.965568,-0.936229,0.275209,0.218483,-0.311036,-0.93835,-0.150849,0.163499,-0.209186,0.964111,-0.938234,0.272545,-0.213158,0.306933,0.939974,-0.149136,0.159717,-0.20535,-0.965568,-77758.0,-25237.0,13648.0,-77666.0,25118.0,13484.0,-4.0,679.0,-63753.0,0.0,-27247.0,-22326.0,-19792.0,-22871.0,-4.0,-341.0,-1289.0,0.0,-5383.0,223.0,1406.0,-1612.0,46.0,162.0,-45.0,0.0,-900.0,679.0,565.0,-547.0,-44.0,-161.0,45.0,0.0,-450.0,426.0,424.0,-941.0,-0.012521,-0.043893,0.012309,0.0,-0.032955,0.024879,-0.020705,-0.020043,-0.012141,-0.043753,0.012279,0.0,-0.016472,0.015594,-0.015535,-0.034469,4079.969971,11514.69043,51566.039062,0.0,-18211.140625,-17728.380859,17976.691406,-17472.419922,4074.660156,11503.259766,51582.328125,0.0,17246.970703,17732.25,-17478.0,17995.230469,0.0,0.0,0.0,0.0,0.0,0.0,0.0,0.0,0.0,0.0,0.0,0.0,0.0,0.0,0.0,0.0,0.0,0.0,0.0,0.0,0.0,0.0,0.0,0.0,0.0,0.0,0.0,0.0,0.0,0.0,0.0,0.0,4079.939697,11514.693359,51566.136719,0.0,-18211.117188,-17728.380859,17976.488281,-17472.619141,4074.656982,11503.251953,51582.414062,0.0,17246.970703,17732.25,-17478.240234,17994.988281,29.956329,90.396782,22.925053,0.0,-89.50811,-0.019395,27.621145,28.414127,29.91754,90.308266,22.933611,0.0,-90.23539,-0.173026,28.507971,28.959698,0.978,1.003,-45329.0,-128620.0,-509203.0,0.0,175099.0,174656.0,-179949.0,171267.0,-45278.0,-128155.0,-574426.0,0.0,-197016.0,-196802.0,192794.0,-201559.0,0.0,0.0,0.0,0.0,0.0,0.0,0.0,0.0,0.0,0.0,0.0,0.0,0.0,0.0,0.0,0.0,0.0,0.0,0.0,0.0,0.0,0.0,0.0,0.0
43,3.218968152999878,29.956551,90.396721,22.925005,0.0,-89.512245,-0.019395,27.643791,28.436344,29.917564,90.308334,22.933569,0.0,-90.235397,-0.173077,28.534876,28.986557,3.0,1.0,111.0,0.0,1.0,-77758.0,-25237.0,13648.0,-77666.0,25118.0,13484.0,-0.936229,0.275209,0.218483,-0.311036,-0.93835,-0.150849,0.163499,-0.209186,0.964111,-0.938234,0.272545,-0.213158,0.306933,0.939974,-0.149136,0.159717,-0.20535,-0.965568,-0.936229,0.275209,0.218483,-0.311036,-0.93835,-0.150849,0.163499,-0.209186,0.964111,-0.938234,0.272545,-0.213158,0.306933,0.939974,-0.149136,0.159717,-0.20535,-0.965568,-77758.0,-25237.0,13648.0,-77666.0,25118.0,13484.0,-4.0,679.0,-63753.0,0.0,-27247.0,-22326.0,-19792.0,-22871.0,-4.0,-341.0,-1289.0,0.0,-5383.0,223.0,1406.0,-1612.0,46.0,162.0,-45.0,0.0,-900.0,679.0,566.0,-548.0,-44.0,-161.0,45.0,0.0,-450.0,426.0,424.0,-942.0,-0.012521,-0.043893,0.012309,0.0,-0.032953,0.024879,-0.020718,-0.020056,-0.012141,-0.043753,0.012279,0.0,-0.016472,0.015594,-0.015549,-0.034484,4079.969971,11514.69043,51566.039062,0.0,-18211.140625,-17728.380859,17976.691406,-17472.419922,4074.660156,11503.259766,51582.328125,0.0,17246.970703,17732.25,-17478.0,17995.230469,0.0,0.0,0.0,0.0,0.0,0.0,0.0,0.0,0.0,0.0,0.0,0.0,0.0,0.0,0.0,0.0,0.0,0.0,0.0,0.0,0.0,0.0,0.0,0.0,0.0,0.0,0.0,0.0,0.0,0.0,0.0,0.0,4079.939697,11514.693359,51566.136719,0.0,-18211.117188,-17728.380859,17976.488281,-17472.619141,4074.656982,11503.251953,51582.414062,0.0,17246.970703,17732.25,-17478.240234,17994.988281,29.956329,90.396782,22.925053,0.0,-89.50811,-0.019395,27.621145,28.414127,29.91754,90.308266,22.933611,0.0,-90.23539,-0.173026,28.507971,28.959698,0.978,1.003,-45329.0,-128620.0,-509203.0,0.0,175099.0,174656.0,-179949.0,171267.0,-45278.0,-128155.0,-574426.0,0.0,-197016.0,-196802.0,192794.0,-201559.0,0.0,0.0,0.0,0.0,0.0,0.0,0.0,0.0,0.0,0.0,0.0,0.0,0.0,0.0,0.0,0.0,0.0,0.0,0.0,0.0,0.0,0.0,0.0,0.0
44,3.2899670600891113,29.956551,90.396721,22.925005,0.0,-89.512245,-0.019395,27.643791,28.436344,29.917564,90.308334,22.933569,0.0,-90.235397,-0.173077,28.534876,28.986557,3.0,1.0,111.0,0.0,1.0,-77758.0,-25237.0,13648.0,-77666.0,25118.0,13484.0,-0.936229,0.275209,0.218483,-0.311036,-0.93835,-0.150849,0.163499,-0.209186,0.964111,-0.938234,0.272545,-0.213158,0.306933,0.939974,-0.149136,0.159717,-0.20535,-0.965568,-0.936229,0.275209,0.218483,-0.311036,-0.93835,-0.150849,0.163499,-0.209186,0.964111,-0.938234,0.272545,-0.213158,0.306933,0.939974,-0.149136,0.159717,-0.20535,-0.965568,-77758.0,-25237.0,13648.0,-77666.0,25118.0,13484.0,-4.0,679.0,-63753.0,0.0,-27247.0,-22326.0,-19792.0,-22871.0,-4.0,-341.0,-1289.0,0.0,-5383.0,223.0,1406.0,-1612.0,46.0,162.0,-45.0,0.0,-900.0,679.0,566.0,-548.0,-44.0,-161.0,45.0,0.0,-450.0,426.0,425.0,-942.0,-0.012521,-0.043893,0.012309,0.0,-0.032952,0.024879,-0.02073,-0.020068,-0.012141,-0.043753,0.012279,0.0,-0.016472,0.015594,-0.015564,-0.034499,4079.969971,11514.69043,51566.039062,0.0,-18211.140625,-17728.380859,17976.691406,-17472.419922,4074.660156,11503.259766,51582.328125,0.0,17246.970703,17732.25,-17478.0,17995.230469,0.0,0.0,0.0,0.0,0.0,0.0,0.0,0.0,0.0,0.0,0.0,0.0,0.0,0.0,0.0,0.0,0.0,0.0,0.0,0.0,0.0,0.0,0.0,0.0,0.0,0.0,0.0,0.0,0.0,0.0,0.0,0.0,4079.939697,11514.693359,51566.136719,0.0,-18211.117188,-17728.380859,17976.488281,-17472.619141,4074.656982,11503.251953,51582.414062,0.0,17246.970703,17732.25,-17478.240234,17994.988281,29.956329,90.396782,22.925053,0.0,-89.50811,-0.019395,27.621145,28.414127,29.91754,90.308266,22.933611,0.0,-90.23539,-0.173026,28.507971,28.959698,0.978,1.003,-45329.0,-128620.0,-509203.0,0.0,175099.0,174656.0,-179949.0,171267.0,-45278.0,-128155.0,-574426.0,0.0,-197016.0,-196802.0,192794.0,-201559.0,0.0,0.0,0.0,0.0,0.0,0.0,0.0,0.0,0.0,0.0,0.0,0.0,0.0,0.0,0.0,0.0,0.0,0.0,0.0,0.0,0.0,0.0,0.0,0.0
45,3.3600361347198486,29.956551,90.396721,22.925005,0.0,-89.512245,-0.019395,27.643791,28.436344,29.917564,90.308334,22.933569,0.0,-90.235397,-0.173077,28.534876,28.986557,3.0,1.0,111.0,0.0,1.0,-77758.0,-25237.0,13648.0,-77666.0,25118.0,13484.0,-0.936229,0.275209,0.218483,-0.311036,-0.93835,-0.150849,0.163499,-0.209186,0.964111,-0.938234,0.272545,-0.213158,0.306933,0.939974,-0.149136,0.159717,-0.20535,-0.965568,-0.936229,0.275209,0.218483,-0.311036,-0.93835,-0.150849,0.163499,-0.209186,0.964111,-0.938234,0.272545,-0.213158,0.306933,0.939974,-0.149136,0.159717,-0.20535,-0.965568,-77758.0,-25237.0,13648.0,-77666.0,25118.0,13484.0,-4.0,679.0,-63753.0,0.0,-27247.0,-22326.0,-19792.0,-22871.0,-4.0,-341.0,-1289.0,0.0,-5383.0,223.0,1406.0,-1612.0,46.0,162.0,-45.0,0.0,-900.0,679.0,566.0,-548.0,-44.0,-161.0,45.0,0.0,-450.0,426.0,425.0,-943.0,-0.012521,-0.043893,0.012309,0.0,-0.03295,0.024879,-0.020743,-0.02008,-0.012141,-0.043753,0.012279,0.0,-0.016472,0.015594,-0.015579,-0.034514,4079.969971,11514.69043,51566.039062,0.0,-18211.140625,-17728.380859,17976.691406,-17472.419922,4074.660156,11503.259766,51582.328125,0.0,17246.970703,17732.25,-17478.0,17995.230469,0.0,0.0,0.0,0.0,0.0,0.0,0.0,0.0,0.0,0.0,0.0,0.0,0.0,0.0,0.0,0.0,0.0,0.0,0.0,0.0,0.0,0.0,0.0,0.0,0.0,0.0,0.0,0.0,0.0,0.0,0.0,0.0,4079.939697,11514.693359,51566.136719,0.0,-18211.117188,-17728.380859,17976.488281,-17472.619141,4074.656982,11503.251953,51582.414062,0.0,17246.970703,17732.25,-17478.240234,17994.988281,29.956329,90.396782,22.925053,0.0,-89.50811,-0.019395,27.621145,28.414127,29.91754,90.308266,22.933611,0.0,-90.23539,-0.173026,28.507971,28.959698,0.978,1.003,-45329.0,-128620.0,-509203.0,0.0,175099.0,174656.0,-179949.0,171267.0,-45278.0,-128155.0,-574426.0,0.0,-197016.0,-196802.0,192794.0,-201559.0,0.0,0.0,0.0,0.0,0.0,0.0,0.0,0.0,0.0,0.0,0.0,0.0,0.0,0.0,0.0,0.0,0.0,0.0,0.0,0.0,0.0,0.0,0.0,0.0
46,3.437998056411743,29.956551,90.396721,22.925005,0.0,-89.512245,-0.019395,27.643791,28.436344,29.917564,90.308334,22.933569,0.0,-90.235397,-0.173077,28.534876,28.986557,3.0,1.0,111.0,0.0,1.0,-77758.0,-25237.0,13648.0,-77666.0,25118.0,13484.0,-0.936229,0.275209,0.218483,-0.311036,-0.93835,-0.150849,0.163499,-0.209186,0.964111,-0.938234,0.272545,-0.213158,0.306933,0.939974,-0.149136,0.159717,-0.20535,-0.965568,-0.936229,0.275209,0.218483,-0.311036,-0.93835,-0.150849,0.163499,-0.209186,0.964111,-0.938234,0.272545,-0.213158,0.306933,0.939974,-0.149136,0.159717,-0.20535,-0.965568,-77758.0,-25237.0,13648.0,-77666.0,25118.0,13484.0,-4.0,679.0,-63753.0,0.0,-27247.0,-22326.0,-19792.0,-22871.0,-4.0,-341.0,-1289.0,0.0,-5383.0,223.0,1406.0,-1612.0,46.0,162.0,-45.0,0.0,-900.0,679.0,567.0,-549.0,-44.0,-161.0,45.0,0.0,-450.0,426.0,426.0,-943.0,-0.012521,-0.043893,0.012309,0.0,-0.032949,0.024879,-0.020757,-0.020094,-0.012141,-0.043753,0.012279,0.0,-0.016472,0.015594,-0.015595,-0.03453,4079.969971,11514.69043,51566.039062,0.0,-18211.140625,-17728.380859,17976.691406,-17472.419922,4074.660156,11503.259766,51582.328125,0.0,17246.970703,17732.25,-17478.0,17995.230469,0.0,0.0,0.0,0.0,0.0,0.0,0.0,0.0,0.0,0.0,0.0,0.0,0.0,0.0,0.0,0.0,0.0,0.0,0.0,0.0,0.0,0.0,0.0,0.0,0.0,0.0,0.0,0.0,0.0,0.0,0.0,0.0,4079.939697,11514.693359,51566.136719,0.0,-18211.117188,-17728.380859,17976.488281,-17472.619141,4074.656982,11503.251953,51582.414062,0.0,17246.970703,17732.25,-17478.240234,17994.988281,29.956329,90.396782,22.925053,0.0,-89.50811,-0.019395,27.621145,28.414127,29.91754,90.308266,22.933611,0.0,-90.23539,-0.173026,28.507971,28.959698,0.978,1.003,-45329.0,-128620.0,-509203.0,0.0,175099.0,174656.0,-179949.0,171267.0,-45278.0,-128155.0,-574426.0,0.0,-197016.0,-196802.0,192794.0,-201559.0,0.0,0.0,0.0,0.0,0.0,0.0,0.0,0.0,0.0,0.0,0.0,0.0,0.0,0.0,0.0,0.0,0.0,0.0,0.0,0.0,0.0,0.0,0.0,0.0
47,3.5078890323638916,29.956551,90.396721,22.925005,0.0,-89.512245,-0.019395,27.643791,28.436344,29.917564,90.308334,22.933569,0.0,-90.235397,-0.173077,28.534876,28.986557,3.0,1.0,111.0,0.0,1.0,-77758.0,-25237.0,13648.0,-77666.0,25118.0,13484.0,-0.936229,0.275209,0.218483,-0.311036,-0.93835,-0.150849,0.163499,-0.209186,0.964111,-0.938234,0.272545,-0.213158,0.306933,0.939974,-0.149136,0.159717,-0.20535,-0.965568,-0.936229,0.275209,0.218483,-0.311036,-0.93835,-0.150849,0.163499,-0.209186,0.964111,-0.938234,0.272545,-0.213158,0.306933,0.939974,-0.149136,0.159717,-0.20535,-0.965568,-77758.0,-25237.0,13648.0,-77666.0,25118.0,13484.0,-4.0,679.0,-63753.0,0.0,-27247.0,-22326.0,-19792.0,-22871.0,-4.0,-341.0,-1289.0,0.0,-5383.0,223.0,1406.0,-1612.0,46.0,162.0,-45.0,0.0,-900.0,679.0,567.0,-549.0,-44.0,-161.0,45.0,0.0,-450.0,426.0,426.0,-944.0,-0.012521,-0.043893,0.012309,0.0,-0.032947,0.024879,-0.020769,-0.020106,-0.012141,-0.043753,0.012279,0.0,-0.016472,0.015594,-0.01561,-0.034545,4079.969971,11514.69043,51566.039062,0.0,-18211.140625,-17728.380859,17976.691406,-17472.419922,4074.660156,11503.259766,51582.328125,0.0,17246.970703,17732.25,-17478.0,17995.230469,0.0,0.0,0.0,0.0,0.0,0.0,0.0,0.0,0.0,0.0,0.0,0.0,0.0,0.0,0.0,0.0,0.0,0.0,0.0,0.0,0.0,0.0,0.0,0.0,0.0,0.0,0.0,0.0,0.0,0.0,0.0,0.0,4079.939697,11514.693359,51566.136719,0.0,-18211.117188,-17728.380859,17976.488281,-17472.619141,4074.656982,11503.251953,51582.414062,0.0,17246.970703,17732.25,-17478.240234,17994.988281,29.956329,90.396782,22.925053,0.0,-89.50811,-0.019395,27.621145,28.414127,29.91754,90.308266,22.933611,0.0,-90.23539,-0.173026,28.507971,28.959698,0.978,1.003,-45329.0,-128620.0,-509203.0,0.0,175099.0,174656.0,-179949.0,171267.0,-45278.0,-128155.0,-574426.0,0.0,-197016.0,-196802.0,192794.0,-201559.0,0.0,0.0,0.0,0.0,0.0,0.0,0.0,0.0,0.0,0.0,0.0,0.0,0.0,0.0,0.0,0.0,0.0,0.0,0.0,0.0,0.0,0.0,0.0,0.0
48,3.5839650630950928,29.956551,90.396721,22.925005,0.0,-89.512245,-0.019395,27.643791,28.436344,29.917564,90.308334,22.933569,0.0,-90.235397,-0.173077,28.534876,28.986557,3.0,1.0,111.0,0.0,1.0,-77758.0,-25237.0,13648.0,-77666.0,25118.0,13484.0,-0.936229,0.275209,0.218483,-0.311036,-0.93835,-0.150849,0.163499,-0.209186,0.964111,-0.938234,0.272545,-0.213158,0.306933,0.939974,-0.149136,0.159717,-0.20535,-0.965568,-0.936229,0.275209,0.218483,-0.311036,-0.93835,-0.150849,0.163499,-0.209186,0.964111,-0.938234,0.272545,-0.213158,0.306933,0.939974,-0.149136,0.159717,-0.20535,-0.965568,-77758.0,-25237.0,13648.0,-77666.0,25118.0,13484.0,-4.0,679.0,-63753.0,0.0,-27247.0,-22326.0,-19792.0,-22871.0,-4.0,-341.0,-1289.0,0.0,-5383.0,223.0,1406.0,-1612.0,46.0,162.0,-45.0,0.0,-900.0,679.0,567.0,-549.0,-44.0,-161.0,45.0,0.0,-450.0,426.0,427.0,-944.0,-0.012521,-0.043893,0.012309,0.0,-0.032946,0.024879,-0.020783,-0.020119,-0.012141,-0.043753,0.012279,0.0,-0.016472,0.015594,-0.015626,-0.034561,4079.969971,11514.69043,51566.039062,0.0,-18211.140625,-17728.380859,17976.691406,-17472.419922,4074.660156,11503.259766,51582.328125,0.0,17246.970703,17732.25,-17478.0,17995.230469,0.0,0.0,0.0,0.0,0.0,0.0,0.0,0.0,0.0,0.0,0.0,0.0,0.0,0.0,0.0,0.0,0.0,0.0,0.0,0.0,0.0,0.0,0.0,0.0,0.0,0.0,0.0,0.0,0.0,0.0,0.0,0.0,4079.939697,11514.693359,51566.136719,0.0,-18211.117188,-17728.380859,17976.488281,-17472.619141,4074.656982,11503.251953,51582.414062,0.0,17246.970703,17732.25,-17478.240234,17994.988281,29.956329,90.396782,22.925053,0.0,-89.50811,-0.019395,27.621145,28.414127,29.91754,90.308266,22.933611,0.0,-90.23539,-0.173026,28.507971,28.959698,0.978,1.003,-45329.0,-128620.0,-509203.0,0.0,175099.0,174656.0,-179949.0,171267.0,-45278.0,-128155.0,-574426.0,0.0,-197016.0,-196802.0,192794.0,-201559.0,0.0,0.0,0.0,0.0,0.0,0.0,0.0,0.0,0.0,0.0,0.0,0.0,0.0,0.0,0.0,0.0,0.0,0.0,0.0,0.0,0.0,0.0,0.0,0.0
49,3.660959005355835,29.980999,90.393166,22.924843,0.0,-89.512245,-0.019395,27.643791,28.436344,29.917564,90.308334,22.933569,0.0,-90.235397,-0.173077,28.534876,28.986557,3.0,1.0,111.0,0.0,1.0,-77751.0,-25271.0,13644.0,-77666.0,25118.0,13484.0,-0.936107,0.275602,0.218512,-0.311428,-0.938227,-0.150807,0.163451,-0.209222,0.964111,-0.938234,0.272545,-0.213158,0.306933,0.939974,-0.149136,0.159717,-0.20535,-0.965568,-0.936113,0.275581,0.21851,-0.311407,-0.938234,-0.150809,0.163454,-0.20922,0.964111,-0.938234,0.272545,-0.213158,0.306933,0.939974,-0.149136,0.159717,-0.20535,-0.965568,-77751.0,-25269.0,13644.0,-77666.0,25118.0,13484.0,-41.0,679.0,-63753.0,0.0,-27247.0,-22326.0,-19792.0,-22871.0,-4.0,-341.0,-1289.0,0.0,-5383.0,223.0,1406.0,-1612.0,-308.0,126.0,13.0,0.0,-900.0,679.0,568.0,-550.0,-44.0,-161.0,45.0,0.0,-450.0,426.0,427.0,-944.0,0.083358,-0.034267,-0.003751,0.0,-0.032944,0.024879,-0.020796,-0.020133,-0.012141,-0.043753,0.012279,0.0,-0.016472,0.015594,-0.015642,-0.034577,4083.300049,11514.69043,51566.039062,0.0,-18211.140625,-17728.380859,17976.691406,-17472.419922,4074.660156,11503.259766,51582.328125,0.0,17246.970703,17732.25,-17478.0,17995.230469,179.661285,0.0,0.0,0.0,0.0,0.0,0.0,0.0,0.0,0.0,0.0,0.0,0.0,0.0,0.0,0.0,1.319135,-0.191868,-0.008736,0.0,0.0,0.0,0.0,0.0,0.0,0.0,0.0,0.0,0.0,0.0,0.0,0.0,4106.396484,11516.533203,51560.003906,0.0,-18211.117188,-17728.380859,17976.488281,-17472.619141,4074.656982,11503.251953,51582.414062,0.0,17246.970703,17732.25,-17478.240234,17994.988281,30.150579,90.383667,22.920801,0.0,-89.50811,-0.019395,27.621145,28.414127,29.91754,90.308266,22.933611,0.0,-90.23539,-0.173026,28.507971,28.959698,0.978,1.003,-45329.0,-128620.0,-509203.0,0.0,175099.0,174656.0,-179949.0,171267.0,-45278.0,-128155.0,-574426.0,0.0,-197016.0,-196802.0,192794.0,-201559.0,-3.1e-05,-0.0,0.046199,0.056171,0.019749,-0.026688,0.0,0.0,0.0,0.0,0.0,0.0,-3.1e-05,-0.0,0.046199,0.056171,0.019749,-0.026688,0.0,0.0,0.0,0.0,0.0,0.0
50,3.7599360942840576,30.345106,90.339462,22.922438,0.0,-89.729065,-0.019395,27.643791,28.326283,29.917564,90.308334,22.933569,0.0,-90.235397,-0.173077,28.534876,28.986557,3.0,1.0,111.0,0.0,1.0,-77641.0,-25768.0,13592.0,-77666.0,25118.0,13484.0,-0.934535,0.281367,0.217891,-0.316368,-0.937235,-0.146634,0.162957,-0.205968,0.964895,-0.938234,0.272545,-0.213158,0.306933,0.939974,-0.149136,0.159717,-0.20535,-0.965568,-0.934535,0.281367,0.217891,-0.316368,-0.937235,-0.146634,0.162957,-0.205968,0.964895,-0.938234,0.272545,-0.213158,0.306933,0.939974,-0.149136,0.159717,-0.20535,-0.965568,-77641.0,-25768.0,13592.0,-77666.0,25118.0,13484.0,-592.0,680.0,-63753.0,0.0,-27260.0,-22326.0,-19792.0,-22882.0,-4.0,-341.0,-1289.0,0.0,-5383.0,223.0,1406.0,-1612.0,-200.0,635.0,120.0,0.0,-848.0,679.0,568.0,-526.0,-44.0,-161.0,45.0,0.0,-450.0,426.0,428.0,-945.0,0.054159,-0.17189,-0.032631,0.0,-0.031066,0.024879,-0.020814,-0.019257,-0.012141,-0.043753,0.012279,0.0,-0.016472,0.015594,-0.015663,-0.034598,4132.890137,11514.599609,51566.039062,0.0,-18212.310547,-17728.380859,17976.691406,-17473.410156,4074.660156,11503.259766,51582.328125,0.0,17246.970703,17732.25,-17478.0,17995.230469,629.907288,0.0,0.0,0.0,0.0,0.0,0.0,0.0,0.0,0.0,0.0,0.0,0.0,0.0,0.0,0.0,4.624997,-0.672706,-0.030629,0.0,0.0,0.0,0.0,0.0,0.0,0.0,0.0,0.0,0.0,0.0,0.0,0.0,4162.774414,11490.174805,51548.980469,0.0,-18211.117188,-17728.380859,17976.488281,-17472.619141,4074.656982,11503.251953,51582.414062,0.0,17246.970703,17732.25,-17478.240234,17994.988281,30.564529,90.106552,22.914705,0.0,-89.50811,-0.019395,27.621145,28.414127,29.91754,90.308266,22.933611,0.0,-90.23539,-0.173026,28.507971,28.959698,0.976,1.003,-45329.0,-128620.0,-509203.0,0.0,175099.0,174656.0,-179949.0,171267.0,-45278.0,-128155.0,-574426.0,0.0,-197016.0,-196802.0,192794.0,-201559.0,-5.9e-05,-0.0,0.161977,0.197201,0.069108,-0.093571,0.0,0.0,0.0,0.0,0.0,0.0,-5.9e-05,-0.0,0.161977,0.197201,0.069108,-0.093571,0.0,0.0,0.0,0.0,0.0,0.0
