MHC-RobotSimulators-Research/Data_Analysis_MotionReplication/mai_plotter/raven_data/with_offsets/twoarm_p5_phys3.csv
,time,jpos0,jpos1,jpos2,jpos3,jpos4,jpos5,jpos6,jpos7,jpos8,jpos9,jpos10,jpos11,jpos12,jpos13,jpos14,jpos15,runlevel,sublevel,last_seq,type0,type1,pos0,pos1,pos2,pos3,pos4,pos5,ori0,ori1,ori2,ori3,ori4,ori5,ori6,ori7,ori8,ori9,ori10,ori11,ori12,ori13,ori14,ori15,ori16,ori17,ori_d0,ori_d1,ori_d2,ori_d3,ori_d4,ori_d5,ori_d6,ori_d7,ori_d8,ori_d9,ori_d10,ori_d11,ori_d12,ori_d13,ori_d14,ori_d15,ori_d16,ori_d17,pos_d0,pos_d1,pos_d2,pos_d3,pos_d4,pos_d5,encVals0,encVals1,encVals2,encVals3,encVals4,encVals5,encVals6,encVals7,encVals8,encVals9,encVals10,encVals11,encVals12,encVals13,encVals14,encVals15,dac_vals0,dac_vals1,dac_vals2,dac_vals3,dac_vals4,dac_vals5,dac_vals6,dac_vals7,dac_vals8,dac_vals9,dac_vals10,dac_vals11,dac_vals12,dac_vals13,dac_vals14,dac_vals15,Tau0,Tau1,Tau2,Tau3,Tau4,Tau5,Tau6,Tau7,Tau8,Tau9,Tau10,Tau11,Tau12,Tau13,Tau14,Tau15,mpos0,mpos1,mpos2,mpos3,mpos4,mpos5,mpos6,mpos7,mpos8,mpos9,mpos10,mpos11,mpos12,mpos13,mpos14,mpos15,mvel0,mvel1,mvel2,mvel3,mvel4,mvel5,mvel6,mvel7,mvel8,mvel9,mvel10,mvel11,mvel12,mvel13,mvel14,mvel15,jvel0,jvel1,jvel2,jvel3,jvel4,jvel5,jvel6,jvel7,jvel8,jvel9,jvel10,jvel11,jvel12,jvel13,jvel14,jvel15,mpos_d0,mpos_d1,mpos_d2,mpos_d3,mpos_d4,mpos_d5,mpos_d6,mpos_d7,mpos_d8,mpos_d9,mpos_d10,mpos_d11,mpos_d12,mpos_d13,mpos_d14,mpos_d15,jpos_d0,jpos_d1,jpos_d2,jpos_d3,jpos_d4,jpos_d5,jpos_d6,jpos_d7,jpos_d8,jpos_d9,jpos_d10,jpos_d11,jpos_d12,jpos_d13,jpos_d14,jpos_d15,grasp_d0,grasp_d1,encoffsets0,encoffsets1,encoffsets2,encoffsets3,encoffsets4,encoffsets5,encoffsets6,encoffsets7,encoffsets8,encoffsets9,encoffsets10,encoffsets11,encoffsets12,encoffsets13,encoffsets14,encoffsets15,jac_vel0,jac_vel1,jac_vel2,jac_vel3,jac_vel4,jac_vel5,jac_vel6,jac_vel7,jac_vel8,jac_vel9,jac_vel10,jac_vel11,jac_f0,jac_f1,jac_f2,jac_f3,jac_f4,jac_f5,jac_f6,jac_f7,jac_f8,jac_f9,jac_f10,jac_f11
0,0.0,30.188498,89.864555,22.887888,0.0,-66.818726,3.137392,31.426306,38.47625,30.235413,89.83329,22.894068,0.0,-69.985291,-2.315818,38.915421,36.852276,3.0,1.0,111.0,0.0,1.0,-78590.0,-25294.0,12582.0,-78324.0,25779.0,12592.0,-0.941477,0.226305,0.249813,-0.327942,-0.786316,-0.523604,0.077938,-0.574885,0.814514,-0.947583,0.312516,-0.066486,0.298099,0.939624,0.168059,0.114992,0.13943,-0.983532,-0.941414,0.22646,0.249911,-0.328174,-0.785907,-0.524072,0.077725,-0.575383,0.814183,-0.947612,0.312568,-0.065821,0.298022,0.939305,0.169969,0.114953,0.141449,-0.983249,-78590.0,-25294.0,12582.0,-78324.0,25780.0,12593.0,-355.0,1352.0,-62803.0,0.0,-25560.0,-21684.0,-20001.0,-21699.0,477.0,-920.0,-2269.0,0.0,-4506.0,-328.0,139.0,-1056.0,49.0,160.0,-45.0,0.0,-791.0,-278.0,507.0,-380.0,-49.0,-158.0,45.0,0.0,-128.0,165.0,628.0,-681.0,-0.013341,-0.043358,0.012405,0.0,-0.028964,-0.010178,-0.018584,-0.01394,-0.01352,-0.042935,0.012211,0.0,-0.004684,0.00607,-0.023007,-0.024938,4111.560059,11454.120117,51480.542969,0.0,-18059.310547,-17670.599609,17995.501953,-17366.939453,4117.950195,11451.150391,51494.128906,0.0,17325.900391,17682.660156,-17363.96875,18045.269531,0.0,0.0,0.0,0.0,0.0,0.0,0.0,0.0,0.0,0.0,0.0,0.0,0.0,0.0,0.0,0.0,0.0,0.0,0.0,0.0,0.0,0.0,0.0,0.0,0.0,0.0,0.0,0.0,0.0,0.0,0.0,0.0,4111.547363,11454.03418,51480.675781,0.0,-18059.132812,-17670.605469,17995.570312,-17366.507812,4117.948242,11451.138672,51494.191406,0.0,17326.53125,17682.666016,-17363.724609,18045.335938,30.188402,89.863861,22.887955,0.0,-66.785789,3.136837,31.434114,38.524033,30.235399,89.833199,22.894098,0.0,-69.868156,-2.315201,38.942406,36.859913,1.221,1.323,-45329.0,-128620.0,-509203.0,0.0,175099.0,174656.0,-179949.0,171267.0,-45278.0,-128155.0,-574426.0,0.0,-197016.0,-196802.0,192794.0,-201559.0,0.0,0.0,0.0,0.0,0.0,0.0,0.0,0.0,0.0,0.0,0.0,0.0,0.0,0.0,0.0,0.0,0.0,0.0,0.0,0.0,0.0,0.0,0.0,0.0
1,0.08646607398986816,30.188498,89.864555,22.887888,0.0,-66.818726,3.137392,31.426306,38.47625,30.235413,89.83329,22.894068,0.0,-69.985291,-2.315818,38.915421,36.852276,3.0,1.0,111.0,0.0,1.0,-78590.0,-25294.0,12582.0,-78324.0,25779.0,12592.0,-0.941477,0.226305,0.249813,-0.327942,-0.786316,-0.523604,0.077938,-0.574885,0.814514,-0.947583,0.312516,-0.066486,0.298099,0.939624,0.168059,0.114992,0.13943,-0.983532,-0.941477,0.226305,0.249813,-0.327942,-0.786316,-0.523604,0.077938,-0.574885,0.814514,-0.947583,0.312516,-0.066486,0.298099,0.939624,0.168059,0.114992,0.13943,-0.983532,-78590.0,-25294.0,12582.0,-78324.0,25779.0,12592.0,-355.0,1352.0,-62803.0,0.0,-25560.0,-21684.0,-20001.0,-21699.0,477.0,-920.0,-2269.0,0.0,-4506.0,-328.0,139.0,-1056.0,49.0,160.0,-45.0,0.0,-791.0,-278.0,507.0,-380.0,-49.0,-158.0,45.0,0.0,-126.0,165.0,628.0,-681.0,-0.013341,-0.043358,0.012405,0.0,-0.028952,-0.010178,-0.018579,-0.013911,-0.01352,-0.042935,0.012211,0.0,-0.004642,0.006071,-0.022991,-0.024933,4111.560059,11454.120117,51480.542969,0.0,-18059.310547,-17670.599609,17995.501953,-17366.939453,4117.950195,11451.150391,51494.128906,0.0,17325.900391,17682.660156,-17363.96875,18045.269531,0.0,0.0,0.0,0.0,0.0,0.0,0.0,0.0,0.0,0.0,0.0,0.0,0.0,0.0,0.0,0.0,0.0,0.0,0.0,0.0,0.0,0.0,0.0,0.0,0.0,0.0,0.0,0.0,0.0,0.0,0.0,0.0,4111.547363,11454.03418,51480.675781,0.0,-18059.132812,-17670.605469,17995.570312,-17366.507812,4117.948242,11451.138672,51494.191406,0.0,17326.53125,17682.666016,-17363.724609,18045.335938,30.188402,89.863861,22.887955,0.0,-66.785789,3.136837,31.434114,38.524033,30.235399,89.833199,22.894098,0.0,-69.868156,-2.315201,38.942406,36.859913,1.22,1.322,-45329.0,-128620.0,-509203.0,0.0,175099.0,174656.0,-179949.0,171267.0,-45278.0,-128155.0,-574426.0,0.0,-197016.0,-196802.0,192794.0,-201559.0,0.0,0.0,0.0,0.0,0.0,0.0,0.0,0.0,0.0,0.0,0.0,0.0,0.0,0.0,0.0,0.0,0.0,0.0,0.0,0.0,0.0,0.0,0.0,0.0
2,0.1574230194091797,30.188498,89.864555,22.887888,0.0,-66.818726,3.137392,31.426306,38.47625,30.235413,89.83329,22.894068,0.0,-69.985291,-2.315818,38.915421,36.852276,3.0,1.0,111.0,0.0,1.0,-78590.0,-25294.0,12582.0,-78324.0,25779.0,12592.0,-0.941477,0.226305,0.249813,-0.327942,-0.786316,-0.523604,0.077938,-0.574885,0.814514,-0.947583,0.312516,-0.066486,0.298099,0.939624,0.168059,0.114992,0.13943,-0.983532,-0.941477,0.226305,0.249813,-0.327942,-0.786316,-0.523604,0.077938,-0.574885,0.814514,-0.947583,0.312516,-0.066486,0.298099,0.939624,0.168059,0.114992,0.13943,-0.983532,-78590.0,-25294.0,12582.0,-78324.0,25779.0,12592.0,-355.0,1352.0,-62803.0,0.0,-25560.0,-21684.0,-20001.0,-21699.0,477.0,-920.0,-2269.0,0.0,-4506.0,-328.0,139.0,-1056.0,49.0,160.0,-45.0,0.0,-790.0,-278.0,507.0,-379.0,-49.0,-158.0,45.0,0.0,-125.0,165.0,627.0,-681.0,-0.013341,-0.043358,0.012405,0.0,-0.028941,-0.010178,-0.018575,-0.013884,-0.01352,-0.042935,0.012211,0.0,-0.004602,0.006071,-0.022976,-0.024929,4111.560059,11454.120117,51480.542969,0.0,-18059.310547,-17670.599609,17995.501953,-17366.939453,4117.950195,11451.150391,51494.128906,0.0,17325.900391,17682.660156,-17363.96875,18045.269531,0.0,0.0,0.0,0.0,0.0,0.0,0.0,0.0,0.0,0.0,0.0,0.0,0.0,0.0,0.0,0.0,0.0,0.0,0.0,0.0,0.0,0.0,0.0,0.0,0.0,0.0,0.0,0.0,0.0,0.0,0.0,0.0,4111.547363,11454.03418,51480.675781,0.0,-18059.132812,-17670.605469,17995.570312,-17366.507812,4117.948242,11451.138672,51494.191406,0.0,17326.53125,17682.666016,-17363.724609,18045.335938,30.188402,89.863861,22.887955,0.0,-66.785789,3.136837,31.434114,38.524033,30.235399,89.833199,22.894098,0.0,-69.868156,-2.315201,38.942406,36.859913,1.22,1.322,-45329.0,-128620.0,-509203.0,0.0,175099.0,174656.0,-179949.0,171267.0,-45278.0,-128155.0,-574426.0,0.0,-197016.0,-196802.0,192794.0,-201559.0,0.0,0.0,0.0,0.0,0.0,0.0,0.0,0.0,0.0,0.0,0.0,0.0,0.0,0.0,0.0,0.0,0.0,0.0,0.0,0.0,0.0,0.0,0.0,0.0
3,0.23153996467590332,30.188498,89.864555,22.887888,0.0,-66.818726,3.137392,31.426306,38.47625,30.235413,89.83329,22.894068,0.0,-69.985291,-2.315818,38.915421,36.852276,3.0,1.0,111.0,0.0,1.0,-78590.0,-25294.0,12582.0,-78324.0,25779.0,12592.0,-0.941477,0.226305,0.249813,-0.327942,-0.786316,-0.523604,0.077938,-0.574885,0.814514,-0.947583,0.312516,-0.066486,0.298099,0.939624,0.168059,0.114992,0.13943,-0.983532,-0.941477,0.226305,0.249813,-0.327942,-0.786316,-0.523604,0.077938,-0.574885,0.814514,-0.947583,0.312516,-0.066486,0.298099,0.939624,0.168059,0.114992,0.13943,-0.983532,-78590.0,-25294.0,12582.0,-78324.0,25779.0,12592.0,-355.0,1352.0,-62803.0,0.0,-25560.0,-21684.0,-20001.0,-21699.0,477.0,-920.0,-2269.0,0.0,-4506.0,-328.0,139.0,-1056.0,49.0,160.0,-45.0,0.0,-790.0,-278.0,507.0,-378.0,-49.0,-158.0,45.0,0.0,-124.0,165.0,627.0,-681.0,-0.013341,-0.043358,0.012405,0.0,-0.028929,-0.010179,-0.01857,-0.013856,-0.01352,-0.042935,0.012211,0.0,-0.004562,0.006071,-0.02296,-0.024925,4111.560059,11454.120117,51480.542969,0.0,-18059.310547,-17670.599609,17995.501953,-17366.939453,4117.950195,11451.150391,51494.128906,0.0,17325.900391,17682.660156,-17363.96875,18045.269531,0.0,0.0,0.0,0.0,0.0,0.0,0.0,0.0,0.0,0.0,0.0,0.0,0.0,0.0,0.0,0.0,0.0,0.0,0.0,0.0,0.0,0.0,0.0,0.0,0.0,0.0,0.0,0.0,0.0,0.0,0.0,0.0,4111.547363,11454.03418,51480.675781,0.0,-18059.132812,-17670.605469,17995.570312,-17366.507812,4117.948242,11451.138672,51494.191406,0.0,17326.53125,17682.666016,-17363.724609,18045.335938,30.188402,89.863861,22.887955,0.0,-66.785789,3.136837,31.434114,38.524033,30.235399,89.833199,22.894098,0.0,-69.868156,-2.315201,38.942406,36.859913,1.22,1.322,-45329.0,-128620.0,-509203.0,0.0,175099.0,174656.0,-179949.0,171267.0,-45278.0,-128155.0,-574426.0,0.0,-197016.0,-196802.0,192794.0,-201559.0,0.0,0.0,0.0,0.0,0.0,0.0,0.0,0.0,0.0,0.0,0.0,0.0,0.0,0.0,0.0,0.0,0.0,0.0,0.0,0.0,0.0,0.0,0.0,0.0
4,0.30557918548583984,30.188498,89.864555,22.887888,0.0,-66.818726,3.137392,31.426306,38.47625,30.235413,89.83329,22.894068,0.0,-69.985291,-2.315818,38.915421,36.852276,3.0,1.0,111.0,0.0,1.0,-78590.0,-25294.0,12582.0,-78324.0,25779.0,12592.0,-0.941477,0.226305,0.249813,-0.327942,-0.786316,-0.523604,0.077938,-0.574885,0.814514,-0.947583,0.312516,-0.066486,0.298099,0.939624,0.168059,0.114992,0.13943,-0.983532,-0.941477,0.226305,0.249813,-0.327942,-0.786316,-0.523604,0.077938,-0.574885,0.814514,-0.947583,0.312516,-0.066486,0.298099,0.939624,0.168059,0.114992,0.13943,-0.983532,-78590.0,-25294.0,12582.0,-78324.0,25779.0,12592.0,-355.0,1352.0,-62803.0,0.0,-25560.0,-21684.0,-20001.0,-21699.0,477.0,-920.0,-2269.0,0.0,-4506.0,-328.0,139.0,-1056.0,49.0,160.0,-45.0,0.0,-790.0,-278.0,507.0,-377.0,-49.0,-158.0,45.0,0.0,-123.0,165.0,627.0,-681.0,-0.013341,-0.043358,0.012405,0.0,-0.028918,-0.010179,-0.018566,-0.013828,-0.01352,-0.042935,0.012211,0.0,-0.004521,0.006072,-0.022944,-0.02492,4111.560059,11454.120117,51480.542969,0.0,-18059.310547,-17670.599609,17995.501953,-17366.939453,4117.950195,11451.150391,51494.128906,0.0,17325.900391,17682.660156,-17363.96875,18045.269531,0.0,0.0,0.0,0.0,0.0,0.0,0.0,0.0,0.0,0.0,0.0,0.0,0.0,0.0,0.0,0.0,0.0,0.0,0.0,0.0,0.0,0.0,0.0,0.0,0.0,0.0,0.0,0.0,0.0,0.0,0.0,0.0,4111.547363,11454.03418,51480.675781,0.0,-18059.132812,-17670.605469,17995.570312,-17366.507812,4117.948242,11451.138672,51494.191406,0.0,17326.53125,17682.666016,-17363.724609,18045.335938,30.188402,89.863861,22.887955,0.0,-66.785789,3.136837,31.434114,38.524033,30.235399,89.833199,22.894098,0.0,-69.868156,-2.315201,38.942406,36.859913,1.22,1.322,-45329.0,-128620.0,-509203.0,0.0,175099.0,174656.0,-179949.0,171267.0,-45278.0,-128155.0,-574426.0,0.0,-197016.0,-196802.0,192794.0,-201559.0,0.0,0.0,0.0,0.0,0.0,0.0,0.0,0.0,0.0,0.0,0.0,0.0,0.0,0.0,0.0,0.0,0.0,0.0,0.0,0.0,0.0,0.0,0.0,0.0
5,0.3835780620574951,30.188498,89.864555,22.887888,0.0,-66.818726,3.137392,31.426306,38.47625,30.235413,89.83329,22.894068,0.0,-69.985291,-2.315818,38.915421,36.852276,3.0,1.0,111.0,0.0,1.0,-78590.0,-25294.0,12582.0,-78324.0,25779.0,12592.0,-0.941477,0.226305,0.249813,-0.327942,-0.786316,-0.523604,0.077938,-0.574885,0.814514,-0.947583,0.312516,-0.066486,0.298099,0.939624,0.168059,0.114992,0.13943,-0.983532,-0.941477,0.226305,0.249813,-0.327942,-0.786316,-0.523604,0.077938,-0.574885,0.814514,-0.947583,0.312516,-0.066486,0.298099,0.939624,0.168059,0.114992,0.13943,-0.983532,-78590.0,-25294.0,12582.0,-78324.0,25779.0,12592.0,-355.0,1352.0,-62803.0,0.0,-25560.0,-21684.0,-20001.0,-21699.0,477.0,-920.0,-2269.0,0.0,-4506.0,-328.0,139.0,-1056.0,49.0,160.0,-45.0,0.0,-789.0,-278.0,507.0,-377.0,-49.0,-158.0,45.0,0.0,-122.0,165.0,626.0,-680.0,-0.013341,-0.043358,0.012405,0.0,-0.028906,-0.010179,-0.018561,-0.013799,-0.01352,-0.042935,0.012211,0.0,-0.004478,0.006072,-0.022927,-0.024916,4111.560059,11454.120117,51480.542969,0.0,-18059.310547,-17670.599609,17995.501953,-17366.939453,4117.950195,11451.150391,51494.128906,0.0,17325.900391,17682.660156,-17363.96875,18045.269531,0.0,0.0,0.0,0.0,0.0,0.0,0.0,0.0,0.0,0.0,0.0,0.0,0.0,0.0,0.0,0.0,0.0,0.0,0.0,0.0,0.0,0.0,0.0,0.0,0.0,0.0,0.0,0.0,0.0,0.0,0.0,0.0,4111.547363,11454.03418,51480.675781,0.0,-18059.132812,-17670.605469,17995.570312,-17366.507812,4117.948242,11451.138672,51494.191406,0.0,17326.53125,17682.666016,-17363.724609,18045.335938,30.188402,89.863861,22.887955,0.0,-66.785789,3.136837,31.434114,38.524033,30.235399,89.833199,22.894098,0.0,-69.868156,-2.315201,38.942406,36.859913,1.22,1.322,-45329.0,-128620.0,-509203.0,0.0,175099.0,174656.0,-179949.0,171267.0,-45278.0,-128155.0,-574426.0,0.0,-197016.0,-196802.0,192794.0,-201559.0,0.0,0.0,0.0,0.0,0.0,0.0,0.0,0.0,0.0,0.0,0.0,0.0,0.0,0.0,0.0,0.0,0.0,0.0,0.0,0.0,0.0,0.0,0.0,0.0
6,0.4515349864959717,30.188498,89.864555,22.887888,0.0,-66.818726,3.137392,31.426306,38.47625,30.235413,89.83329,22.894068,0.0,-69.985291,-2.315818,38.915421,36.852276,3.0,1.0,111.0,0.0,1.0,-78590.0,-25294.0,12582.0,-78324.0,25779.0,12592.0,-0.941477,0.226305,0.249813,-0.327942,-0.786316,-0.523604,0.077938,-0.574885,0.814514,-0.947583,0.312516,-0.066486,0.298099,0.939624,0.168059,0.114992,0.13943,-0.983532,-0.941477,0.226305,0.249813,-0.327942,-0.786316,-0.523604,0.077938,-0.574885,0.814514,-0.947583,0.312516,-0.066486,0.298099,0.939624,0.168059,0.114992,0.13943,-0.983532,-78590.0,-25294.0,12582.0,-78324.0,25779.0,12592.0,-355.0,1352.0,-62803.0,0.0,-25560.0,-21684.0,-20001.0,-21699.0,477.0,-920.0,-2269.0,0.0,-4506.0,-328.0,139.0,-1056.0,49.0,160.0,-45.0,0.0,-789.0,-278.0,507.0,-376.0,-49.0,-158.0,45.0,0.0,-121.0,165.0,626.0,-680.0,-0.013341,-0.043358,0.012405,0.0,-0.028895,-0.01018,-0.018557,-0.013773,-0.01352,-0.042935,0.012211,0.0,-0.00444,0.006072,-0.022913,-0.024912,4111.560059,11454.120117,51480.542969,0.0,-18059.310547,-17670.599609,17995.501953,-17366.939453,4117.950195,11451.150391,51494.128906,0.0,17325.900391,17682.660156,-17363.96875,18045.269531,0.0,0.0,0.0,0.0,0.0,0.0,0.0,0.0,0.0,0.0,0.0,0.0,0.0,0.0,0.0,0.0,0.0,0.0,0.0,0.0,0.0,0.0,0.0,0.0,0.0,0.0,0.0,0.0,0.0,0.0,0.0,0.0,4111.547363,11454.03418,51480.675781,0.0,-18059.132812,-17670.605469,17995.570312,-17366.507812,4117.948242,11451.138672,51494.191406,0.0,17326.53125,17682.666016,-17363.724609,18045.335938,30.188402,89.863861,22.887955,0.0,-66.785789,3.136837,31.434114,38.524033,30.235399,89.833199,22.894098,0.0,-69.868156,-2.315201,38.942406,36.859913,1.22,1.322,-45329.0,-128620.0,-509203.0,0.0,175099.0,174656.0,-179949.0,171267.0,-45278.0,-128155.0,-574426.0,0.0,-197016.0,-196802.0,192794.0,-201559.0,0.0,0.0,0.0,0.0,0.0,0.0,0.0,0.0,0.0,0.0,0.0,0.0,0.0,0.0,0.0,0.0,0.0,0.0,0.0,0.0,0.0,0.0,0.0,0.0
7,0.528541088104248,30.188498,89.864555,22.887888,0.0,-66.818726,3.137392,31.426306,38.47625,30.235413,89.83329,22.894068,0.0,-69.985291,-2.315818,38.915421,36.852276,3.0,1.0,111.0,0.0,1.0,-78590.0,-25294.0,12582.0,-78324.0,25779.0,12592.0,-0.941477,0.226305,0.249813,-0.327942,-0.786316,-0.523604,0.077938,-0.574885,0.814514,-0.947583,0.312516,-0.066486,0.298099,0.939624,0.168059,0.114992,0.13943,-0.983532,-0.941477,0.226305,0.249813,-0.327942,-0.786316,-0.523604,0.077938,-0.574885,0.814514,-0.947583,0.312516,-0.066486,0.298099,0.939624,0.168059,0.114992,0.13943,-0.983532,-78590.0,-25294.0,12582.0,-78324.0,25779.0,12592.0,-355.0,1352.0,-62803.0,0.0,-25560.0,-21684.0,-20001.0,-21699.0,477.0,-920.0,-2269.0,0.0,-4506.0,-328.0,139.0,-1056.0,49.0,160.0,-45.0,0.0,-789.0,-278.0,507.0,-375.0,-49.0,-158.0,45.0,0.0,-120.0,165.0,625.0,-680.0,-0.013341,-0.043358,0.012405,0.0,-0.028883,-0.01018,-0.018553,-0.013744,-0.01352,-0.042935,0.012211,0.0,-0.004398,0.006073,-0.022897,-0.024908,4111.560059,11454.120117,51480.542969,0.0,-18059.310547,-17670.599609,17995.501953,-17366.939453,4117.950195,11451.150391,51494.128906,0.0,17325.900391,17682.660156,-17363.96875,18045.269531,0.0,0.0,0.0,0.0,0.0,0.0,0.0,0.0,0.0,0.0,0.0,0.0,0.0,0.0,0.0,0.0,0.0,0.0,0.0,0.0,0.0,0.0,0.0,0.0,0.0,0.0,0.0,0.0,0.0,0.0,0.0,0.0,4111.547363,11454.03418,51480.675781,0.0,-18059.132812,-17670.605469,17995.570312,-17366.507812,4117.948242,11451.138672,51494.191406,0.0,17326.53125,17682.666016,-17363.724609,18045.335938,30.188402,89.863861,22.887955,0.0,-66.785789,3.136837,31.434114,38.524033,30.235399,89.833199,22.894098,0.0,-69.868156,-2.315201,38.942406,36.859913,1.22,1.322,-45329.0,-128620.0,-509203.0,0.0,175099.0,174656.0,-179949.0,171267.0,-45278.0,-128155.0,-574426.0,0.0,-197016.0,-196802.0,192794.0,-201559.0,0.0,0.0,0.0,0.0,0.0,0.0,0.0,0.0,0.0,0.0,0.0,0.0,0.0,0.0,0.0,0.0,0.0,0.0,0.0,0.0,0.0,0.0,0.0,0.0
8,0.5995011329650879,30.188498,89.864555,22.887888,0.0,-66.818726,3.137392,31.426306,38.47625,30.235413,89.83329,22.894068,0.0,-69.985291,-2.315818,38.915421,36.852276,3.0,1.0,111.0,0.0,1.0,-78590.0,-25294.0,12582.0,-78324.0,25779.0,12592.0,-0.941477,0.226305,0.249813,-0.327942,-0.786316,-0.523604,0.077938,-0.574885,0.814514,-0.947583,0.312516,-0.066486,0.298099,0.939624,0.168059,0.114992,0.13943,-0.983532,-0.941477,0.226305,0.249813,-0.327942,-0.786316,-0.523604,0.077938,-0.574885,0.814514,-0.947583,0.312516,-0.066486,0.298099,0.939624,0.168059,0.114992,0.13943,-0.983532,-78590.0,-25294.0,12582.0,-78324.0,25779.0,12592.0,-355.0,1352.0,-62803.0,0.0,-25560.0,-21684.0,-20001.0,-21699.0,477.0,-920.0,-2269.0,0.0,-4506.0,-328.0,139.0,-1056.0,49.0,160.0,-45.0,0.0,-789.0,-278.0,506.0,-374.0,-49.0,-158.0,45.0,0.0,-119.0,165.0,625.0,-680.0,-0.013341,-0.043358,0.012405,0.0,-0.028872,-0.01018,-0.018548,-0.013718,-0.01352,-0.042935,0.012211,0.0,-0.004359,0.006073,-0.022881,-0.024903,4111.560059,11454.120117,51480.542969,0.0,-18059.310547,-17670.599609,17995.501953,-17366.939453,4117.950195,11451.150391,51494.128906,0.0,17325.900391,17682.660156,-17363.96875,18045.269531,0.0,0.0,0.0,0.0,0.0,0.0,0.0,0.0,0.0,0.0,0.0,0.0,0.0,0.0,0.0,0.0,0.0,0.0,0.0,0.0,0.0,0.0,0.0,0.0,0.0,0.0,0.0,0.0,0.0,0.0,0.0,0.0,4111.547363,11454.03418,51480.675781,0.0,-18059.132812,-17670.605469,17995.570312,-17366.507812,4117.948242,11451.138672,51494.191406,0.0,17326.53125,17682.666016,-17363.724609,18045.335938,30.188402,89.863861,22.887955,0.0,-66.785789,3.136837,31.434114,38.524033,30.235399,89.833199,22.894098,0.0,-69.868156,-2.315201,38.942406,36.859913,1.22,1.322,-45329.0,-128620.0,-509203.0,0.0,175099.0,174656.0,-179949.0,171267.0,-45278.0,-128155.0,-574426.0,0.0,-197016.0,-196802.0,192794.0,-201559.0,0.0,0.0,0.0,0.0,0.0,0.0,0.0,0.0,0.0,0.0,0.0,0.0,0.0,0.0,0.0,0.0,0.0,0.0,0.0,0.0,0.0,0.0,0.0,0.0
9,0.6755349636077881,30.188498,89.864555,22.887888,0.0,-66.818726,3.137392,31.426306,38.47625,30.235413,89.83329,22.894068,0.0,-69.985291,-2.315818,38.915421,36.852276,3.0,1.0,111.0,0.0,1.0,-78590.0,-25294.0,12582.0,-78324.0,25779.0,12592.0,-0.941477,0.226305,0.249813,-0.327942,-0.786316,-0.523604,0.077938,-0.574885,0.814514,-0.947583,0.312516,-0.066486,0.298099,0.939624,0.168059,0.114992,0.13943,-0.983532,-0.941477,0.226305,0.249813,-0.327942,-0.786316,-0.523604,0.077938,-0.574885,0.814514,-0.947583,0.312516,-0.066486,0.298099,0.939624,0.168059,0.114992,0.13943,-0.983532,-78590.0,-25294.0,12582.0,-78324.0,25779.0,12592.0,-355.0,1352.0,-62803.0,0.0,-25560.0,-21684.0,-20001.0,-21699.0,477.0,-920.0,-2269.0,0.0,-4506.0,-328.0,139.0,-1056.0,49.0,160.0,-45.0,0.0,-788.0,-278.0,506.0,-374.0,-49.0,-158.0,45.0,0.0,-117.0,165.0,624.0,-680.0,-0.013341,-0.043358,0.012405,0.0,-0.02886,-0.010181,-0.018544,-0.013689,-0.01352,-0.042935,0.012211,0.0,-0.004317,0.006073,-0.022865,-0.024899,4111.560059,11454.120117,51480.542969,0.0,-18059.310547,-17670.599609,17995.501953,-17366.939453,4117.950195,11451.150391,51494.128906,0.0,17325.900391,17682.660156,-17363.96875,18045.269531,0.0,0.0,0.0,0.0,0.0,0.0,0.0,0.0,0.0,0.0,0.0,0.0,0.0,0.0,0.0,0.0,0.0,0.0,0.0,0.0,0.0,0.0,0.0,0.0,0.0,0.0,0.0,0.0,0.0,0.0,0.0,0.0,4111.547363,11454.03418,51480.675781,0.0,-18059.132812,-17670.605469,17995.570312,-17366.507812,4117.948242,11451.138672,51494.191406,0.0,17326.53125,17682.666016,-17363.724609,18045.335938,30.188402,89.863861,22.887955,0.0,-66.785789,3.136837,31.434114,38.524033,30.235399,89.833199,22.894098,0.0,-69.868156,-2.315201,38.942406,36.859913,1.22,1.322,-45329.0,-128620.0,-509203.0,0.0,175099.0,174656.0,-179949.0,171267.0,-45278.0,-128155.0,-574426.0,0.0,-197016.0,-196802.0,192794.0,-201559.0,0.0,0.0,0.0,0.0,0.0,0.0,0.0,0.0,0.0,0.0,0.0,0.0,0.0,0.0,0.0,0.0,0.0,0.0,0.0,0.0,0.0,0.0,0.0,0.0
10,0.7465291023254395,30.188498,89.864555,22.887888,0.0,-66.818726,3.137392,31.426306,38.47625,30.235413,89.83329,22.894068,0.0,-69.985291,-2.315818,38.915421,36.852276,3.0,1.0,111.0,0.0,1.0,-78590.0,-25294.0,12582.0,-78324.0,25779.0,12592.0,-0.941477,0.226305,0.249813,-0.327942,-0.786316,-0.523604,0.077938,-0.574885,0.814514,-0.947583,0.312516,-0.066486,0.298099,0.939624,0.168059,0.114992,0.13943,-0.983532,-0.941477,0.226305,0.249813,-0.327942,-0.786316,-0.523604,0.077938,-0.574885,0.814514,-0.947583,0.312516,-0.066486,0.298099,0.939624,0.168059,0.114992,0.13943,-0.983532,-78590.0,-25294.0,12582.0,-78324.0,25779.0,12592.0,-355.0,1352.0,-62803.0,0.0,-25560.0,-21684.0,-20001.0,-21699.0,477.0,-920.0,-2269.0,0.0,-4506.0,-328.0,139.0,-1056.0,49.0,160.0,-45.0,0.0,-788.0,-278.0,506.0,-373.0,-49.0,-158.0,45.0,0.0,-116.0,165.0,624.0,-680.0,-0.013341,-0.043358,0.012405,0.0,-0.028849,-0.010181,-0.01854,-0.013662,-0.01352,-0.042935,0.012211,0.0,-0.004278,0.006074,-0.02285,-0.024895,4111.560059,11454.120117,51480.542969,0.0,-18059.310547,-17670.599609,17995.501953,-17366.939453,4117.950195,11451.150391,51494.128906,0.0,17325.900391,17682.660156,-17363.96875,18045.269531,0.0,0.0,0.0,0.0,0.0,0.0,0.0,0.0,0.0,0.0,0.0,0.0,0.0,0.0,0.0,0.0,0.0,0.0,0.0,0.0,0.0,0.0,0.0,0.0,0.0,0.0,0.0,0.0,0.0,0.0,0.0,0.0,4111.547363,11454.03418,51480.675781,0.0,-18059.132812,-17670.605469,17995.570312,-17366.507812,4117.948242,11451.138672,51494.191406,0.0,17326.53125,17682.666016,-17363.724609,18045.335938,30.188402,89.863861,22.887955,0.0,-66.785789,3.136837,31.434114,38.524033,30.235399,89.833199,22.894098,0.0,-69.868156,-2.315201,38.942406,36.859913,1.22,1.322,-45329.0,-128620.0,-509203.0,0.0,175099.0,174656.0,-179949.0,171267.0,-45278.0,-128155.0,-574426.0,0.0,-197016.0,-196802.0,192794.0,-201559.0,0.0,0.0,0.0,0.0,0.0,0.0,0.0,0.0,0.0,0.0,0.0,0.0,0.0,0.0,0.0,0.0,0.0,0.0,0.0,0.0,0.0,0.0,0.0,0.0
11,0.81752610206604,30.188498,89.864555,22.887888,0.0,-66.818726,3.137392,31.426306,38.47625,30.235413,89.83329,22.894068,0.0,-69.985291,-2.315818,38.915421,36.852276,3.0,1.0,111.0,0.0,1.0,-78590.0,-25294.0,12582.0,-78324.0,25779.0,12592.0,-0.941477,0.226305,0.249813,-0.327942,-0.786316,-0.523604,0.077938,-0.574885,0.814514,-0.947583,0.312516,-0.066486,0.298099,0.939624,0.168059,0.114992,0.13943,-0.983532,-0.941477,0.226305,0.249813,-0.327942,-0.786316,-0.523604,0.077938,-0.574885,0.814514,-0.947583,0.312516,-0.066486,0.298099,0.939624,0.168059,0.114992,0.13943,-0.983532,-78590.0,-25294.0,12582.0,-78324.0,25779.0,12592.0,-355.0,1352.0,-62803.0,0.0,-25560.0,-21684.0,-20001.0,-21699.0,477.0,-920.0,-2269.0,0.0,-4506.0,-328.0,139.0,-1056.0,49.0,160.0,-45.0,0.0,-788.0,-278.0,506.0,-372.0,-49.0,-158.0,45.0,0.0,-115.0,165.0,624.0,-680.0,-0.013341,-0.043358,0.012405,0.0,-0.028838,-0.010181,-0.018535,-0.013635,-0.01352,-0.042935,0.012211,0.0,-0.004239,0.006074,-0.022835,-0.024891,4111.560059,11454.120117,51480.542969,0.0,-18059.310547,-17670.599609,17995.501953,-17366.939453,4117.950195,11451.150391,51494.128906,0.0,17325.900391,17682.660156,-17363.96875,18045.269531,0.0,0.0,0.0,0.0,0.0,0.0,0.0,0.0,0.0,0.0,0.0,0.0,0.0,0.0,0.0,0.0,0.0,0.0,0.0,0.0,0.0,0.0,0.0,0.0,0.0,0.0,0.0,0.0,0.0,0.0,0.0,0.0,4111.547363,11454.03418,51480.675781,0.0,-18059.132812,-17670.605469,17995.570312,-17366.507812,4117.948242,11451.138672,51494.191406,0.0,17326.53125,17682.666016,-17363.724609,18045.335938,30.188402,89.863861,22.887955,0.0,-66.785789,3.136837,31.434114,38.524033,30.235399,89.833199,22.894098,0.0,-69.868156,-2.315201,38.942406,36.859913,1.22,1.322,-45329.0,-128620.0,-509203.0,0.0,175099.0,174656.0,-179949.0,171267.0,-45278.0,-128155.0,-574426.0,0.0,-197016.0,-196802.0,192794.0,-201559.0,0.0,0.0,0.0,0.0,0.0,0.0,0.0,0.0,0.0,0.0,0.0,0.0,0.0,0.0,0.0,0.0,0.0,0.0,0.0,0.0,0.0,0.0,0.0,0.0
12,0.8874950408935547,30.188498,89.864555,22.887888,0.0,-66.818726,3.137392,31.426306,38.47625,30.235413,89.83329,22.894068,0.0,-69.985291,-2.315818,38.915421,36.852276,3.0,1.0,111.0,0.0,1.0,-78590.0,-25294.0,12582.0,-78324.0,25779.0,12592.0,-0.941477,0.226305,0.249813,-0.327942,-0.786316,-0.523604,0.077938,-0.574885,0.814514,-0.947583,0.312516,-0.066486,0.298099,0.939624,0.168059,0.114992,0.13943,-0.983532,-0.941477,0.226305,0.249813,-0.327942,-0.786316,-0.523604,0.077938,-0.574885,0.814514,-0.947583,0.312516,-0.066486,0.298099,0.939624,0.168059,0.114992,0.13943,-0.983532,-78590.0,-25294.0,12582.0,-78324.0,25779.0,12592.0,-355.0,1352.0,-62803.0,0.0,-25560.0,-21684.0,-20001.0,-21699.0,477.0,-920.0,-2269.0,0.0,-4506.0,-328.0,139.0,-1056.0,49.0,160.0,-45.0,0.0,-787.0,-278.0,506.0,-371.0,-49.0,-158.0,45.0,0.0,-114.0,165.0,623.0,-680.0,-0.013341,-0.043358,0.012405,0.0,-0.028828,-0.010182,-0.018531,-0.013609,-0.01352,-0.042935,0.012211,0.0,-0.0042,0.006074,-0.02282,-0.024887,4111.560059,11454.120117,51480.542969,0.0,-18059.310547,-17670.599609,17995.501953,-17366.939453,4117.950195,11451.150391,51494.128906,0.0,17325.900391,17682.660156,-17363.96875,18045.269531,0.0,0.0,0.0,0.0,0.0,0.0,0.0,0.0,0.0,0.0,0.0,0.0,0.0,0.0,0.0,0.0,0.0,0.0,0.0,0.0,0.0,0.0,0.0,0.0,0.0,0.0,0.0,0.0,0.0,0.0,0.0,0.0,4111.547363,11454.03418,51480.675781,0.0,-18059.132812,-17670.605469,17995.570312,-17366.507812,4117.948242,11451.138672,51494.191406,0.0,17326.53125,17682.666016,-17363.724609,18045.335938,30.188402,89.863861,22.887955,0.0,-66.785789,3.136837,31.434114,38.524033,30.235399,89.833199,22.894098,0.0,-69.868156,-2.315201,38.942406,36.859913,1.22,1.322,-45329.0,-128620.0,-509203.0,0.0,175099.0,174656.0,-179949.0,171267.0,-45278.0,-128155.0,-574426.0,0.0,-197016.0,-196802.0,192794.0,-201559.0,0.0,0.0,0.0,0.0,0.0,0.0,0.0,0.0,0.0,0.0,0.0,0.0,0.0,0.0,0.0,0.0,0.0,0.0,0.0,0.0,0.0,0.0,0.0,0.0
13,0.9594330787658691,30.188498,89.864555,22.887888,0.0,-66.818726,3.137392,31.426306,38.47625,30.235413,89.83329,22.894068,0.0,-69.985291,-2.315818,38.915421,36.852276,3.0,1.0,111.0,0.0,1.0,-78590.0,-25294.0,12582.0,-78324.0,25779.0,12592.0,-0.941477,0.226305,0.249813,-0.327942,-0.786316,-0.523604,0.077938,-0.574885,0.814514,-0.947583,0.312516,-0.066486,0.298099,0.939624,0.168059,0.114992,0.13943,-0.983532,-0.941477,0.226305,0.249813,-0.327942,-0.786316,-0.523604,0.077938,-0.574885,0.814514,-0.947583,0.312516,-0.066486,0.298099,0.939624,0.168059,0.114992,0.13943,-0.983532,-78590.0,-25294.0,12582.0,-78324.0,25779.0,12592.0,-355.0,1352.0,-62803.0,0.0,-25560.0,-21684.0,-20001.0,-21699.0,477.0,-920.0,-2269.0,0.0,-4506.0,-328.0,139.0,-1056.0,49.0,160.0,-45.0,0.0,-787.0,-278.0,506.0,-371.0,-49.0,-158.0,45.0,0.0,-113.0,166.0,623.0,-679.0,-0.013341,-0.043358,0.012405,0.0,-0.028816,-0.010182,-0.018527,-0.013582,-0.01352,-0.042935,0.012211,0.0,-0.004161,0.006074,-0.022805,-0.024882,4111.560059,11454.120117,51480.542969,0.0,-18059.310547,-17670.599609,17995.501953,-17366.939453,4117.950195,11451.150391,51494.128906,0.0,17325.900391,17682.660156,-17363.96875,18045.269531,0.0,0.0,0.0,0.0,0.0,0.0,0.0,0.0,0.0,0.0,0.0,0.0,0.0,0.0,0.0,0.0,0.0,0.0,0.0,0.0,0.0,0.0,0.0,0.0,0.0,0.0,0.0,0.0,0.0,0.0,0.0,0.0,4111.547363,11454.03418,51480.675781,0.0,-18059.132812,-17670.605469,17995.570312,-17366.507812,4117.948242,11451.138672,51494.191406,0.0,17326.53125,17682.666016,-17363.724609,18045.335938,30.188402,89.863861,22.887955,0.0,-66.785789,3.136837,31.434114,38.524033,30.235399,89.833199,22.894098,0.0,-69.868156,-2.315201,38.942406,36.859913,1.22,1.322,-45329.0,-128620.0,-509203.0,0.0,175099.0,174656.0,-179949.0,171267.0,-45278.0,-128155.0,-574426.0,0.0,-197016.0,-196802.0,192794.0,-201559.0,0.0,0.0,0.0,0.0,0.0,0.0,0.0,0.0,0.0,0.0,0.0,0.0,0.0,0.0,0.0,0.0,0.0,0.0,0.0,0.0,0.0,0.0,0.0,0.0
14,1.0314710140228271,30.188498,89.864555,22.887888,0.0,-66.818726,3.137392,31.426306,38.47625,30.235413,89.83329,22.894068,0.0,-69.985291,-2.315818,38.915421,36.852276,3.0,1.0,111.0,0.0,1.0,-78590.0,-25294.0,12582.0,-78324.0,25779.0,12592.0,-0.941477,0.226305,0.249813,-0.327942,-0.786316,-0.523604,0.077938,-0.574885,0.814514,-0.947583,0.312516,-0.066486,0.298099,0.939624,0.168059,0.114992,0.13943,-0.983532,-0.941477,0.226305,0.249813,-0.327942,-0.786316,-0.523604,0.077938,-0.574885,0.814514,-0.947583,0.312516,-0.066486,0.298099,0.939624,0.168059,0.114992,0.13943,-0.983532,-78590.0,-25294.0,12582.0,-78324.0,25779.0,12592.0,-355.0,1352.0,-62803.0,0.0,-25560.0,-21684.0,-20001.0,-21699.0,477.0,-920.0,-2269.0,0.0,-4506.0,-328.0,139.0,-1056.0,49.0,160.0,-45.0,0.0,-787.0,-278.0,506.0,-370.0,-49.0,-158.0,45.0,0.0,-112.0,166.0,622.0,-679.0,-0.013341,-0.043358,0.012405,0.0,-0.028805,-0.010182,-0.018523,-0.013555,-0.01352,-0.042935,0.012211,0.0,-0.004121,0.006075,-0.022789,-0.024878,4111.560059,11454.120117,51480.542969,0.0,-18059.310547,-17670.599609,17995.501953,-17366.939453,4117.950195,11451.150391,51494.128906,0.0,17325.900391,17682.660156,-17363.96875,18045.269531,0.0,0.0,0.0,0.0,0.0,0.0,0.0,0.0,0.0,0.0,0.0,0.0,0.0,0.0,0.0,0.0,0.0,0.0,0.0,0.0,0.0,0.0,0.0,0.0,0.0,0.0,0.0,0.0,0.0,0.0,0.0,0.0,4111.547363,11454.03418,51480.675781,0.0,-18059.132812,-17670.605469,17995.570312,-17366.507812,4117.948242,11451.138672,51494.191406,0.0,17326.53125,17682.666016,-17363.724609,18045.335938,30.188402,89.863861,22.887955,0.0,-66.785789,3.136837,31.434114,38.524033,30.235399,89.833199,22.894098,0.0,-69.868156,-2.315201,38.942406,36.859913,1.22,1.322,-45329.0,-128620.0,-509203.0,0.0,175099.0,174656.0,-179949.0,171267.0,-45278.0,-128155.0,-574426.0,0.0,-197016.0,-196802.0,192794.0,-201559.0,0.0,0.0,0.0,0.0,0.0,0.0,0.0,0.0,0.0,0.0,0.0,0.0,0.0,0.0,0.0,0.0,0.0,0.0,0.0,0.0,0.0,0.0,0.0,0.0
15,1.1036090850830078,30.188498,89.864555,22.887888,0.0,-66.818726,3.137392,31.426306,38.47625,30.235413,89.83329,22.894068,0.0,-69.985291,-2.315818,38.915421,36.852276,3.0,1.0,111.0,0.0,1.0,-78590.0,-25294.0,12582.0,-78324.0,25779.0,12592.0,-0.941477,0.226305,0.249813,-0.327942,-0.786316,-0.523604,0.077938,-0.574885,0.814514,-0.947583,0.312516,-0.066486,0.298099,0.939624,0.168059,0.114992,0.13943,-0.983532,-0.941477,0.226305,0.249813,-0.327942,-0.786316,-0.523604,0.077938,-0.574885,0.814514,-0.947583,0.312516,-0.066486,0.298099,0.939624,0.168059,0.114992,0.13943,-0.983532,-78590.0,-25294.0,12582.0,-78324.0,25779.0,12592.0,-355.0,1352.0,-62803.0,0.0,-25560.0,-21684.0,-20001.0,-21699.0,477.0,-920.0,-2269.0,0.0,-4506.0,-328.0,139.0,-1056.0,49.0,160.0,-45.0,0.0,-786.0,-278.0,506.0,-369.0,-49.0,-158.0,45.0,0.0,-111.0,166.0,622.0,-679.0,-0.013341,-0.043358,0.012405,0.0,-0.028794,-0.010183,-0.018518,-0.013528,-0.01352,-0.042935,0.012211,0.0,-0.004081,0.006075,-0.022774,-0.024874,4111.560059,11454.120117,51480.542969,0.0,-18059.310547,-17670.599609,17995.501953,-17366.939453,4117.950195,11451.150391,51494.128906,0.0,17325.900391,17682.660156,-17363.96875,18045.269531,0.0,0.0,0.0,0.0,0.0,0.0,0.0,0.0,0.0,0.0,0.0,0.0,0.0,0.0,0.0,0.0,0.0,0.0,0.0,0.0,0.0,0.0,0.0,0.0,0.0,0.0,0.0,0.0,0.0,0.0,0.0,0.0,4111.547363,11454.03418,51480.675781,0.0,-18059.132812,-17670.605469,17995.570312,-17366.507812,4117.948242,11451.138672,51494.191406,0.0,17326.53125,17682.666016,-17363.724609,18045.335938,30.188402,89.863861,22.887955,0.0,-66.785789,3.136837,31.434114,38.524033,30.235399,89.833199,22.894098,0.0,-69.868156,-2.315201,38.942406,36.859913,1.22,1.322,-45329.0,-128620.0,-509203.0,0.0,175099.0,174656.0,-179949.0,171267.0,-45278.0,-128155.0,-574426.0,0.0,-197016.0,-196802.0,192794.0,-201559.0,0.0,0.0,0.0,0.0,0.0,0.0,0.0,0.0,0.0,0.0,0.0,0.0,0.0,0.0,0.0,0.0,0.0,0.0,0.0,0.0,0.0,0.0,0.0,0.0
16,1.177509069442749,30.188498,89.864555,22.887888,0.0,-66.818726,3.137392,31.426306,38.47625,30.235413,89.83329,22.894068,0.0,-69.985291,-2.315818,38.915421,36.852276,3.0,1.0,111.0,0.0,1.0,-78590.0,-25294.0,12582.0,-78324.0,25779.0,12592.0,-0.941477,0.226305,0.249813,-0.327942,-0.786316,-0.523604,0.077938,-0.574885,0.814514,-0.947583,0.312516,-0.066486,0.298099,0.939624,0.168059,0.114992,0.13943,-0.983532,-0.941477,0.226305,0.249813,-0.327942,-0.786316,-0.523604,0.077938,-0.574885,0.814514,-0.947583,0.312516,-0.066486,0.298099,0.939624,0.168059,0.114992,0.13943,-0.983532,-78590.0,-25294.0,12582.0,-78324.0,25779.0,12592.0,-355.0,1352.0,-62803.0,0.0,-25560.0,-21684.0,-20001.0,-21699.0,477.0,-920.0,-2269.0,0.0,-4506.0,-328.0,139.0,-1056.0,49.0,160.0,-45.0,0.0,-786.0,-278.0,505.0,-368.0,-49.0,-158.0,45.0,0.0,-110.0,166.0,621.0,-679.0,-0.013341,-0.043358,0.012405,0.0,-0.028783,-0.010183,-0.018514,-0.0135,-0.01352,-0.042935,0.012211,0.0,-0.00404,0.006075,-0.022758,-0.02487,4111.560059,11454.120117,51480.542969,0.0,-18059.310547,-17670.599609,17995.501953,-17366.939453,4117.950195,11451.150391,51494.128906,0.0,17325.900391,17682.660156,-17363.96875,18045.269531,0.0,0.0,0.0,0.0,0.0,0.0,0.0,0.0,0.0,0.0,0.0,0.0,0.0,0.0,0.0,0.0,0.0,0.0,0.0,0.0,0.0,0.0,0.0,0.0,0.0,0.0,0.0,0.0,0.0,0.0,0.0,0.0,4111.547363,11454.03418,51480.675781,0.0,-18059.132812,-17670.605469,17995.570312,-17366.507812,4117.948242,11451.138672,51494.191406,0.0,17326.53125,17682.666016,-17363.724609,18045.335938,30.188402,89.863861,22.887955,0.0,-66.785789,3.136837,31.434114,38.524033,30.235399,89.833199,22.894098,0.0,-69.868156,-2.315201,38.942406,36.859913,1.22,1.322,-45329.0,-128620.0,-509203.0,0.0,175099.0,174656.0,-179949.0,171267.0,-45278.0,-128155.0,-574426.0,0.0,-197016.0,-196802.0,192794.0,-201559.0,0.0,0.0,0.0,0.0,0.0,0.0,0.0,0.0,0.0,0.0,0.0,0.0,0.0,0.0,0.0,0.0,0.0,0.0,0.0,0.0,0.0,0.0,0.0,0.0
17,1.2505090236663818,30.188498,89.864555,22.887888,0.0,-66.818726,3.137392,31.426306,38.47625,30.235413,89.83329,22.894068,0.0,-69.985291,-2.315818,38.915421,36.852276,3.0,1.0,111.0,0.0,1.0,-78590.0,-25294.0,12582.0,-78324.0,25779.0,12592.0,-0.941477,0.226305,0.249813,-0.327942,-0.786316,-0.523604,0.077938,-0.574885,0.814514,-0.947583,0.312516,-0.066486,0.298099,0.939624,0.168059,0.114992,0.13943,-0.983532,-0.941477,0.226305,0.249813,-0.327942,-0.786316,-0.523604,0.077938,-0.574885,0.814514,-0.947583,0.312516,-0.066486,0.298099,0.939624,0.168059,0.114992,0.13943,-0.983532,-78590.0,-25294.0,12582.0,-78324.0,25779.0,12592.0,-355.0,1352.0,-62803.0,0.0,-25560.0,-21684.0,-20001.0,-21699.0,477.0,-920.0,-2269.0,0.0,-4506.0,-328.0,139.0,-1056.0,49.0,160.0,-45.0,0.0,-786.0,-278.0,505.0,-368.0,-49.0,-158.0,45.0,0.0,-109.0,166.0,621.0,-679.0,-0.013341,-0.043358,0.012405,0.0,-0.028771,-0.010183,-0.01851,-0.013472,-0.01352,-0.042935,0.012211,0.0,-0.004,0.006076,-0.022743,-0.024866,4111.560059,11454.120117,51480.542969,0.0,-18059.310547,-17670.599609,17995.501953,-17366.939453,4117.950195,11451.150391,51494.128906,0.0,17325.900391,17682.660156,-17363.96875,18045.269531,0.0,0.0,0.0,0.0,0.0,0.0,0.0,0.0,0.0,0.0,0.0,0.0,0.0,0.0,0.0,0.0,0.0,0.0,0.0,0.0,0.0,0.0,0.0,0.0,0.0,0.0,0.0,0.0,0.0,0.0,0.0,0.0,4111.547363,11454.03418,51480.675781,0.0,-18059.132812,-17670.605469,17995.570312,-17366.507812,4117.948242,11451.138672,51494.191406,0.0,17326.53125,17682.666016,-17363.724609,18045.335938,30.188402,89.863861,22.887955,0.0,-66.785789,3.136837,31.434114,38.524033,30.235399,89.833199,22.894098,0.0,-69.868156,-2.315201,38.942406,36.859913,1.22,1.322,-45329.0,-128620.0,-509203.0,0.0,175099.0,174656.0,-179949.0,171267.0,-45278.0,-128155.0,-574426.0,0.0,-197016.0,-196802.0,192794.0,-201559.0,0.0,0.0,0.0,0.0,0.0,0.0,0.0,0.0,0.0,0.0,0.0,0.0,0.0,0.0,0.0,0.0,0.0,0.0,0.0,0.0,0.0,0.0,0.0,0.0
18,1.3195321559906006,30.188498,89.864555,22.887888,0.0,-66.818726,3.137392,31.426306,38.47625,30.235413,89.83329,22.894068,0.0,-69.968765,-2.315818,38.915421,36.852276,3.0,1.0,111.0,0.0,1.0,-78590.0,-25294.0,12582.0,-78324.0,25779.0,12592.0,-0.941477,0.226305,0.249813,-0.327942,-0.786316,-0.523604,0.077938,-0.574885,0.814514,-0.94758,0.312546,-0.066391,0.298111,0.939572,0.168328,0.114989,0.139712,-0.983493,-0.941477,0.226305,0.249813,-0.327942,-0.786316,-0.523604,0.077938,-0.574885,0.814514,-0.94758,0.312546,-0.066391,0.298111,0.939572,0.168328,0.114989,0.139712,-0.983493,-78590.0,-25294.0,12582.0,-78324.0,25779.0,12592.0,-355.0,1352.0,-62803.0,0.0,-25560.0,-21684.0,-20001.0,-21699.0,477.0,-920.0,-2269.0,0.0,-4505.0,-328.0,139.0,-1056.0,49.0,160.0,-45.0,0.0,-785.0,-278.0,505.0,-367.0,-49.0,-158.0,45.0,0.0,-112.0,166.0,621.0,-679.0,-0.013341,-0.043358,0.012405,0.0,-0.028761,-0.010184,-0.018505,-0.013446,-0.01352,-0.042935,0.012211,0.0,-0.004103,0.006076,-0.022728,-0.024862,4111.560059,11454.120117,51480.542969,0.0,-18059.310547,-17670.599609,17995.501953,-17366.939453,4117.950195,11451.150391,51494.128906,0.0,17325.990234,17682.660156,-17363.96875,18045.269531,0.0,0.0,0.0,0.0,0.0,0.0,0.0,0.0,0.0,0.0,0.0,0.0,0.0,0.0,0.0,0.0,0.0,0.0,0.0,0.0,0.0,0.0,0.0,0.0,0.0,0.0,0.0,0.0,0.0,0.0,0.0,0.0,4111.547363,11454.03418,51480.675781,0.0,-18059.132812,-17670.605469,17995.570312,-17366.507812,4117.948242,11451.138672,51494.191406,0.0,17326.53125,17682.666016,-17363.724609,18045.335938,30.188402,89.863861,22.887955,0.0,-66.785789,3.136837,31.434114,38.524033,30.235399,89.833199,22.894098,0.0,-69.868156,-2.315201,38.942406,36.859913,1.22,1.322,-45329.0,-128620.0,-509203.0,0.0,175099.0,174656.0,-179949.0,171267.0,-45278.0,-128155.0,-574426.0,0.0,-197016.0,-196802.0,192794.0,-201559.0,0.0,0.0,0.0,0.0,0.0,0.0,0.0,0.0,0.0,0.0,0.0,0.0,0.0,0.0,0.0,0.0,0.0,0.0,0.0,0.0,0.0,0.0,0.0,0.0
19,1.390505075454712,30.188498,89.864555,22.887888,0.0,-66.818726,3.137392,31.426306,38.47625,30.235413,89.83329,22.894068,0.0,-69.968765,-2.315818,38.915421,36.852276,3.0,1.0,111.0,0.0,1.0,-78590.0,-25294.0,12582.0,-78324.0,25779.0,12592.0,-0.941477,0.226305,0.249813,-0.327942,-0.786316,-0.523604,0.077938,-0.574885,0.814514,-0.94758,0.312546,-0.066391,0.298111,0.939572,0.168328,0.114989,0.139712,-0.983493,-0.941477,0.226305,0.249813,-0.327942,-0.786316,-0.523604,0.077938,-0.574885,0.814514,-0.94758,0.312546,-0.066391,0.298111,0.939572,0.168328,0.114989,0.139712,-0.983493,-78590.0,-25294.0,12582.0,-78324.0,25779.0,12592.0,-355.0,1352.0,-62803.0,0.0,-25560.0,-21684.0,-20001.0,-21699.0,477.0,-920.0,-2269.0,0.0,-4505.0,-328.0,139.0,-1056.0,49.0,160.0,-45.0,0.0,-785.0,-278.0,505.0,-366.0,-49.0,-158.0,45.0,0.0,-111.0,166.0,620.0,-679.0,-0.013341,-0.043358,0.012405,0.0,-0.02875,-0.010184,-0.018501,-0.013419,-0.01352,-0.042935,0.012211,0.0,-0.004069,0.006076,-0.022713,-0.024857,4111.560059,11454.120117,51480.542969,0.0,-18059.310547,-17670.599609,17995.501953,-17366.939453,4117.950195,11451.150391,51494.128906,0.0,17325.990234,17682.660156,-17363.96875,18045.269531,0.0,0.0,0.0,0.0,0.0,0.0,0.0,0.0,0.0,0.0,0.0,0.0,0.0,0.0,0.0,0.0,0.0,0.0,0.0,0.0,0.0,0.0,0.0,0.0,0.0,0.0,0.0,0.0,0.0,0.0,0.0,0.0,4111.547363,11454.03418,51480.675781,0.0,-18059.132812,-17670.605469,17995.570312,-17366.507812,4117.948242,11451.138672,51494.191406,0.0,17326.53125,17682.666016,-17363.724609,18045.335938,30.188402,89.863861,22.887955,0.0,-66.785789,3.136837,31.434114,38.524033,30.235399,89.833199,22.894098,0.0,-69.868156,-2.315201,38.942406,36.859913,1.22,1.322,-45329.0,-128620.0,-509203.0,0.0,175099.0,174656.0,-179949.0,171267.0,-45278.0,-128155.0,-574426.0,0.0,-197016.0,-196802.0,192794.0,-201559.0,0.0,0.0,0.0,0.0,0.0,0.0,0.0,0.0,0.0,0.0,0.0,0.0,0.0,0.0,0.0,0.0,0.0,0.0,0.0,0.0,0.0,0.0,0.0,0.0
20,1.4625401496887207,30.188498,89.864555,22.887888,0.0,-66.818726,3.137392,31.426306,38.47625,30.235413,89.83329,22.894068,0.0,-69.968765,-2.315818,38.915421,36.852276,3.0,1.0,111.0,0.0,1.0,-78590.0,-25294.0,12582.0,-78324.0,25779.0,12592.0,-0.941477,0.226305,0.249813,-0.327942,-0.786316,-0.523604,0.077938,-0.574885,0.814514,-0.94758,0.312546,-0.066391,0.298111,0.939572,0.168328,0.114989,0.139712,-0.983493,-0.941477,0.226305,0.249813,-0.327942,-0.786316,-0.523604,0.077938,-0.574885,0.814514,-0.94758,0.312546,-0.066391,0.298111,0.939572,0.168328,0.114989,0.139712,-0.983493,-78590.0,-25294.0,12582.0,-78324.0,25779.0,12592.0,-355.0,1352.0,-62803.0,0.0,-25560.0,-21684.0,-20001.0,-21699.0,477.0,-920.0,-2269.0,0.0,-4505.0,-328.0,139.0,-1056.0,49.0,160.0,-45.0,0.0,-785.0,-278.0,505.0,-365.0,-49.0,-158.0,45.0,0.0,-110.0,166.0,620.0,-679.0,-0.013341,-0.043358,0.012405,0.0,-0.028738,-0.010184,-0.018497,-0.013392,-0.01352,-0.042935,0.012211,0.0,-0.004035,0.006077,-0.022698,-0.024853,4111.560059,11454.120117,51480.542969,0.0,-18059.310547,-17670.599609,17995.501953,-17366.939453,4117.950195,11451.150391,51494.128906,0.0,17325.990234,17682.660156,-17363.96875,18045.269531,0.0,0.0,0.0,0.0,0.0,0.0,0.0,0.0,0.0,0.0,0.0,0.0,0.0,0.0,0.0,0.0,0.0,0.0,0.0,0.0,0.0,0.0,0.0,0.0,0.0,0.0,0.0,0.0,0.0,0.0,0.0,0.0,4111.547363,11454.03418,51480.675781,0.0,-18059.132812,-17670.605469,17995.570312,-17366.507812,4117.948242,11451.138672,51494.191406,0.0,17326.53125,17682.666016,-17363.724609,18045.335938,30.188402,89.863861,22.887955,0.0,-66.785789,3.136837,31.434114,38.524033,30.235399,89.833199,22.894098,0.0,-69.868156,-2.315201,38.942406,36.859913,1.22,1.322,-45329.0,-128620.0,-509203.0,0.0,175099.0,174656.0,-179949.0,171267.0,-45278.0,-128155.0,-574426.0,0.0,-197016.0,-196802.0,192794.0,-201559.0,0.0,0.0,0.0,0.0,0.0,0.0,0.0,0.0,0.0,0.0,0.0,0.0,0.0,0.0,0.0,0.0,0.0,0.0,0.0,0.0,0.0,0.0,0.0,0.0
21,1.5315110683441162,30.188498,89.864555,22.887888,0.0,-66.818726,3.137392,31.426306,38.47625,30.235413,89.83329,22.894068,0.0,-69.968765,-2.315818,38.915421,36.852276,3.0,1.0,111.0,0.0,1.0,-78590.0,-25294.0,12582.0,-78324.0,25779.0,12592.0,-0.941477,0.226305,0.249813,-0.327942,-0.786316,-0.523604,0.077938,-0.574885,0.814514,-0.94758,0.312546,-0.066391,0.298111,0.939572,0.168328,0.114989,0.139712,-0.983493,-0.941477,0.226305,0.249813,-0.327942,-0.786316,-0.523604,0.077938,-0.574885,0.814514,-0.94758,0.312546,-0.066391,0.298111,0.939572,0.168328,0.114989,0.139712,-0.983493,-78590.0,-25294.0,12582.0,-78324.0,25779.0,12592.0,-355.0,1352.0,-62803.0,0.0,-25560.0,-21684.0,-20001.0,-21699.0,477.0,-920.0,-2269.0,0.0,-4505.0,-328.0,139.0,-1056.0,49.0,160.0,-45.0,0.0,-785.0,-278.0,505.0,-365.0,-49.0,-158.0,45.0,0.0,-109.0,166.0,619.0,-679.0,-0.013341,-0.043358,0.012405,0.0,-0.028728,-0.010185,-0.018493,-0.013366,-0.01352,-0.042935,0.012211,0.0,-0.004003,0.006077,-0.022683,-0.024849,4111.560059,11454.120117,51480.542969,0.0,-18059.310547,-17670.599609,17995.501953,-17366.939453,4117.950195,11451.150391,51494.128906,0.0,17325.990234,17682.660156,-17363.96875,18045.269531,0.0,0.0,0.0,0.0,0.0,0.0,0.0,0.0,0.0,0.0,0.0,0.0,0.0,0.0,0.0,0.0,0.0,0.0,0.0,0.0,0.0,0.0,0.0,0.0,0.0,0.0,0.0,0.0,0.0,0.0,0.0,0.0,4111.547363,11454.03418,51480.675781,0.0,-18059.132812,-17670.605469,17995.570312,-17366.507812,4117.948242,11451.138672,51494.191406,0.0,17326.53125,17682.666016,-17363.724609,18045.335938,30.188402,89.863861,22.887955,0.0,-66.785789,3.136837,31.434114,38.524033,30.235399,89.833199,22.894098,0.0,-69.868156,-2.315201,38.942406,36.859913,1.22,1.322,-45329.0,-128620.0,-509203.0,0.0,175099.0,174656.0,-179949.0,171267.0,-45278.0,-128155.0,-574426.0,0.0,-197016.0,-196802.0,192794.0,-201559.0,0.0,0.0,0.0,0.0,0.0,0.0,0.0,0.0,0.0,0.0,0.0,0.0,0.0,0.0,0.0,0.0,0.0,0.0,0.0,0.0,0.0,0.0,0.0,0.0
22,1.6035981178283691,30.188498,89.864555,22.887888,0.0,-66.818726,3.137392,31.426306,38.47625,30.235413,89.83329,22.894068,0.0,-69.951912,-2.315818,38.915421,36.852276,3.0,1.0,111.0,0.0,1.0,-78590.0,-25294.0,12582.0,-78324.0,25779.0,12592.0,-0.941477,0.226305,0.249813,-0.327942,-0.786316,-0.523604,0.077938,-0.574885,0.814514,-0.947576,0.312577,-0.066294,0.298123,0.939519,0.168602,0.114985,0.14,-0.983452,-0.941477,0.226305,0.249813,-0.327942,-0.786316,-0.523604,0.077938,-0.574885,0.814514,-0.947576,0.312577,-0.066294,0.298123,0.939519,0.168602,0.114985,0.14,-0.983452,-78590.0,-25294.0,12582.0,-78324.0,25779.0,12592.0,-355.0,1352.0,-62803.0,0.0,-25560.0,-21684.0,-20001.0,-21699.0,477.0,-920.0,-2269.0,0.0,-4504.0,-328.0,139.0,-1056.0,49.0,160.0,-45.0,0.0,-784.0,-278.0,505.0,-364.0,-49.0,-158.0,45.0,0.0,-112.0,166.0,619.0,-678.0,-0.013341,-0.043358,0.012405,0.0,-0.028717,-0.010185,-0.018489,-0.013339,-0.01352,-0.042935,0.012211,0.0,-0.004113,0.006077,-0.022667,-0.024845,4111.560059,11454.120117,51480.542969,0.0,-18059.310547,-17670.599609,17995.501953,-17366.939453,4117.950195,11451.150391,51494.128906,0.0,17326.080078,17682.660156,-17363.96875,18045.269531,0.0,0.0,0.0,0.0,0.0,0.0,0.0,0.0,0.0,0.0,0.0,0.0,0.0,0.0,0.0,0.0,0.0,0.0,0.0,0.0,0.0,0.0,0.0,0.0,0.0,0.0,0.0,0.0,0.0,0.0,0.0,0.0,4111.547363,11454.03418,51480.675781,0.0,-18059.132812,-17670.605469,17995.570312,-17366.507812,4117.948242,11451.138672,51494.191406,0.0,17326.53125,17682.666016,-17363.724609,18045.335938,30.188402,89.863861,22.887955,0.0,-66.785789,3.136837,31.434114,38.524033,30.235399,89.833199,22.894098,0.0,-69.868156,-2.315201,38.942406,36.859913,1.22,1.322,-45329.0,-128620.0,-509203.0,0.0,175099.0,174656.0,-179949.0,171267.0,-45278.0,-128155.0,-574426.0,0.0,-197016.0,-196802.0,192794.0,-201559.0,0.0,0.0,0.0,0.0,0.0,0.0,0.0,0.0,0.0,0.0,0.0,0.0,0.0,0.0,0.0,0.0,0.0,0.0,0.0,0.0,0.0,0.0,0.0,0.0
23,1.6725871562957764,30.188498,89.864555,22.887888,0.0,-66.818726,3.137392,31.426306,38.47625,30.235413,89.83329,22.894068,0.0,-69.951912,-2.315818,38.915421,36.852276,3.0,1.0,111.0,0.0,1.0,-78590.0,-25294.0,12582.0,-78324.0,25779.0,12592.0,-0.941477,0.226305,0.249813,-0.327942,-0.786316,-0.523604,0.077938,-0.574885,0.814514,-0.947576,0.312577,-0.066294,0.298123,0.939519,0.168602,0.114985,0.14,-0.983452,-0.941477,0.226305,0.249813,-0.327942,-0.786316,-0.523604,0.077938,-0.574885,0.814514,-0.947576,0.312577,-0.066294,0.298123,0.939519,0.168602,0.114985,0.14,-0.983452,-78590.0,-25294.0,12582.0,-78324.0,25779.0,12592.0,-355.0,1352.0,-62803.0,0.0,-25560.0,-21684.0,-20001.0,-21699.0,477.0,-920.0,-2269.0,0.0,-4504.0,-328.0,139.0,-1056.0,49.0,160.0,-45.0,0.0,-784.0,-278.0,505.0,-363.0,-49.0,-158.0,45.0,0.0,-111.0,166.0,619.0,-678.0,-0.013341,-0.043358,0.012405,0.0,-0.028707,-0.010185,-0.018485,-0.013315,-0.01352,-0.042935,0.012211,0.0,-0.004088,0.006078,-0.022654,-0.024841,4111.560059,11454.120117,51480.542969,0.0,-18059.310547,-17670.599609,17995.501953,-17366.939453,4117.950195,11451.150391,51494.128906,0.0,17326.080078,17682.660156,-17363.96875,18045.269531,0.0,0.0,0.0,0.0,0.0,0.0,0.0,0.0,0.0,0.0,0.0,0.0,0.0,0.0,0.0,0.0,0.0,0.0,0.0,0.0,0.0,0.0,0.0,0.0,0.0,0.0,0.0,0.0,0.0,0.0,0.0,0.0,4111.547363,11454.03418,51480.675781,0.0,-18059.132812,-17670.605469,17995.570312,-17366.507812,4117.948242,11451.138672,51494.191406,0.0,17326.53125,17682.666016,-17363.724609,18045.335938,30.188402,89.863861,22.887955,0.0,-66.785789,3.136837,31.434114,38.524033,30.235399,89.833199,22.894098,0.0,-69.868156,-2.315201,38.942406,36.859913,1.22,1.322,-45329.0,-128620.0,-509203.0,0.0,175099.0,174656.0,-179949.0,171267.0,-45278.0,-128155.0,-574426.0,0.0,-197016.0,-196802.0,192794.0,-201559.0,0.0,0.0,0.0,0.0,0.0,0.0,0.0,0.0,0.0,0.0,0.0,0.0,0.0,0.0,0.0,0.0,0.0,0.0,0.0,0.0,0.0,0.0,0.0,0.0
24,1.7445871829986572,30.188498,89.864555,22.887888,0.0,-66.818726,3.137392,31.426306,38.47625,30.235413,89.83329,22.894068,0.0,-69.951912,-2.315818,38.915421,36.852276,3.0,1.0,111.0,0.0,1.0,-78590.0,-25294.0,12582.0,-78324.0,25779.0,12592.0,-0.941477,0.226305,0.249813,-0.327942,-0.786316,-0.523604,0.077938,-0.574885,0.814514,-0.947576,0.312577,-0.066294,0.298123,0.939519,0.168602,0.114985,0.14,-0.983452,-0.941477,0.226305,0.249813,-0.327942,-0.786316,-0.523604,0.077938,-0.574885,0.814514,-0.947576,0.312577,-0.066294,0.298123,0.939519,0.168602,0.114985,0.14,-0.983452,-78590.0,-25294.0,12582.0,-78324.0,25779.0,12592.0,-355.0,1352.0,-62803.0,0.0,-25560.0,-21684.0,-20001.0,-21699.0,477.0,-920.0,-2269.0,0.0,-4504.0,-328.0,139.0,-1056.0,49.0,160.0,-45.0,0.0,-784.0,-278.0,505.0,-363.0,-49.0,-158.0,45.0,0.0,-110.0,166.0,618.0,-678.0,-0.013341,-0.043358,0.012405,0.0,-0.028695,-0.010185,-0.01848,-0.013287,-0.01352,-0.042935,0.012211,0.0,-0.004059,0.006078,-0.022638,-0.024837,4111.560059,11454.120117,51480.542969,0.0,-18059.310547,-17670.599609,17995.501953,-17366.939453,4117.950195,11451.150391,51494.128906,0.0,17326.080078,17682.660156,-17363.96875,18045.269531,0.0,0.0,0.0,0.0,0.0,0.0,0.0,0.0,0.0,0.0,0.0,0.0,0.0,0.0,0.0,0.0,0.0,0.0,0.0,0.0,0.0,0.0,0.0,0.0,0.0,0.0,0.0,0.0,0.0,0.0,0.0,0.0,4111.547363,11454.03418,51480.675781,0.0,-18059.132812,-17670.605469,17995.570312,-17366.507812,4117.948242,11451.138672,51494.191406,0.0,17326.53125,17682.666016,-17363.724609,18045.335938,30.188402,89.863861,22.887955,0.0,-66.785789,3.136837,31.434114,38.524033,30.235399,89.833199,22.894098,0.0,-69.868156,-2.315201,38.942406,36.859913,1.22,1.322,-45329.0,-128620.0,-509203.0,0.0,175099.0,174656.0,-179949.0,171267.0,-45278.0,-128155.0,-574426.0,0.0,-197016.0,-196802.0,192794.0,-201559.0,0.0,0.0,0.0,0.0,0.0,0.0,0.0,0.0,0.0,0.0,0.0,0.0,0.0,0.0,0.0,0.0,0.0,0.0,0.0,0.0,0.0,0.0,0.0,0.0
25,1.8155980110168457,30.188498,89.864555,22.887888,0.0,-66.818726,3.137392,31.426306,38.47625,30.235413,89.83329,22.894068,0.0,-69.951912,-2.315818,38.915421,36.852276,3.0,1.0,111.0,0.0,1.0,-78590.0,-25294.0,12582.0,-78324.0,25779.0,12592.0,-0.941477,0.226305,0.249813,-0.327942,-0.786316,-0.523604,0.077938,-0.574885,0.814514,-0.947576,0.312577,-0.066294,0.298123,0.939519,0.168602,0.114985,0.14,-0.983452,-0.941477,0.226305,0.249813,-0.327942,-0.786316,-0.523604,0.077938,-0.574885,0.814514,-0.947576,0.312577,-0.066294,0.298123,0.939519,0.168602,0.114985,0.14,-0.983452,-78590.0,-25294.0,12582.0,-78324.0,25779.0,12592.0,-355.0,1352.0,-62803.0,0.0,-25560.0,-21684.0,-20001.0,-21699.0,477.0,-920.0,-2269.0,0.0,-4504.0,-328.0,139.0,-1056.0,49.0,160.0,-45.0,0.0,-783.0,-278.0,504.0,-362.0,-49.0,-158.0,45.0,0.0,-110.0,166.0,618.0,-678.0,-0.013341,-0.043358,0.012405,0.0,-0.028684,-0.010186,-0.018476,-0.013261,-0.01352,-0.042935,0.012211,0.0,-0.004031,0.006078,-0.022623,-0.024833,4111.560059,11454.120117,51480.542969,0.0,-18059.310547,-17670.599609,17995.501953,-17366.939453,4117.950195,11451.150391,51494.128906,0.0,17326.080078,17682.660156,-17363.96875,18045.269531,0.0,0.0,0.0,0.0,0.0,0.0,0.0,0.0,0.0,0.0,0.0,0.0,0.0,0.0,0.0,0.0,0.0,0.0,0.0,0.0,0.0,0.0,0.0,0.0,0.0,0.0,0.0,0.0,0.0,0.0,0.0,0.0,4111.547363,11454.03418,51480.675781,0.0,-18059.132812,-17670.605469,17995.570312,-17366.507812,4117.948242,11451.138672,51494.191406,0.0,17326.53125,17682.666016,-17363.724609,18045.335938,30.188402,89.863861,22.887955,0.0,-66.785789,3.136837,31.434114,38.524033,30.235399,89.833199,22.894098,0.0,-69.868156,-2.315201,38.942406,36.859913,1.22,1.322,-45329.0,-128620.0,-509203.0,0.0,175099.0,174656.0,-179949.0,171267.0,-45278.0,-128155.0,-574426.0,0.0,-197016.0,-196802.0,192794.0,-201559.0,0.0,0.0,0.0,0.0,0.0,0.0,0.0,0.0,0.0,0.0,0.0,0.0,0.0,0.0,0.0,0.0,0.0,0.0,0.0,0.0,0.0,0.0,0.0,0.0
26,1.893589973449707,30.188498,89.864555,22.887888,0.0,-66.818726,3.137392,31.426306,38.47625,30.235413,89.83329,22.894068,0.0,-69.951912,-2.315818,38.915421,36.852276,3.0,1.0,111.0,0.0,1.0,-78590.0,-25294.0,12582.0,-78324.0,25779.0,12592.0,-0.941477,0.226305,0.249813,-0.327942,-0.786316,-0.523604,0.077938,-0.574885,0.814514,-0.947576,0.312577,-0.066294,0.298123,0.939519,0.168602,0.114985,0.14,-0.983452,-0.941477,0.226305,0.249813,-0.327942,-0.786316,-0.523604,0.077938,-0.574885,0.814514,-0.947576,0.312577,-0.066294,0.298123,0.939519,0.168602,0.114985,0.14,-0.983452,-78590.0,-25294.0,12582.0,-78324.0,25779.0,12592.0,-355.0,1352.0,-62803.0,0.0,-25560.0,-21684.0,-20001.0,-21699.0,477.0,-920.0,-2269.0,0.0,-4504.0,-328.0,139.0,-1056.0,49.0,160.0,-45.0,0.0,-783.0,-278.0,504.0,-361.0,-49.0,-158.0,45.0,0.0,-109.0,166.0,617.0,-678.0,-0.013341,-0.043358,0.012405,0.0,-0.028672,-0.010186,-0.018472,-0.013231,-0.01352,-0.042935,0.012211,0.0,-0.004001,0.006079,-0.022607,-0.024828,4111.560059,11454.120117,51480.542969,0.0,-18059.310547,-17670.599609,17995.501953,-17366.939453,4117.950195,11451.150391,51494.128906,0.0,17326.080078,17682.660156,-17363.96875,18045.269531,0.0,0.0,0.0,0.0,0.0,0.0,0.0,0.0,0.0,0.0,0.0,0.0,0.0,0.0,0.0,0.0,0.0,0.0,0.0,0.0,0.0,0.0,0.0,0.0,0.0,0.0,0.0,0.0,0.0,0.0,0.0,0.0,4111.547363,11454.03418,51480.675781,0.0,-18059.132812,-17670.605469,17995.570312,-17366.507812,4117.948242,11451.138672,51494.191406,0.0,17326.53125,17682.666016,-17363.724609,18045.335938,30.188402,89.863861,22.887955,0.0,-66.785789,3.136837,31.434114,38.524033,30.235399,89.833199,22.894098,0.0,-69.868156,-2.315201,38.942406,36.859913,1.22,1.322,-45329.0,-128620.0,-509203.0,0.0,175099.0,174656.0,-179949.0,171267.0,-45278.0,-128155.0,-574426.0,0.0,-197016.0,-196802.0,192794.0,-201559.0,0.0,0.0,0.0,0.0,0.0,0.0,0.0,0.0,0.0,0.0,0.0,0.0,0.0,0.0,0.0,0.0,0.0,0.0,0.0,0.0,0.0,0.0,0.0,0.0
27,1.9645850658416748,30.188498,89.864555,22.887888,0.0,-66.818726,3.137392,31.426306,38.47625,30.235413,89.83329,22.894068,0.0,-69.951912,-2.315818,38.915421,36.852276,3.0,1.0,111.0,0.0,1.0,-78590.0,-25294.0,12582.0,-78324.0,25779.0,12592.0,-0.941477,0.226305,0.249813,-0.327942,-0.786316,-0.523604,0.077938,-0.574885,0.814514,-0.947576,0.312577,-0.066294,0.298123,0.939519,0.168602,0.114985,0.14,-0.983452,-0.941477,0.226305,0.249813,-0.327942,-0.786316,-0.523604,0.077938,-0.574885,0.814514,-0.947576,0.312577,-0.066294,0.298123,0.939519,0.168602,0.114985,0.14,-0.983452,-78590.0,-25294.0,12582.0,-78324.0,25779.0,12592.0,-355.0,1352.0,-62803.0,0.0,-25560.0,-21684.0,-20001.0,-21699.0,477.0,-920.0,-2269.0,0.0,-4504.0,-328.0,139.0,-1056.0,49.0,160.0,-45.0,0.0,-783.0,-278.0,504.0,-360.0,-49.0,-158.0,45.0,0.0,-108.0,166.0,617.0,-678.0,-0.013341,-0.043358,0.012405,0.0,-0.028661,-0.010186,-0.018467,-0.013204,-0.01352,-0.042935,0.012211,0.0,-0.003973,0.006079,-0.022591,-0.024824,4111.560059,11454.120117,51480.542969,0.0,-18059.310547,-17670.599609,17995.501953,-17366.939453,4117.950195,11451.150391,51494.128906,0.0,17326.080078,17682.660156,-17363.96875,18045.269531,0.0,0.0,0.0,0.0,0.0,0.0,0.0,0.0,0.0,0.0,0.0,0.0,0.0,0.0,0.0,0.0,0.0,0.0,0.0,0.0,0.0,0.0,0.0,0.0,0.0,0.0,0.0,0.0,0.0,0.0,0.0,0.0,4111.547363,11454.03418,51480.675781,0.0,-18059.132812,-17670.605469,17995.570312,-17366.507812,4117.948242,11451.138672,51494.191406,0.0,17326.53125,17682.666016,-17363.724609,18045.335938,30.188402,89.863861,22.887955,0.0,-66.785789,3.136837,31.434114,38.524033,30.235399,89.833199,22.894098,0.0,-69.868156,-2.315201,38.942406,36.859913,1.22,1.322,-45329.0,-128620.0,-509203.0,0.0,175099.0,174656.0,-179949.0,171267.0,-45278.0,-128155.0,-574426.0,0.0,-197016.0,-196802.0,192794.0,-201559.0,0.0,0.0,0.0,0.0,0.0,0.0,0.0,0.0,0.0,0.0,0.0,0.0,0.0,0.0,0.0,0.0,0.0,0.0,0.0,0.0,0.0,0.0,0.0,0.0
28,2.0525200366973877,30.188498,89.864555,22.887888,0.0,-66.818726,3.137392,31.426306,38.47625,30.235413,89.83329,22.894068,0.0,-69.951912,-2.315818,38.915421,36.852276,3.0,1.0,111.0,0.0,1.0,-78590.0,-25294.0,12582.0,-78324.0,25779.0,12592.0,-0.941477,0.226305,0.249813,-0.327942,-0.786316,-0.523604,0.077938,-0.574885,0.814514,-0.947576,0.312577,-0.066294,0.298123,0.939519,0.168602,0.114985,0.14,-0.983452,-0.941477,0.226305,0.249813,-0.327942,-0.786316,-0.523604,0.077938,-0.574885,0.814514,-0.947576,0.312577,-0.066294,0.298123,0.939519,0.168602,0.114985,0.14,-0.983452,-78590.0,-25294.0,12582.0,-78324.0,25779.0,12592.0,-355.0,1352.0,-62803.0,0.0,-25560.0,-21684.0,-20001.0,-21699.0,477.0,-920.0,-2269.0,0.0,-4504.0,-328.0,139.0,-1056.0,50.0,159.0,-45.0,0.0,-790.0,-278.0,506.0,-370.0,-49.0,-160.0,45.0,0.0,-127.0,166.0,625.0,-682.0,-0.013533,-0.043248,0.012405,0.0,-0.028937,-0.010187,-0.018535,-0.013566,-0.013527,-0.043406,0.01233,0.0,-0.004656,0.006079,-0.022886,-0.024973,4111.560059,11454.120117,51480.542969,0.0,-18059.310547,-17670.599609,17995.501953,-17366.939453,4117.950195,11451.150391,51494.128906,0.0,17326.080078,17682.660156,-17363.96875,18045.269531,0.0,0.0,0.0,0.0,0.0,0.0,0.0,0.0,0.0,0.0,0.0,0.0,0.0,0.0,0.0,0.0,0.0,0.0,0.0,0.0,0.0,0.0,0.0,0.0,0.0,0.0,0.0,0.0,0.0,0.0,0.0,0.0,4111.510742,11454.055664,51480.675781,0.0,-18059.3125,-17670.605469,17995.488281,-17366.943359,4117.947266,11451.048828,51494.234375,0.0,17326.083984,17682.666016,-17364.070312,18045.166016,30.188131,89.864075,22.887955,0.0,-66.819054,3.136837,31.425308,38.475544,30.23539,89.832458,22.894123,0.0,-69.951393,-2.315206,38.903835,36.841183,1.22,1.322,-45329.0,-128620.0,-509203.0,0.0,175099.0,174656.0,-179949.0,171267.0,-45278.0,-128155.0,-574426.0,0.0,-197016.0,-196802.0,192794.0,-201559.0,0.0,0.0,0.0,0.0,0.0,0.0,0.0,0.0,0.0,0.0,0.0,0.0,0.0,0.0,0.0,0.0,0.0,0.0,0.0,0.0,0.0,0.0,0.0,0.0
29,2.123495101928711,30.188498,89.864555,22.887888,0.0,-66.818726,3.137392,31.426306,38.47625,30.235413,89.83329,22.894068,0.0,-69.951912,-2.315818,38.915421,36.852276,3.0,1.0,111.0,0.0,1.0,-78590.0,-25294.0,12582.0,-78324.0,25779.0,12592.0,-0.941477,0.226305,0.249813,-0.327942,-0.786316,-0.523604,0.077938,-0.574885,0.814514,-0.947576,0.312577,-0.066294,0.298123,0.939519,0.168602,0.114985,0.14,-0.983452,-0.941477,0.226305,0.249813,-0.327942,-0.786316,-0.523604,0.077938,-0.574885,0.814514,-0.947576,0.312577,-0.066294,0.298123,0.939519,0.168602,0.114985,0.14,-0.983452,-78590.0,-25294.0,12582.0,-78324.0,25779.0,12592.0,-355.0,1352.0,-62803.0,0.0,-25560.0,-21684.0,-20001.0,-21699.0,477.0,-920.0,-2269.0,0.0,-4504.0,-328.0,139.0,-1056.0,50.0,159.0,-45.0,0.0,-790.0,-278.0,506.0,-370.0,-49.0,-160.0,45.0,0.0,-127.0,166.0,625.0,-682.0,-0.013533,-0.043248,0.012405,0.0,-0.028937,-0.010187,-0.018536,-0.013566,-0.013527,-0.043406,0.01233,0.0,-0.004656,0.00608,-0.022892,-0.024979,4111.560059,11454.120117,51480.542969,0.0,-18059.310547,-17670.599609,17995.501953,-17366.939453,4117.950195,11451.150391,51494.128906,0.0,17326.080078,17682.660156,-17363.96875,18045.269531,0.0,0.0,0.0,0.0,0.0,0.0,0.0,0.0,0.0,0.0,0.0,0.0,0.0,0.0,0.0,0.0,0.0,0.0,0.0,0.0,0.0,0.0,0.0,0.0,0.0,0.0,0.0,0.0,0.0,0.0,0.0,0.0,4111.510742,11454.055664,51480.675781,0.0,-18059.3125,-17670.605469,17995.488281,-17366.943359,4117.947266,11451.048828,51494.234375,0.0,17326.083984,17682.666016,-17364.070312,18045.166016,30.188131,89.864075,22.887955,0.0,-66.819054,3.136837,31.425308,38.475544,30.23539,89.832458,22.894123,0.0,-69.951393,-2.315206,38.903835,36.841183,1.22,1.322,-45329.0,-128620.0,-509203.0,0.0,175099.0,174656.0,-179949.0,171267.0,-45278.0,-128155.0,-574426.0,0.0,-197016.0,-196802.0,192794.0,-201559.0,0.0,0.0,0.0,0.0,0.0,0.0,0.0,0.0,0.0,0.0,0.0,0.0,0.0,0.0,0.0,0.0,0.0,0.0,0.0,0.0,0.0,0.0,0.0,0.0
30,2.201488971710205,30.188498,89.864555,22.887888,0.0,-66.818726,3.137392,31.426306,38.47625,30.235413,89.83329,22.894068,0.0,-69.951912,-2.315818,38.915421,36.852276,3.0,1.0,111.0,0.0,1.0,-78590.0,-25294.0,12582.0,-78324.0,25779.0,12592.0,-0.941477,0.226305,0.249813,-0.327942,-0.786316,-0.523604,0.077938,-0.574885,0.814514,-0.947576,0.312577,-0.066294,0.298123,0.939519,0.168602,0.114985,0.14,-0.983452,-0.941477,0.226305,0.249813,-0.327942,-0.786316,-0.523604,0.077938,-0.574885,0.814514,-0.947576,0.312577,-0.066294,0.298123,0.939519,0.168602,0.114985,0.14,-0.983452,-78590.0,-25294.0,12582.0,-78324.0,25779.0,12592.0,-355.0,1352.0,-62803.0,0.0,-25560.0,-21684.0,-20001.0,-21699.0,477.0,-920.0,-2269.0,0.0,-4504.0,-328.0,139.0,-1056.0,50.0,159.0,-45.0,0.0,-790.0,-278.0,506.0,-370.0,-49.0,-160.0,45.0,0.0,-127.0,166.0,625.0,-682.0,-0.013533,-0.043248,0.012405,0.0,-0.028937,-0.010188,-0.018536,-0.013566,-0.013527,-0.043406,0.01233,0.0,-0.004655,0.00608,-0.022899,-0.024986,4111.560059,11454.120117,51480.542969,0.0,-18059.310547,-17670.599609,17995.501953,-17366.939453,4117.950195,11451.150391,51494.128906,0.0,17326.080078,17682.660156,-17363.96875,18045.269531,0.0,0.0,0.0,0.0,0.0,0.0,0.0,0.0,0.0,0.0,0.0,0.0,0.0,0.0,0.0,0.0,0.0,0.0,0.0,0.0,0.0,0.0,0.0,0.0,0.0,0.0,0.0,0.0,0.0,0.0,0.0,0.0,4111.510742,11454.055664,51480.675781,0.0,-18059.3125,-17670.605469,17995.488281,-17366.943359,4117.947266,11451.048828,51494.234375,0.0,17326.083984,17682.666016,-17364.070312,18045.166016,30.188131,89.864075,22.887955,0.0,-66.819054,3.136837,31.425308,38.475544,30.23539,89.832458,22.894123,0.0,-69.951393,-2.315206,38.903835,36.841183,1.22,1.322,-45329.0,-128620.0,-509203.0,0.0,175099.0,174656.0,-179949.0,171267.0,-45278.0,-128155.0,-574426.0,0.0,-197016.0,-196802.0,192794.0,-201559.0,0.0,0.0,0.0,0.0,0.0,0.0,0.0,0.0,0.0,0.0,0.0,0.0,0.0,0.0,0.0,0.0,0.0,0.0,0.0,0.0,0.0,0.0,0.0,0.0
31,2.2814459800720215,30.188498,89.864555,22.887888,0.0,-66.818726,3.137392,31.426306,38.47625,30.235413,89.83329,22.894068,0.0,-69.951912,-2.315818,38.915421,36.852276,3.0,1.0,111.0,0.0,1.0,-78590.0,-25294.0,12582.0,-78324.0,25779.0,12592.0,-0.941477,0.226305,0.249813,-0.327942,-0.786316,-0.523604,0.077938,-0.574885,0.814514,-0.947576,0.312577,-0.066294,0.298123,0.939519,0.168602,0.114985,0.14,-0.983452,-0.941477,0.226305,0.249813,-0.327942,-0.786316,-0.523604,0.077938,-0.574885,0.814514,-0.947576,0.312577,-0.066294,0.298123,0.939519,0.168602,0.114985,0.14,-0.983452,-78590.0,-25294.0,12582.0,-78324.0,25779.0,12592.0,-355.0,1352.0,-62803.0,0.0,-25560.0,-21684.0,-20001.0,-21699.0,477.0,-920.0,-2269.0,0.0,-4504.0,-328.0,139.0,-1056.0,50.0,159.0,-45.0,0.0,-790.0,-278.0,506.0,-370.0,-49.0,-160.0,45.0,0.0,-127.0,166.0,625.0,-683.0,-0.013533,-0.043248,0.012405,0.0,-0.028937,-0.010188,-0.018537,-0.013566,-0.013527,-0.043406,0.01233,0.0,-0.004655,0.00608,-0.022906,-0.024993,4111.560059,11454.120117,51480.542969,0.0,-18059.310547,-17670.599609,17995.501953,-17366.939453,4117.950195,11451.150391,51494.128906,0.0,17326.080078,17682.660156,-17363.96875,18045.269531,0.0,0.0,0.0,0.0,0.0,0.0,0.0,0.0,0.0,0.0,0.0,0.0,0.0,0.0,0.0,0.0,0.0,0.0,0.0,0.0,0.0,0.0,0.0,0.0,0.0,0.0,0.0,0.0,0.0,0.0,0.0,0.0,4111.510742,11454.055664,51480.675781,0.0,-18059.3125,-17670.605469,17995.488281,-17366.943359,4117.947266,11451.048828,51494.234375,0.0,17326.083984,17682.666016,-17364.070312,18045.166016,30.188131,89.864075,22.887955,0.0,-66.819054,3.136837,31.425308,38.475544,30.23539,89.832458,22.894123,0.0,-69.951393,-2.315206,38.903835,36.841183,1.22,1.322,-45329.0,-128620.0,-509203.0,0.0,175099.0,174656.0,-179949.0,171267.0,-45278.0,-128155.0,-574426.0,0.0,-197016.0,-196802.0,192794.0,-201559.0,0.0,0.0,0.0,0.0,0.0,0.0,0.0,0.0,0.0,0.0,0.0,0.0,0.0,0.0,0.0,0.0,0.0,0.0,0.0,0.0,0.0,0.0,0.0,0.0
32,2.361488103866577,30.188498,89.864555,22.887888,0.0,-66.818726,3.137392,31.426306,38.47625,30.235413,89.83329,22.894068,0.0,-69.951912,-2.315818,38.915421,36.852276,3.0,1.0,111.0,0.0,1.0,-78590.0,-25294.0,12582.0,-78324.0,25779.0,12592.0,-0.941477,0.226305,0.249813,-0.327942,-0.786316,-0.523604,0.077938,-0.574885,0.814514,-0.947576,0.312577,-0.066294,0.298123,0.939519,0.168602,0.114985,0.14,-0.983452,-0.941477,0.226305,0.249813,-0.327942,-0.786316,-0.523604,0.077938,-0.574885,0.814514,-0.947576,0.312577,-0.066294,0.298123,0.939519,0.168602,0.114985,0.14,-0.983452,-78590.0,-25294.0,12582.0,-78324.0,25779.0,12592.0,-355.0,1352.0,-62803.0,0.0,-25560.0,-21684.0,-20001.0,-21699.0,477.0,-920.0,-2269.0,0.0,-4504.0,-328.0,139.0,-1056.0,50.0,159.0,-45.0,0.0,-790.0,-278.0,506.0,-370.0,-49.0,-160.0,45.0,0.0,-127.0,166.0,626.0,-683.0,-0.013533,-0.043248,0.012405,0.0,-0.028937,-0.010188,-0.018538,-0.013567,-0.013527,-0.043406,0.01233,0.0,-0.004655,0.006081,-0.022913,-0.025,4111.560059,11454.120117,51480.542969,0.0,-18059.310547,-17670.599609,17995.501953,-17366.939453,4117.950195,11451.150391,51494.128906,0.0,17326.080078,17682.660156,-17363.96875,18045.269531,0.0,0.0,0.0,0.0,0.0,0.0,0.0,0.0,0.0,0.0,0.0,0.0,0.0,0.0,0.0,0.0,0.0,0.0,0.0,0.0,0.0,0.0,0.0,0.0,0.0,0.0,0.0,0.0,0.0,0.0,0.0,0.0,4111.510742,11454.055664,51480.675781,0.0,-18059.3125,-17670.605469,17995.488281,-17366.943359,4117.947266,11451.048828,51494.234375,0.0,17326.083984,17682.666016,-17364.070312,18045.166016,30.188131,89.864075,22.887955,0.0,-66.819054,3.136837,31.425308,38.475544,30.23539,89.832458,22.894123,0.0,-69.951393,-2.315206,38.903835,36.841183,1.22,1.322,-45329.0,-128620.0,-509203.0,0.0,175099.0,174656.0,-179949.0,171267.0,-45278.0,-128155.0,-574426.0,0.0,-197016.0,-196802.0,192794.0,-201559.0,0.0,0.0,0.0,0.0,0.0,0.0,0.0,0.0,0.0,0.0,0.0,0.0,0.0,0.0,0.0,0.0,0.0,0.0,0.0,0.0,0.0,0.0,0.0,0.0
33,2.4404890537261963,30.188498,89.864555,22.887888,0.0,-66.818726,3.137392,31.426306,38.47625,30.235413,89.83329,22.894068,0.0,-69.951912,-2.315818,38.915421,36.852276,3.0,1.0,111.0,0.0,1.0,-78590.0,-25294.0,12582.0,-78324.0,25779.0,12592.0,-0.941477,0.226305,0.249813,-0.327942,-0.786316,-0.523604,0.077938,-0.574885,0.814514,-0.947576,0.312577,-0.066294,0.298123,0.939519,0.168602,0.114985,0.14,-0.983452,-0.941477,0.226305,0.249813,-0.327942,-0.786316,-0.523604,0.077938,-0.574885,0.814514,-0.947576,0.312577,-0.066294,0.298123,0.939519,0.168602,0.114985,0.14,-0.983452,-78590.0,-25294.0,12582.0,-78324.0,25779.0,12592.0,-355.0,1352.0,-62803.0,0.0,-25560.0,-21684.0,-20001.0,-21699.0,477.0,-920.0,-2269.0,0.0,-4504.0,-328.0,139.0,-1056.0,50.0,159.0,-45.0,0.0,-790.0,-278.0,506.0,-370.0,-49.0,-160.0,45.0,0.0,-127.0,166.0,626.0,-683.0,-0.013533,-0.043248,0.012405,0.0,-0.028938,-0.010189,-0.018539,-0.013567,-0.013527,-0.043406,0.01233,0.0,-0.004655,0.006081,-0.02292,-0.025008,4111.560059,11454.120117,51480.542969,0.0,-18059.310547,-17670.599609,17995.501953,-17366.939453,4117.950195,11451.150391,51494.128906,0.0,17326.080078,17682.660156,-17363.96875,18045.269531,0.0,0.0,0.0,0.0,0.0,0.0,0.0,0.0,0.0,0.0,0.0,0.0,0.0,0.0,0.0,0.0,0.0,0.0,0.0,0.0,0.0,0.0,0.0,0.0,0.0,0.0,0.0,0.0,0.0,0.0,0.0,0.0,4111.510742,11454.055664,51480.675781,0.0,-18059.3125,-17670.605469,17995.488281,-17366.943359,4117.947266,11451.048828,51494.234375,0.0,17326.083984,17682.666016,-17364.070312,18045.166016,30.188131,89.864075,22.887955,0.0,-66.819054,3.136837,31.425308,38.475544,30.23539,89.832458,22.894123,0.0,-69.951393,-2.315206,38.903835,36.841183,1.22,1.322,-45329.0,-128620.0,-509203.0,0.0,175099.0,174656.0,-179949.0,171267.0,-45278.0,-128155.0,-574426.0,0.0,-197016.0,-196802.0,192794.0,-201559.0,0.0,0.0,0.0,0.0,0.0,0.0,0.0,0.0,0.0,0.0,0.0,0.0,0.0,0.0,0.0,0.0,0.0,0.0,0.0,0.0,0.0,0.0,0.0,0.0
34,2.5134921073913574,30.188498,89.864555,22.887888,0.0,-66.818726,3.137392,31.426306,38.47625,30.235413,89.83329,22.894068,0.0,-69.951912,-2.315818,38.915421,36.852276,3.0,1.0,111.0,0.0,1.0,-78590.0,-25294.0,12582.0,-78324.0,25779.0,12592.0,-0.941477,0.226305,0.249813,-0.327942,-0.786316,-0.523604,0.077938,-0.574885,0.814514,-0.947576,0.312577,-0.066294,0.298123,0.939519,0.168602,0.114985,0.14,-0.983452,-0.941477,0.226305,0.249813,-0.327942,-0.786316,-0.523604,0.077938,-0.574885,0.814514,-0.947576,0.312577,-0.066294,0.298123,0.939519,0.168602,0.114985,0.14,-0.983452,-78590.0,-25294.0,12582.0,-78324.0,25779.0,12592.0,-355.0,1352.0,-62803.0,0.0,-25560.0,-21684.0,-20001.0,-21699.0,477.0,-920.0,-2269.0,0.0,-4504.0,-328.0,139.0,-1056.0,50.0,159.0,-45.0,0.0,-790.0,-278.0,506.0,-370.0,-49.0,-160.0,45.0,0.0,-127.0,166.0,626.0,-683.0,-0.013533,-0.043248,0.012405,0.0,-0.028938,-0.010189,-0.01854,-0.013567,-0.013527,-0.043406,0.01233,0.0,-0.004655,0.006081,-0.022927,-0.025014,4111.560059,11454.120117,51480.542969,0.0,-18059.310547,-17670.599609,17995.501953,-17366.939453,4117.950195,11451.150391,51494.128906,0.0,17326.080078,17682.660156,-17363.96875,18045.269531,0.0,0.0,0.0,0.0,0.0,0.0,0.0,0.0,0.0,0.0,0.0,0.0,0.0,0.0,0.0,0.0,0.0,0.0,0.0,0.0,0.0,0.0,0.0,0.0,0.0,0.0,0.0,0.0,0.0,0.0,0.0,0.0,4111.510742,11454.055664,51480.675781,0.0,-18059.3125,-17670.605469,17995.488281,-17366.943359,4117.947266,11451.048828,51494.234375,0.0,17326.083984,17682.666016,-17364.070312,18045.166016,30.188131,89.864075,22.887955,0.0,-66.819054,3.136837,31.425308,38.475544,30.23539,89.832458,22.894123,0.0,-69.951393,-2.315206,38.903835,36.841183,1.22,1.322,-45329.0,-128620.0,-509203.0,0.0,175099.0,174656.0,-179949.0,171267.0,-45278.0,-128155.0,-574426.0,0.0,-197016.0,-196802.0,192794.0,-201559.0,0.0,0.0,0.0,0.0,0.0,0.0,0.0,0.0,0.0,0.0,0.0,0.0,0.0,0.0,0.0,0.0,0.0,0.0,0.0,0.0,0.0,0.0,0.0,0.0
35,2.589488983154297,30.188498,89.864555,22.887888,0.0,-66.818726,3.137392,31.426306,38.47625,30.235413,89.83329,22.894068,0.0,-69.951912,-2.315818,38.915421,36.852276,3.0,1.0,111.0,0.0,1.0,-78590.0,-25294.0,12582.0,-78324.0,25779.0,12592.0,-0.941477,0.226305,0.249813,-0.327942,-0.786316,-0.523604,0.077938,-0.574885,0.814514,-0.947576,0.312577,-0.066294,0.298123,0.939519,0.168602,0.114985,0.14,-0.983452,-0.941477,0.226305,0.249813,-0.327942,-0.786316,-0.523604,0.077938,-0.574885,0.814514,-0.947576,0.312577,-0.066294,0.298123,0.939519,0.168602,0.114985,0.14,-0.983452,-78590.0,-25294.0,12582.0,-78324.0,25779.0,12592.0,-355.0,1352.0,-62803.0,0.0,-25560.0,-21684.0,-20001.0,-21699.0,477.0,-920.0,-2269.0,0.0,-4504.0,-328.0,139.0,-1056.0,50.0,159.0,-45.0,0.0,-790.0,-278.0,506.0,-370.0,-49.0,-160.0,45.0,0.0,-127.0,166.0,626.0,-683.0,-0.013533,-0.043248,0.012405,0.0,-0.028938,-0.010189,-0.01854,-0.013567,-0.013527,-0.043406,0.01233,0.0,-0.004654,0.006082,-0.022933,-0.025021,4111.560059,11454.120117,51480.542969,0.0,-18059.310547,-17670.599609,17995.501953,-17366.939453,4117.950195,11451.150391,51494.128906,0.0,17326.080078,17682.660156,-17363.96875,18045.269531,0.0,0.0,0.0,0.0,0.0,0.0,0.0,0.0,0.0,0.0,0.0,0.0,0.0,0.0,0.0,0.0,0.0,0.0,0.0,0.0,0.0,0.0,0.0,0.0,0.0,0.0,0.0,0.0,0.0,0.0,0.0,0.0,4111.510742,11454.055664,51480.675781,0.0,-18059.3125,-17670.605469,17995.488281,-17366.943359,4117.947266,11451.048828,51494.234375,0.0,17326.083984,17682.666016,-17364.070312,18045.166016,30.188131,89.864075,22.887955,0.0,-66.819054,3.136837,31.425308,38.475544,30.23539,89.832458,22.894123,0.0,-69.951393,-2.315206,38.903835,36.841183,1.22,1.322,-45329.0,-128620.0,-509203.0,0.0,175099.0,174656.0,-179949.0,171267.0,-45278.0,-128155.0,-574426.0,0.0,-197016.0,-196802.0,192794.0,-201559.0,0.0,0.0,0.0,0.0,0.0,0.0,0.0,0.0,0.0,0.0,0.0,0.0,0.0,0.0,0.0,0.0,0.0,0.0,0.0,0.0,0.0,0.0,0.0,0.0
36,2.662520170211792,30.188498,89.864555,22.887888,0.0,-66.818726,3.137392,31.426306,38.47625,30.235413,89.83329,22.894068,0.0,-69.951912,-2.315818,38.915421,36.852276,3.0,1.0,111.0,0.0,1.0,-78590.0,-25294.0,12582.0,-78324.0,25779.0,12592.0,-0.941477,0.226305,0.249813,-0.327942,-0.786316,-0.523604,0.077938,-0.574885,0.814514,-0.947576,0.312577,-0.066294,0.298123,0.939519,0.168602,0.114985,0.14,-0.983452,-0.941477,0.226305,0.249813,-0.327942,-0.786316,-0.523604,0.077938,-0.574885,0.814514,-0.947576,0.312577,-0.066294,0.298123,0.939519,0.168602,0.114985,0.14,-0.983452,-78590.0,-25294.0,12582.0,-78324.0,25779.0,12592.0,-355.0,1352.0,-62803.0,0.0,-25560.0,-21684.0,-20001.0,-21699.0,477.0,-920.0,-2269.0,0.0,-4504.0,-328.0,139.0,-1056.0,50.0,159.0,-45.0,0.0,-790.0,-278.0,506.0,-370.0,-49.0,-160.0,45.0,0.0,-127.0,166.0,626.0,-683.0,-0.013533,-0.043248,0.012405,0.0,-0.028938,-0.01019,-0.018541,-0.013568,-0.013527,-0.043406,0.01233,0.0,-0.004654,0.006082,-0.02294,-0.025027,4111.560059,11454.120117,51480.542969,0.0,-18059.310547,-17670.599609,17995.501953,-17366.939453,4117.950195,11451.150391,51494.128906,0.0,17326.080078,17682.660156,-17363.96875,18045.269531,0.0,0.0,0.0,0.0,0.0,0.0,0.0,0.0,0.0,0.0,0.0,0.0,0.0,0.0,0.0,0.0,0.0,0.0,0.0,0.0,0.0,0.0,0.0,0.0,0.0,0.0,0.0,0.0,0.0,0.0,0.0,0.0,4111.510742,11454.055664,51480.675781,0.0,-18059.3125,-17670.605469,17995.488281,-17366.943359,4117.947266,11451.048828,51494.234375,0.0,17326.083984,17682.666016,-17364.070312,18045.166016,30.188131,89.864075,22.887955,0.0,-66.819054,3.136837,31.425308,38.475544,30.23539,89.832458,22.894123,0.0,-69.951393,-2.315206,38.903835,36.841183,1.22,1.322,-45329.0,-128620.0,-509203.0,0.0,175099.0,174656.0,-179949.0,171267.0,-45278.0,-128155.0,-574426.0,0.0,-197016.0,-196802.0,192794.0,-201559.0,0.0,0.0,0.0,0.0,0.0,0.0,0.0,0.0,0.0,0.0,0.0,0.0,0.0,0.0,0.0,0.0,0.0,0.0,0.0,0.0,0.0,0.0,0.0,0.0
37,2.734488010406494,30.188498,89.864555,22.887888,0.0,-66.818726,3.137392,31.426306,38.47625,30.235413,89.83329,22.894068,0.0,-69.951912,-2.315818,38.915421,36.852276,3.0,1.0,111.0,0.0,1.0,-78590.0,-25294.0,12582.0,-78324.0,25779.0,12592.0,-0.941477,0.226305,0.249813,-0.327942,-0.786316,-0.523604,0.077938,-0.574885,0.814514,-0.947576,0.312577,-0.066294,0.298123,0.939519,0.168602,0.114985,0.14,-0.983452,-0.941477,0.226305,0.249813,-0.327942,-0.786316,-0.523604,0.077938,-0.574885,0.814514,-0.947576,0.312577,-0.066294,0.298123,0.939519,0.168602,0.114985,0.14,-0.983452,-78590.0,-25294.0,12582.0,-78324.0,25779.0,12592.0,-355.0,1352.0,-62803.0,0.0,-25560.0,-21684.0,-20001.0,-21699.0,477.0,-920.0,-2269.0,0.0,-4504.0,-328.0,139.0,-1056.0,50.0,159.0,-45.0,0.0,-790.0,-278.0,506.0,-370.0,-49.0,-160.0,45.0,0.0,-127.0,166.0,627.0,-684.0,-0.013533,-0.043248,0.012405,0.0,-0.028939,-0.01019,-0.018542,-0.013568,-0.013527,-0.043406,0.01233,0.0,-0.004654,0.006082,-0.022946,-0.025034,4111.560059,11454.120117,51480.542969,0.0,-18059.310547,-17670.599609,17995.501953,-17366.939453,4117.950195,11451.150391,51494.128906,0.0,17326.080078,17682.660156,-17363.96875,18045.269531,0.0,0.0,0.0,0.0,0.0,0.0,0.0,0.0,0.0,0.0,0.0,0.0,0.0,0.0,0.0,0.0,0.0,0.0,0.0,0.0,0.0,0.0,0.0,0.0,0.0,0.0,0.0,0.0,0.0,0.0,0.0,0.0,4111.510742,11454.055664,51480.675781,0.0,-18059.3125,-17670.605469,17995.488281,-17366.943359,4117.947266,11451.048828,51494.234375,0.0,17326.083984,17682.666016,-17364.070312,18045.166016,30.188131,89.864075,22.887955,0.0,-66.819054,3.136837,31.425308,38.475544,30.23539,89.832458,22.894123,0.0,-69.951393,-2.315206,38.903835,36.841183,1.22,1.322,-45329.0,-128620.0,-509203.0,0.0,175099.0,174656.0,-179949.0,171267.0,-45278.0,-128155.0,-574426.0,0.0,-197016.0,-196802.0,192794.0,-201559.0,0.0,0.0,0.0,0.0,0.0,0.0,0.0,0.0,0.0,0.0,0.0,0.0,0.0,0.0,0.0,0.0,0.0,0.0,0.0,0.0,0.0,0.0,0.0,0.0
38,2.806425094604492,30.188498,89.864555,22.887888,0.0,-66.818726,3.137392,31.426306,38.47625,30.235413,89.83329,22.894068,0.0,-69.951912,-2.315818,38.915421,36.852276,3.0,1.0,111.0,0.0,1.0,-78590.0,-25294.0,12582.0,-78324.0,25779.0,12592.0,-0.941477,0.226305,0.249813,-0.327942,-0.786316,-0.523604,0.077938,-0.574885,0.814514,-0.947576,0.312577,-0.066294,0.298123,0.939519,0.168602,0.114985,0.14,-0.983452,-0.941477,0.226305,0.249813,-0.327942,-0.786316,-0.523604,0.077938,-0.574885,0.814514,-0.947576,0.312577,-0.066294,0.298123,0.939519,0.168602,0.114985,0.14,-0.983452,-78590.0,-25294.0,12582.0,-78324.0,25779.0,12592.0,-355.0,1352.0,-62803.0,0.0,-25560.0,-21684.0,-20001.0,-21699.0,477.0,-920.0,-2269.0,0.0,-4504.0,-328.0,139.0,-1056.0,50.0,159.0,-45.0,0.0,-790.0,-278.0,506.0,-370.0,-49.0,-160.0,45.0,0.0,-127.0,166.0,627.0,-684.0,-0.013533,-0.043248,0.012405,0.0,-0.028939,-0.01019,-0.018543,-0.013568,-0.013527,-0.043406,0.01233,0.0,-0.004654,0.006083,-0.022953,-0.02504,4111.560059,11454.120117,51480.542969,0.0,-18059.310547,-17670.599609,17995.501953,-17366.939453,4117.950195,11451.150391,51494.128906,0.0,17326.080078,17682.660156,-17363.96875,18045.269531,0.0,0.0,0.0,0.0,0.0,0.0,0.0,0.0,0.0,0.0,0.0,0.0,0.0,0.0,0.0,0.0,0.0,0.0,0.0,0.0,0.0,0.0,0.0,0.0,0.0,0.0,0.0,0.0,0.0,0.0,0.0,0.0,4111.510742,11454.055664,51480.675781,0.0,-18059.3125,-17670.605469,17995.488281,-17366.943359,4117.947266,11451.048828,51494.234375,0.0,17326.083984,17682.666016,-17364.070312,18045.166016,30.188131,89.864075,22.887955,0.0,-66.819054,3.136837,31.425308,38.475544,30.23539,89.832458,22.894123,0.0,-69.951393,-2.315206,38.903835,36.841183,1.22,1.322,-45329.0,-128620.0,-509203.0,0.0,175099.0,174656.0,-179949.0,171267.0,-45278.0,-128155.0,-574426.0,0.0,-197016.0,-196802.0,192794.0,-201559.0,0.0,0.0,0.0,0.0,0.0,0.0,0.0,0.0,0.0,0.0,0.0,0.0,0.0,0.0,0.0,0.0,0.0,0.0,0.0,0.0,0.0,0.0,0.0,0.0
39,2.882488965988159,30.188498,89.864555,22.887888,0.0,-66.818726,3.137392,31.426306,38.47625,30.235413,89.83329,22.894068,0.0,-69.951912,-2.315818,38.915421,36.852276,3.0,1.0,111.0,0.0,1.0,-78590.0,-25294.0,12582.0,-78324.0,25779.0,12592.0,-0.941477,0.226305,0.249813,-0.327942,-0.786316,-0.523604,0.077938,-0.574885,0.814514,-0.947576,0.312577,-0.066294,0.298123,0.939519,0.168602,0.114985,0.14,-0.983452,-0.941477,0.226305,0.249813,-0.327942,-0.786316,-0.523604,0.077938,-0.574885,0.814514,-0.947576,0.312577,-0.066294,0.298123,0.939519,0.168602,0.114985,0.14,-0.983452,-78590.0,-25294.0,12582.0,-78324.0,25779.0,12592.0,-355.0,1352.0,-62803.0,0.0,-25560.0,-21684.0,-20001.0,-21699.0,477.0,-920.0,-2269.0,0.0,-4504.0,-328.0,139.0,-1056.0,50.0,159.0,-45.0,0.0,-790.0,-278.0,506.0,-370.0,-49.0,-160.0,45.0,0.0,-127.0,166.0,627.0,-684.0,-0.013533,-0.043248,0.012405,0.0,-0.028939,-0.010191,-0.018544,-0.013568,-0.013527,-0.043406,0.01233,0.0,-0.004653,0.006083,-0.022959,-0.025047,4111.560059,11454.120117,51480.542969,0.0,-18059.310547,-17670.599609,17995.501953,-17366.939453,4117.950195,11451.150391,51494.128906,0.0,17326.080078,17682.660156,-17363.96875,18045.269531,0.0,0.0,0.0,0.0,0.0,0.0,0.0,0.0,0.0,0.0,0.0,0.0,0.0,0.0,0.0,0.0,0.0,0.0,0.0,0.0,0.0,0.0,0.0,0.0,0.0,0.0,0.0,0.0,0.0,0.0,0.0,0.0,4111.510742,11454.055664,51480.675781,0.0,-18059.3125,-17670.605469,17995.488281,-17366.943359,4117.947266,11451.048828,51494.234375,0.0,17326.083984,17682.666016,-17364.070312,18045.166016,30.188131,89.864075,22.887955,0.0,-66.819054,3.136837,31.425308,38.475544,30.23539,89.832458,22.894123,0.0,-69.951393,-2.315206,38.903835,36.841183,1.22,1.322,-45329.0,-128620.0,-509203.0,0.0,175099.0,174656.0,-179949.0,171267.0,-45278.0,-128155.0,-574426.0,0.0,-197016.0,-196802.0,192794.0,-201559.0,0.0,0.0,0.0,0.0,0.0,0.0,0.0,0.0,0.0,0.0,0.0,0.0,0.0,0.0,0.0,0.0,0.0,0.0,0.0,0.0,0.0,0.0,0.0,0.0
40,2.970489025115967,30.188498,89.864555,22.887888,0.0,-66.818726,3.137392,31.426306,38.47625,30.235413,89.83329,22.894068,0.0,-69.951912,-2.315818,38.915421,36.852276,3.0,1.0,111.0,0.0,1.0,-78590.0,-25294.0,12582.0,-78324.0,25779.0,12592.0,-0.941477,0.226305,0.249813,-0.327942,-0.786316,-0.523604,0.077938,-0.574885,0.814514,-0.947576,0.312577,-0.066294,0.298123,0.939519,0.168602,0.114985,0.14,-0.983452,-0.941477,0.226305,0.249813,-0.327942,-0.786316,-0.523604,0.077938,-0.574885,0.814514,-0.947576,0.312577,-0.066294,0.298123,0.939519,0.168602,0.114985,0.14,-0.983452,-78590.0,-25294.0,12582.0,-78324.0,25779.0,12592.0,-355.0,1352.0,-62803.0,0.0,-25560.0,-21684.0,-20001.0,-21699.0,477.0,-920.0,-2269.0,0.0,-4504.0,-328.0,139.0,-1056.0,50.0,159.0,-45.0,0.0,-790.0,-278.0,506.0,-370.0,-49.0,-160.0,45.0,0.0,-127.0,166.0,627.0,-684.0,-0.013533,-0.043248,0.012405,0.0,-0.028939,-0.010191,-0.018544,-0.013568,-0.013527,-0.043406,0.01233,0.0,-0.004653,0.006083,-0.022967,-0.025055,4111.560059,11454.120117,51480.542969,0.0,-18059.310547,-17670.599609,17995.501953,-17366.939453,4117.950195,11451.150391,51494.128906,0.0,17326.080078,17682.660156,-17363.96875,18045.269531,0.0,0.0,0.0,0.0,0.0,0.0,0.0,0.0,0.0,0.0,0.0,0.0,0.0,0.0,0.0,0.0,0.0,0.0,0.0,0.0,0.0,0.0,0.0,0.0,0.0,0.0,0.0,0.0,0.0,0.0,0.0,0.0,4111.510742,11454.055664,51480.675781,0.0,-18059.3125,-17670.605469,17995.488281,-17366.943359,4117.947266,11451.048828,51494.234375,0.0,17326.083984,17682.666016,-17364.070312,18045.166016,30.188131,89.864075,22.887955,0.0,-66.819054,3.136837,31.425308,38.475544,30.23539,89.832458,22.894123,0.0,-69.951393,-2.315206,38.903835,36.841183,1.22,1.322,-45329.0,-128620.0,-509203.0,0.0,175099.0,174656.0,-179949.0,171267.0,-45278.0,-128155.0,-574426.0,0.0,-197016.0,-196802.0,192794.0,-201559.0,0.0,0.0,0.0,0.0,0.0,0.0,0.0,0.0,0.0,0.0,0.0,0.0,0.0,0.0,0.0,0.0,0.0,0.0,0.0,0.0,0.0,0.0,0.0,0.0
41,3.0515429973602295,30.188498,89.864555,22.887888,0.0,-66.818726,3.137392,31.426306,38.47625,30.235413,89.83329,22.894068,0.0,-69.951912,-2.315818,38.915421,36.852276,3.0,1.0,111.0,0.0,1.0,-78590.0,-25294.0,12582.0,-78324.0,25779.0,12592.0,-0.941477,0.226305,0.249813,-0.327942,-0.786316,-0.523604,0.077938,-0.574885,0.814514,-0.947576,0.312577,-0.066294,0.298123,0.939519,0.168602,0.114985,0.14,-0.983452,-0.941477,0.226305,0.249813,-0.327942,-0.786316,-0.523604,0.077938,-0.574885,0.814514,-0.947576,0.312577,-0.066294,0.298123,0.939519,0.168602,0.114985,0.14,-0.983452,-78590.0,-25294.0,12582.0,-78324.0,25779.0,12592.0,-355.0,1352.0,-62803.0,0.0,-25560.0,-21684.0,-20001.0,-21699.0,477.0,-920.0,-2269.0,0.0,-4504.0,-328.0,139.0,-1056.0,50.0,159.0,-45.0,0.0,-790.0,-278.0,506.0,-370.0,-49.0,-160.0,45.0,0.0,-127.0,166.0,627.0,-684.0,-0.013533,-0.043248,0.012405,0.0,-0.02894,-0.010191,-0.018545,-0.013569,-0.013527,-0.043406,0.01233,0.0,-0.004653,0.006084,-0.022974,-0.025062,4111.560059,11454.120117,51480.542969,0.0,-18059.310547,-17670.599609,17995.501953,-17366.939453,4117.950195,11451.150391,51494.128906,0.0,17326.080078,17682.660156,-17363.96875,18045.269531,0.0,0.0,0.0,0.0,0.0,0.0,0.0,0.0,0.0,0.0,0.0,0.0,0.0,0.0,0.0,0.0,0.0,0.0,0.0,0.0,0.0,0.0,0.0,0.0,0.0,0.0,0.0,0.0,0.0,0.0,0.0,0.0,4111.510742,11454.055664,51480.675781,0.0,-18059.3125,-17670.605469,17995.488281,-17366.943359,4117.947266,11451.048828,51494.234375,0.0,17326.083984,17682.666016,-17364.070312,18045.166016,30.188131,89.864075,22.887955,0.0,-66.819054,3.136837,31.425308,38.475544,30.23539,89.832458,22.894123,0.0,-69.951393,-2.315206,38.903835,36.841183,1.22,1.322,-45329.0,-128620.0,-509203.0,0.0,175099.0,174656.0,-179949.0,171267.0,-45278.0,-128155.0,-574426.0,0.0,-197016.0,-196802.0,192794.0,-201559.0,0.0,0.0,0.0,0.0,0.0,0.0,0.0,0.0,0.0,0.0,0.0,0.0,0.0,0.0,0.0,0.0,0.0,0.0,0.0,0.0,0.0,0.0,0.0,0.0
42,3.135491132736206,30.188498,89.864555,22.887888,0.0,-66.818726,3.137392,31.426306,38.47625,30.235413,89.83329,22.894068,0.0,-69.951912,-2.315818,38.915421,36.852276,3.0,1.0,111.0,0.0,1.0,-78590.0,-25294.0,12582.0,-78324.0,25779.0,12592.0,-0.941477,0.226305,0.249813,-0.327942,-0.786316,-0.523604,0.077938,-0.574885,0.814514,-0.947576,0.312577,-0.066294,0.298123,0.939519,0.168602,0.114985,0.14,-0.983452,-0.941477,0.226305,0.249813,-0.327942,-0.786316,-0.523604,0.077938,-0.574885,0.814514,-0.947576,0.312577,-0.066294,0.298123,0.939519,0.168602,0.114985,0.14,-0.983452,-78590.0,-25294.0,12582.0,-78324.0,25779.0,12592.0,-355.0,1352.0,-62803.0,0.0,-25560.0,-21684.0,-20001.0,-21699.0,477.0,-920.0,-2269.0,0.0,-4504.0,-328.0,139.0,-1056.0,50.0,159.0,-45.0,0.0,-790.0,-278.0,506.0,-370.0,-49.0,-160.0,45.0,0.0,-127.0,166.0,628.0,-685.0,-0.013533,-0.043248,0.012405,0.0,-0.02894,-0.010192,-0.018546,-0.013569,-0.013527,-0.043406,0.01233,0.0,-0.004653,0.006084,-0.022981,-0.02507,4111.560059,11454.120117,51480.542969,0.0,-18059.310547,-17670.599609,17995.501953,-17366.939453,4117.950195,11451.150391,51494.128906,0.0,17326.080078,17682.660156,-17363.96875,18045.269531,0.0,0.0,0.0,0.0,0.0,0.0,0.0,0.0,0.0,0.0,0.0,0.0,0.0,0.0,0.0,0.0,0.0,0.0,0.0,0.0,0.0,0.0,0.0,0.0,0.0,0.0,0.0,0.0,0.0,0.0,0.0,0.0,4111.510742,11454.055664,51480.675781,0.0,-18059.3125,-17670.605469,17995.488281,-17366.943359,4117.947266,11451.048828,51494.234375,0.0,17326.083984,17682.666016,-17364.070312,18045.166016,30.188131,89.864075,22.887955,0.0,-66.819054,3.136837,31.425308,38.475544,30.23539,89.832458,22.894123,0.0,-69.951393,-2.315206,38.903835,36.841183,1.22,1.322,-45329.0,-128620.0,-509203.0,0.0,175099.0,174656.0,-179949.0,171267.0,-45278.0,-128155.0,-574426.0,0.0,-197016.0,-196802.0,192794.0,-201559.0,0.0,0.0,0.0,0.0,0.0,0.0,0.0,0.0,0.0,0.0,0.0,0.0,0.0,0.0,0.0,0.0,0.0,0.0,0.0,0.0,0.0,0.0,0.0,0.0
43,3.231497049331665,30.188498,89.864555,22.887888,0.0,-66.818726,3.137392,31.426306,38.47625,30.235413,89.83329,22.894068,0.0,-69.951912,-2.315818,38.915421,36.852276,3.0,1.0,111.0,0.0,1.0,-78590.0,-25294.0,12582.0,-78324.0,25779.0,12592.0,-0.941477,0.226305,0.249813,-0.327942,-0.786316,-0.523604,0.077938,-0.574885,0.814514,-0.947576,0.312577,-0.066294,0.298123,0.939519,0.168602,0.114985,0.14,-0.983452,-0.941477,0.226305,0.249813,-0.327942,-0.786316,-0.523604,0.077938,-0.574885,0.814514,-0.947576,0.312577,-0.066294,0.298123,0.939519,0.168602,0.114985,0.14,-0.983452,-78590.0,-25294.0,12582.0,-78324.0,25779.0,12592.0,-355.0,1352.0,-62803.0,0.0,-25560.0,-21684.0,-20001.0,-21699.0,477.0,-920.0,-2269.0,0.0,-4504.0,-328.0,139.0,-1056.0,50.0,159.0,-45.0,0.0,-790.0,-278.0,506.0,-370.0,-49.0,-160.0,45.0,0.0,-127.0,166.0,628.0,-685.0,-0.013533,-0.043248,0.012405,0.0,-0.02894,-0.010192,-0.018547,-0.013569,-0.013527,-0.043406,0.01233,0.0,-0.004652,0.006085,-0.02299,-0.025078,4111.560059,11454.120117,51480.542969,0.0,-18059.310547,-17670.599609,17995.501953,-17366.939453,4117.950195,11451.150391,51494.128906,0.0,17326.080078,17682.660156,-17363.96875,18045.269531,0.0,0.0,0.0,0.0,0.0,0.0,0.0,0.0,0.0,0.0,0.0,0.0,0.0,0.0,0.0,0.0,0.0,0.0,0.0,0.0,0.0,0.0,0.0,0.0,0.0,0.0,0.0,0.0,0.0,0.0,0.0,0.0,4111.510742,11454.055664,51480.675781,0.0,-18059.3125,-17670.605469,17995.488281,-17366.943359,4117.947266,11451.048828,51494.234375,0.0,17326.083984,17682.666016,-17364.070312,18045.166016,30.188131,89.864075,22.887955,0.0,-66.819054,3.136837,31.425308,38.475544,30.23539,89.832458,22.894123,0.0,-69.951393,-2.315206,38.903835,36.841183,1.22,1.322,-45329.0,-128620.0,-509203.0,0.0,175099.0,174656.0,-179949.0,171267.0,-45278.0,-128155.0,-574426.0,0.0,-197016.0,-196802.0,192794.0,-201559.0,0.0,0.0,0.0,0.0,0.0,0.0,0.0,0.0,0.0,0.0,0.0,0.0,0.0,0.0,0.0,0.0,0.0,0.0,0.0,0.0,0.0,0.0,0.0,0.0
44,3.307504177093506,30.188498,89.864555,22.887888,0.0,-66.818726,3.137392,31.426306,38.47625,30.235413,89.83329,22.894068,0.0,-69.951912,-2.315818,38.915421,36.852276,3.0,1.0,111.0,0.0,1.0,-78590.0,-25294.0,12582.0,-78324.0,25779.0,12592.0,-0.941477,0.226305,0.249813,-0.327942,-0.786316,-0.523604,0.077938,-0.574885,0.814514,-0.947576,0.312577,-0.066294,0.298123,0.939519,0.168602,0.114985,0.14,-0.983452,-0.941477,0.226305,0.249813,-0.327942,-0.786316,-0.523604,0.077938,-0.574885,0.814514,-0.947576,0.312577,-0.066294,0.298123,0.939519,0.168602,0.114985,0.14,-0.983452,-78590.0,-25294.0,12582.0,-78324.0,25779.0,12592.0,-355.0,1352.0,-62803.0,0.0,-25560.0,-21684.0,-20001.0,-21699.0,477.0,-920.0,-2269.0,0.0,-4504.0,-328.0,139.0,-1056.0,50.0,159.0,-45.0,0.0,-790.0,-278.0,506.0,-370.0,-49.0,-160.0,45.0,0.0,-127.0,166.0,628.0,-685.0,-0.013533,-0.043248,0.012405,0.0,-0.02894,-0.010192,-0.018548,-0.013569,-0.013527,-0.043406,0.01233,0.0,-0.004652,0.006085,-0.022997,-0.025085,4111.560059,11454.120117,51480.542969,0.0,-18059.310547,-17670.599609,17995.501953,-17366.939453,4117.950195,11451.150391,51494.128906,0.0,17326.080078,17682.660156,-17363.96875,18045.269531,0.0,0.0,0.0,0.0,0.0,0.0,0.0,0.0,0.0,0.0,0.0,0.0,0.0,0.0,0.0,0.0,0.0,0.0,0.0,0.0,0.0,0.0,0.0,0.0,0.0,0.0,0.0,0.0,0.0,0.0,0.0,0.0,4111.510742,11454.055664,51480.675781,0.0,-18059.3125,-17670.605469,17995.488281,-17366.943359,4117.947266,11451.048828,51494.234375,0.0,17326.083984,17682.666016,-17364.070312,18045.166016,30.188131,89.864075,22.887955,0.0,-66.819054,3.136837,31.425308,38.475544,30.23539,89.832458,22.894123,0.0,-69.951393,-2.315206,38.903835,36.841183,1.22,1.322,-45329.0,-128620.0,-509203.0,0.0,175099.0,174656.0,-179949.0,171267.0,-45278.0,-128155.0,-574426.0,0.0,-197016.0,-196802.0,192794.0,-201559.0,0.0,0.0,0.0,0.0,0.0,0.0,0.0,0.0,0.0,0.0,0.0,0.0,0.0,0.0,0.0,0.0,0.0,0.0,0.0,0.0,0.0,0.0,0.0,0.0
45,3.39149808883667,30.188498,89.864555,22.887888,0.0,-66.818726,3.137392,31.426306,38.47625,30.235413,89.83329,22.894068,0.0,-69.951912,-2.315818,38.915421,36.852276,3.0,1.0,111.0,0.0,1.0,-78590.0,-25294.0,12582.0,-78324.0,25779.0,12592.0,-0.941477,0.226305,0.249813,-0.327942,-0.786316,-0.523604,0.077938,-0.574885,0.814514,-0.947576,0.312577,-0.066294,0.298123,0.939519,0.168602,0.114985,0.14,-0.983452,-0.941477,0.226305,0.249813,-0.327942,-0.786316,-0.523604,0.077938,-0.574885,0.814514,-0.947576,0.312577,-0.066294,0.298123,0.939519,0.168602,0.114985,0.14,-0.983452,-78590.0,-25294.0,12582.0,-78324.0,25779.0,12592.0,-355.0,1352.0,-62803.0,0.0,-25560.0,-21684.0,-20001.0,-21699.0,477.0,-920.0,-2269.0,0.0,-4504.0,-328.0,139.0,-1056.0,50.0,159.0,-45.0,0.0,-790.0,-278.0,506.0,-370.0,-49.0,-160.0,45.0,0.0,-127.0,166.0,628.0,-685.0,-0.013533,-0.043248,0.012405,0.0,-0.028941,-0.010193,-0.018549,-0.01357,-0.013527,-0.043406,0.01233,0.0,-0.004652,0.006085,-0.023004,-0.025093,4111.560059,11454.120117,51480.542969,0.0,-18059.310547,-17670.599609,17995.501953,-17366.939453,4117.950195,11451.150391,51494.128906,0.0,17326.080078,17682.660156,-17363.96875,18045.269531,0.0,0.0,0.0,0.0,0.0,0.0,0.0,0.0,0.0,0.0,0.0,0.0,0.0,0.0,0.0,0.0,0.0,0.0,0.0,0.0,0.0,0.0,0.0,0.0,0.0,0.0,0.0,0.0,0.0,0.0,0.0,0.0,4111.510742,11454.055664,51480.675781,0.0,-18059.3125,-17670.605469,17995.488281,-17366.943359,4117.947266,11451.048828,51494.234375,0.0,17326.083984,17682.666016,-17364.070312,18045.166016,30.188131,89.864075,22.887955,0.0,-66.819054,3.136837,31.425308,38.475544,30.23539,89.832458,22.894123,0.0,-69.951393,-2.315206,38.903835,36.841183,1.22,1.322,-45329.0,-128620.0,-509203.0,0.0,175099.0,174656.0,-179949.0,171267.0,-45278.0,-128155.0,-574426.0,0.0,-197016.0,-196802.0,192794.0,-201559.0,0.0,0.0,0.0,0.0,0.0,0.0,0.0,0.0,0.0,0.0,0.0,0.0,0.0,0.0,0.0,0.0,0.0,0.0,0.0,0.0,0.0,0.0,0.0,0.0
46,3.4825260639190674,30.188498,89.864555,22.887888,0.0,-66.818726,3.137392,31.426306,38.47625,30.235413,89.83329,22.894068,0.0,-69.951912,-2.315818,38.915421,36.852276,3.0,1.0,111.0,0.0,1.0,-78590.0,-25294.0,12582.0,-78324.0,25779.0,12592.0,-0.941477,0.226305,0.249813,-0.327942,-0.786316,-0.523604,0.077938,-0.574885,0.814514,-0.947576,0.312577,-0.066294,0.298123,0.939519,0.168602,0.114985,0.14,-0.983452,-0.941477,0.226305,0.249813,-0.327942,-0.786316,-0.523604,0.077938,-0.574885,0.814514,-0.947576,0.312577,-0.066294,0.298123,0.939519,0.168602,0.114985,0.14,-0.983452,-78590.0,-25294.0,12582.0,-78324.0,25779.0,12592.0,-355.0,1352.0,-62803.0,0.0,-25560.0,-21684.0,-20001.0,-21699.0,477.0,-920.0,-2269.0,0.0,-4504.0,-328.0,139.0,-1056.0,50.0,159.0,-45.0,0.0,-790.0,-278.0,506.0,-370.0,-49.0,-160.0,45.0,0.0,-127.0,166.0,628.0,-685.0,-0.013533,-0.043248,0.012405,0.0,-0.028941,-0.010193,-0.01855,-0.01357,-0.013527,-0.043406,0.01233,0.0,-0.004652,0.006086,-0.023012,-0.025101,4111.560059,11454.120117,51480.542969,0.0,-18059.310547,-17670.599609,17995.501953,-17366.939453,4117.950195,11451.150391,51494.128906,0.0,17326.080078,17682.660156,-17363.96875,18045.269531,0.0,0.0,0.0,0.0,0.0,0.0,0.0,0.0,0.0,0.0,0.0,0.0,0.0,0.0,0.0,0.0,0.0,0.0,0.0,0.0,0.0,0.0,0.0,0.0,0.0,0.0,0.0,0.0,0.0,0.0,0.0,0.0,4111.510742,11454.055664,51480.675781,0.0,-18059.3125,-17670.605469,17995.488281,-17366.943359,4117.947266,11451.048828,51494.234375,0.0,17326.083984,17682.666016,-17364.070312,18045.166016,30.188131,89.864075,22.887955,0.0,-66.819054,3.136837,31.425308,38.475544,30.23539,89.832458,22.894123,0.0,-69.951393,-2.315206,38.903835,36.841183,1.22,1.322,-45329.0,-128620.0,-509203.0,0.0,175099.0,174656.0,-179949.0,171267.0,-45278.0,-128155.0,-574426.0,0.0,-197016.0,-196802.0,192794.0,-201559.0,0.0,0.0,0.0,0.0,0.0,0.0,0.0,0.0,0.0,0.0,0.0,0.0,0.0,0.0,0.0,0.0,0.0,0.0,0.0,0.0,0.0,0.0,0.0,0.0
47,3.5695550441741943,30.188498,89.864555,22.887888,0.0,-66.818726,3.137392,31.426306,38.47625,30.235413,89.83329,22.894068,0.0,-69.951912,-2.315818,38.915421,36.852276,3.0,1.0,111.0,0.0,1.0,-78590.0,-25294.0,12582.0,-78324.0,25779.0,12592.0,-0.941477,0.226305,0.249813,-0.327942,-0.786316,-0.523604,0.077938,-0.574885,0.814514,-0.947576,0.312577,-0.066294,0.298123,0.939519,0.168602,0.114985,0.14,-0.983452,-0.941477,0.226305,0.249813,-0.327942,-0.786316,-0.523604,0.077938,-0.574885,0.814514,-0.947576,0.312577,-0.066294,0.298123,0.939519,0.168602,0.114985,0.14,-0.983452,-78590.0,-25294.0,12582.0,-78324.0,25779.0,12592.0,-355.0,1352.0,-62803.0,0.0,-25560.0,-21684.0,-20001.0,-21699.0,477.0,-920.0,-2269.0,0.0,-4504.0,-328.0,139.0,-1056.0,50.0,159.0,-45.0,0.0,-790.0,-278.0,506.0,-370.0,-49.0,-160.0,45.0,0.0,-127.0,166.0,629.0,-686.0,-0.013533,-0.043248,0.012405,0.0,-0.028941,-0.010194,-0.018551,-0.01357,-0.013527,-0.043406,0.01233,0.0,-0.004651,0.006086,-0.02302,-0.025108,4111.560059,11454.120117,51480.542969,0.0,-18059.310547,-17670.599609,17995.501953,-17366.939453,4117.950195,11451.150391,51494.128906,0.0,17326.080078,17682.660156,-17363.96875,18045.269531,0.0,0.0,0.0,0.0,0.0,0.0,0.0,0.0,0.0,0.0,0.0,0.0,0.0,0.0,0.0,0.0,0.0,0.0,0.0,0.0,0.0,0.0,0.0,0.0,0.0,0.0,0.0,0.0,0.0,0.0,0.0,0.0,4111.510742,11454.055664,51480.675781,0.0,-18059.3125,-17670.605469,17995.488281,-17366.943359,4117.947266,11451.048828,51494.234375,0.0,17326.083984,17682.666016,-17364.070312,18045.166016,30.188131,89.864075,22.887955,0.0,-66.819054,3.136837,31.425308,38.475544,30.23539,89.832458,22.894123,0.0,-69.951393,-2.315206,38.903835,36.841183,1.22,1.322,-45329.0,-128620.0,-509203.0,0.0,175099.0,174656.0,-179949.0,171267.0,-45278.0,-128155.0,-574426.0,0.0,-197016.0,-196802.0,192794.0,-201559.0,0.0,0.0,0.0,0.0,0.0,0.0,0.0,0.0,0.0,0.0,0.0,0.0,0.0,0.0,0.0,0.0,0.0,0.0,0.0,0.0,0.0,0.0,0.0,0.0
48,3.6535520553588867,30.188498,89.864555,22.887888,0.0,-66.818726,3.137392,31.426306,38.47625,30.235413,89.83329,22.894068,0.0,-69.951912,-2.315818,38.915421,36.852276,3.0,1.0,111.0,0.0,1.0,-78590.0,-25294.0,12582.0,-78324.0,25779.0,12592.0,-0.941477,0.226305,0.249813,-0.327942,-0.786316,-0.523604,0.077938,-0.574885,0.814514,-0.947576,0.312577,-0.066294,0.298123,0.939519,0.168602,0.114985,0.14,-0.983452,-0.941477,0.226305,0.249813,-0.327942,-0.786316,-0.523604,0.077938,-0.574885,0.814514,-0.947576,0.312577,-0.066294,0.298123,0.939519,0.168602,0.114985,0.14,-0.983452,-78590.0,-25294.0,12582.0,-78324.0,25779.0,12592.0,-355.0,1352.0,-62803.0,0.0,-25560.0,-21684.0,-20001.0,-21699.0,477.0,-920.0,-2269.0,0.0,-4504.0,-328.0,139.0,-1056.0,50.0,159.0,-45.0,0.0,-790.0,-278.0,506.0,-370.0,-49.0,-160.0,45.0,0.0,-127.0,166.0,629.0,-686.0,-0.013533,-0.043248,0.012405,0.0,-0.028941,-0.010194,-0.018552,-0.01357,-0.013527,-0.043406,0.01233,0.0,-0.004651,0.006086,-0.023027,-0.025116,4111.560059,11454.120117,51480.542969,0.0,-18059.310547,-17670.599609,17995.501953,-17366.939453,4117.950195,11451.150391,51494.128906,0.0,17326.080078,17682.660156,-17363.96875,18045.269531,0.0,0.0,0.0,0.0,0.0,0.0,0.0,0.0,0.0,0.0,0.0,0.0,0.0,0.0,0.0,0.0,0.0,0.0,0.0,0.0,0.0,0.0,0.0,0.0,0.0,0.0,0.0,0.0,0.0,0.0,0.0,0.0,4111.510742,11454.055664,51480.675781,0.0,-18059.3125,-17670.605469,17995.488281,-17366.943359,4117.947266,11451.048828,51494.234375,0.0,17326.083984,17682.666016,-17364.070312,18045.166016,30.188131,89.864075,22.887955,0.0,-66.819054,3.136837,31.425308,38.475544,30.23539,89.832458,22.894123,0.0,-69.951393,-2.315206,38.903835,36.841183,1.22,1.322,-45329.0,-128620.0,-509203.0,0.0,175099.0,174656.0,-179949.0,171267.0,-45278.0,-128155.0,-574426.0,0.0,-197016.0,-196802.0,192794.0,-201559.0,0.0,0.0,0.0,0.0,0.0,0.0,0.0,0.0,0.0,0.0,0.0,0.0,0.0,0.0,0.0,0.0,0.0,0.0,0.0,0.0,0.0,0.0,0.0,0.0
49,3.7265501022338867,30.238716,89.857254,22.887554,0.0,-66.818726,3.137392,31.426306,38.47625,30.235413,89.83329,22.894068,0.0,-69.951912,-2.315818,38.915421,36.852276,3.0,1.0,111.0,0.0,1.0,-78575.0,-25364.0,12575.0,-78324.0,25779.0,12592.0,-0.941206,0.227008,0.250197,-0.328744,-0.786067,-0.523475,0.077839,-0.574949,0.814478,-0.947576,0.312577,-0.066294,0.298123,0.939519,0.168602,0.114985,0.14,-0.983452,-0.941217,0.226981,0.250182,-0.328712,-0.786077,-0.52348,0.077842,-0.574946,0.81448,-0.947576,0.312577,-0.066294,0.298123,0.939519,0.168602,0.114985,0.14,-0.983452,-78576.0,-25361.0,12575.0,-78324.0,25779.0,12592.0,-431.0,1352.0,-62803.0,0.0,-25560.0,-21684.0,-20001.0,-21699.0,477.0,-920.0,-2269.0,0.0,-4504.0,-328.0,139.0,-1056.0,-183.0,124.0,14.0,0.0,-790.0,-278.0,507.0,-370.0,-49.0,-160.0,45.0,0.0,-127.0,166.0,629.0,-686.0,0.049727,-0.033566,-0.004032,0.0,-0.028942,-0.010194,-0.018552,-0.013571,-0.013527,-0.043406,0.01233,0.0,-0.004651,0.006087,-0.023033,-0.025122,4118.399902,11454.120117,51480.542969,0.0,-18059.310547,-17670.599609,17995.501953,-17366.939453,4117.950195,11451.150391,51494.128906,0.0,17326.080078,17682.660156,-17363.96875,18045.269531,269.71051,0.0,0.0,0.0,0.0,0.0,0.0,0.0,0.0,0.0,0.0,0.0,0.0,0.0,0.0,0.0,1.980308,-0.288036,-0.013115,0.0,0.0,0.0,0.0,0.0,0.0,0.0,0.0,0.0,0.0,0.0,0.0,0.0,4137.673828,11455.907227,51474.398438,0.0,-18059.3125,-17670.605469,17995.488281,-17366.943359,4117.947266,11451.048828,51494.234375,0.0,17326.083984,17682.666016,-17364.070312,18045.166016,30.38023,89.851372,22.883652,0.0,-66.819054,3.136837,31.425308,38.475544,30.23539,89.832458,22.894123,0.0,-69.951393,-2.315206,38.903835,36.841183,1.22,1.322,-45329.0,-128620.0,-509203.0,0.0,175099.0,174656.0,-179949.0,171267.0,-45278.0,-128155.0,-574426.0,0.0,-197016.0,-196802.0,192794.0,-201559.0,-0.002395,7e-06,0.069354,0.074919,0.031816,-0.040723,0.0,0.0,0.0,0.0,0.0,0.0,-0.002395,7e-06,0.069354,0.074919,0.031816,-0.040723,0.0,0.0,0.0,0.0,0.0,0.0
50,3.82757306098938,30.597536,89.770996,22.884369,0.0,-67.168091,3.027915,31.570494,38.332058,30.235413,89.83329,22.894068,0.0,-69.951912,-2.315818,38.915421,36.852276,3.0,1.0,111.0,0.0,1.0,-78480.0,-25874.0,12506.0,-78324.0,25779.0,12592.0,-0.939255,0.231546,0.253352,-0.333822,-0.787863,-0.517528,0.079775,-0.570664,0.817299,-0.947576,0.312577,-0.066294,0.298123,0.939519,0.168602,0.114985,0.14,-0.983452,-0.939275,0.231536,0.253284,-0.333783,-0.787813,-0.517629,0.079691,-0.570738,0.817256,-0.947576,0.312577,-0.066294,0.298123,0.939519,0.168602,0.114985,0.14,-0.983452,-78481.0,-25867.0,12507.0,-78324.0,25779.0,12592.0,-974.0,1398.0,-62777.0,0.0,-25572.0,-21686.0,-20001.0,-21699.0,477.0,-920.0,-2269.0,0.0,-4504.0,-328.0,139.0,-1056.0,-76.0,477.0,26.0,0.0,-708.0,-254.0,526.0,-351.0,-49.0,-160.0,45.0,0.0,-127.0,166.0,629.0,-686.0,0.020715,-0.129321,-0.007139,0.0,-0.025938,-0.009317,-0.019268,-0.012856,-0.013527,-0.043406,0.01233,0.0,-0.004651,0.006087,-0.023042,-0.025132,4167.27002,11449.980469,51478.203125,0.0,-18060.390625,-17670.78125,17995.501953,-17366.939453,4117.950195,11451.150391,51494.128906,0.0,17326.080078,17682.660156,-17363.96875,18045.269531,629.907288,-90.04921,-90.92347,0.0,0.0,0.0,0.0,0.0,0.0,0.0,0.0,0.0,0.0,0.0,0.0,0.0,4.624997,-1.413717,-0.066765,0.0,-5.793905,-3.476343,5.214514,-5.214514,0.0,0.0,0.0,0.0,0.0,0.0,0.0,0.0,4190.958008,11431.082031,51463.605469,0.0,-18058.507812,-17669.800781,17994.685547,-17366.138672,4117.947266,11451.048828,51494.234375,0.0,17326.083984,17682.666016,-17364.070312,18045.166016,30.771463,89.590187,22.87771,0.0,-66.819054,3.136837,31.425308,38.475544,30.23539,89.832458,22.894123,0.0,-69.951393,-2.315206,38.903835,36.841183,1.22,1.322,-45329.0,-128620.0,-509203.0,0.0,175099.0,174656.0,-179949.0,171267.0,-45278.0,-128155.0,-574426.0,0.0,-197016.0,-196802.0,192794.0,-201559.0,-0.005564,-0.060641,0.162607,0.141204,0.035954,0.089755,0.0,0.0,0.0,0.0,0.0,0.0,-0.005564,-0.060641,0.162607,0.141204,0.035954,0.089755,0.0,0.0,0.0,0.0,0.0,0.0
